/JOB
//NAME AAA
//POS
///NPOS 23,0,0,0,0,0
C00000=56294,60272,-28990,-34027,74416,26562
C00001=56294,60272,-28990,-34027,74416,26562
C00002=56294,60272,-28990,-34027,74416,26562
C00003=52686,65190,-18176,-32168,70728,27157
C00004=52686,65190,-18176,-32168,70728,27157
C00005=52686,65190,-18176,-32168,70728,27157
C00006=35534,45239,-41253,-24896,72075,5056
C00007=35534,45239,-41253,-24896,72075,5056
C00008=35534,45239,-41253,-24896,72075,5056
C00009=38446,39478,-52203,-26506,75311,4725
C00010=38446,39478,-52203,-26506,75311,4725
C00011=38446,39478,-52203,-26506,75311,4725
C00012=15717,44744,-63840,-15647,83201,-19220
C00013=15717,44744,-63840,-15647,83201,-19220
C00014=15717,44744,-63840,-15647,83201,-19220
C00015=14386,49709,-52540,-14882,79253,-18797
C00016=14386,49709,-52540,-14882,79253,-18797
C00017=14386,49709,-52540,-14882,79253,-18797
C00018=35534,45239,-41253,-24896,72075,5056
C00019=35534,45239,-41253,-24896,72075,5056
C00020=35534,45239,-41253,-24896,72075,5056
C00021=38446,39478,-52203,-26506,75311,4725
C00022=38446,39478,-52203,-26506,75311,4725
//INST
///DATE 2023/02/27 14:34
///ATTR SC,RW
///GROUP1 RB2
NOP
MOVL C00000 V=30.0
MOVL C00001 V=30.0
MOVL C00002 V=30.0
MOVL C00003 V=30.0
MOVL C00004 V=30.0
MOVL C00005 V=30.0
MOVL C00006 V=30.0
MOVL C00007 V=30.0
MOVL C00008 V=30.0
MOVL C00009 V=30.0
MOVL C00010 V=30.0
MOVL C00011 V=30.0
MOVL C00012 V=30.0
MOVL C00013 V=30.0
MOVL C00014 V=30.0
MOVL C00015 V=30.0
MOVL C00016 V=30.0
MOVL C00017 V=30.0
MOVL C00018 V=30.0
MOVL C00019 V=30.0
MOVL C00020 V=30.0
MOVL C00021 V=30.0
MOVL C00022 V=30.0
END
