/JOB
//NAME AAA
//POS
///NPOS 606,0,606,0,0,0
C00000=33850,81046,33405,59536,6326,-31984
C00001=34096,80976,33400,59820,6003,-31909
C00002=34342,80910,33394,60099,5676,-31833
C00003=34588,80847,33387,60374,5347,-31756
C00004=34833,80788,33379,60645,5014,-31678
C00005=35077,80732,33370,60911,4677,-31599
C00006=35406,80288,32947,61523,3865,-31404
C00007=35650,80244,32940,61775,3518,-31321
C00008=35893,80204,32933,62021,3169,-31237
C00009=36136,80168,32926,62263,2816,-31152
C00010=36379,80136,32920,62501,2459,-31066
C00011=36621,80109,32914,62734,2100,-30979
C00012=36946,79728,32526,63274,1238,-30764
C00013=37187,79715,32525,63493,869,-30672
C00014=37427,79706,32526,63707,496,-30580
C00015=37667,79702,32528,63917,121,-30486
C00016=37905,79704,32532,64123,-257,-30390
C00017=38144,79710,32537,64325,-639,-30294
C00018=38465,79404,32204,64796,-1545,-30055
C00019=38702,79426,32218,64985,-1934,-29953
C00020=38939,79454,32235,65169,-2327,-29850
C00021=39175,79487,32254,65350,-2721,-29746
C00022=39410,79526,32276,65528,-3118,-29639
C00023=39645,79571,32300,65701,-3517,-29531
C00024=39962,79351,32036,66113,-4456,-29266
C00025=40196,79414,32072,66276,-4861,-29153
C00026=40429,79483,32111,66436,-5267,-29037
C00027=40662,79557,32153,66593,-5674,-28920
C00028=40895,79638,32198,66748,-6082,-28801
C00029=41127,79724,32246,66900,-6492,-28681
C00030=41442,79600,32062,67269,-7444,-28386
C00031=41674,79706,32122,67415,-7854,-28260
C00032=41906,79818,32185,67559,-8263,-28131
C00033=42139,79936,32251,67702,-8672,-28000
C00034=42371,80060,32319,67844,-9080,-27867
C00035=42604,80189,32389,67986,-9487,-27733
C00036=42919,80163,32283,68336,-10424,-27408
C00037=43153,80311,32363,68476,-10825,-27267
C00038=43387,80466,32446,68617,-11224,-27125
C00039=43538,80765,32695,68549,-11098,-27175
C00040=43688,81066,32948,68480,-10974,-27224
C00041=43838,81369,33205,68411,-10849,-27274
C00042=43988,81673,33465,68342,-10725,-27324
C00043=44137,81978,33730,68272,-10601,-27373
C00044=44285,82285,33999,68203,-10477,-27422
C00045=44433,82593,34271,68133,-10354,-27472
C00046=44581,82902,34548,68063,-10231,-27521
C00047=44728,83212,34829,67993,-10109,-27570
C00048=44875,83524,35114,67922,-9988,-27619
C00049=45022,83837,35402,67852,-9866,-27667
C00050=45168,84151,35695,67781,-9746,-27716
C00051=45313,84466,35992,67710,-9626,-27765
C00052=45459,84783,36293,67638,-9507,-27813
C00053=45604,85100,36599,67567,-9388,-27861
C00054=45748,85419,36908,67495,-9270,-27910
C00055=45893,85737,37219,67423,-9153,-27957
C00056=46117,85892,37416,67539,-9628,-27822
C00057=46343,86051,37614,67656,-10100,-27684
C00058=46570,86215,37812,67773,-10569,-27542
C00059=46881,86251,37925,68083,-11597,-27201
C00060=47112,86429,38127,68199,-12063,-27050
C00061=47344,86613,38326,68322,-12511,-26896
C00062=47578,86801,38523,68447,-12952,-26740
C00063=47814,86992,38716,68575,-13386,-26581
C00064=48052,87187,38905,68707,-13813,-26420
C00065=48293,87385,39090,68843,-14230,-26255
C00066=48627,87504,39215,69196,-15150,-25871
C00067=48873,87712,39387,69346,-15539,-25700
C00068=49122,87921,39552,69501,-15918,-25527
C00069=49373,88132,39707,69662,-16286,-25353
C00070=49627,88343,39854,69828,-16643,-25177
C00071=49883,88555,39990,70000,-16989,-25000
C00072=50242,88719,40059,70428,-17756,-24591
C00073=50503,88934,40168,70618,-18067,-24411
C00074=50767,89149,40265,70813,-18366,-24229
C00075=51033,89362,40349,71014,-18654,-24047
C00076=51300,89573,40419,71221,-18930,-23865
C00077=51569,89784,40475,71433,-19195,-23682
C00078=51947,89963,40437,71940,-19799,-23264
C00079=52219,90170,40459,72167,-20031,-23080
C00080=52492,90375,40465,72399,-20253,-22897
C00081=52766,90577,40456,72635,-20465,-22714
C00082=53040,90777,40433,72874,-20667,-22530
C00083=53314,90974,40394,73118,-20859,-22347
C00084=53698,91147,40227,73685,-21322,-21930
C00085=53972,91339,40153,73938,-21489,-21747
C00086=54246,91527,40063,74194,-21648,-21566
C00087=54519,91712,39959,74452,-21800,-21384
C00088=54791,91894,39840,74712,-21945,-21203
C00089=55062,92074,39707,74973,-22083,-21023
C00090=55439,92232,39415,75578,-22439,-20610
C00091=55707,92404,39248,75845,-22559,-20431
C00092=55973,92574,39068,76112,-22674,-20252
C00093=56238,92740,38875,76379,-22784,-20074
C00094=56571,92667,38446,76625,-23003,-19882
C00095=56733,92387,37772,76734,-22183,-19949
C00096=56781,92059,36854,77101,-20447,-20016
C00097=56940,91797,36180,77240,-19625,-20049
C00098=57098,91541,35504,77388,-18805,-20071
C00099=57256,91291,34828,77545,-17987,-20082
C00100=57412,91046,34150,77711,-17175,-20083
C00101=57568,90806,33472,77885,-16369,-20073
C00102=57620,90551,32586,78372,-14724,-19989
C00103=57776,90324,31909,78570,-13946,-19950
C00104=57933,90099,31231,78776,-13183,-19902
C00105=58089,89878,30553,78989,-12433,-19844
C00106=58246,89659,29873,79210,-11698,-19779
C00107=58403,89442,29191,79438,-10978,-19705
C00108=58561,89227,28508,79674,-10274,-19624
C00109=58638,89014,27646,80271,-8876,-19403
C00110=58800,88801,26960,80526,-8228,-19300
C00111=58964,88590,26272,80789,-7599,-19192
C00112=59128,88378,25581,81058,-6990,-19078
C00113=59294,88166,24887,81334,-6401,-18958
C00114=59461,87954,24191,81617,-5834,-18833
C00115=59576,87744,23328,82298,-4726,-18532
C00116=59750,87529,22624,82598,-4224,-18393
C00117=59925,87312,21916,82905,-3744,-18251
C00118=60103,87094,21205,83217,-3287,-18106
C00119=60282,86875,20489,83535,-2852,-17957
C00120=60462,86653,19770,83859,-2439,-17805
C00121=60620,86427,18884,84611,-1647,-17454
C00122=60808,86200,18154,84949,-1304,-17295
C00123=60998,85970,17419,85291,-983,-17133
C00124=61190,85739,16679,85638,-685,-16970
C00125=61383,85505,15935,85989,-411,-16805
C00126=61579,85269,15186,86343,-159,-16638
C00127=61781,85018,14261,87147,316,-16261
C00128=61984,84776,13500,87511,500,-16091
C00129=62188,84531,12733,87878,660,-15920
C00130=62393,84285,11962,88247,798,-15749
C00131=62600,84036,11185,88619,914,-15576
C00132=62809,83786,10404,88992,1006,-15404
C00133=63053,83509,9431,89823,1175,-15017
C00134=63267,83253,8637,90200,1202,-14844
C00135=63483,82996,7837,90577,1208,-14670
C00136=63700,82736,7033,90954,1191,-14496
C00137=63918,82476,6224,91332,1153,-14323
C00138=64137,82214,5411,91709,1093,-14150
C00139=64417,81920,4387,92542,970,-13764
C00140=64640,81655,3561,92916,849,-13591
C00141=64864,81390,2731,93288,707,-13419
C00142=65088,81124,1897,93659,544,-13248
C00143=65312,80858,1059,94027,361,-13077
C00144=65537,80592,218,94393,158,-12906
C00145=65844,80292,-853,95200,-238,-12528
C00146=65876,79840,-1557,95704,205,-12292
C00147=65826,79409,-2044,95768,832,-12262
C00148=65772,78979,-2531,95835,1459,-12231
C00149=65714,78551,-3017,95906,2088,-12197
C00150=65654,78124,-3502,95979,2718,-12163
C00151=65589,77699,-3986,96055,3349,-12126
C00152=65320,77343,-4367,96247,4763,-12024
C00153=65248,76925,-4847,96330,5395,-11982
C00154=65172,76508,-5325,96417,6029,-11939
C00155=65093,76094,-5802,96507,6664,-11894
C00156=65010,75680,-6277,96600,7299,-11847
C00157=64924,75269,-6751,96696,7935,-11799
C00158=64633,74954,-7101,96910,9349,-11671
C00159=64538,74550,-7570,97013,9987,-11618
C00160=64441,74148,-8038,97121,10625,-11563
C00161=64323,73677,-8633,97300,11389,-11474
C00162=64198,73203,-9232,97488,12166,-11382
C00163=64065,72732,-9823,97678,12945,-11288
C00164=63708,72332,-10352,98032,14600,-11079
C00165=63560,71873,-10919,98223,15382,-10982
C00166=63405,71418,-11478,98415,16166,-10885
C00167=63243,70967,-12027,98609,16951,-10787
C00168=63074,70520,-12568,98804,17739,-10687
C00169=62898,70077,-13099,98999,18528,-10587
C00170=62490,69742,-13521,99343,20191,-10364
C00171=62298,69314,-14026,99539,20984,-10261
C00172=62099,68890,-14522,99735,21779,-10158
C00173=61894,68472,-15007,99931,22577,-10053
C00174=61681,68059,-15483,100128,23376,-9948
C00175=61461,67651,-15948,100326,24178,-9843
C00176=61004,67388,-16260,100652,25850,-9606
C00177=60768,66998,-16698,100847,26657,-9498
C00178=60526,66613,-17125,101042,27466,-9390
C00179=60277,66234,-17541,101237,28277,-9280
C00180=60020,65862,-17946,101432,29090,-9170
C00181=59757,65496,-18339,101626,29906,-9059
C00182=59487,65137,-18722,101819,30724,-8948
C00183=58976,64968,-18903,102116,32412,-8700
C00184=58692,64629,-19256,102304,33235,-8587
C00185=58639,64102,-19800,102392,33193,-8611
C00186=58586,63574,-20341,102479,33151,-8635
C00187=58534,63045,-20878,102565,33109,-8659
C00188=58482,62516,-21412,102651,33067,-8683
C00189=58430,61986,-21944,102735,33025,-8707
C00190=58378,61455,-22472,102819,32983,-8731
C00191=58327,60924,-22997,102903,32941,-8755
C00192=58276,60392,-23519,102985,32899,-8779
C00193=58226,59859,-24039,103067,32857,-8804
C00194=58176,59326,-24555,103149,32815,-8828
C00195=58126,58792,-25068,103229,32773,-8852
C00196=58077,58257,-25578,103309,32731,-8877
C00197=58028,57721,-26085,103388,32689,-8901
C00198=57979,57185,-26589,103466,32647,-8926
C00199=57931,56647,-27090,103544,32605,-8950
C00200=57883,56110,-27588,103621,32563,-8975
C00201=57835,55572,-28081,103697,32521,-8999
C00202=57558,55232,-28353,103851,33347,-8891
C00203=57275,54899,-28613,104002,34176,-8784
C00204=56985,54575,-28861,104151,35008,-8675
C00205=56688,54260,-29097,104297,35843,-8567
C00206=56160,54179,-29079,104495,37547,-8325
C00207=55850,53887,-29287,104631,38388,-8216
C00208=55533,53605,-29482,104764,39232,-8106
C00209=55210,53332,-29666,104893,40079,-7996
C00210=54853,53042,-29859,105025,40973,-7883
C00211=54334,52611,-30157,105190,42116,-7747
C00212=53456,52340,-30265,105416,44331,-7452
C00213=52923,51952,-30527,105581,45473,-7310
C00214=52382,51580,-30774,105746,46617,-7165
C00215=51835,51225,-31006,105912,47761,-7018
C00216=51280,50887,-31223,106078,48906,-6869
C00217=50719,50566,-31425,106245,50051,-6717
C00218=49813,50472,-31400,106461,52250,-6395
C00219=49240,50196,-31566,106626,53395,-6238
C00220=48662,49939,-31716,106791,54540,-6078
C00221=48078,49700,-31852,106956,55685,-5916
C00222=47489,49479,-31972,107119,56830,-5752
C00223=46895,49277,-32077,107283,57976,-5586
C00224=45977,49366,-31921,107485,60155,-5241
C00225=45376,49212,-31990,107645,61298,-5070
C00226=44771,49076,-32044,107803,62441,-4897
C00227=44162,48961,-32082,107960,63584,-4722
C00228=43550,48865,-32105,108116,64727,-4545
C00229=42935,48788,-32113,108270,65869,-4367
C00230=42022,49062,-31832,108451,68025,-4005
C00231=41405,49035,-31805,108599,69163,-3822
C00232=40785,49027,-31763,108744,70301,-3638
C00233=40165,49040,-31706,108887,71439,-3453
C00234=39542,49073,-31634,109026,72576,-3266
C00235=38919,49126,-31547,109163,73711,-3078
C00236=38029,49583,-31148,109314,75841,-2707
C00237=37409,49686,-31028,109441,76974,-2517
C00238=36788,49809,-30893,109564,78105,-2326
C00239=36169,49952,-30744,109683,79235,-2135
C00240=35899,50206,-30374,109616,80309,-1989
C00241=36147,50127,-30144,109396,80353,-2059
C00242=36394,50048,-29913,109176,80397,-2130
C00243=36639,49969,-29681,108956,80439,-2201
C00244=36883,49892,-29447,108735,80481,-2271
C00245=37197,49733,-29538,108641,79799,-2411
C00246=37519,49601,-29624,108551,79112,-2546
C00247=37841,49478,-29704,108461,78424,-2681
C00248=38163,49363,-29779,108369,77735,-2815
C00249=38484,49257,-29847,108277,77046,-2947
C00250=38804,49160,-29910,108185,76357,-3079
C00251=39147,48698,-30204,108085,75043,-3351
C00252=39468,48620,-30255,107993,74352,-3481
C00253=39787,48551,-30300,107901,73660,-3609
C00254=40106,48490,-30339,107808,72969,-3736
C00255=40423,48437,-30373,107716,72277,-3863
C00256=40739,48393,-30402,107623,71584,-3988
C00257=41095,47995,-30664,107530,70256,-4250
C00258=41411,47970,-30682,107439,69561,-4372
C00259=41725,47953,-30693,107348,68867,-4493
C00260=42038,47945,-30699,107257,68172,-4613
C00261=42349,47944,-30700,107167,67477,-4732
C00262=42658,47952,-30695,107077,66782,-4849
C00263=43024,47617,-30929,106994,65438,-5099
C00264=43332,47644,-30914,106906,64740,-5213
C00265=43638,47678,-30893,106819,64043,-5326
C00266=43942,47720,-30868,106732,63346,-5438
C00267=44245,47770,-30836,106646,62648,-5548
C00268=44545,47828,-30800,106561,61951,-5658
C00269=44919,47557,-31007,106489,60591,-5894
C00270=45216,47632,-30960,106406,59892,-6000
C00271=45512,47716,-30909,106324,59193,-6104
C00272=45805,47807,-30852,106242,58493,-6208
C00273=46096,47906,-30790,106161,57794,-6310
C00274=46384,48012,-30723,106081,57096,-6411
C00275=46670,48126,-30651,106002,56397,-6510
C00276=47048,47927,-30827,105943,55020,-6730
C00277=47331,48058,-30746,105866,54320,-6826
C00278=47611,48197,-30659,105790,53621,-6921
C00279=47888,48342,-30567,105715,52921,-7015
C00280=48162,48495,-30471,105641,52222,-7107
C00281=48434,48655,-30369,105567,51524,-7198
C00282=48814,48519,-30520,105517,50132,-7404
C00283=49082,48695,-30409,105446,49433,-7492
C00284=49235,49172,-30038,105351,49430,-7465
C00285=49387,49648,-29664,105256,49429,-7439
C00286=49540,50123,-29287,105160,49429,-7413
C00287=49692,50598,-28907,105063,49429,-7387
C00288=49843,51072,-28525,104965,49431,-7361
C00289=49995,51546,-28140,104867,49433,-7335
C00290=50146,52019,-27752,104768,49437,-7309
C00291=50297,52491,-27361,104668,49442,-7283
C00292=50447,52963,-26968,104567,49447,-7257
C00293=50598,53434,-26572,104465,49454,-7231
C00294=50748,53904,-26174,104363,49462,-7206
C00295=50898,54374,-25773,104259,49470,-7180
C00296=51047,54842,-25370,104155,49480,-7154
C00297=51196,55310,-24964,104051,49490,-7128
C00298=51345,55778,-24555,103945,49502,-7102
C00299=51494,56244,-24145,103839,49514,-7076
C00300=51642,56709,-23732,103732,49528,-7051
C00301=51936,56865,-23604,103629,48825,-7148
C00302=52227,57028,-23471,103527,48122,-7244
C00303=52515,57197,-23333,103426,47421,-7339
C00304=52799,57372,-23190,103327,46719,-7432
C00305=53241,57254,-23330,103232,45290,-7643
C00306=53520,57445,-23176,103135,44589,-7732
C00307=53795,57642,-23018,103040,43888,-7821
C00308=54068,57845,-22854,102946,43188,-7907
C00309=54337,58054,-22686,102854,42489,-7993
C00310=54602,58269,-22514,102763,41791,-8077
C00311=55037,58212,-22619,102673,40350,-8272
C00312=55296,58442,-22437,102585,39652,-8353
C00313=55552,58677,-22249,102498,38955,-8432
C00314=55804,58918,-22057,102412,38259,-8510
C00315=56052,59164,-21861,102328,37563,-8587
C00316=56296,59416,-21661,102245,36869,-8662
C00317=56722,59419,-21731,102160,35419,-8840
C00318=56959,59685,-21521,102079,34725,-8912
C00319=57193,59956,-21306,102000,34032,-8983
C00320=57424,60232,-21087,101923,33340,-9052
C00321=57650,60513,-20864,101847,32650,-9120
C00322=57872,60799,-20637,101772,31960,-9187
C00323=58285,60862,-20671,101687,30503,-9348
C00324=58500,61161,-20434,101615,29815,-9411
C00325=58711,61465,-20193,101544,29127,-9473
C00326=58918,61774,-19948,101474,28441,-9534
C00327=59122,62086,-19699,101406,27755,-9594
C00328=59321,62404,-19446,101339,27071,-9652
C00329=59717,62526,-19442,101253,25611,-9797
C00330=59909,62856,-19179,101188,24928,-9851
C00331=60096,63190,-18913,101125,24246,-9905
C00332=60279,63529,-18642,101062,23566,-9958
C00333=60458,63871,-18368,101002,22887,-10009
C00334=60634,64217,-18090,100942,22209,-10059
C00335=60805,64568,-17809,100884,21532,-10108
C00336=61178,64756,-17758,100796,20070,-10233
C00337=61341,65118,-17466,100739,19396,-10279
C00338=61499,65484,-17171,100684,18722,-10323
C00339=61641,65740,-16795,100635,18030,-10364
C00340=61478,66092,-15947,100138,18286,-10530
C00341=61315,66443,-15104,99639,18520,-10697
C00342=61082,66823,-14107,98648,18843,-11071
C00343=60923,67167,-13284,98148,19010,-11241
C00344=60763,67510,-12467,97649,19154,-11413
C00345=60604,67850,-11656,97150,19276,-11584
C00346=60446,68188,-10852,96652,19374,-11757
C00347=60288,68522,-10054,96156,19449,-11931
C00348=60092,68860,-9147,95177,19464,-12319
C00349=59940,69185,-8369,94688,19472,-12494
C00350=59789,69507,-7598,94202,19456,-12670
C00351=59639,69826,-6832,93720,19417,-12846
C00352=59490,70141,-6074,93242,19354,-13022
C00353=59342,70453,-5322,92768,19269,-13199
C00354=59188,70739,-4501,91837,18971,-13593
C00355=59047,71039,-3768,91379,18817,-13770
C00356=58907,71336,-3041,90926,18641,-13946
C00357=58769,71628,-2320,90480,18442,-14121
C00358=58633,71917,-1606,90041,18219,-14296
C00359=58497,72203,-897,89609,17975,-14471
C00360=58389,72435,-152,88759,17365,-14859
C00361=58261,72709,539,88349,17054,-15030
C00362=58135,72980,1225,87948,16720,-15200
C00363=58011,73247,1906,87556,16365,-15369
C00364=57888,73511,2580,87173,15988,-15535
C00365=57766,73771,3250,86799,15589,-15700
C00366=57705,73955,3930,86060,14678,-16066
C00367=57591,74206,4585,85715,14216,-16224
C00368=57478,74454,5235,85380,13735,-16379
C00369=57368,74700,5879,85056,13233,-16532
C00370=57258,74943,6519,84743,12711,-16681
C00371=57151,75184,7154,84441,12170,-16827
C00372=57134,75333,7784,83835,10979,-17150
C00373=57034,75568,8406,83566,10381,-17284
C00374=56935,75802,9024,83309,9767,-17414
C00375=56837,76035,9638,83064,9135,-17540
C00376=56740,76267,10248,82831,8488,-17660
C00377=56645,76498,10853,82610,7825,-17776
C00378=56551,76730,11454,82402,7146,-17886
C00379=56580,76865,12041,81966,5681,-18128
C00380=56492,77097,12632,81793,4961,-18220
C00381=56404,77330,13220,81633,4228,-18306
C00382=56317,77565,13804,81485,3484,-18385
C00383=56231,77801,14384,81350,2730,-18457
C00384=56146,78040,14961,81227,1967,-18522
C00385=56207,78196,15523,80946,334,-18666
C00386=56125,78442,16092,80859,-453,-18707
C00387=56043,78692,16657,80785,-1245,-18741
C00388=55961,78946,17219,80724,-2041,-18767
C00389=55879,79204,17777,80675,-2839,-18784
C00390=55796,79466,18331,80639,-3639,-18793
C00391=55842,79328,18719,80104,-5363,-19011
C00392=55562,79280,19092,79784,-5295,-19172
C00393=55279,79232,19459,79463,-5229,-19333
C00394=54993,79184,19818,79141,-5162,-19494
C00395=54705,79135,20169,78819,-5096,-19655
C00396=54413,79085,20514,78496,-5029,-19816
C00397=54018,79083,21017,77763,-4818,-20179
C00398=53720,79033,21343,77439,-4750,-20341
C00399=53420,78982,21661,77115,-4682,-20502
C00400=53117,78931,21971,76790,-4614,-20664
C00401=52812,78880,22273,76464,-4544,-20825
C00402=52504,78828,22567,76138,-4474,-20987
C00403=52089,78828,23006,75403,-4247,-21350
C00404=51776,78775,23279,75076,-4171,-21512
C00405=51461,78722,23544,74749,-4095,-21674
C00406=51144,78668,23799,74422,-4016,-21835
C00407=50825,78614,24046,74095,-3936,-21997
C00408=50504,78559,24283,73767,-3853,-22158
C00409=50181,78503,24511,73439,-3768,-22320
C00410=49749,78505,24864,72703,-3502,-22682
C00411=49423,78449,25069,72376,-3407,-22843
C00412=49095,78392,25264,72048,-3308,-23004
C00413=48766,78334,25449,71721,-3206,-23165
C00414=48435,78275,25624,71394,-3100,-23326
C00415=48104,78216,25789,71067,-2989,-23486
C00416=47663,78222,26062,70335,-2667,-23845
C00417=47330,78162,26202,70010,-2542,-24004
C00418=46996,78102,26332,69684,-2411,-24163
C00419=46661,78041,26451,69360,-2274,-24322
C00420=46326,77979,26559,69036,-2132,-24480
C00421=45991,77917,26657,68713,-1983,-24637
C00422=45549,77930,26846,67991,-1582,-24988
C00423=45215,77868,26918,67670,-1413,-25143
C00424=44880,77806,26980,67351,-1237,-25297
C00425=44546,77744,27031,67033,-1054,-25451
C00426=44213,77681,27072,66715,-864,-25603
C00427=43880,77618,27103,66399,-665,-25754
C00428=43446,77645,27211,65690,-167,-26091
C00429=43116,77584,27220,65377,53,-26238
C00430=42886,77432,27141,65458,-27,-26200
C00431=42655,77280,27064,65538,-108,-26162
C00432=42425,77130,26991,65619,-188,-26125
C00433=42194,76982,26920,65699,-268,-26087
C00434=41962,76835,26853,65780,-348,-26049
C00435=41731,76689,26788,65860,-428,-26011
C00436=41499,76544,26726,65940,-508,-25973
C00437=41267,76401,26666,66020,-588,-25935
C00438=41034,76260,26610,66100,-667,-25897
C00439=40802,76120,26557,66180,-747,-25859
C00440=40569,75981,26506,66260,-826,-25821
C00441=40335,75844,26459,66339,-905,-25783
C00442=40102,75708,26414,66419,-984,-25745
C00443=39868,75574,26372,66498,-1063,-25707
C00444=39634,75442,26333,66578,-1141,-25669
C00445=39399,75311,26298,66657,-1219,-25631
C00446=39165,75181,26264,66736,-1297,-25593
C00447=38836,75131,26345,66416,-1150,-25747
C00448=38508,75080,26418,66098,-997,-25900
C00449=38182,75030,26481,65780,-838,-26052
C00450=37856,74981,26537,65464,-674,-26203
C00451=37443,75023,26701,64753,-256,-26540
C00452=37120,74977,26739,64440,-74,-26688
C00453=36799,74932,26770,64128,113,-26835
C00454=36480,74889,26793,63817,305,-26980
C00455=36162,74846,26810,63507,503,-27124
C00456=35845,74806,26820,63198,707,-27267
C00457=35449,74880,26946,62497,1193,-27588
C00458=35137,74846,26945,62190,1410,-27727
C00459=34827,74815,26938,61884,1630,-27864
C00460=34518,74786,26926,61578,1855,-28000
C00461=34211,74760,26910,61273,2083,-28134
C00462=33905,74736,26889,60968,2314,-28267
C00463=33528,74852,26998,60267,2840,-28569
C00464=33227,74839,26971,59962,3086,-28697
C00465=32928,74827,26940,59657,3326,-28824
C00466=32630,74819,26906,59351,3568,-28950
C00467=32334,74813,26868,59045,3811,-29074
C00468=32040,74810,26827,58738,4055,-29197
C00469=31747,74811,26784,58430,4300,-29318
C00470=31392,74986,26892,57718,4852,-29597
C00471=31103,74997,26844,57407,5096,-29715
C00472=30816,75011,26794,57095,5341,-29830
C00473=30531,75028,26742,56782,5584,-29945
C00474=30247,75048,26687,56468,5827,-30059
C00475=29964,75072,26629,56153,6068,-30171
C00476=29626,75295,26742,55418,6607,-30433
C00477=29347,75328,26681,55097,6843,-30541
C00478=29070,75364,26617,54775,7077,-30649
C00479=28794,75402,26551,54451,7309,-30756
C00480=28520,75444,26482,54126,7538,-30861
C00481=28247,75488,26411,53798,7765,-30966
C00482=27924,75754,26524,53034,8273,-31213
C00483=27655,75806,26448,52701,8491,-31315
C00484=27387,75860,26369,52366,8706,-31416
C00485=27258,75725,26136,52013,8863,-31537
C00486=27404,75621,26040,52185,9563,-31325
C00487=27547,75516,25931,52341,10278,-31112
C00488=27765,75854,26260,52520,11908,-30684
C00489=27898,75743,26112,52628,12656,-30473
C00490=28027,75631,25950,52721,13415,-30263
C00491=28152,75517,25775,52800,14181,-30055
C00492=28273,75401,25587,52866,14956,-29848
C00493=28391,75284,25386,52920,15737,-29643
C00494=28559,75592,25555,52887,17451,-29226
C00495=28666,75470,25320,52902,18244,-29027
C00496=28769,75346,25073,52907,19041,-28830
C00497=28868,75222,24815,52901,19841,-28635
C00498=28963,75097,24546,52886,20643,-28444
C00499=29055,74972,24267,52860,21448,-28255
C00500=29176,75258,24305,52662,23167,-27866
C00501=29258,75130,23998,52608,23971,-27686
C00502=29336,75003,23683,52544,24777,-27509
C00503=29410,74875,23358,52473,25582,-27335
C00504=29481,74748,23026,52393,26387,-27164
C00505=29549,74622,22685,52306,27192,-26997
C00506=29632,74896,22618,51976,28873,-26648
C00507=29691,74772,22257,51862,29677,-26490
C00508=29747,74647,21888,51743,30475,-26336
C00509=29800,74523,21511,51617,31272,-26186
C00510=29850,74400,21128,51483,32068,-26041
C00511=29896,74278,20738,51343,32861,-25899
C00512=30061,74738,20820,50813,34534,-25596
C00513=30388,74571,20684,51247,34655,-25398
C00514=30716,74405,20538,51683,34779,-25200
C00515=31105,74213,20423,52579,34996,-24769
C00516=31435,74047,20255,53022,35121,-24570
C00517=31766,73881,20079,53468,35248,-24371
C00518=32098,73716,19894,53917,35375,-24172
C00519=32430,73551,19699,54369,35503,-23972
C00520=32763,73387,19496,54823,35632,-23772
C00521=33159,73190,19303,55747,35846,-23340
C00522=33493,73026,19079,56209,35975,-23139
C00523=33827,72863,18845,56674,36104,-22938
C00524=34161,72700,18603,57142,36233,-22738
C00525=34495,72537,18352,57613,36363,-22536
C00526=34828,72376,18093,58087,36492,-22335
C00527=35228,72175,17826,59042,36691,-21903
C00528=35561,72013,17547,59524,36817,-21702
C00529=35894,71853,17259,60010,36942,-21500
C00530=36226,71693,16964,60498,37066,-21299
C00531=36558,71534,16660,60989,37189,-21097
C00532=36888,71375,16349,61484,37311,-20895
C00533=37218,71218,16030,61982,37430,-20694
C00534=37616,71013,15682,62972,37596,-20264
C00535=37944,70856,15345,63478,37708,-20063
C00536=38271,70700,15000,63987,37818,-19861
C00537=38596,70545,14649,64498,37925,-19660
C00538=38921,70391,14290,65013,38030,-19459
C00539=39244,70239,13925,65530,38131,-19258
C00540=39637,70030,13513,66551,38250,-18832
C00541=39957,69879,13132,67075,38340,-18632
C00542=40275,69729,12744,67603,38426,-18431
C00543=40592,69580,12350,68133,38509,-18231
C00544=40907,69432,11950,68666,38586,-18031
C00545=41220,69286,11545,69202,38660,-17832
C00546=41607,69076,11075,70248,38717,-17412
C00547=41916,68931,10655,70790,38775,-17213
C00548=42223,68789,10230,71334,38828,-17015
C00549=42528,68648,9800,71880,38876,-16817
C00550=42831,68508,9364,72428,38918,-16619
C00551=43133,68369,8926,72978,38953,-16422
C00552=43357,68304,8560,73014,39025,-16442
C00553=43580,68242,8198,73048,39098,-16461
C00554=43804,68181,7838,73082,39170,-16481
C00555=44028,68122,7481,73115,39243,-16501
C00556=44253,68065,7126,73147,39316,-16521
C00557=44477,68010,6775,73178,39390,-16541
C00558=44703,67958,6427,73209,39464,-16560
C00559=44928,67907,6081,73238,39538,-16580
C00560=45154,67859,5739,73266,39612,-16600
C00561=45380,67813,5399,73294,39686,-16619
C00562=45606,67769,5063,73320,39761,-16639
C00563=45833,67728,4729,73346,39837,-16658
C00564=46060,67688,4399,73371,39912,-16678
C00565=46288,67651,4071,73394,39988,-16697
C00566=46516,67617,3747,73417,40064,-16717
C00567=46744,67584,3425,73439,40141,-16736
C00568=46971,67555,3106,73460,40219,-16755
C00569=47386,67337,2635,74516,40055,-16366
C00570=47705,67217,2233,75056,40003,-16182
C00571=48021,67100,1826,75598,39945,-15998
C00572=48336,66985,1416,76140,39881,-15815
C00573=48649,66873,1002,76683,39810,-15632
C00574=48959,66763,585,77227,39732,-15450
C00575=49371,66553,67,78290,39485,-15070
C00576=49678,66448,-361,78835,39387,-14890
C00577=49983,66346,-793,79381,39283,-14710
C00578=50285,66246,-1227,79927,39171,-14530
C00579=50585,66150,-1665,80473,39052,-14352
C00580=50883,66056,-2106,81019,38925,-14173
C00581=51289,65856,-2667,82082,38587,-13805
C00582=51582,65768,-3118,82627,38439,-13628
C00583=51873,65683,-3570,83173,38283,-13453
C00584=52161,65601,-4026,83718,38119,-13278
C00585=52447,65523,-4484,84263,37948,-13103
C00586=52729,65447,-4944,84808,37768,-12929
C00587=53128,65260,-5546,85863,37334,-12572
C00588=53406,65191,-6015,86405,37131,-12400
C00589=53680,65125,-6485,86947,36921,-12229
C00590=53952,65063,-6958,87487,36702,-12058
C00591=54221,65004,-7432,88027,36475,-11888
C00592=54487,64949,-7908,88565,36240,-11719
C00593=54750,64898,-8386,89102,35996,-11550
C00594=55136,64731,-9031,90140,35446,-11206
C00595=55392,64687,-9516,90673,35179,-11039
C00596=55646,64647,-10002,91205,34903,-10873
C00597=55896,64611,-10489,91735,34618,-10707
C00598=56142,64579,-10977,92263,34325,-10542
C00599=56385,64551,-11466,92789,34024,-10378
C00600=56758,64405,-12145,93806,33371,-10044
C00601=56994,64386,-12640,94326,33045,-9882
C00602=57226,64371,-13135,94845,32710,-9720
C00603=57455,64360,-13630,95362,32367,-9559
C00604=57679,64354,-14126,95876,32016,-9398
C00605=57899,64352,-14623,96388,31655,-9237
EC00000=-139076,207283
EC00001=-138543,208062
EC00002=-138002,208836
EC00003=-137455,209605
EC00004=-136900,210369
EC00005=-136339,211128
EC00006=-135291,212560
EC00007=-134709,213304
EC00008=-134120,214043
EC00009=-133524,214777
EC00010=-132921,215505
EC00011=-132312,216228
EC00012=-131163,217592
EC00013=-130533,218298
EC00014=-129896,218997
EC00015=-129253,219690
EC00016=-128603,220377
EC00017=-127947,221056
EC00018=-126702,222338
EC00019=-126027,222997
EC00020=-125346,223649
EC00021=-124658,224292
EC00022=-123965,224928
EC00023=-123267,225555
EC00024=-121935,226735
EC00025=-121220,227336
EC00026=-120500,227929
EC00027=-119775,228511
EC00028=-119046,229084
EC00029=-118313,229646
EC00030=-116914,230697
EC00031=-116170,231228
EC00032=-115423,231747
EC00033=-114674,232255
EC00034=-113924,232750
EC00035=-113171,233234
EC00036=-111738,234130
EC00037=-110983,234576
EC00038=-110229,235009
EC00039=-110153,235041
EC00040=-110074,235072
EC00041=-109992,235104
EC00042=-109907,235136
EC00043=-109819,235167
EC00044=-109727,235199
EC00045=-109632,235231
EC00046=-109534,235263
EC00047=-109432,235294
EC00048=-109327,235326
EC00049=-109218,235358
EC00050=-109105,235390
EC00051=-108988,235421
EC00052=-108868,235453
EC00053=-108744,235484
EC00054=-108615,235516
EC00055=-108485,235546
EC00056=-107543,236025
EC00057=-106601,236486
EC00058=-105660,236930
EC00059=-103925,237739
EC00060=-102976,238137
EC00061=-102049,238511
EC00062=-101127,238867
EC00063=-100213,239203
EC00064=-99309,239522
EC00065=-98414,239822
EC00066=-96766,240366
EC00067=-95906,240615
EC00068=-95061,240847
EC00069=-94232,241064
EC00070=-93420,241264
EC00071=-92626,241450
EC00072=-91171,241790
EC00073=-90431,241938
EC00074=-89711,242074
EC00075=-89012,242199
EC00076=-88335,242315
EC00077=-87679,242422
EC00078=-86471,242628
EC00079=-85876,242714
EC00080=-85301,242795
EC00081=-84748,242872
EC00082=-84216,242944
EC00083=-83705,243014
EC00084=-82742,243158
EC00085=-82285,243221
EC00086=-81847,243284
EC00087=-81427,243346
EC00088=-81025,243409
EC00089=-80640,243472
EC00090=-79884,243605
EC00091=-79543,243671
EC00092=-79217,243739
EC00093=-78905,243808
EC00094=-78707,243913
EC00095=-79959,244322
EC00096=-82191,245068
EC00097=-83392,245463
EC00098=-84574,245855
EC00099=-85735,246242
EC00100=-86873,246625
EC00101=-87989,247005
EC00102=-89910,247687
EC00103=-90953,248056
EC00104=-91966,248420
EC00105=-92952,248782
EC00106=-93911,249141
EC00107=-94842,249497
EC00108=-95745,249851
EC00109=-97236,250476
EC00110=-98055,250821
EC00111=-98847,251165
EC00112=-99611,251506
EC00113=-100347,251845
EC00114=-101056,252182
EC00115=-102170,252768
EC00116=-102800,253097
EC00117=-103405,253425
EC00118=-103983,253751
EC00119=-104537,254075
EC00120=-105066,254396
EC00121=-105839,254943
EC00122=-106298,255257
EC00123=-106734,255568
EC00124=-107148,255876
EC00125=-107539,256182
EC00126=-107909,256485
EC00127=-108388,256987
EC00128=-108698,257281
EC00129=-108988,257571
EC00130=-109258,257857
EC00131=-109509,258141
EC00132=-109741,258420
EC00133=-109971,258869
EC00134=-110152,259137
EC00135=-110316,259401
EC00136=-110464,259661
EC00137=-110596,259916
EC00138=-110712,260167
EC00139=-110730,260554
EC00140=-110803,260792
EC00141=-110861,261024
EC00142=-110906,261252
EC00143=-110936,261475
EC00144=-110954,261694
EC00145=-110795,262011
EC00146=-111258,262500
EC00147=-111894,262891
EC00148=-112529,263282
EC00149=-113163,263671
EC00150=-113796,264058
EC00151=-114427,264445
EC00152=-115526,265113
EC00153=-116153,265496
EC00154=-116778,265879
EC00155=-117402,266260
EC00156=-118025,266640
EC00157=-118646,267019
EC00158=-119722,267676
EC00159=-120338,268053
EC00160=-120953,268428
EC00161=-121685,268459
EC00162=-122424,268459
EC00163=-123161,268459
EC00164=-124430,268459
EC00165=-125158,268459
EC00166=-125883,268459
EC00167=-126605,268459
EC00168=-127325,268459
EC00169=-128042,268459
EC00170=-129275,268459
EC00171=-129984,268459
EC00172=-130691,268459
EC00173=-131395,268459
EC00174=-132096,268459
EC00175=-132795,268459
EC00176=-133997,268459
EC00177=-134690,268459
EC00178=-135380,268459
EC00179=-136068,268459
EC00180=-136753,268459
EC00181=-137436,268459
EC00182=-138117,268459
EC00183=-139288,268459
EC00184=-139963,268459
EC00185=-140146,268459
EC00186=-140329,268459
EC00187=-140512,268459
EC00188=-140694,268459
EC00189=-140875,268459
EC00190=-141057,268459
EC00191=-141237,268459
EC00192=-141418,268459
EC00193=-141598,268459
EC00194=-141778,268459
EC00195=-141957,268459
EC00196=-142136,268459
EC00197=-142314,268459
EC00198=-142493,268459
EC00199=-142671,268459
EC00200=-142849,268459
EC00201=-143026,268459
EC00202=-143715,268459
EC00203=-144403,268459
EC00204=-145090,268459
EC00205=-145775,268459
EC00206=-146963,268459
EC00207=-147644,268459
EC00208=-148323,268459
EC00209=-149000,268459
EC00210=-149573,268459
EC00211=-149573,268459
EC00212=-149573,268459
EC00213=-149573,268459
EC00214=-149573,268459
EC00215=-149573,268459
EC00216=-149573,268459
EC00217=-149573,268459
EC00218=-149573,268459
EC00219=-149573,268459
EC00220=-149573,268459
EC00221=-149573,268459
EC00222=-149573,268459
EC00223=-149573,268459
EC00224=-149573,268459
EC00225=-149573,268459
EC00226=-149573,268459
EC00227=-149573,268459
EC00228=-149573,268459
EC00229=-149573,268459
EC00230=-149573,268459
EC00231=-149573,268459
EC00232=-149573,268459
EC00233=-149573,268459
EC00234=-149573,268459
EC00235=-149573,268459
EC00236=-149573,268459
EC00237=-149573,268459
EC00238=-149573,268459
EC00239=-149573,268459
EC00240=-149486,268459
EC00241=-149329,268459
EC00242=-149171,268459
EC00243=-149013,268459
EC00244=-148854,268459
EC00245=-148314,268123
EC00246=-147771,267787
EC00247=-147227,267450
EC00248=-146683,267114
EC00249=-146137,266778
EC00250=-145592,266442
EC00251=-144656,265782
EC00252=-144109,265446
EC00253=-143562,265110
EC00254=-143014,264774
EC00255=-142465,264438
EC00256=-141916,264102
EC00257=-140978,263441
EC00258=-140427,263105
EC00259=-139876,262769
EC00260=-139324,262434
EC00261=-138772,262099
EC00262=-138219,261763
EC00263=-137276,261101
EC00264=-136721,260766
EC00265=-136166,260431
EC00266=-135610,260096
EC00267=-135053,259761
EC00268=-134496,259426
EC00269=-133546,258766
EC00270=-132987,258431
EC00271=-132427,258097
EC00272=-131866,257762
EC00273=-131305,257428
EC00274=-130743,257094
EC00275=-130181,256760
EC00276=-129220,256103
EC00277=-128655,255769
EC00278=-128090,255435
EC00279=-127524,255102
EC00280=-126957,254768
EC00281=-126390,254434
EC00282=-125418,253782
EC00283=-124848,253449
EC00284=-124683,253432
EC00285=-124517,253414
EC00286=-124352,253395
EC00287=-124187,253375
EC00288=-124022,253353
EC00289=-123856,253330
EC00290=-123691,253307
EC00291=-123526,253282
EC00292=-123362,253255
EC00293=-123197,253228
EC00294=-123032,253199
EC00295=-122867,253169
EC00296=-122702,253138
EC00297=-122538,253106
EC00298=-122373,253072
EC00299=-122208,253037
EC00300=-122044,253001
EC00301=-121489,252670
EC00302=-120933,252338
EC00303=-120376,252006
EC00304=-119819,251673
EC00305=-118865,251049
EC00306=-118305,250716
EC00307=-117744,250383
EC00308=-117183,250049
EC00309=-116620,249714
EC00310=-116057,249379
EC00311=-115090,248760
EC00312=-114524,248424
EC00313=-113957,248088
EC00314=-113389,247751
EC00315=-112821,247414
EC00316=-112252,247076
EC00317=-111271,246460
EC00318=-110699,246121
EC00319=-110127,245782
EC00320=-109554,245442
EC00321=-108980,245102
EC00322=-108406,244760
EC00323=-107411,244146
EC00324=-106834,243804
EC00325=-106256,243462
EC00326=-105678,243118
EC00327=-105099,242774
EC00328=-104519,242429
EC00329=-103510,241816
EC00330=-102928,241470
EC00331=-102345,241123
EC00332=-101762,240775
EC00333=-101178,240427
EC00334=-100594,240078
EC00335=-100009,239728
EC00336=-98985,239112
EC00337=-98398,238761
EC00338=-97810,238409
EC00339=-97229,238055
EC00340=-97200,237845
EC00341=-97158,237630
EC00342=-97174,237275
EC00343=-97095,237042
EC00344=-97003,236805
EC00345=-96896,236562
EC00346=-96776,236314
EC00347=-96641,236060
EC00348=-96478,235634
EC00349=-96300,235367
EC00350=-96107,235095
EC00351=-95899,234819
EC00352=-95674,234538
EC00353=-95433,234253
EC00354=-95065,233769
EC00355=-94776,233472
EC00356=-94470,233173
EC00357=-94147,232870
EC00358=-93806,232564
EC00359=-93447,232254
EC00360=-92851,231723
EC00361=-92439,231405
EC00362=-92008,231085
EC00363=-91559,230762
EC00364=-91090,230437
EC00365=-90603,230110
EC00366=-89758,229543
EC00367=-89214,229210
EC00368=-88650,228874
EC00369=-88067,228537
EC00370=-87464,228199
EC00371=-86840,227858
EC00372=-85734,227265
EC00373=-85052,226920
EC00374=-84351,226573
EC00375=-83631,226225
EC00376=-82891,225876
EC00377=-82132,225526
EC00378=-81354,225174
EC00379=-79947,224554
EC00380=-79115,224198
EC00381=-78264,223841
EC00382=-77397,223482
EC00383=-76513,223123
EC00384=-75613,222762
EC00385=-73973,222118
EC00386=-73029,221753
EC00387=-72072,221387
EC00388=-71102,221019
EC00389=-70122,220651
EC00390=-69131,220282
EC00391=-67629,219561
EC00392=-67743,219431
EC00393=-67860,219302
EC00394=-67980,219175
EC00395=-68104,219050
EC00396=-68231,218927
EC00397=-68586,218704
EC00398=-68724,218584
EC00399=-68866,218465
EC00400=-69013,218348
EC00401=-69166,218233
EC00402=-69323,218119
EC00403=-69731,217906
EC00404=-69905,217795
EC00405=-70084,217685
EC00406=-70269,217577
EC00407=-70462,217469
EC00408=-70662,217363
EC00409=-70869,217257
EC00410=-71366,217050
EC00411=-71596,216945
EC00412=-71834,216840
EC00413=-72081,216735
EC00414=-72338,216630
EC00415=-72604,216525
EC00416=-73205,216306
EC00417=-73499,216197
EC00418=-73805,216086
EC00419=-74122,215974
EC00420=-74450,215859
EC00421=-74790,215741
EC00422=-75516,215485
EC00423=-75889,215356
EC00424=-76274,215222
EC00425=-76671,215083
EC00426=-77080,214938
EC00427=-77502,214787
EC00428=-78363,214455
EC00429=-78815,214283
EC00430=-78833,214292
EC00431=-78849,214301
EC00432=-78864,214310
EC00433=-78877,214318
EC00434=-78888,214326
EC00435=-78898,214334
EC00436=-78906,214342
EC00437=-78912,214350
EC00438=-78917,214357
EC00439=-78921,214365
EC00440=-78923,214372
EC00441=-78923,214379
EC00442=-78922,214387
EC00443=-78920,214394
EC00444=-78916,214401
EC00445=-78911,214409
EC00446=-78905,214416
EC00447=-79248,214253
EC00448=-79601,214084
EC00449=-79963,213907
EC00450=-80334,213723
EC00451=-81082,213332
EC00452=-81474,213125
EC00453=-81874,212908
EC00454=-82280,212682
EC00455=-82694,212446
EC00456=-83113,212201
EC00457=-83926,211693
EC00458=-84358,211418
EC00459=-84794,211132
EC00460=-85233,210835
EC00461=-85674,210528
EC00462=-86118,210210
EC00463=-86947,209574
EC00464=-87399,209221
EC00465=-87844,208861
EC00466=-88288,208490
EC00467=-88731,208109
EC00468=-89173,207718
EC00469=-89612,207316
EC00470=-90416,206530
EC00471=-90846,206100
EC00472=-91272,205661
EC00473=-91694,205212
EC00474=-92111,204755
EC00475=-92524,204289
EC00476=-93262,203393
EC00477=-93658,202903
EC00478=-94049,202406
EC00479=-94433,201900
EC00480=-94810,201388
EC00481=-95182,200868
EC00482=-95831,199883
EC00483=-96182,199345
EC00484=-96525,198800
EC00485=-96876,198241
EC00486=-97374,197104
EC00487=-97900,195978
EC00488=-98916,193881
EC00489=-99512,192799
EC00490=-100128,191731
EC00491=-100764,190678
EC00492=-101417,189640
EC00493=-102086,188616
EC00494=-103329,186757
EC00495=-104033,185780
EC00496=-104749,184817
EC00497=-105474,183868
EC00498=-106208,182932
EC00499=-106950,182010
EC00500=-108290,180365
EC00501=-109047,179482
EC00502=-109809,178610
EC00503=-110574,177749
EC00504=-111343,176899
EC00505=-112114,176059
EC00506=-113476,174590
EC00507=-114254,173777
EC00508=-115031,172977
EC00509=-115808,172186
EC00510=-116586,171403
EC00511=-117364,170629
EC00512=-118641,169352
EC00513=-118620,169226
EC00514=-118604,169100
EC00515=-118521,168908
EC00516=-118517,168781
EC00517=-118519,168653
EC00518=-118525,168526
EC00519=-118537,168400
EC00520=-118553,168273
EC00521=-118512,168090
EC00522=-118538,167966
EC00523=-118569,167843
EC00524=-118605,167722
EC00525=-118644,167602
EC00526=-118687,167484
EC00527=-118678,167319
EC00528=-118729,167206
EC00529=-118783,167096
EC00530=-118840,166987
EC00531=-118899,166882
EC00532=-118961,166779
EC00533=-119025,166678
EC00534=-119038,166543
EC00535=-119106,166450
EC00536=-119174,166360
EC00537=-119244,166273
EC00538=-119314,166189
EC00539=-119385,166108
EC00540=-119400,166003
EC00541=-119470,165931
EC00542=-119540,165861
EC00543=-119609,165795
EC00544=-119677,165732
EC00545=-119744,165672
EC00546=-119746,165596
EC00547=-119808,165544
EC00548=-119869,165495
EC00549=-119927,165448
EC00550=-119982,165405
EC00551=-120034,165365
EC00552=-120156,165340
EC00553=-120276,165317
EC00554=-120396,165296
EC00555=-120514,165276
EC00556=-120632,165258
EC00557=-120749,165241
EC00558=-120865,165225
EC00559=-120980,165211
EC00560=-121094,165198
EC00561=-121207,165187
EC00562=-121319,165177
EC00563=-121430,165168
EC00564=-121540,165160
EC00565=-121650,165153
EC00566=-121758,165148
EC00567=-121865,165144
EC00568=-121973,165141
EC00569=-121855,165136
EC00570=-121846,165135
EC00571=-121834,165135
EC00572=-121818,165138
EC00573=-121799,165142
EC00574=-121777,165148
EC00575=-121626,165155
EC00576=-121594,165164
EC00577=-121559,165174
EC00578=-121519,165185
EC00579=-121475,165197
EC00580=-121428,165210
EC00581=-121239,165223
EC00582=-121180,165237
EC00583=-121118,165252
EC00584=-121050,165267
EC00585=-120979,165283
EC00586=-120903,165299
EC00587=-120673,165311
EC00588=-120586,165326
EC00589=-120494,165341
EC00590=-120398,165356
EC00591=-120297,165371
EC00592=-120191,165385
EC00593=-120081,165399
EC00594=-119802,165402
EC00595=-119681,165414
EC00596=-119555,165424
EC00597=-119425,165433
EC00598=-119290,165442
EC00599=-119151,165449
EC00600=-118831,165439
EC00601=-118681,165443
EC00602=-118527,165445
EC00603=-118368,165446
EC00604=-118205,165445
EC00605=-118037,165442
//INST
///DATE 2023/03/13 18:43
///ATTR SC,RW
///GROUP1 RB2
///GROUP2 ST1
NOP
MOVL C00000 V=26.9 +MOVJ EC00000 VJ=26.9
MOVL C00001 V=26.8 +MOVJ EC00001 VJ=26.8
MOVL C00002 V=81.6 +MOVJ EC00002 VJ=81.6
MOVL C00003 V=26.9 +MOVJ EC00003 VJ=26.9
MOVL C00004 V=81.5 +MOVJ EC00004 VJ=81.5
MOVL C00005 V=26.9 +MOVJ EC00005 VJ=26.9
MOVL C00006 V=81.5 +MOVJ EC00006 VJ=81.5
MOVL C00007 V=26.9 +MOVJ EC00007 VJ=26.9
MOVL C00008 V=81.5 +MOVJ EC00008 VJ=81.5
MOVL C00009 V=27.0 +MOVJ EC00009 VJ=27.0
MOVL C00010 V=81.4 +MOVJ EC00010 VJ=81.4
MOVL C00011 V=27.0 +MOVJ EC00011 VJ=27.0
MOVL C00012 V=81.4 +MOVJ EC00012 VJ=81.4
MOVL C00013 V=27.1 +MOVJ EC00013 VJ=27.1
MOVL C00014 V=27.0 +MOVJ EC00014 VJ=27.0
MOVL C00015 V=81.4 +MOVJ EC00015 VJ=81.4
MOVL C00016 V=27.1 +MOVJ EC00016 VJ=27.1
MOVL C00017 V=81.4 +MOVJ EC00017 VJ=81.4
MOVL C00018 V=27.1 +MOVJ EC00018 VJ=27.1
MOVL C00019 V=81.3 +MOVJ EC00019 VJ=81.3
MOVL C00020 V=27.1 +MOVJ EC00020 VJ=27.1
MOVL C00021 V=81.3 +MOVJ EC00021 VJ=81.3
MOVL C00022 V=27.2 +MOVJ EC00022 VJ=27.2
MOVL C00023 V=81.2 +MOVJ EC00023 VJ=81.2
MOVL C00024 V=27.2 +MOVJ EC00024 VJ=27.2
MOVL C00025 V=81.2 +MOVJ EC00025 VJ=81.2
MOVL C00026 V=27.3 +MOVJ EC00026 VJ=27.3
MOVL C00027 V=81.1 +MOVJ EC00027 VJ=81.1
MOVL C00028 V=27.3 +MOVJ EC00028 VJ=27.3
MOVL C00029 V=27.3 +MOVJ EC00029 VJ=27.3
MOVL C00030 V=81.1 +MOVJ EC00030 VJ=81.1
MOVL C00031 V=27.3 +MOVJ EC00031 VJ=27.3
MOVL C00032 V=81.0 +MOVJ EC00032 VJ=81.0
MOVL C00033 V=27.3 +MOVJ EC00033 VJ=27.3
MOVL C00034 V=80.9 +MOVJ EC00034 VJ=80.9
MOVL C00035 V=27.4 +MOVJ EC00035 VJ=27.4
MOVL C00036 V=80.8 +MOVJ EC00036 VJ=80.8
MOVL C00037 V=27.4 +MOVJ EC00037 VJ=27.4
MOVL C00038 V=80.7 +MOVJ EC00038 VJ=80.7
MOVL C00039 V=27.5 +MOVJ EC00039 VJ=27.5
MOVL C00040 V=80.6 +MOVJ EC00040 VJ=80.6
MOVL C00041 V=27.5 +MOVJ EC00041 VJ=27.5
MOVL C00042 V=81.1 +MOVJ EC00042 VJ=81.1
MOVL C00043 V=27.0 +MOVJ EC00043 VJ=27.0
MOVL C00044 V=27.5 +MOVJ EC00044 VJ=27.5
MOVL C00045 V=80.4 +MOVJ EC00045 VJ=80.4
MOVL C00046 V=27.5 +MOVJ EC00046 VJ=27.5
MOVL C00047 V=80.3 +MOVJ EC00047 VJ=80.3
MOVL C00048 V=27.6 +MOVJ EC00048 VJ=27.6
MOVL C00049 V=80.1 +MOVJ EC00049 VJ=80.1
MOVL C00050 V=27.6 +MOVJ EC00050 VJ=27.6
MOVL C00051 V=80.0 +MOVJ EC00051 VJ=80.0
MOVL C00052 V=27.6 +MOVJ EC00052 VJ=27.6
MOVL C00053 V=79.8 +MOVJ EC00053 VJ=79.8
MOVL C00054 V=27.7 +MOVJ EC00054 VJ=27.7
MOVL C00055 V=79.6 +MOVJ EC00055 VJ=79.6
MOVL C00056 V=27.7 +MOVJ EC00056 VJ=27.7
MOVL C00057 V=27.7 +MOVJ EC00057 VJ=27.7
MOVL C00058 V=79.5 +MOVJ EC00058 VJ=79.5
MOVL C00059 V=27.7 +MOVJ EC00059 VJ=27.7
MOVL C00060 V=79.3 +MOVJ EC00060 VJ=79.3
MOVL C00061 V=27.8 +MOVJ EC00061 VJ=27.8
MOVL C00062 V=79.1 +MOVJ EC00062 VJ=79.1
MOVL C00063 V=27.8 +MOVJ EC00063 VJ=27.8
MOVL C00064 V=78.8 +MOVJ EC00064 VJ=78.8
MOVL C00065 V=27.8 +MOVJ EC00065 VJ=27.8
MOVL C00066 V=78.6 +MOVJ EC00066 VJ=78.6
MOVL C00067 V=27.9 +MOVJ EC00067 VJ=27.9
MOVL C00068 V=78.3 +MOVJ EC00068 VJ=78.3
MOVL C00069 V=27.9 +MOVJ EC00069 VJ=27.9
MOVL C00070 V=78.1 +MOVJ EC00070 VJ=78.1
MOVL C00071 V=27.9 +MOVJ EC00071 VJ=27.9
MOVL C00072 V=27.9 +MOVJ EC00072 VJ=27.9
MOVL C00073 V=77.8 +MOVJ EC00073 VJ=77.8
MOVL C00074 V=27.9 +MOVJ EC00074 VJ=27.9
MOVL C00075 V=77.5 +MOVJ EC00075 VJ=77.5
MOVL C00076 V=28.0 +MOVJ EC00076 VJ=28.0
MOVL C00077 V=77.1 +MOVJ EC00077 VJ=77.1
MOVL C00078 V=28.0 +MOVJ EC00078 VJ=28.0
MOVL C00079 V=76.8 +MOVJ EC00079 VJ=76.8
MOVL C00080 V=28.1 +MOVJ EC00080 VJ=28.1
MOVL C00081 V=76.4 +MOVJ EC00081 VJ=76.4
MOVL C00082 V=28.1 +MOVJ EC00082 VJ=28.1
MOVL C00083 V=76.0 +MOVJ EC00083 VJ=76.0
MOVL C00084 V=28.1 +MOVJ EC00084 VJ=28.1
MOVL C00085 V=76.2 +MOVJ EC00085 VJ=76.2
MOVL C00086 V=27.6 +MOVJ EC00086 VJ=27.6
MOVL C00087 V=28.2 +MOVJ EC00087 VJ=28.2
MOVL C00088 V=75.2 +MOVJ EC00088 VJ=75.2
MOVL C00089 V=28.2 +MOVJ EC00089 VJ=28.2
MOVL C00090 V=74.8 +MOVJ EC00090 VJ=74.8
MOVL C00091 V=28.3 +MOVJ EC00091 VJ=28.3
MOVL C00092 V=74.3 +MOVJ EC00092 VJ=74.3
MOVL C00093 V=28.3 +MOVJ EC00093 VJ=28.3
MOVL C00094 V=73.8 +MOVJ EC00094 VJ=73.8
MOVL C00095 V=28.4 +MOVJ EC00095 VJ=28.4
MOVL C00096 V=73.2 +MOVJ EC00096 VJ=73.2
MOVL C00097 V=28.3 +MOVJ EC00097 VJ=28.3
MOVL C00098 V=28.3 +MOVJ EC00098 VJ=28.3
MOVL C00099 V=28.2 +MOVJ EC00099 VJ=28.2
MOVL C00100 V=28.2 +MOVJ EC00100 VJ=28.2
MOVL C00101 V=28.2 +MOVJ EC00101 VJ=28.2
MOVL C00102 V=28.2 +MOVJ EC00102 VJ=28.2
MOVL C00103 V=28.1 +MOVJ EC00103 VJ=28.1
MOVL C00104 V=28.1 +MOVJ EC00104 VJ=28.1
MOVL C00105 V=28.1 +MOVJ EC00105 VJ=28.1
MOVL C00106 V=28.1 +MOVJ EC00106 VJ=28.1
MOVL C00107 V=28.1 +MOVJ EC00107 VJ=28.1
MOVL C00108 V=28.0 +MOVJ EC00108 VJ=28.0
MOVL C00109 V=28.0 +MOVJ EC00109 VJ=28.0
MOVL C00110 V=28.0 +MOVJ EC00110 VJ=28.0
MOVL C00111 V=28.0 +MOVJ EC00111 VJ=28.0
MOVL C00112 V=27.9 +MOVJ EC00112 VJ=27.9
MOVL C00113 V=27.9 +MOVJ EC00113 VJ=27.9
MOVL C00114 V=27.9 +MOVJ EC00114 VJ=27.9
MOVL C00115 V=27.9 +MOVJ EC00115 VJ=27.9
MOVL C00116 V=27.8 +MOVJ EC00116 VJ=27.8
MOVL C00117 V=27.8 +MOVJ EC00117 VJ=27.8
MOVL C00118 V=27.8 +MOVJ EC00118 VJ=27.8
MOVL C00119 V=27.8 +MOVJ EC00119 VJ=27.8
MOVL C00120 V=27.7 +MOVJ EC00120 VJ=27.7
MOVL C00121 V=27.7 +MOVJ EC00121 VJ=27.7
MOVL C00122 V=27.7 +MOVJ EC00122 VJ=27.7
MOVL C00123 V=27.7 +MOVJ EC00123 VJ=27.7
MOVL C00124 V=27.6 +MOVJ EC00124 VJ=27.6
MOVL C00125 V=27.6 +MOVJ EC00125 VJ=27.6
MOVL C00126 V=27.6 +MOVJ EC00126 VJ=27.6
MOVL C00127 V=27.6 +MOVJ EC00127 VJ=27.6
MOVL C00128 V=27.5 +MOVJ EC00128 VJ=27.5
MOVL C00129 V=27.5 +MOVJ EC00129 VJ=27.5
MOVL C00130 V=27.5 +MOVJ EC00130 VJ=27.5
MOVL C00131 V=27.4 +MOVJ EC00131 VJ=27.4
MOVL C00132 V=27.4 +MOVJ EC00132 VJ=27.4
MOVL C00133 V=27.4 +MOVJ EC00133 VJ=27.4
MOVL C00134 V=27.4 +MOVJ EC00134 VJ=27.4
MOVL C00135 V=27.3 +MOVJ EC00135 VJ=27.3
MOVL C00136 V=27.3 +MOVJ EC00136 VJ=27.3
MOVL C00137 V=27.3 +MOVJ EC00137 VJ=27.3
MOVL C00138 V=27.3 +MOVJ EC00138 VJ=27.3
MOVL C00139 V=27.3 +MOVJ EC00139 VJ=27.3
MOVL C00140 V=27.3 +MOVJ EC00140 VJ=27.3
MOVL C00141 V=77.2 +MOVJ EC00141 VJ=77.2
MOVL C00142 V=27.4 +MOVJ EC00142 VJ=27.4
MOVL C00143 V=76.8 +MOVJ EC00143 VJ=76.8
MOVL C00144 V=27.4 +MOVJ EC00144 VJ=27.4
MOVL C00145 V=76.3 +MOVJ EC00145 VJ=76.3
MOVL C00146 V=27.5 +MOVJ EC00146 VJ=27.5
MOVL C00147 V=75.7 +MOVJ EC00147 VJ=75.7
MOVL C00148 V=27.5 +MOVJ EC00148 VJ=27.5
MOVL C00149 V=76.0 +MOVJ EC00149 VJ=76.0
MOVL C00150 V=26.7 +MOVJ EC00150 VJ=26.7
MOVL C00151 V=27.6 +MOVJ EC00151 VJ=27.6
MOVL C00152 V=74.6 +MOVJ EC00152 VJ=74.6
MOVL C00153 V=27.6 +MOVJ EC00153 VJ=27.6
MOVL C00154 V=73.9 +MOVJ EC00154 VJ=73.9
MOVL C00155 V=27.7 +MOVJ EC00155 VJ=27.7
MOVL C00156 V=73.3 +MOVJ EC00156 VJ=73.3
MOVL C00157 V=27.8 +MOVJ EC00157 VJ=27.8
MOVL C00158 V=72.5 +MOVJ EC00158 VJ=72.5
MOVL C00159 V=27.8 +MOVJ EC00159 VJ=27.8
MOVL C00160 V=71.8 +MOVJ EC00160 VJ=71.8
MOVL C00161 V=27.9 +MOVJ EC00161 VJ=27.9
MOVL C00162 V=71.0 +MOVJ EC00162 VJ=71.0
MOVL C00163 V=28.0 +MOVJ EC00163 VJ=28.0
MOVL C00164 V=28.0 +MOVJ EC00164 VJ=28.0
MOVL C00165 V=70.3 +MOVJ EC00165 VJ=70.3
MOVL C00166 V=28.1 +MOVJ EC00166 VJ=28.1
MOVL C00167 V=69.4 +MOVJ EC00167 VJ=69.4
MOVL C00168 V=28.1 +MOVJ EC00168 VJ=28.1
MOVL C00169 V=68.5 +MOVJ EC00169 VJ=68.5
MOVL C00170 V=28.2 +MOVJ EC00170 VJ=28.2
MOVL C00171 V=67.7 +MOVJ EC00171 VJ=67.7
MOVL C00172 V=28.3 +MOVJ EC00172 VJ=28.3
MOVL C00173 V=66.8 +MOVJ EC00173 VJ=66.8
MOVL C00174 V=28.4 +MOVJ EC00174 VJ=28.4
MOVL C00175 V=65.8 +MOVJ EC00175 VJ=65.8
MOVL C00176 V=28.5 +MOVJ EC00176 VJ=28.5
MOVL C00177 V=65.0 +MOVJ EC00177 VJ=65.0
MOVL C00178 V=28.6 +MOVJ EC00178 VJ=28.6
MOVL C00179 V=28.6 +MOVJ EC00179 VJ=28.6
MOVL C00180 V=64.1 +MOVJ EC00180 VJ=64.1
MOVL C00181 V=28.7 +MOVJ EC00181 VJ=28.7
MOVL C00182 V=63.2 +MOVJ EC00182 VJ=63.2
MOVL C00183 V=28.8 +MOVJ EC00183 VJ=28.8
MOVL C00184 V=62.3 +MOVJ EC00184 VJ=62.3
MOVL C00185 V=28.9 +MOVJ EC00185 VJ=28.9
MOVL C00186 V=61.4 +MOVJ EC00186 VJ=61.4
MOVL C00187 V=29.0 +MOVJ EC00187 VJ=29.0
MOVL C00188 V=60.5 +MOVJ EC00188 VJ=60.5
MOVL C00189 V=29.2 +MOVJ EC00189 VJ=29.2
MOVL C00190 V=59.6 +MOVJ EC00190 VJ=59.6
MOVL C00191 V=29.3 +MOVJ EC00191 VJ=29.3
MOVL C00192 V=59.0 +MOVJ EC00192 VJ=59.0
MOVL C00193 V=29.1 +MOVJ EC00193 VJ=29.1
MOVL C00194 V=29.4 +MOVJ EC00194 VJ=29.4
MOVL C00195 V=58.0 +MOVJ EC00195 VJ=58.0
MOVL C00196 V=29.5 +MOVJ EC00196 VJ=29.5
MOVL C00197 V=57.2 +MOVJ EC00197 VJ=57.2
MOVL C00198 V=29.6 +MOVJ EC00198 VJ=29.6
MOVL C00199 V=56.4 +MOVJ EC00199 VJ=56.4
MOVL C00200 V=29.7 +MOVJ EC00200 VJ=29.7
MOVL C00201 V=55.6 +MOVJ EC00201 VJ=55.6
MOVL C00202 V=29.7 +MOVJ EC00202 VJ=29.7
MOVL C00203 V=54.8 +MOVJ EC00203 VJ=54.8
MOVL C00204 V=29.8 +MOVJ EC00204 VJ=29.8
MOVL C00205 V=54.1 +MOVJ EC00205 VJ=54.1
MOVL C00206 V=29.9 +MOVJ EC00206 VJ=29.9
MOVL C00207 V=29.9 +MOVJ EC00207 VJ=29.9
MOVL C00208 V=53.5 +MOVJ EC00208 VJ=53.5
MOVL C00209 V=30.0 +MOVJ EC00209 VJ=30.0
MOVL C00210 V=52.8 +MOVJ EC00210 VJ=52.8
MOVL C00211 V=30.1 +MOVJ EC00211 VJ=30.1
MOVL C00212 V=52.2 +MOVJ EC00212 VJ=52.2
MOVL C00213 V=30.2 +MOVJ EC00213 VJ=30.2
MOVL C00214 V=51.5 +MOVJ EC00214 VJ=51.5
MOVL C00215 V=30.2 +MOVJ EC00215 VJ=30.2
MOVL C00216 V=50.9 +MOVJ EC00216 VJ=50.9
MOVL C00217 V=30.3 +MOVJ EC00217 VJ=30.3
MOVL C00218 V=50.3 +MOVJ EC00218 VJ=50.3
MOVL C00219 V=30.4 +MOVJ EC00219 VJ=30.4
MOVL C00220 V=49.8 +MOVJ EC00220 VJ=49.8
MOVL C00221 V=30.4 +MOVJ EC00221 VJ=30.4
MOVL C00222 V=30.4 +MOVJ EC00222 VJ=30.4
MOVL C00223 V=49.3 +MOVJ EC00223 VJ=49.3
MOVL C00224 V=30.5 +MOVJ EC00224 VJ=30.5
MOVL C00225 V=48.8 +MOVJ EC00225 VJ=48.8
MOVL C00226 V=30.5 +MOVJ EC00226 VJ=30.5
MOVL C00227 V=48.3 +MOVJ EC00227 VJ=48.3
MOVL C00228 V=30.6 +MOVJ EC00228 VJ=30.6
MOVL C00229 V=47.8 +MOVJ EC00229 VJ=47.8
MOVL C00230 V=30.6 +MOVJ EC00230 VJ=30.6
MOVL C00231 V=47.4 +MOVJ EC00231 VJ=47.4
MOVL C00232 V=30.7 +MOVJ EC00232 VJ=30.7
MOVL C00233 V=47.0 +MOVJ EC00233 VJ=47.0
MOVL C00234 V=30.7 +MOVJ EC00234 VJ=30.7
MOVL C00235 V=46.6 +MOVJ EC00235 VJ=46.6
MOVL C00236 V=30.1 +MOVJ EC00236 VJ=30.1
MOVL C00237 V=30.1 +MOVJ EC00237 VJ=30.1
MOVL C00238 V=70.8 +MOVJ EC00238 VJ=70.8
MOVL C00239 V=30.1 +MOVJ EC00239 VJ=30.1
MOVL C00240 V=70.4 +MOVJ EC00240 VJ=70.4
MOVL C00241 V=30.1 +MOVJ EC00241 VJ=30.1
MOVL C00242 V=70.0 +MOVJ EC00242 VJ=70.0
MOVL C00243 V=30.1 +MOVJ EC00243 VJ=30.1
MOVL C00244 V=69.6 +MOVJ EC00244 VJ=69.6
MOVL C00245 V=30.0 +MOVJ EC00245 VJ=30.0
MOVL C00246 V=69.0 +MOVJ EC00246 VJ=69.0
MOVL C00247 V=30.0 +MOVJ EC00247 VJ=30.0
MOVL C00248 V=68.4 +MOVJ EC00248 VJ=68.4
MOVL C00249 V=30.0 +MOVJ EC00249 VJ=30.0
MOVL C00250 V=30.0 +MOVJ EC00250 VJ=30.0
MOVL C00251 V=67.7 +MOVJ EC00251 VJ=67.7
MOVL C00252 V=30.0 +MOVJ EC00252 VJ=30.0
MOVL C00253 V=67.0 +MOVJ EC00253 VJ=67.0
MOVL C00254 V=30.0 +MOVJ EC00254 VJ=30.0
MOVL C00255 V=66.2 +MOVJ EC00255 VJ=66.2
MOVL C00256 V=30.0 +MOVJ EC00256 VJ=30.0
MOVL C00257 V=65.3 +MOVJ EC00257 VJ=65.3
MOVL C00258 V=30.0 +MOVJ EC00258 VJ=30.0
MOVL C00259 V=64.4 +MOVJ EC00259 VJ=64.4
MOVL C00260 V=29.9 +MOVJ EC00260 VJ=29.9
MOVL C00261 V=63.5 +MOVJ EC00261 VJ=63.5
MOVL C00262 V=29.9 +MOVJ EC00262 VJ=29.9
MOVL C00263 V=62.5 +MOVJ EC00263 VJ=62.5
MOVL C00264 V=29.9 +MOVJ EC00264 VJ=29.9
MOVL C00265 V=29.9 +MOVJ EC00265 VJ=29.9
MOVL C00266 V=61.5 +MOVJ EC00266 VJ=61.5
MOVL C00267 V=29.9 +MOVJ EC00267 VJ=29.9
MOVL C00268 V=60.5 +MOVJ EC00268 VJ=60.5
MOVL C00269 V=29.8 +MOVJ EC00269 VJ=29.8
MOVL C00270 V=59.5 +MOVJ EC00270 VJ=59.5
MOVL C00271 V=29.8 +MOVJ EC00271 VJ=29.8
MOVL C00272 V=58.4 +MOVJ EC00272 VJ=58.4
MOVL C00273 V=29.8 +MOVJ EC00273 VJ=29.8
MOVL C00274 V=57.4 +MOVJ EC00274 VJ=57.4
MOVL C00275 V=29.7 +MOVJ EC00275 VJ=29.7
MOVL C00276 V=56.3 +MOVJ EC00276 VJ=56.3
MOVL C00277 V=29.7 +MOVJ EC00277 VJ=29.7
MOVL C00278 V=55.3 +MOVJ EC00278 VJ=55.3
MOVL C00279 V=29.7 +MOVJ EC00279 VJ=29.7
MOVL C00280 V=29.7 +MOVJ EC00280 VJ=29.7
MOVL C00281 V=54.2 +MOVJ EC00281 VJ=54.2
MOVL C00282 V=29.7 +MOVJ EC00282 VJ=29.7
MOVL C00283 V=53.2 +MOVJ EC00283 VJ=53.2
MOVL C00284 V=29.6 +MOVJ EC00284 VJ=29.6
MOVL C00285 V=52.2 +MOVJ EC00285 VJ=52.2
MOVL C00286 V=29.6 +MOVJ EC00286 VJ=29.6
MOVL C00287 V=51.1 +MOVJ EC00287 VJ=51.1
MOVL C00288 V=29.6 +MOVJ EC00288 VJ=29.6
MOVL C00289 V=50.1 +MOVJ EC00289 VJ=50.1
MOVL C00290 V=29.5 +MOVJ EC00290 VJ=29.5
MOVL C00291 V=49.2 +MOVJ EC00291 VJ=49.2
MOVL C00292 V=29.5 +MOVJ EC00292 VJ=29.5
MOVL C00293 V=29.5 +MOVJ EC00293 VJ=29.5
MOVL C00294 V=48.1 +MOVJ EC00294 VJ=48.1
MOVL C00295 V=29.5 +MOVJ EC00295 VJ=29.5
MOVL C00296 V=47.2 +MOVJ EC00296 VJ=47.2
MOVL C00297 V=29.4 +MOVJ EC00297 VJ=29.4
MOVL C00298 V=46.3 +MOVJ EC00298 VJ=46.3
MOVL C00299 V=29.4 +MOVJ EC00299 VJ=29.4
MOVL C00300 V=45.3 +MOVJ EC00300 VJ=45.3
MOVL C00301 V=29.3 +MOVJ EC00301 VJ=29.3
MOVL C00302 V=44.5 +MOVJ EC00302 VJ=44.5
MOVL C00303 V=29.3 +MOVJ EC00303 VJ=29.3
MOVL C00304 V=43.6 +MOVJ EC00304 VJ=43.6
MOVL C00305 V=29.3 +MOVJ EC00305 VJ=29.3
MOVL C00306 V=42.7 +MOVJ EC00306 VJ=42.7
MOVL C00307 V=29.3 +MOVJ EC00307 VJ=29.3
MOVL C00308 V=29.2 +MOVJ EC00308 VJ=29.2
MOVL C00309 V=41.9 +MOVJ EC00309 VJ=41.9
MOVL C00310 V=29.2 +MOVJ EC00310 VJ=29.2
MOVL C00311 V=41.1 +MOVJ EC00311 VJ=41.1
MOVL C00312 V=29.2 +MOVJ EC00312 VJ=29.2
MOVL C00313 V=40.3 +MOVJ EC00313 VJ=40.3
MOVL C00314 V=29.2 +MOVJ EC00314 VJ=29.2
MOVL C00315 V=39.5 +MOVJ EC00315 VJ=39.5
MOVL C00316 V=29.1 +MOVJ EC00316 VJ=29.1
MOVL C00317 V=38.8 +MOVJ EC00317 VJ=38.8
MOVL C00318 V=29.1 +MOVJ EC00318 VJ=29.1
MOVL C00319 V=38.1 +MOVJ EC00319 VJ=38.1
MOVL C00320 V=29.1 +MOVJ EC00320 VJ=29.1
MOVL C00321 V=37.5 +MOVJ EC00321 VJ=37.5
MOVL C00322 V=29.0 +MOVJ EC00322 VJ=29.0
MOVL C00323 V=29.0 +MOVJ EC00323 VJ=29.0
MOVL C00324 V=36.8 +MOVJ EC00324 VJ=36.8
MOVL C00325 V=29.0 +MOVJ EC00325 VJ=29.0
MOVL C00326 V=36.2 +MOVJ EC00326 VJ=36.2
MOVL C00327 V=29.0 +MOVJ EC00327 VJ=29.0
MOVL C00328 V=35.6 +MOVJ EC00328 VJ=35.6
MOVL C00329 V=28.9 +MOVJ EC00329 VJ=28.9
MOVL C00330 V=35.1 +MOVJ EC00330 VJ=35.1
MOVL C00331 V=28.9 +MOVJ EC00331 VJ=28.9
MOVL C00332 V=34.6 +MOVJ EC00332 VJ=34.6
MOVL C00333 V=28.9 +MOVJ EC00333 VJ=28.9
MOVL C00334 V=34.2 +MOVJ EC00334 VJ=34.2
MOVL C00335 V=28.9 +MOVJ EC00335 VJ=28.9
MOVL C00336 V=28.9 +MOVJ EC00336 VJ=28.9
MOVL C00337 V=33.8 +MOVJ EC00337 VJ=33.8
MOVL C00338 V=28.8 +MOVJ EC00338 VJ=28.8
MOVL C00339 V=33.5 +MOVJ EC00339 VJ=33.5
MOVL C00340 V=28.8 +MOVJ EC00340 VJ=28.8
MOVL C00341 V=33.3 +MOVJ EC00341 VJ=33.3
MOVL C00342 V=28.8 +MOVJ EC00342 VJ=28.8
MOVL C00343 V=33.1 +MOVJ EC00343 VJ=33.1
MOVL C00344 V=28.8 +MOVJ EC00344 VJ=28.8
MOVL C00345 V=33.0 +MOVJ EC00345 VJ=33.0
MOVL C00346 V=28.7 +MOVJ EC00346 VJ=28.7
MOVL C00347 V=33.0 +MOVJ EC00347 VJ=33.0
MOVL C00348 V=28.7 +MOVJ EC00348 VJ=28.7
MOVL C00349 V=33.0 +MOVJ EC00349 VJ=33.0
MOVL C00350 V=28.7 +MOVJ EC00350 VJ=28.7
MOVL C00351 V=28.7 +MOVJ EC00351 VJ=28.7
MOVL C00352 V=33.1 +MOVJ EC00352 VJ=33.1
MOVL C00353 V=28.7 +MOVJ EC00353 VJ=28.7
MOVL C00354 V=33.2 +MOVJ EC00354 VJ=33.2
MOVL C00355 V=28.7 +MOVJ EC00355 VJ=28.7
MOVL C00356 V=33.4 +MOVJ EC00356 VJ=33.4
MOVL C00357 V=28.6 +MOVJ EC00357 VJ=28.6
MOVL C00358 V=33.6 +MOVJ EC00358 VJ=33.6
MOVL C00359 V=28.6 +MOVJ EC00359 VJ=28.6
MOVL C00360 V=33.9 +MOVJ EC00360 VJ=33.9
MOVL C00361 V=28.6 +MOVJ EC00361 VJ=28.6
MOVL C00362 V=34.2 +MOVJ EC00362 VJ=34.2
MOVL C00363 V=28.6 +MOVJ EC00363 VJ=28.6
MOVL C00364 V=34.5 +MOVJ EC00364 VJ=34.5
MOVL C00365 V=34.3 +MOVJ EC00365 VJ=34.3
MOVL C00366 V=26.6 +MOVJ EC00366 VJ=26.6
MOVL C00367 V=53.9 +MOVJ EC00367 VJ=53.9
MOVL C00368 V=26.6 +MOVJ EC00368 VJ=26.6
MOVL C00369 V=53.9 +MOVJ EC00369 VJ=53.9
MOVL C00370 V=26.5 +MOVJ EC00370 VJ=26.5
MOVL C00371 V=53.9 +MOVJ EC00371 VJ=53.9
MOVL C00372 V=26.5 +MOVJ EC00372 VJ=26.5
MOVL C00373 V=53.9 +MOVJ EC00373 VJ=53.9
MOVL C00374 V=26.5 +MOVJ EC00374 VJ=26.5
MOVL C00375 V=53.9 +MOVJ EC00375 VJ=53.9
MOVL C00376 V=26.5 +MOVJ EC00376 VJ=26.5
MOVL C00377 V=53.9 +MOVJ EC00377 VJ=53.9
MOVL C00378 V=26.4 +MOVJ EC00378 VJ=26.4
MOVL C00379 V=26.5 +MOVJ EC00379 VJ=26.5
MOVL C00380 V=53.8 +MOVJ EC00380 VJ=53.8
MOVL C00381 V=26.5 +MOVJ EC00381 VJ=26.5
MOVL C00382 V=53.8 +MOVJ EC00382 VJ=53.8
MOVL C00383 V=26.4 +MOVJ EC00383 VJ=26.4
MOVL C00384 V=53.8 +MOVJ EC00384 VJ=53.8
MOVL C00385 V=26.4 +MOVJ EC00385 VJ=26.4
MOVL C00386 V=53.8 +MOVJ EC00386 VJ=53.8
MOVL C00387 V=26.4 +MOVJ EC00387 VJ=26.4
MOVL C00388 V=53.8 +MOVJ EC00388 VJ=53.8
MOVL C00389 V=26.4 +MOVJ EC00389 VJ=26.4
MOVL C00390 V=53.8 +MOVJ EC00390 VJ=53.8
MOVL C00391 V=26.4 +MOVJ EC00391 VJ=26.4
MOVL C00392 V=26.4 +MOVJ EC00392 VJ=26.4
MOVL C00393 V=53.7 +MOVJ EC00393 VJ=53.7
MOVL C00394 V=26.4 +MOVJ EC00394 VJ=26.4
MOVL C00395 V=53.7 +MOVJ EC00395 VJ=53.7
MOVL C00396 V=26.4 +MOVJ EC00396 VJ=26.4
MOVL C00397 V=53.7 +MOVJ EC00397 VJ=53.7
MOVL C00398 V=26.4 +MOVJ EC00398 VJ=26.4
MOVL C00399 V=53.7 +MOVJ EC00399 VJ=53.7
MOVL C00400 V=26.4 +MOVJ EC00400 VJ=26.4
MOVL C00401 V=53.7 +MOVJ EC00401 VJ=53.7
MOVL C00402 V=26.3 +MOVJ EC00402 VJ=26.3
MOVL C00403 V=51.5 +MOVJ EC00403 VJ=51.5
MOVL C00404 V=27.1 +MOVJ EC00404 VJ=27.1
MOVL C00405 V=51.6 +MOVJ EC00405 VJ=51.6
MOVL C00406 V=27.0 +MOVJ EC00406 VJ=27.0
MOVL C00407 V=27.0 +MOVJ EC00407 VJ=27.0
MOVL C00408 V=51.4 +MOVJ EC00408 VJ=51.4
MOVL C00409 V=27.0 +MOVJ EC00409 VJ=27.0
MOVL C00410 V=51.3 +MOVJ EC00410 VJ=51.3
MOVL C00411 V=27.0 +MOVJ EC00411 VJ=27.0
MOVL C00412 V=51.2 +MOVJ EC00412 VJ=51.2
MOVL C00413 V=27.0 +MOVJ EC00413 VJ=27.0
MOVL C00414 V=51.0 +MOVJ EC00414 VJ=51.0
MOVL C00415 V=27.0 +MOVJ EC00415 VJ=27.0
MOVL C00416 V=50.9 +MOVJ EC00416 VJ=50.9
MOVL C00417 V=27.0 +MOVJ EC00417 VJ=27.0
MOVL C00418 V=50.8 +MOVJ EC00418 VJ=50.8
MOVL C00419 V=27.0 +MOVJ EC00419 VJ=27.0
MOVL C00420 V=50.6 +MOVJ EC00420 VJ=50.6
MOVL C00421 V=26.9 +MOVJ EC00421 VJ=26.9
MOVL C00422 V=26.9 +MOVJ EC00422 VJ=26.9
MOVL C00423 V=50.5 +MOVJ EC00423 VJ=50.5
MOVL C00424 V=26.9 +MOVJ EC00424 VJ=26.9
MOVL C00425 V=50.3 +MOVJ EC00425 VJ=50.3
MOVL C00426 V=26.9 +MOVJ EC00426 VJ=26.9
MOVL C00427 V=50.2 +MOVJ EC00427 VJ=50.2
MOVL C00428 V=26.9 +MOVJ EC00428 VJ=26.9
MOVL C00429 V=50.1 +MOVJ EC00429 VJ=50.1
MOVL C00430 V=26.9 +MOVJ EC00430 VJ=26.9
MOVL C00431 V=50.0 +MOVJ EC00431 VJ=50.0
MOVL C00432 V=26.9 +MOVJ EC00432 VJ=26.9
MOVL C00433 V=49.9 +MOVJ EC00433 VJ=49.9
MOVL C00434 V=26.9 +MOVJ EC00434 VJ=26.9
MOVL C00435 V=26.9 +MOVJ EC00435 VJ=26.9
MOVL C00436 V=49.7 +MOVJ EC00436 VJ=49.7
MOVL C00437 V=26.9 +MOVJ EC00437 VJ=26.9
MOVL C00438 V=49.6 +MOVJ EC00438 VJ=49.6
MOVL C00439 V=26.9 +MOVJ EC00439 VJ=26.9
MOVL C00440 V=49.5 +MOVJ EC00440 VJ=49.5
MOVL C00441 V=26.9 +MOVJ EC00441 VJ=26.9
MOVL C00442 V=49.4 +MOVJ EC00442 VJ=49.4
MOVL C00443 V=26.8 +MOVJ EC00443 VJ=26.8
MOVL C00444 V=49.3 +MOVJ EC00444 VJ=49.3
MOVL C00445 V=26.8 +MOVJ EC00445 VJ=26.8
MOVL C00446 V=49.2 +MOVJ EC00446 VJ=49.2
MOVL C00447 V=26.8 +MOVJ EC00447 VJ=26.8
MOVL C00448 V=49.0 +MOVJ EC00448 VJ=49.0
MOVL C00449 V=26.8 +MOVJ EC00449 VJ=26.8
MOVL C00450 V=26.8 +MOVJ EC00450 VJ=26.8
MOVL C00451 V=48.9 +MOVJ EC00451 VJ=48.9
MOVL C00452 V=26.8 +MOVJ EC00452 VJ=26.8
MOVL C00453 V=48.8 +MOVJ EC00453 VJ=48.8
MOVL C00454 V=26.8 +MOVJ EC00454 VJ=26.8
MOVL C00455 V=48.7 +MOVJ EC00455 VJ=48.7
MOVL C00456 V=26.8 +MOVJ EC00456 VJ=26.8
MOVL C00457 V=48.6 +MOVJ EC00457 VJ=48.6
MOVL C00458 V=26.8 +MOVJ EC00458 VJ=26.8
MOVL C00459 V=48.5 +MOVJ EC00459 VJ=48.5
MOVL C00460 V=26.8 +MOVJ EC00460 VJ=26.8
MOVL C00461 V=48.4 +MOVJ EC00461 VJ=48.4
MOVL C00462 V=26.8 +MOVJ EC00462 VJ=26.8
MOVL C00463 V=26.8 +MOVJ EC00463 VJ=26.8
MOVL C00464 V=26.8 +MOVJ EC00464 VJ=26.8
MOVL C00465 V=26.8 +MOVJ EC00465 VJ=26.8
MOVL C00466 V=26.8 +MOVJ EC00466 VJ=26.8
MOVL C00467 V=26.9 +MOVJ EC00467 VJ=26.9
MOVL C00468 V=26.9 +MOVJ EC00468 VJ=26.9
MOVL C00469 V=26.9 +MOVJ EC00469 VJ=26.9
MOVL C00470 V=26.9 +MOVJ EC00470 VJ=26.9
MOVL C00471 V=26.9 +MOVJ EC00471 VJ=26.9
MOVL C00472 V=26.9 +MOVJ EC00472 VJ=26.9
MOVL C00473 V=26.9 +MOVJ EC00473 VJ=26.9
MOVL C00474 V=26.9 +MOVJ EC00474 VJ=26.9
MOVL C00475 V=26.9 +MOVJ EC00475 VJ=26.9
MOVL C00476 V=26.9 +MOVJ EC00476 VJ=26.9
MOVL C00477 V=26.9 +MOVJ EC00477 VJ=26.9
MOVL C00478 V=26.9 +MOVJ EC00478 VJ=26.9
MOVL C00479 V=26.9 +MOVJ EC00479 VJ=26.9
MOVL C00480 V=26.9 +MOVJ EC00480 VJ=26.9
MOVL C00481 V=26.9 +MOVJ EC00481 VJ=26.9
MOVL C00482 V=26.9 +MOVJ EC00482 VJ=26.9
MOVL C00483 V=26.9 +MOVJ EC00483 VJ=26.9
MOVL C00484 V=26.9 +MOVJ EC00484 VJ=26.9
MOVL C00485 V=26.9 +MOVJ EC00485 VJ=26.9
MOVL C00486 V=26.9 +MOVJ EC00486 VJ=26.9
MOVL C00487 V=26.9 +MOVJ EC00487 VJ=26.9
MOVL C00488 V=26.9 +MOVJ EC00488 VJ=26.9
MOVL C00489 V=26.9 +MOVJ EC00489 VJ=26.9
MOVL C00490 V=26.9 +MOVJ EC00490 VJ=26.9
MOVL C00491 V=26.9 +MOVJ EC00491 VJ=26.9
MOVL C00492 V=26.9 +MOVJ EC00492 VJ=26.9
MOVL C00493 V=26.9 +MOVJ EC00493 VJ=26.9
MOVL C00494 V=26.9 +MOVJ EC00494 VJ=26.9
MOVL C00495 V=26.9 +MOVJ EC00495 VJ=26.9
MOVL C00496 V=26.9 +MOVJ EC00496 VJ=26.9
MOVL C00497 V=26.9 +MOVJ EC00497 VJ=26.9
MOVL C00498 V=26.9 +MOVJ EC00498 VJ=26.9
MOVL C00499 V=26.9 +MOVJ EC00499 VJ=26.9
MOVL C00500 V=26.9 +MOVJ EC00500 VJ=26.9
MOVL C00501 V=26.9 +MOVJ EC00501 VJ=26.9
MOVL C00502 V=26.9 +MOVJ EC00502 VJ=26.9
MOVL C00503 V=26.9 +MOVJ EC00503 VJ=26.9
MOVL C00504 V=26.9 +MOVJ EC00504 VJ=26.9
MOVL C00505 V=26.9 +MOVJ EC00505 VJ=26.9
MOVL C00506 V=49.8 +MOVJ EC00506 VJ=49.8
MOVL C00507 V=26.9 +MOVJ EC00507 VJ=26.9
MOVL C00508 V=49.8 +MOVJ EC00508 VJ=49.8
MOVL C00509 V=26.9 +MOVJ EC00509 VJ=26.9
MOVL C00510 V=49.7 +MOVJ EC00510 VJ=49.7
MOVL C00511 V=26.9 +MOVJ EC00511 VJ=26.9
MOVL C00512 V=49.7 +MOVJ EC00512 VJ=49.7
MOVL C00513 V=26.9 +MOVJ EC00513 VJ=26.9
MOVL C00514 V=26.9 +MOVJ EC00514 VJ=26.9
MOVL C00515 V=49.6 +MOVJ EC00515 VJ=49.6
MOVL C00516 V=26.8 +MOVJ EC00516 VJ=26.8
MOVL C00517 V=49.6 +MOVJ EC00517 VJ=49.6
MOVL C00518 V=26.8 +MOVJ EC00518 VJ=26.8
MOVL C00519 V=49.5 +MOVJ EC00519 VJ=49.5
MOVL C00520 V=26.8 +MOVJ EC00520 VJ=26.8
MOVL C00521 V=49.5 +MOVJ EC00521 VJ=49.5
MOVL C00522 V=26.8 +MOVJ EC00522 VJ=26.8
MOVL C00523 V=49.5 +MOVJ EC00523 VJ=49.5
MOVL C00524 V=26.8 +MOVJ EC00524 VJ=26.8
MOVL C00525 V=49.4 +MOVJ EC00525 VJ=49.4
MOVL C00526 V=29.8 +MOVJ EC00526 VJ=29.8
MOVL C00527 V=30.0 +MOVJ EC00527 VJ=30.0
MOVL C00528 V=30.0 +MOVJ EC00528 VJ=30.0
MOVL C00529 V=30.0 +MOVJ EC00529 VJ=30.0
MOVL C00530 V=30.0 +MOVJ EC00530 VJ=30.0
MOVL C00531 V=30.0 +MOVJ EC00531 VJ=30.0
MOVL C00532 V=30.0 +MOVJ EC00532 VJ=30.0
MOVL C00533 V=30.0 +MOVJ EC00533 VJ=30.0
MOVL C00534 V=30.0 +MOVJ EC00534 VJ=30.0
MOVL C00535 V=30.0 +MOVJ EC00535 VJ=30.0
MOVL C00536 V=30.0 +MOVJ EC00536 VJ=30.0
MOVL C00537 V=30.0 +MOVJ EC00537 VJ=30.0
MOVL C00538 V=30.0 +MOVJ EC00538 VJ=30.0
MOVL C00539 V=30.0 +MOVJ EC00539 VJ=30.0
MOVL C00540 V=30.0 +MOVJ EC00540 VJ=30.0
MOVL C00541 V=30.0 +MOVJ EC00541 VJ=30.0
MOVL C00542 V=30.0 +MOVJ EC00542 VJ=30.0
MOVL C00543 V=30.0 +MOVJ EC00543 VJ=30.0
MOVL C00544 V=30.0 +MOVJ EC00544 VJ=30.0
MOVL C00545 V=30.0 +MOVJ EC00545 VJ=30.0
MOVL C00546 V=30.0 +MOVJ EC00546 VJ=30.0
MOVL C00547 V=30.0 +MOVJ EC00547 VJ=30.0
MOVL C00548 V=30.0 +MOVJ EC00548 VJ=30.0
MOVL C00549 V=30.0 +MOVJ EC00549 VJ=30.0
MOVL C00550 V=30.0 +MOVJ EC00550 VJ=30.0
MOVL C00551 V=30.0 +MOVJ EC00551 VJ=30.0
MOVL C00552 V=30.0 +MOVJ EC00552 VJ=30.0
MOVL C00553 V=30.0 +MOVJ EC00553 VJ=30.0
MOVL C00554 V=30.0 +MOVJ EC00554 VJ=30.0
MOVL C00555 V=30.0 +MOVJ EC00555 VJ=30.0
MOVL C00556 V=30.0 +MOVJ EC00556 VJ=30.0
MOVL C00557 V=30.0 +MOVJ EC00557 VJ=30.0
MOVL C00558 V=30.0 +MOVJ EC00558 VJ=30.0
MOVL C00559 V=30.0 +MOVJ EC00559 VJ=30.0
MOVL C00560 V=30.0 +MOVJ EC00560 VJ=30.0
MOVL C00561 V=30.0 +MOVJ EC00561 VJ=30.0
MOVL C00562 V=30.0 +MOVJ EC00562 VJ=30.0
MOVL C00563 V=30.0 +MOVJ EC00563 VJ=30.0
MOVL C00564 V=30.0 +MOVJ EC00564 VJ=30.0
MOVL C00565 V=30.0 +MOVJ EC00565 VJ=30.0
MOVL C00566 V=30.0 +MOVJ EC00566 VJ=30.0
MOVL C00567 V=30.0 +MOVJ EC00567 VJ=30.0
MOVL C00568 V=30.0 +MOVJ EC00568 VJ=30.0
MOVL C00569 V=30.0 +MOVJ EC00569 VJ=30.0
MOVL C00570 V=30.0 +MOVJ EC00570 VJ=30.0
MOVL C00571 V=30.0 +MOVJ EC00571 VJ=30.0
MOVL C00572 V=30.0 +MOVJ EC00572 VJ=30.0
MOVL C00573 V=30.0 +MOVJ EC00573 VJ=30.0
MOVL C00574 V=30.0 +MOVJ EC00574 VJ=30.0
MOVL C00575 V=30.0 +MOVJ EC00575 VJ=30.0
MOVL C00576 V=30.0 +MOVJ EC00576 VJ=30.0
MOVL C00577 V=30.0 +MOVJ EC00577 VJ=30.0
MOVL C00578 V=30.0 +MOVJ EC00578 VJ=30.0
MOVL C00579 V=30.0 +MOVJ EC00579 VJ=30.0
MOVL C00580 V=30.0 +MOVJ EC00580 VJ=30.0
MOVL C00581 V=30.0 +MOVJ EC00581 VJ=30.0
MOVL C00582 V=30.0 +MOVJ EC00582 VJ=30.0
MOVL C00583 V=30.0 +MOVJ EC00583 VJ=30.0
MOVL C00584 V=30.0 +MOVJ EC00584 VJ=30.0
MOVL C00585 V=30.0 +MOVJ EC00585 VJ=30.0
MOVL C00586 V=30.0 +MOVJ EC00586 VJ=30.0
MOVL C00587 V=30.0 +MOVJ EC00587 VJ=30.0
MOVL C00588 V=30.0 +MOVJ EC00588 VJ=30.0
MOVL C00589 V=30.0 +MOVJ EC00589 VJ=30.0
MOVL C00590 V=30.0 +MOVJ EC00590 VJ=30.0
MOVL C00591 V=30.0 +MOVJ EC00591 VJ=30.0
MOVL C00592 V=30.0 +MOVJ EC00592 VJ=30.0
MOVL C00593 V=30.0 +MOVJ EC00593 VJ=30.0
MOVL C00594 V=30.0 +MOVJ EC00594 VJ=30.0
MOVL C00595 V=30.0 +MOVJ EC00595 VJ=30.0
MOVL C00596 V=30.0 +MOVJ EC00596 VJ=30.0
MOVL C00597 V=30.0 +MOVJ EC00597 VJ=30.0
MOVL C00598 V=30.0 +MOVJ EC00598 VJ=30.0
MOVL C00599 V=30.0 +MOVJ EC00599 VJ=30.0
MOVL C00600 V=30.0 +MOVJ EC00600 VJ=30.0
MOVL C00601 V=28.3 +MOVJ EC00601 VJ=28.3
MOVL C00602 V=28.2 +MOVJ EC00602 VJ=28.2
MOVL C00603 V=28.2 +MOVJ EC00603 VJ=28.2
MOVL C00604 V=28.2 +MOVJ EC00604 VJ=28.2
MOVL C00605 V=30.1 +MOVJ EC00605 VJ=30.1
END
