/JOB
//NAME AAA
//POS
///NPOS 853,0,853,0,0,0
///TOOL 12
///POSTYPE PULSE
///PULSE
C00000=33236,79625,23392,33886,10850,-19706
C00001=33500,79737,23727,34159,10415,-19621
C00002=33763,79850,24059,34430,9980,-19534
C00003=34026,79967,24388,34698,9545,-19448
C00004=34289,80086,24716,34963,9111,-19360
C00005=34552,80207,25041,35226,8676,-19272
C00006=34814,80332,25363,35486,8242,-19183
C00007=35169,80292,25684,36091,7246,-18966
C00008=35431,80425,26003,36344,6813,-18875
C00009=35692,80561,26320,36594,6379,-18783
C00010=35954,80700,26635,36843,5946,-18690
C00011=36215,80842,26948,37089,5514,-18596
C00012=36475,80986,27259,37333,5081,-18502
C00013=36829,80990,27581,37904,4092,-18272
C00014=37089,81144,27889,38143,3662,-18175
C00015=37348,81300,28195,38379,3232,-18077
C00016=37607,81460,28498,38614,2803,-17978
C00017=37865,81622,28800,38847,2374,-17879
C00018=38123,81787,29099,39078,1946,-17778
C00019=38475,81837,29424,39625,970,-17535
C00020=38733,82011,29720,39852,545,-17432
C00021=38989,82189,30014,40079,122,-17327
C00022=39246,82369,30305,40304,-300,-17222
C00023=39502,82551,30593,40529,-720,-17116
C00024=39758,82737,30879,40753,-1139,-17009
C00025=40109,82832,31204,41283,-2094,-16750
C00026=40364,83026,31484,41505,-2508,-16640
C00027=40619,83222,31762,41727,-2919,-16529
C00028=40875,83421,32035,41949,-3329,-16416
C00029=41130,83623,32305,42170,-3736,-16303
C00030=41385,83826,32572,42392,-4141,-16188
C00031=41736,83964,32887,42919,-5062,-15913
C00032=41992,84175,33145,43141,-5458,-15795
C00033=42248,84388,33398,43364,-5850,-15676
C00034=42504,84602,33645,43588,-6240,-15555
C00035=42760,84819,33888,43812,-6626,-15433
C00036=43017,85036,34124,44038,-7009,-15310
C00037=43373,85212,34412,44573,-7880,-15018
C00038=43631,85435,34635,44802,-8250,-14891
C00039=43889,85659,34853,45032,-8616,-14763
C00040=44048,85922,35015,44952,-8500,-14806
C00041=44207,86185,35181,44872,-8385,-14849
C00042=44366,86450,35350,44792,-8270,-14891
C00043=44524,86716,35524,44711,-8156,-14934
C00044=44683,86983,35701,44631,-8042,-14977
C00045=44841,87251,35881,44551,-7928,-15020
C00046=44999,87521,36066,44470,-7815,-15063
C00047=45157,87791,36254,44390,-7702,-15105
C00048=45314,88062,36446,44309,-7589,-15148
C00049=45472,88335,36642,44229,-7477,-15190
C00050=45630,88608,36841,44148,-7366,-15233
C00051=45787,88882,37044,44068,-7255,-15275
C00052=45945,89158,37251,43987,-7145,-15318
C00053=46102,89434,37462,43906,-7035,-15360
C00054=46260,89711,37676,43825,-6926,-15402
C00055=46417,89989,37894,43745,-6817,-15445
C00056=46574,90267,38114,43664,-6709,-15487
C00057=46834,90509,38459,43886,-7138,-15364
C00058=47096,90751,38795,44110,-7562,-15239
C00059=47358,90993,39122,44336,-7979,-15112
C00060=47727,91208,39558,44874,-8900,-14811
C00061=47993,91450,39859,45107,-9300,-14679
C00062=48261,91691,40147,45342,-9690,-14545
C00063=48530,91931,40422,45581,-10072,-14410
C00064=48801,92169,40685,45822,-10446,-14273
C00065=49073,92406,40934,46066,-10813,-14134
C00066=49346,92641,41169,46313,-11172,-13993
C00067=49735,92861,41477,46891,-11975,-13665
C00068=50013,93093,41677,47146,-12309,-13520
C00069=50291,93323,41861,47404,-12634,-13373
C00070=50572,93550,42029,47664,-12951,-13225
C00071=50853,93775,42182,47927,-13260,-13076
C00072=51135,93998,42319,48193,-13560,-12925
C00073=51539,94211,42485,48808,-14246,-12578
C00074=51824,94428,42582,49081,-14521,-12424
C00075=52109,94643,42662,49355,-14788,-12270
C00076=52395,94854,42726,49632,-15047,-12114
C00077=52681,95063,42774,49911,-15299,-11957
C00078=52968,95269,42805,50191,-15543,-11800
C00079=53379,95468,42821,50834,-16119,-11440
C00080=53665,95668,42812,51119,-16341,-11280
C00081=53951,95865,42788,51404,-16556,-11120
C00082=54236,96060,42749,51691,-16766,-10960
C00083=54521,96251,42694,51978,-16969,-10799
C00084=54804,96440,42625,52265,-17167,-10638
C00085=55212,96623,42497,52927,-17650,-10270
C00086=55493,96806,42391,53216,-17831,-10107
C00087=55772,96986,42271,53505,-18007,-9945
C00088=56050,97163,42137,53794,-18179,-9783
C00089=56325,97338,41990,54083,-18347,-9620
C00090=56599,97511,41830,54372,-18511,-9457
C00091=56994,97679,41576,55040,-18924,-9085
C00092=57263,97846,41384,55329,-19076,-8922
C00093=57530,98010,41179,55616,-19226,-8759
C00094=57794,98172,40963,55903,-19372,-8596
C00095=58124,98119,40560,56170,-19626,-8429
C00096=58289,97853,39788,56181,-18923,-8417
C00097=58368,97526,38665,56370,-17438,-8329
C00098=58535,97268,37882,56422,-16746,-8295
C00099=58701,97014,37095,56488,-16059,-8253
C00100=58867,96763,36304,56568,-15378,-8205
C00101=59033,96514,35510,56660,-14703,-8150
C00102=59199,96268,34714,56767,-14036,-8089
C00103=59293,95979,33587,57135,-12659,-7905
C00104=59460,95740,32788,57278,-12020,-7825
C00105=59628,95502,31989,57434,-11393,-7739
C00106=59795,95267,31188,57601,-10777,-7648
C00107=59963,95033,30386,57780,-10174,-7551
C00108=60130,94801,29584,57970,-9583,-7449
C00109=60298,94571,28781,58171,-9006,-7342
C00110=60409,94313,27682,58714,-7832,-7073
C00111=60579,94086,26883,58946,-7299,-6952
C00112=60748,93860,26083,59187,-6781,-6828
C00113=60918,93635,25285,59438,-6279,-6699
C00114=61088,93411,24486,59698,-5794,-6567
C00115=61259,93187,23688,59967,-5325,-6431
C00116=61389,92945,22625,60632,-4379,-6108
C00117=61562,92722,21832,60924,-3962,-5963
C00118=61735,92500,21039,61225,-3563,-5814
C00119=61909,92278,20246,61532,-3183,-5663
C00120=62083,92056,19454,61847,-2821,-5510
C00121=62257,91833,18663,62168,-2478,-5354
C00122=62411,91596,17635,62922,-1786,-4994
C00123=62588,91373,16848,63260,-1500,-4832
C00124=62767,91150,16061,63602,-1234,-4668
C00125=62945,90926,15275,63950,-987,-4502
C00126=63124,90702,14489,64302,-760,-4335
C00127=63304,90477,13703,64658,-552,-4167
C00128=63483,90239,12703,65471,-128,-3784
C00129=63666,90013,11920,65836,20,-3613
C00130=63850,89786,11138,66205,148,-3440
C00131=64034,89559,10356,66576,256,-3267
C00132=64219,89331,9574,66948,343,-3092
C00133=64404,89102,8792,67323,410,-2918
C00134=64612,88861,7812,68162,563,-2526
C00135=64801,88631,7032,68539,571,-2350
C00136=64990,88401,6252,68916,559,-2175
C00137=65181,88170,5472,69294,527,-1999
C00138=65371,87939,4692,69671,474,-1824
C00139=65562,87708,3913,70047,402,-1648
C00140=65797,87466,2945,70884,286,-1257
C00141=65992,87234,2167,71256,156,-1083
C00142=66186,87003,1389,71627,5,-909
C00143=66381,86773,611,71996,-164,-737
C00144=66576,86542,-166,72362,-353,-564
C00145=66771,86312,-943,72725,-561,-393
C00146=67033,86074,-1900,73532,-937,-12
C00147=67046,85644,-2634,74044,-525,231
C00148=66991,85210,-3199,74114,45,265
C00149=66932,84776,-3764,74188,617,299
C00150=66870,84342,-4327,74266,1190,334
C00151=66803,83910,-4890,74348,1765,370
C00152=66733,83479,-5452,74434,2341,406
C00153=66450,83072,-6072,74660,3655,505
C00154=66370,82646,-6630,74756,4234,543
C00155=66286,82221,-7187,74856,4815,581
C00156=66198,81798,-7743,74960,5398,620
C00157=66105,81375,-8298,75067,5981,660
C00158=66008,80955,-8852,75179,6567,701
C00159=65694,80582,-9440,75443,7894,806
C00160=65587,80168,-9988,75565,8483,848
C00161=65476,79755,-10535,75691,9073,891
C00162=65360,79343,-11080,75821,9665,935
C00163=65240,78933,-11623,75956,10259,979
C00164=65115,78525,-12165,76094,10854,1024
C00165=64768,78192,-12717,76395,12193,1137
C00166=64633,77791,-13252,76544,12792,1184
C00167=64493,77392,-13784,76697,13393,1232
C00168=64348,76996,-14314,76854,13995,1280
C00169=64199,76601,-14842,77015,14599,1329
C00170=64045,76209,-15367,77180,15204,1379
C00171=63663,75919,-15877,77519,16556,1499
C00172=63498,75535,-16394,77695,17165,1551
C00173=63328,75154,-16907,77875,17776,1604
C00174=63153,74776,-17418,78058,18389,1657
C00175=62973,74400,-17925,78246,19003,1711
C00176=62788,74027,-18429,78438,19619,1765
C00177=62373,73784,-18890,78814,20982,1894
C00178=62176,73421,-19383,79016,21603,1951
C00179=61974,73062,-19872,79222,22225,2008
C00180=61764,72700,-20366,79437,22859,2068
C00181=61507,72281,-20953,79709,23629,2144
C00182=61242,71869,-21527,79982,24403,2220
C00183=60969,71462,-22090,80256,25180,2296
C00184=60310,70975,-22809,80785,27047,2452
C00185=59878,70331,-23559,81101,28117,2522
C00186=59805,69735,-24170,81168,28132,2509
C00187=59731,69139,-24778,81234,28147,2497
C00188=59657,68543,-25383,81301,28162,2484
C00189=59583,67946,-25985,81367,28177,2472
C00190=59508,67349,-26584,81432,28193,2459
C00191=59433,66752,-27179,81497,28208,2447
C00192=59358,66154,-27771,81562,28224,2435
C00193=59282,65556,-28361,81627,28239,2422
C00194=59206,64958,-28947,81692,28255,2410
C00195=59130,64359,-29530,81756,28271,2397
C00196=59053,63759,-30111,81819,28287,2385
C00197=58975,63159,-30688,81883,28304,2373
C00198=58898,62559,-31262,81946,28320,2361
C00199=58820,61958,-31834,82009,28337,2348
C00200=58741,61356,-32402,82072,28354,2336
C00201=58662,60753,-32968,82134,28371,2324
C00202=58582,60152,-33529,82196,28388,2311
C00203=58113,59518,-34193,82507,29472,2383
C00204=57632,58899,-34838,82822,30560,2454
C00205=57140,58294,-35465,83142,31652,2525
C00206=56637,57705,-36074,83465,32747,2597
C00207=55732,57159,-36709,84041,34915,2750
C00208=55205,56614,-37268,84372,36019,2821
C00209=54668,56085,-37807,84706,37127,2893
C00210=54119,55572,-38327,85043,38238,2965
C00211=53561,55078,-38828,85383,39354,3037
C00212=52993,54600,-39308,85725,40473,3109
C00213=52024,54256,-39730,86318,42666,3262
C00214=51437,53829,-40158,86664,43793,3334
C00215=50841,53421,-40565,87012,44923,3407
C00216=50237,53032,-40952,87361,46057,3480
C00217=49624,52663,-41317,87712,47194,3553
C00218=49004,52314,-41662,88064,48335,3626
C00219=47995,52187,-41867,88659,50548,3777
C00220=47362,51893,-42158,89012,51695,3851
C00221=46722,51620,-42427,89364,52844,3924
C00222=46077,51368,-42675,89716,53996,3998
C00223=45426,51137,-42902,90069,55151,4072
C00224=44769,50929,-43107,90420,56309,4146
C00225=43749,51027,-43097,91004,58533,4296
C00226=43087,50876,-43248,91352,59694,4370
C00227=42421,50747,-43378,91698,60858,4444
C00228=41753,50641,-43486,92043,62023,4518
C00229=41082,50557,-43572,92386,63190,4592
C00230=40409,50496,-43637,92727,64359,4667
C00231=39407,50819,-43422,93282,66584,4813
C00232=38735,50816,-43435,93615,67754,4887
C00233=38064,50836,-43427,93945,68925,4961
C00234=37392,50878,-43398,94270,70097,5034
C00235=36721,50943,-43348,94592,71269,5108
C00236=36051,51030,-43277,94910,72443,5181
C00237=35098,51567,-42873,95419,74658,5320
C00238=34436,51711,-42753,95724,75832,5392
C00239=33778,51876,-42614,96024,77005,5463
C00240=33123,52063,-42456,96317,78178,5534
C00241=32854,52335,-42090,96431,79295,5553
C00242=33140,52201,-41913,96225,79332,5470
C00243=33425,52068,-41733,96018,79369,5387
C00244=33708,51936,-41552,95812,79405,5304
C00245=33990,51805,-41369,95605,79439,5221
C00246=34292,51880,-41200,95477,79423,5187
C00247=34644,51688,-41321,95282,78705,5124
C00248=34996,51506,-41433,95085,77987,5061
C00249=35380,50896,-41820,94761,76605,4932
C00250=35735,50736,-41914,94561,75888,4869
C00251=36089,50585,-42001,94361,75171,4808
C00252=36444,50443,-42078,94160,74454,4746
C00253=36799,50311,-42148,93957,73738,4685
C00254=37153,50189,-42209,93754,73023,4624
C00255=37559,49655,-42536,93424,71636,4497
C00256=37915,49555,-42579,93219,70921,4438
C00257=38269,49464,-42614,93015,70207,4378
C00258=38623,49383,-42641,92810,69493,4320
C00259=38976,49312,-42660,92605,68781,4262
C00260=39327,49250,-42671,92400,68069,4204
C00261=39752,48794,-42936,92069,66676,4082
C00262=40103,48754,-42929,91864,65964,4026
C00263=40453,48724,-42914,91660,65254,3971
C00264=40802,48703,-42891,91455,64544,3916
C00265=41148,48691,-42860,91251,63836,3862
C00266=41493,48689,-42822,91048,63128,3808
C00267=41931,48313,-43025,90721,61730,3693
C00268=42274,48332,-42969,90519,61023,3641
C00269=42615,48361,-42905,90317,60318,3589
C00270=42954,48399,-42834,90116,59613,3539
C00271=43291,48445,-42755,89916,58910,3489
C00272=43625,48501,-42669,89717,58208,3439
C00273=44071,48206,-42811,89398,56806,3331
C00274=44401,48283,-42707,89200,56105,3283
C00275=44730,48369,-42597,89004,55406,3236
C00276=45055,48463,-42479,88808,54708,3190
C00277=45377,48566,-42353,88614,54011,3144
C00278=45697,48677,-42221,88420,53316,3098
C00279=46145,48463,-42302,88110,51912,2997
C00280=46460,48596,-42153,87920,51218,2953
C00281=46772,48736,-41997,87730,50527,2910
C00282=47080,48885,-41834,87541,49837,2867
C00283=47385,49041,-41664,87354,49148,2825
C00284=47687,49206,-41487,87168,48461,2784
C00285=47987,49376,-41305,86983,47775,2743
C00286=48140,49854,-40915,86913,47809,2756
C00287=48294,50332,-40522,86843,47844,2769
C00288=48448,50809,-40127,86771,47880,2783
C00289=48601,51284,-39730,86700,47917,2796
C00290=48754,51758,-39330,86627,47955,2809
C00291=48908,52231,-38929,86555,47994,2821
C00292=49061,52703,-38526,86481,48034,2834
C00293=49214,53174,-38121,86407,48074,2846
C00294=49367,53643,-37714,86332,48116,2859
C00295=49521,54112,-37305,86257,48159,2871
C00296=49674,54579,-36894,86181,48202,2883
C00297=49827,55045,-36482,86105,48247,2895
C00298=49980,55510,-36067,86028,48292,2906
C00299=50134,55974,-35651,85950,48338,2918
C00300=50287,56436,-35233,85872,48385,2929
C00301=50440,56897,-34813,85793,48433,2940
C00302=50591,57359,-34391,85714,48482,2952
C00303=51099,57183,-34436,85366,47050,2836
C00304=51423,57337,-34236,85154,46361,2786
C00305=51743,57498,-34029,84945,45674,2735
C00306=52059,57667,-33816,84738,44989,2686
C00307=52370,57842,-33597,84533,44306,2637
C00308=52678,58025,-33370,84329,43624,2588
C00309=53176,57925,-33348,83993,42196,2479
C00310=53476,58126,-33106,83794,41517,2432
C00311=53772,58332,-32858,83597,40841,2386
C00312=54064,58546,-32604,83402,40166,2341
C00313=54351,58765,-32343,83209,39494,2296
C00314=54634,58991,-32077,83019,38823,2251
C00315=55117,58965,-31991,82696,37400,2147
C00316=55391,59208,-31710,82510,36733,2104
C00317=55661,59456,-31423,82327,36068,2062
C00318=55926,59710,-31131,82145,35405,2020
C00319=56187,59969,-30833,81966,34744,1978
C00320=56443,60234,-30531,81789,34084,1938
C00321=56906,60280,-30383,81480,32670,1838
C00322=57153,60560,-30066,81308,32014,1798
C00323=57396,60845,-29744,81138,31361,1759
C00324=57633,61136,-29417,80971,30709,1720
C00325=57867,61431,-29086,80806,30059,1682
C00326=58095,61731,-28749,80643,29412,1644
C00327=58534,61844,-28542,80348,28008,1548
C00328=58753,62158,-28193,80190,27364,1511
C00329=58967,62477,-27839,80035,26722,1475
C00330=59176,62800,-27481,79882,26082,1439
C00331=59380,63127,-27118,79731,25444,1403
C00332=59580,63458,-26751,79582,24808,1367
C00333=59992,63634,-26486,79301,23417,1274
C00334=60182,63978,-26107,79158,22785,1239
C00335=60367,64327,-25724,79017,22155,1205
C00336=60547,64679,-25337,78878,21526,1171
C00337=60722,65034,-24946,78742,20900,1137
C00338=60893,65393,-24550,78608,20276,1103
C00339=61275,65628,-24230,78341,18898,1012
C00340=61432,65967,-23807,78212,18272,979
C00341=61281,66240,-23087,77755,18568,801
C00342=61129,66514,-22370,77293,18842,621
C00343=60978,66786,-21654,76828,19095,441
C00344=60827,67059,-20940,76360,19326,259
C00345=60676,67330,-20229,75890,19534,77
C00346=60485,67595,-19418,74932,19794,-321
C00347=60339,67862,-18713,74455,19937,-505
C00348=60194,68127,-18010,73978,20058,-689
C00349=60050,68390,-17310,73499,20157,-874
C00350=59906,68652,-16611,73021,20233,-1058
C00351=59763,68911,-15915,72542,20287,-1243
C00352=59609,69146,-15131,71575,20244,-1646
C00353=59471,69400,-14441,71098,20232,-1830
C00354=59333,69651,-13752,70624,20197,-2013
C00355=59195,69900,-13064,70151,20140,-2196
C00356=59059,70148,-12379,69681,20061,-2378
C00357=58922,70393,-11695,69214,19960,-2559
C00358=58804,70595,-10929,68274,19615,-2955
C00359=58672,70834,-10248,67818,19449,-3133
C00360=58540,71071,-9569,67366,19261,-3309
C00361=58409,71306,-8891,66920,19052,-3485
C00362=58278,71539,-8214,66478,18821,-3658
C00363=58147,71770,-7539,66043,18570,-3830
C00364=58059,71945,-6775,65166,17932,-4205
C00365=57932,72172,-6099,64750,17620,-4371
C00366=57805,72397,-5425,64341,17286,-4534
C00367=57678,72622,-4751,63939,16934,-4695
C00368=57551,72845,-4077,63546,16561,-4853
C00369=57424,73068,-3403,63161,16170,-5008
C00370=57360,73227,-2627,62383,15262,-5349
C00371=57236,73448,-1952,62025,14816,-5496
C00372=57111,73668,-1277,61676,14351,-5638
C00373=56987,73889,-601,61338,13870,-5778
C00374=56862,74110,74,61010,13372,-5914
C00375=56737,74332,750,60694,12858,-6046
C00376=56693,74490,1548,60045,11712,-6337
C00377=56570,74714,2226,59761,11152,-6457
C00378=56446,74939,2905,59489,10578,-6572
C00379=56322,75165,3584,59229,9990,-6683
C00380=56198,75393,4262,58982,9390,-6789
C00381=56074,75623,4941,58747,8777,-6891
C00382=56044,75801,5765,58255,7440,-7118
C00383=55921,76037,6445,58058,6793,-7204
C00384=55797,76276,7126,57875,6137,-7284
C00385=55673,76517,7805,57706,5471,-7359
C00386=55549,76762,8484,57550,4798,-7428
C00387=55424,77010,9162,57409,4118,-7492
C00388=55300,77262,9839,57281,3431,-7550
C00389=55284,77484,10680,56992,1949,-7686
C00390=55160,77745,11354,56906,1246,-7726
C00391=55035,78011,12027,56835,538,-7759
C00392=55061,78054,12708,56649,-1069,-7846
C00393=54771,77971,13002,56323,-951,-8000
C00394=54479,77887,13289,55998,-834,-8154
C00395=54077,77827,13659,55262,-524,-8501
C00396=53779,77744,13931,54934,-407,-8655
C00397=53477,77662,14195,54607,-290,-8809
C00398=53173,77579,14452,54278,-174,-8963
C00399=52866,77497,14703,53950,-57,-9118
C00400=52557,77415,14946,53620,60,-9272
C00401=52137,77360,15255,52880,375,-9619
C00402=51823,77278,15480,52549,494,-9774
C00403=51506,77196,15697,52219,613,-9928
C00404=51187,77115,15906,51888,733,-10083
C00405=50866,77033,16106,51556,854,-10237
C00406=50542,76951,16299,51224,976,-10392
C00407=50109,76899,16539,50481,1308,-10738
C00408=49782,76818,16710,50148,1434,-10892
C00409=49453,76736,16873,49816,1562,-11046
C00410=49122,76654,17026,49483,1692,-11200
C00411=48790,76571,17171,49150,1825,-11354
C00412=48456,76489,17305,48817,1959,-11508
C00413=48013,76438,17466,48073,2320,-11852
C00414=47677,76355,17577,47740,2463,-12005
C00415=47339,76271,17677,47407,2608,-12158
C00416=47001,76186,17768,47074,2756,-12311
C00417=46662,76101,17848,46742,2908,-12464
C00418=46321,76016,17918,46409,3064,-12616
C00419=45981,75929,17977,46077,3223,-12768
C00420=45534,75877,18031,45335,3636,-13106
C00421=45193,75790,18063,45004,3807,-13257
C00422=44851,75701,18083,44673,3983,-13407
C00423=44509,75611,18092,44343,4164,-13556
C00424=44167,75521,18090,44013,4349,-13705
C00425=43824,75429,18076,43683,4540,-13853
C00426=43382,75375,18030,42947,5013,-14184
C00427=43041,75282,17988,42619,5219,-14330
C00428=42700,75187,17933,42292,5430,-14475
C00429=42360,75092,17867,41966,5647,-14619
C00430=42021,74996,17789,41641,5870,-14763
C00431=41682,74899,17704,41315,6097,-14906
C00432=41439,74763,17660,41396,6023,-14869
C00433=41196,74627,17619,41476,5950,-14833
C00434=40952,74493,17581,41557,5876,-14796
C00435=40709,74360,17545,41637,5803,-14760
C00436=40465,74229,17511,41717,5729,-14723
C00437=40221,74098,17481,41798,5656,-14687
C00438=39977,73968,17453,41878,5582,-14651
C00439=39733,73840,17428,41958,5509,-14614
C00440=39488,73713,17405,42037,5435,-14578
C00441=39244,73587,17385,42117,5362,-14541
C00442=38999,73463,17368,42197,5288,-14505
C00443=38754,73340,17354,42276,5215,-14469
C00444=38509,73218,17342,42356,5142,-14432
C00445=38263,73097,17333,42435,5069,-14396
C00446=38018,72978,17327,42514,4996,-14360
C00447=37772,72860,17323,42593,4923,-14323
C00448=37526,72743,17317,42672,4852,-14287
C00449=37096,72704,17317,41931,5266,-14620
C00450=36758,72625,17297,41601,5444,-14767
C00451=36422,72545,17267,41271,5627,-14913
C00452=36086,72465,17226,40942,5815,-15058
C00453=35750,72384,17175,40614,6007,-15203
C00454=35416,72303,17114,40287,6203,-15347
C00455=34997,72267,17029,39551,6672,-15670
C00456=34666,72186,16944,39225,6881,-15811
C00457=34335,72104,16850,38899,7095,-15952
C00458=34006,72022,16747,38574,7313,-16091
C00459=33678,71941,16634,38250,7535,-16230
C00460=33351,71859,16513,37926,7762,-16368
C00461=32947,71832,16354,37193,8280,-16680
C00462=32623,71752,16212,36870,8518,-16815
C00463=32301,71672,16062,36547,8758,-16949
C00464=31980,71593,15905,36225,9003,-17082
C00465=31660,71515,15739,35902,9250,-17214
C00466=31342,71438,15567,35580,9501,-17346
C00467=30953,71424,15349,34845,10059,-17646
C00468=30638,71350,15160,34522,10317,-17775
C00469=30325,71277,14964,34199,10578,-17903
C00470=30013,71205,14762,33875,10841,-18030
C00471=29702,71134,14554,33551,11106,-18156
C00472=29392,71064,14340,33227,11372,-18281
C00473=29019,71071,14078,32484,11951,-18571
C00474=28713,71006,13851,32157,12224,-18694
C00475=28409,70942,13618,31830,12496,-18816
C00476=28106,70880,13381,31502,12768,-18937
C00477=27804,70820,13138,31174,13042,-19058
C00478=27503,70761,12890,30844,13315,-19177
C00479=27204,70704,12638,30513,13590,-19296
C00480=26849,70736,12336,29753,14179,-19576
C00481=26554,70684,12074,29419,14453,-19694
C00482=26260,70634,11807,29083,14727,-19810
C00483=25967,70586,11535,28747,15000,-19926
C00484=25676,70540,11259,28409,15273,-20042
C00485=25386,70495,10980,28069,15545,-20157
C00486=25085,70538,10683,27276,16111,-20439
C00487=25221,70270,10744,27245,15913,-20485
C00488=25357,70005,10809,27213,15715,-20531
C00489=25493,69740,10876,27182,15517,-20576
C00490=25628,69477,10946,27150,15319,-20622
C00491=25767,69253,11031,27113,15144,-20666
C00492=26051,69295,11319,27456,14869,-20553
C00493=26335,69338,11604,27798,14592,-20439
C00494=26621,69383,11884,28138,14314,-20325
C00495=26907,69430,12160,28476,14035,-20210
C00496=27196,69479,12432,28813,13756,-20095
C00497=27540,69437,12743,29579,13150,-19819
C00498=27832,69490,13005,29912,12870,-19701
C00499=28125,69546,13262,30244,12589,-19583
C00500=28420,69603,13515,30574,12309,-19465
C00501=28715,69662,13763,30904,12029,-19345
C00502=29012,69723,14006,31232,11749,-19225
C00503=29372,69703,14287,31980,11144,-18940
C00504=29672,69769,14518,32306,10866,-18818
C00505=29974,69835,14744,32631,10590,-18695
C00506=30277,69904,14964,32955,10315,-18571
C00507=30581,69973,15178,33279,10042,-18446
C00508=30887,70044,15386,33602,9770,-18320
C00509=31262,70047,15629,34338,9181,-18024
C00510=31571,70121,15822,34660,8916,-17896
C00511=31882,70197,16009,34982,8653,-17766
C00512=32194,70273,16188,35304,8393,-17636
C00513=32507,70351,16360,35626,8136,-17504
C00514=32821,70429,16525,35947,7882,-17372
C00515=33212,70449,16715,36678,7328,-17065
C00516=33530,70530,16861,37000,7082,-16930
C00517=33850,70610,16999,37322,6842,-16793
C00518=34170,70692,17128,37645,6606,-16656
C00519=34492,70773,17248,37968,6374,-16518
C00520=34816,70854,17360,38292,6146,-16379
C00521=35140,70936,17461,38616,5922,-16239
C00522=35549,70968,17571,39349,5424,-15918
C00523=35877,71050,17650,39674,5213,-15775
C00524=36206,71132,17719,40000,5008,-15631
C00525=36536,71213,17778,40327,4807,-15487
C00526=36867,71293,17826,40655,4611,-15342
C00527=37198,71373,17864,40983,4420,-15195
C00528=37620,71410,17891,41721,3979,-14864
C00529=37955,71489,17903,42051,3801,-14716
C00530=38290,71568,17907,42381,3627,-14567
C00531=38534,71688,17918,42302,3700,-14603
C00532=38777,71810,17931,42222,3773,-14640
C00533=39021,71933,17947,42142,3846,-14677
C00534=39264,72057,17966,42062,3919,-14713
C00535=39507,72183,17988,41982,3992,-14750
C00536=39749,72309,18012,41902,4066,-14787
C00537=39992,72437,18039,41822,4139,-14824
C00538=40234,72566,18068,41742,4213,-14860
C00539=40476,72697,18100,41661,4286,-14897
C00540=40717,72828,18135,41581,4360,-14934
C00541=40959,72960,18172,41500,4433,-14971
C00542=41200,73094,18213,41420,4507,-15008
C00543=41441,73229,18255,41339,4580,-15044
C00544=41682,73365,18300,41258,4654,-15081
C00545=41923,73502,18348,41177,4727,-15118
C00546=42163,73639,18399,41096,4800,-15155
C00547=42403,73778,18449,41016,4875,-15192
C00548=42737,73873,18535,41341,4643,-15048
C00549=43071,73968,18608,41666,4418,-14903
C00550=43407,74062,18670,41993,4198,-14758
C00551=43840,74114,18744,42726,3697,-14428
C00552=44177,74206,18776,43055,3494,-14280
C00553=44515,74297,18796,43383,3297,-14131
C00554=44853,74387,18804,43713,3106,-13982
C00555=45191,74476,18801,44043,2920,-13832
C00556=45529,74563,18786,44373,2739,-13682
C00557=45969,74613,18755,45113,2306,-13343
C00558=46307,74699,18712,45445,2139,-13190
C00559=46645,74785,18658,45777,1976,-13038
C00560=46983,74869,18592,46109,1817,-12885
C00561=47319,74953,18516,46441,1663,-12732
C00562=47655,75037,18428,46774,1512,-12578
C00563=48097,75085,18301,47518,1134,-12233
C00564=48431,75167,18188,47850,993,-12079
C00565=48764,75249,18065,48183,855,-11924
C00566=49096,75330,17932,48516,720,-11769
C00567=49427,75411,17790,48849,588,-11614
C00568=49756,75492,17638,49181,458,-11459
C00569=50192,75541,17424,49926,119,-11111
C00570=50518,75621,17249,50258,-5,-10955
C00571=50842,75701,17065,50590,-127,-10800
C00572=51164,75781,16873,50921,-247,-10644
C00573=51485,75861,16672,51253,-366,-10489
C00574=51804,75941,16463,51584,-484,-10333
C00575=52227,75992,16173,52326,-799,-9984
C00576=52541,76072,15944,52656,-914,-9828
C00577=52853,76152,15707,52985,-1028,-9673
C00578=53162,76232,15462,53314,-1141,-9517
C00579=53469,76312,15210,53643,-1254,-9361
C00580=53773,76392,14951,53971,-1367,-9206
C00581=54074,76472,14684,54298,-1479,-9051
C00582=54479,76529,14319,55035,-1782,-8701
C00583=54774,76609,14035,55362,-1895,-8546
C00584=55067,76690,13744,55687,-2007,-8391
C00585=55357,76771,13447,56012,-2120,-8236
C00586=55685,76586,12953,56335,-2353,-8080
C00587=55820,76324,12298,56372,-1640,-8063
C00588=55852,76097,11475,56571,-124,-7971
C00589=55988,75846,10814,56650,579,-7934
C00590=56123,75599,10150,56743,1279,-7891
C00591=56258,75355,9485,56850,1975,-7842
C00592=56392,75115,8818,56972,2664,-7786
C00593=56527,74879,8149,57108,3347,-7724
C00594=56568,74698,7328,57491,4774,-7545
C00595=56703,74469,6658,57667,5431,-7466
C00596=56837,74243,5988,57857,6079,-7381
C00597=56971,74020,5316,58059,6717,-7291
C00598=57104,73799,4644,58275,7345,-7196
C00599=57237,73580,3972,58504,7960,-7096
C00600=57291,73427,3169,59055,9228,-6842
C00601=57425,73212,2498,59320,9805,-6728
C00602=57558,72998,1827,59596,10367,-6609
C00603=57691,72784,1156,59885,10914,-6485
C00604=57823,72572,484,60184,11447,-6358
C00605=57956,72360,-187,60495,11964,-6226
C00606=58024,72216,-970,61192,13019,-5913
C00607=58157,72004,-1639,61533,13486,-5770
C00608=58291,71792,-2310,61884,13935,-5624
C00609=58424,71579,-2980,62244,14366,-5475
C00610=58556,71365,-3651,62614,14779,-5322
C00611=58689,71151,-4322,62993,15173,-5167
C00612=58776,70998,-5089,63807,15976,-4811
C00613=58911,70780,-5761,64209,16312,-4647
C00614=59046,70561,-6432,64618,16628,-4482
C00615=59181,70340,-7105,65035,16924,-4314
C00616=59315,70118,-7779,65458,17200,-4144
C00617=59450,69894,-8453,65888,17454,-3972
C00618=59562,69717,-9218,66786,17977,-3587
C00619=59700,69487,-9895,67231,18169,-3410
C00620=59838,69255,-10573,67681,18340,-3232
C00621=59976,69020,-11253,68136,18488,-3053
C00622=60114,68784,-11934,68594,18616,-2872
C00623=60253,68546,-12617,69055,18721,-2691
C00624=60392,68305,-13302,69520,18804,-2508
C00625=60536,68091,-14080,70473,18989,-2107
C00626=60679,67844,-14770,70944,19007,-1923
C00627=60822,67594,-15461,71416,19002,-1738
C00628=60966,67343,-16155,71890,18976,-1553
C00629=61110,67089,-16851,72364,18928,-1368
C00630=61254,66834,-17549,72838,18857,-1183
C00631=61431,66586,-18350,73799,18741,-781
C00632=61579,66325,-19055,74272,18605,-597
C00633=61728,66062,-19761,74743,18448,-413
C00634=61876,65798,-20470,75213,18268,-229
C00635=62025,65532,-21180,75680,18067,-46
C00636=62174,65266,-21893,76146,17844,136
C00637=62448,64981,-22823,77550,17249,737
C00638=62301,64621,-23220,77669,17866,769
C00639=62149,64264,-23612,77789,18485,800
C00640=61992,63910,-24002,77912,19107,832
C00641=61831,63560,-24387,78037,19730,864
C00642=61665,63213,-24769,78165,20355,897
C00643=61282,63022,-25052,78420,21742,984
C00644=61106,62687,-25423,78552,22371,1017
C00645=60925,62356,-25790,78687,23002,1051
C00646=60739,62029,-26154,78824,23636,1085
C00647=60549,61706,-26513,78964,24271,1119
C00648=60354,61388,-26869,79106,24908,1153
C00649=59943,61256,-27099,79375,26308,1244
C00650=59737,60950,-27443,79522,26950,1279
C00651=59528,60649,-27782,79672,27593,1315
C00652=59313,60352,-28118,79823,28239,1351
C00653=59094,60060,-28449,79977,28886,1387
C00654=58870,59773,-28775,80134,29535,1425
C00655=58642,59491,-29097,80292,30187,1462
C00656=58200,59432,-29264,80580,31601,1557
C00657=57962,59165,-29573,80743,32257,1596
C00658=57719,58902,-29878,80909,32914,1635
C00659=57472,58645,-30177,81078,33574,1675
C00660=57220,58393,-30472,81248,34235,1715
C00661=56963,58146,-30762,81421,34899,1756
C00662=56500,58156,-30870,81724,36323,1855
C00663=56234,57926,-31146,81902,36991,1897
C00664=55965,57701,-31416,82082,37660,1940
C00665=55690,57482,-31681,82264,38331,1984
C00666=55412,57269,-31940,82449,39005,2028
C00667=55129,57063,-32194,82635,39680,2072
C00668=54647,57145,-32242,82952,41112,2177
C00669=54356,56956,-32481,83144,41791,2224
C00670=54060,56773,-32714,83337,42472,2271
C00671=53761,56597,-32940,83533,43154,2318
C00672=53457,56427,-33161,83731,43839,2366
C00673=53149,56265,-33375,83931,44525,2415
C00674=52654,56422,-33360,84262,45963,2527
C00675=52339,56278,-33558,84466,46652,2577
C00676=52021,56140,-33750,84672,47344,2629
C00677=51882,55681,-34170,84748,47289,2617
C00678=51742,55221,-34589,84823,47236,2605
C00679=51603,54760,-35006,84898,47183,2593
C00680=51463,54297,-35421,84972,47131,2581
C00681=51324,53833,-35834,85045,47080,2568
C00682=51185,53368,-36246,85118,47030,2556
C00683=51046,52902,-36655,85190,46980,2543
C00684=50906,52435,-37063,85262,46932,2530
C00685=50767,51967,-37469,85333,46884,2517
C00686=50628,51497,-37873,85403,46837,2504
C00687=50490,51026,-38274,85473,46791,2491
C00688=50351,50555,-38674,85542,46746,2477
C00689=50212,50082,-39072,85611,46702,2464
C00690=50073,49608,-39467,85679,46658,2450
C00691=49934,49132,-39861,85746,46616,2436
C00692=49795,48656,-40252,85813,46574,2422
C00693=49656,48181,-40640,85879,46534,2408
C00694=49366,48015,-40824,86057,47219,2449
C00695=49073,47858,-41001,86235,47906,2490
C00696=48776,47708,-41173,86415,48595,2531
C00697=48338,47890,-41128,86708,50006,2629
C00698=48036,47761,-41283,86891,50697,2672
C00699=47730,47639,-41432,87075,51390,2716
C00700=47421,47526,-41574,87261,52084,2761
C00701=47109,47420,-41709,87448,52780,2806
C00702=46793,47323,-41837,87636,53478,2851
C00703=46354,47586,-41733,87939,54888,2956
C00704=46034,47510,-41845,88130,55587,3004
C00705=45712,47443,-41949,88322,56288,3052
C00706=45387,47385,-42047,88515,56990,3101
C00707=45059,47335,-42137,88709,57694,3151
C00708=44728,47293,-42220,88903,58399,3201
C00709=44292,47637,-42056,89217,59806,3313
C00710=43959,47618,-42122,89414,60513,3366
C00711=43623,47607,-42180,89612,61220,3418
C00712=43285,47606,-42231,89810,61929,3472
C00713=42945,47614,-42275,90009,62638,3526
C00714=42603,47631,-42310,90209,63349,3581
C00715=42259,47657,-42338,90409,64061,3637
C00716=41832,48094,-42104,90732,65465,3758
C00717=41487,48142,-42114,90933,66177,3815
C00718=41140,48200,-42117,91134,66891,3873
C00719=40792,48267,-42111,91336,67605,3932
C00720=40442,48344,-42098,91538,68321,3991
C00721=40092,48430,-42077,91740,69037,4051
C00722=39679,48946,-41780,92066,70436,4179
C00723=39329,49055,-41741,92267,71152,4240
C00724=38978,49173,-41693,92469,71870,4302
C00725=38626,49300,-41638,92670,72588,4364
C00726=38274,49438,-41574,92870,73307,4427
C00727=37921,49584,-41502,93070,74027,4490
C00728=37528,50178,-41143,93394,75420,4622
C00729=37129,50379,-40996,93551,76245,4666
C00730=36693,50619,-40791,93670,77156,4692
C00731=36258,50871,-40574,93780,78068,4715
C00732=35974,51272,-39993,93717,79046,4703
C00733=35843,51216,-39671,92966,79307,4320
C00734=35645,51128,-39426,91683,79702,3612
C00735=35507,51104,-39081,90927,79949,3226
C00736=35366,51093,-38727,90168,80189,2840
C00737=35222,51096,-38363,89407,80422,2453
C00738=35076,51112,-37991,88643,80647,2066
C00739=34928,51142,-37611,87878,80865,1679
C00740=34709,51167,-37287,86581,81212,957
C00741=34556,51227,-36887,85811,81413,569
C00742=34401,51300,-36479,85039,81606,180
C00743=34245,51386,-36064,84265,81791,-209
C00744=34087,51485,-35641,83490,81967,-597
C00745=33928,51597,-35211,82713,82136,-986
C00746=33702,51728,-34821,81408,82422,-1716
C00747=33541,51869,-34375,80629,82571,-2105
C00748=33380,52022,-33921,79849,82712,-2493
C00749=33218,52187,-33462,79067,82844,-2880
C00750=33056,52364,-32996,78285,82969,-3268
C00751=32893,52552,-32525,77502,83085,-3654
C00752=32670,52786,-32078,76195,83304,-4387
C00753=32559,53012,-31574,75380,83318,-4774
C00754=32455,53249,-31064,74562,83315,-5158
C00755=32346,53497,-30550,73746,83310,-5541
C00756=32232,53753,-30034,72933,83303,-5921
C00757=32115,54020,-29515,72123,83295,-6299
C00758=31995,54296,-28993,71316,83286,-6675
C00759=32095,54684,-28552,70009,83310,-7382
C00760=32332,54550,-28336,69889,82542,-7549
C00761=32550,54003,-28307,69849,81020,-7869
C00762=32787,53890,-28080,69735,80250,-8032
C00763=33022,53784,-27849,69623,79480,-8192
C00764=33257,53686,-27614,69513,78709,-8350
C00765=33491,53596,-27375,69406,77938,-8507
C00766=33724,53515,-27131,69301,77166,-8661
C00767=33953,53034,-27059,69283,75629,-8965
C00768=34186,52971,-26806,69184,74856,-9114
C00769=34417,52916,-26549,69088,74082,-9261
C00770=34647,52868,-26288,68994,73309,-9406
C00771=34875,52828,-26024,68904,72535,-9549
C00772=35103,52796,-25756,68815,71761,-9690
C00773=35342,52381,-25646,68821,70211,-9975
C00774=35568,52366,-25370,68740,69435,-10111
C00775=35793,52359,-25090,68661,68660,-10245
C00776=36016,52359,-24808,68585,67886,-10377
C00777=36238,52366,-24522,68512,67111,-10506
C00778=36458,52381,-24234,68442,66337,-10634
C00779=36677,52402,-23943,68374,65564,-10759
C00780=36923,52060,-23795,68409,63998,-11022
C00781=37141,52098,-23497,68349,63224,-11142
C00782=37356,52143,-23196,68291,62451,-11261
C00783=37570,52195,-22893,68237,61678,-11377
C00784=37782,52254,-22588,68185,60906,-11492
C00785=37993,52319,-22281,68136,60134,-11604
C00786=38246,52038,-22105,68196,58558,-11844
C00787=38455,52119,-21792,68154,57787,-11952
C00788=38662,52207,-21477,68115,57017,-12057
C00789=38867,52301,-21160,68079,56247,-12160
C00790=39071,52401,-20842,68046,55478,-12262
C00791=39273,52507,-20522,68015,54711,-12361
C00792=39531,52287,-20322,68099,53126,-12578
C00793=39731,52408,-19998,68075,52359,-12672
C00794=39929,52536,-19672,68054,51594,-12764
C00795=40126,52669,-19345,68036,50829,-12854
C00796=40321,52808,-19017,68021,50066,-12943
C00797=40514,52953,-18688,68008,49304,-13029
C00798=40707,53102,-18357,67997,48542,-13114
C00799=40830,53565,-17911,67871,48606,-13091
C00800=40953,54026,-17463,67743,48670,-13068
C00801=41075,54487,-17012,67615,48733,-13045
C00802=41198,54946,-16559,67486,48795,-13022
C00803=41321,55404,-16104,67356,48856,-12999
C00804=41444,55862,-15646,67225,48916,-12977
C00805=41566,56318,-15186,67093,48976,-12955
C00806=41689,56774,-14724,66961,49034,-12934
C00807=41811,57228,-14259,66827,49092,-12912
C00808=41934,57682,-13792,66693,49149,-12891
C00809=42056,58135,-13323,66558,49204,-12870
C00810=42178,58586,-12851,66422,49259,-12850
C00811=42300,59037,-12377,66285,49313,-12829
C00812=42423,59486,-11900,66147,49366,-12809
C00813=42545,59935,-11421,66008,49419,-12790
C00814=42667,60383,-10940,65868,49470,-12770
C00815=42873,60505,-10572,65833,48674,-12860
C00816=43077,60633,-10201,65801,47880,-12948
C00817=43280,60767,-9829,65772,47087,-13034
C00818=43480,60906,-9456,65747,46295,-13117
C00819=43679,61050,-9083,65725,45505,-13199
C00820=43877,61199,-8709,65707,44717,-13278
C00821=44171,61049,-8434,65804,43071,-13450
C00822=44366,61212,-8058,65795,42285,-13522
C00823=44560,61379,-7683,65790,41501,-13592
C00824=44753,61551,-7307,65788,40719,-13660
C00825=44944,61728,-6932,65790,39939,-13726
C00826=45135,61909,-6558,65797,39161,-13789
C00827=45434,61813,-6272,65926,37519,-13927
C00828=45623,62007,-5899,65941,36745,-13982
C00829=45811,62205,-5526,65961,35974,-14035
C00830=45997,62407,-5155,65984,35206,-14086
C00831=46183,62613,-4786,66011,34440,-14134
C00832=46368,62823,-4418,66043,33677,-14179
C00833=46674,62782,-4131,66206,32050,-14279
C00834=46858,63003,-3767,66247,31292,-14316
C00835=47042,63229,-3405,66291,30539,-14351
C00836=47224,63458,-3046,66340,29789,-14383
C00837=47406,63691,-2690,66393,29043,-14412
C00838=47587,63928,-2336,66449,28300,-14438
C00839=47768,64168,-1986,66510,27561,-14462
C00840=48084,64186,-1709,66712,25962,-14515
C00841=48264,64437,-1365,66782,25233,-14530
C00842=48444,64691,-1025,66855,24507,-14542
C00843=48623,64948,-689,66932,23785,-14552
C00844=48802,65209,-356,67013,23068,-14558
C00845=48980,65473,-27,67098,22355,-14563
C00846=49304,65543,231,67334,20795,-14572
C00847=49482,65816,551,67427,20093,-14568
C00848=49660,66093,866,67523,19397,-14560
C00849=49837,66372,1176,67623,18705,-14550
C00850=50013,66655,1482,67727,18017,-14537
C00851=50189,66940,1783,67833,17335,-14522
C00852=50521,67060,2015,68100,15824,-14489
EC00000=-139601,206502
EC00001=-139153,207108
EC00002=-138700,207710
EC00003=-138241,208307
EC00004=-137777,208900
EC00005=-137307,209488
EC00006=-136832,210071
EC00007=-135991,211118
EC00008=-135501,211688
EC00009=-135006,212253
EC00010=-134505,212813
EC00011=-134000,213367
EC00012=-133490,213916
EC00013=-132580,214904
EC00014=-132055,215437
EC00015=-131527,215964
EC00016=-130993,216485
EC00017=-130455,217000
EC00018=-129913,217508
EC00019=-128940,218425
EC00020=-128385,218915
EC00021=-127827,219397
EC00022=-127266,219872
EC00023=-126700,220340
EC00024=-126132,220800
EC00025=-125104,221634
EC00026=-124527,222072
EC00027=-123947,222502
EC00028=-123365,222923
EC00029=-122781,223336
EC00030=-122196,223740
EC00031=-121131,224476
EC00032=-120541,224855
EC00033=-119951,225225
EC00034=-119362,225585
EC00035=-118772,225936
EC00036=-118184,226277
EC00037=-117107,226902
EC00038=-116522,227216
EC00039=-115939,227521
EC00040=-115844,227546
EC00041=-115746,227571
EC00042=-115645,227596
EC00043=-115542,227621
EC00044=-115435,227646
EC00045=-115325,227670
EC00046=-115213,227695
EC00047=-115097,227719
EC00048=-114978,227744
EC00049=-114856,227768
EC00050=-114731,227792
EC00051=-114602,227815
EC00052=-114470,227839
EC00053=-114335,227862
EC00054=-114196,227884
EC00055=-114054,227907
EC00056=-113911,227928
EC00057=-113193,228226
EC00058=-112479,228512
EC00059=-111769,228786
EC00060=-110493,229291
EC00061=-109795,229532
EC00062=-109106,229761
EC00063=-108426,229979
EC00064=-107755,230186
EC00065=-107094,230381
EC00066=-106443,230567
EC00067=-105262,230916
EC00068=-104641,231074
EC00069=-104032,231223
EC00070=-103438,231363
EC00071=-102857,231496
EC00072=-102291,231622
EC00073=-101248,231868
EC00074=-100720,231975
EC00075=-100208,232078
EC00076=-99712,232175
EC00077=-99231,232269
EC00078=-98766,232359
EC00079=-97886,232544
EC00080=-97462,232626
EC00081=-97053,232707
EC00082=-96659,232786
EC00083=-96280,232865
EC00084=-95916,232943
EC00085=-95195,233104
EC00086=-94868,233182
EC00087=-94555,233261
EC00088=-94254,233341
EC00089=-93966,233423
EC00090=-93690,233506
EC00091=-93109,233670
EC00092=-92864,233758
EC00093=-92630,233847
EC00094=-92407,233940
EC00095=-92306,234075
EC00096=-93391,234466
EC00097=-95249,235160
EC00098=-96292,235548
EC00099=-97320,235935
EC00100=-98332,236322
EC00101=-99328,236708
EC00102=-100306,237093
EC00103=-101934,237767
EC00104=-102859,238149
EC00105=-103766,238529
EC00106=-104653,238909
EC00107=-105521,239288
EC00108=-106369,239666
EC00109=-107198,240043
EC00110=-108525,240693
EC00111=-109295,241067
EC00112=-110045,241439
EC00113=-110776,241810
EC00114=-111486,242180
EC00115=-112176,242549
EC00116=-113235,243174
EC00117=-113867,243538
EC00118=-114480,243900
EC00119=-115073,244261
EC00120=-115647,244620
EC00121=-116201,244977
EC00122=-117004,245571
EC00123=-117504,245921
EC00124=-117985,246269
EC00125=-118448,246614
EC00126=-118893,246958
EC00127=-119319,247298
EC00128=-119886,247852
EC00129=-120262,248183
EC00130=-120622,248512
EC00131=-120964,248837
EC00132=-121290,249158
EC00133=-121599,249476
EC00134=-121952,249980
EC00135=-122216,250286
EC00136=-122465,250589
EC00137=-122698,250887
EC00138=-122917,251182
EC00139=-123120,251472
EC00140=-123283,251914
EC00141=-123447,252190
EC00142=-123596,252461
EC00143=-123733,252727
EC00144=-123856,252988
EC00145=-123966,253243
EC00146=-123961,253615
EC00147=-124473,254141
EC00148=-125100,254554
EC00149=-125727,254965
EC00150=-126353,255376
EC00151=-126979,255785
EC00152=-127604,256193
EC00153=-128657,256889
EC00154=-129280,257294
EC00155=-129902,257698
EC00156=-130524,258100
EC00157=-131145,258502
EC00158=-131765,258902
EC00159=-132805,259586
EC00160=-133422,259984
EC00161=-134039,260379
EC00162=-134655,260774
EC00163=-135271,261167
EC00164=-135885,261559
EC00165=-136911,262233
EC00166=-137522,262622
EC00167=-138133,263010
EC00168=-138742,263396
EC00169=-139351,263781
EC00170=-139959,264165
EC00171=-140969,264829
EC00172=-141574,265209
EC00173=-142177,265589
EC00174=-142780,265967
EC00175=-143381,266343
EC00176=-143981,266718
EC00177=-144975,267373
EC00178=-145572,267746
EC00179=-146168,268117
EC00180=-146771,268459
EC00181=-147495,268459
EC00182=-148215,268459
EC00183=-148933,268459
EC00184=-149572,268459
EC00185=-149572,268459
EC00186=-149572,268459
EC00187=-149572,268459
EC00188=-149572,268459
EC00189=-149572,268459
EC00190=-149572,268459
EC00191=-149572,268459
EC00192=-149572,268459
EC00193=-149572,268459
EC00194=-149572,268459
EC00195=-149572,268459
EC00196=-149572,268459
EC00197=-149572,268459
EC00198=-149572,268459
EC00199=-149572,268459
EC00200=-149572,268459
EC00201=-149572,268459
EC00202=-149572,268459
EC00203=-149572,268459
EC00204=-149572,268459
EC00205=-149572,268459
EC00206=-149572,268459
EC00207=-149572,268459
EC00208=-149572,268459
EC00209=-149572,268459
EC00210=-149572,268459
EC00211=-149572,268459
EC00212=-149572,268459
EC00213=-149572,268459
EC00214=-149572,268459
EC00215=-149572,268459
EC00216=-149572,268459
EC00217=-149572,268459
EC00218=-149572,268459
EC00219=-149572,268459
EC00220=-149572,268459
EC00221=-149572,268459
EC00222=-149572,268459
EC00223=-149572,268459
EC00224=-149572,268459
EC00225=-149572,268459
EC00226=-149572,268459
EC00227=-149572,268459
EC00228=-149572,268459
EC00229=-149572,268459
EC00230=-149572,268459
EC00231=-149572,268459
EC00232=-149572,268459
EC00233=-149572,268459
EC00234=-149572,268459
EC00235=-149572,268459
EC00236=-149572,268459
EC00237=-149572,268459
EC00238=-149572,268459
EC00239=-149572,268459
EC00240=-149572,268459
EC00241=-149484,268459
EC00242=-149326,268459
EC00243=-149167,268459
EC00244=-149007,268459
EC00245=-148848,268459
EC00246=-148694,268448
EC00247=-148132,268118
EC00248=-147570,267787
EC00249=-146604,267144
EC00250=-146040,266813
EC00251=-145476,266482
EC00252=-144911,266150
EC00253=-144345,265819
EC00254=-143778,265488
EC00255=-142810,264841
EC00256=-142242,264509
EC00257=-141673,264178
EC00258=-141103,263845
EC00259=-140533,263513
EC00260=-139961,263181
EC00261=-138991,262532
EC00262=-138418,262199
EC00263=-137845,261866
EC00264=-137270,261533
EC00265=-136695,261200
EC00266=-136119,260866
EC00267=-135145,260217
EC00268=-134567,259884
EC00269=-133989,259550
EC00270=-133409,259215
EC00271=-132829,258881
EC00272=-132248,258546
EC00273=-131268,257899
EC00274=-130685,257564
EC00275=-130102,257229
EC00276=-129517,256894
EC00277=-128932,256558
EC00278=-128347,256223
EC00279=-127359,255578
EC00280=-126771,255242
EC00281=-126183,254906
EC00282=-125593,254570
EC00283=-125003,254233
EC00284=-124412,253896
EC00285=-123821,253558
EC00286=-123633,253525
EC00287=-123445,253490
EC00288=-123258,253454
EC00289=-123070,253417
EC00290=-122883,253379
EC00291=-122695,253339
EC00292=-122508,253299
EC00293=-122321,253257
EC00294=-122134,253214
EC00295=-121946,253170
EC00296=-121759,253125
EC00297=-121572,253079
EC00298=-121385,253032
EC00299=-121198,252983
EC00300=-121011,252934
EC00301=-120824,252883
EC00302=-120637,252832
EC00303=-119674,252208
EC00304=-119098,251870
EC00305=-118521,251530
EC00306=-117943,251190
EC00307=-117364,250849
EC00308=-116785,250507
EC00309=-115812,249885
EC00310=-115230,249542
EC00311=-114647,249198
EC00312=-114063,248854
EC00313=-113478,248508
EC00314=-112892,248162
EC00315=-111909,247540
EC00316=-111321,247193
EC00317=-110732,246845
EC00318=-110142,246495
EC00319=-109551,246145
EC00320=-108960,245794
EC00321=-107966,245172
EC00322=-107372,244820
EC00323=-106778,244467
EC00324=-106183,244113
EC00325=-105587,243758
EC00326=-104990,243402
EC00327=-103985,242778
EC00328=-103386,242421
EC00329=-102787,242063
EC00330=-102187,241704
EC00331=-101586,241344
EC00332=-100985,240983
EC00333=-99969,240355
EC00334=-99365,239993
EC00335=-98761,239630
EC00336=-98157,239266
EC00337=-97552,238901
EC00338=-96946,238535
EC00339=-95920,237903
EC00340=-95316,237535
EC00341=-95244,237311
EC00342=-95160,237080
EC00343=-95064,236844
EC00344=-94955,236602
EC00345=-94832,236355
EC00346=-94722,235950
EC00347=-94561,235687
EC00348=-94388,235419
EC00349=-94200,235147
EC00350=-93998,234870
EC00351=-93782,234588
EC00352=-93492,234118
EC00353=-93234,233824
EC00354=-92962,233526
EC00355=-92674,233224
EC00356=-92371,232918
EC00357=-92052,232609
EC00358=-91567,232089
EC00359=-91204,231770
EC00360=-90825,231449
EC00361=-90430,231124
EC00362=-90019,230798
EC00363=-89591,230469
EC00364=-88899,229909
EC00365=-88426,229573
EC00366=-87935,229236
EC00367=-87429,228896
EC00368=-86906,228555
EC00369=-86367,228212
EC00370=-85461,227626
EC00371=-84875,227278
EC00372=-84273,226930
EC00373=-83655,226581
EC00374=-83021,226231
EC00375=-82371,225880
EC00376=-81255,225276
EC00377=-80560,224922
EC00378=-79851,224569
EC00379=-79127,224214
EC00380=-78389,223860
EC00381=-77636,223505
EC00382=-76323,222891
EC00383=-75530,222535
EC00384=-74726,222179
EC00385=-73909,221823
EC00386=-73080,221468
EC00387=-72240,221112
EC00388=-71389,220758
EC00389=-69888,220140
EC00390=-69008,219786
EC00391=-68120,219432
EC00392=-66624,218849
EC00393=-66736,218720
EC00394=-66851,218593
EC00395=-67170,218367
EC00396=-67293,218243
EC00397=-67419,218120
EC00398=-67549,217998
EC00399=-67683,217878
EC00400=-67820,217760
EC00401=-68176,217543
EC00402=-68324,217427
EC00403=-68477,217312
EC00404=-68634,217199
EC00405=-68796,217087
EC00406=-68963,216977
EC00407=-69367,216766
EC00408=-69548,216657
EC00409=-69735,216549
EC00410=-69927,216442
EC00411=-70125,216335
EC00412=-70330,216230
EC00413=-70793,216019
EC00414=-71015,215913
EC00415=-71243,215808
EC00416=-71479,215702
EC00417=-71721,215596
EC00418=-71971,215490
EC00419=-72228,215383
EC00420=-72773,215159
EC00421=-73050,215049
EC00422=-73334,214936
EC00423=-73627,214822
EC00424=-73927,214706
EC00425=-74234,214588
EC00426=-74854,214333
EC00427=-75181,214206
EC00428=-75516,214075
EC00429=-75858,213940
EC00430=-76208,213801
EC00431=-76561,213658
EC00432=-76595,213666
EC00433=-76626,213673
EC00434=-76657,213680
EC00435=-76685,213687
EC00436=-76712,213694
EC00437=-76738,213700
EC00438=-76762,213707
EC00439=-76784,213713
EC00440=-76805,213719
EC00441=-76824,213726
EC00442=-76842,213732
EC00443=-76859,213738
EC00444=-76873,213744
EC00445=-76887,213750
EC00446=-76899,213757
EC00447=-76909,213763
EC00448=-76922,213769
EC00449=-77469,213468
EC00450=-77758,213314
EC00451=-78052,213155
EC00452=-78352,212992
EC00453=-78656,212823
EC00454=-78966,212649
EC00455=-79556,212289
EC00456=-79876,212099
EC00457=-80199,211903
EC00458=-80525,211700
EC00459=-80854,211491
EC00460=-81186,211275
EC00461=-81797,210843
EC00462=-82133,210608
EC00463=-82470,210367
EC00464=-82807,210118
EC00465=-83146,209863
EC00466=-83484,209600
EC00467=-84089,209090
EC00468=-84424,208808
EC00469=-84759,208519
EC00470=-85092,208223
EC00471=-85423,207920
EC00472=-85752,207610
EC00473=-86325,207025
EC00474=-86647,206697
EC00475=-86964,206363
EC00476=-87278,206022
EC00477=-87589,205675
EC00478=-87895,205323
EC00479=-88198,204964
EC00480=-88715,204303
EC00481=-89005,203930
EC00482=-89290,203551
EC00483=-89570,203167
EC00484=-89845,202778
EC00485=-90115,202384
EC00486=-90557,201691
EC00487=-90523,201808
EC00488=-90488,201926
EC00489=-90453,202046
EC00490=-90418,202167
EC00491=-90380,202285
EC00492=-90118,202699
EC00493=-89850,203109
EC00494=-89577,203515
EC00495=-89298,203915
EC00496=-89014,204311
EC00497=-88513,205013
EC00498=-88215,205395
EC00499=-87912,205770
EC00500=-87604,206139
EC00501=-87293,206503
EC00502=-86977,206860
EC00503=-86416,207500
EC00504=-86090,207840
EC00505=-85760,208173
EC00506=-85428,208500
EC00507=-85093,208819
EC00508=-84755,209131
EC00509=-84151,209697
EC00510=-83808,209990
EC00511=-83464,210275
EC00512=-83119,210553
EC00513=-82774,210824
EC00514=-82429,211087
EC00515=-81806,211570
EC00516=-81461,211814
EC00517=-81118,212050
EC00518=-80777,212279
EC00519=-80439,212501
EC00520=-80103,212716
EC00521=-79770,212924
EC00522=-79159,213316
EC00523=-78835,213506
EC00524=-78515,213690
EC00525=-78200,213869
EC00526=-77891,214041
EC00527=-77586,214208
EC00528=-77013,214533
EC00529=-76723,214687
EC00530=-76437,214836
EC00531=-76420,214830
EC00532=-76402,214824
EC00533=-76382,214819
EC00534=-76361,214813
EC00535=-76339,214807
EC00536=-76314,214801
EC00537=-76289,214795
EC00538=-76261,214789
EC00539=-76232,214783
EC00540=-76202,214777
EC00541=-76170,214771
EC00542=-76136,214764
EC00543=-76101,214758
EC00544=-76064,214751
EC00545=-76026,214744
EC00546=-75985,214736
EC00547=-75945,214728
EC00548=-75584,214875
EC00549=-75230,215017
EC00550=-74883,215155
EC00551=-74232,215428
EC00552=-73906,215555
EC00553=-73588,215678
EC00554=-73278,215799
EC00555=-72976,215917
EC00556=-72682,216034
EC00557=-72109,216268
EC00558=-71836,216379
EC00559=-71572,216489
EC00560=-71315,216597
EC00561=-71066,216706
EC00562=-70824,216813
EC00563=-70329,217029
EC00564=-70106,217136
EC00565=-69891,217243
EC00566=-69682,217350
EC00567=-69481,217458
EC00568=-69286,217566
EC00569=-68859,217778
EC00570=-68679,217888
EC00571=-68506,217999
EC00572=-68338,218111
EC00573=-68176,218224
EC00574=-68019,218338
EC00575=-67649,218555
EC00576=-67504,218672
EC00577=-67365,218790
EC00578=-67230,218910
EC00579=-67098,219032
EC00580=-66971,219154
EC00581=-66848,219279
EC00582=-66528,219506
EC00583=-66414,219633
EC00584=-66304,219762
EC00585=-66196,219892
EC00586=-66187,220064
EC00587=-67099,220418
EC00588=-68668,221039
EC00589=-69557,221395
EC00590=-70437,221752
EC00591=-71307,222109
EC00592=-72168,222466
EC00593=-73018,222824
EC00594=-74445,223444
EC00595=-75260,223801
EC00596=-76062,224158
EC00597=-76852,224515
EC00598=-77628,224872
EC00599=-78390,225229
EC00600=-79635,225841
EC00601=-80356,226195
EC00602=-81061,226550
EC00603=-81751,226903
EC00604=-82426,227256
EC00605=-83086,227608
EC00606=-84126,228206
EC00607=-84740,228555
EC00608=-85337,228902
EC00609=-85918,229249
EC00610=-86484,229594
EC00611=-87033,229937
EC00612=-87860,230513
EC00613=-88362,230851
EC00614=-88847,231188
EC00615=-89317,231522
EC00616=-89770,231854
EC00617=-90208,232184
EC00618=-90823,232728
EC00619=-91214,233050
EC00620=-91590,233369
EC00621=-91950,233685
EC00622=-92294,233998
EC00623=-92623,234308
EC00624=-92937,234614
EC00625=-93322,235108
EC00626=-93593,235403
EC00627=-93849,235694
EC00628=-94090,235981
EC00629=-94317,236263
EC00630=-94530,236541
EC00631=-94730,236977
EC00632=-94904,237241
EC00633=-95064,237500
EC00634=-95210,237754
EC00635=-95344,238002
EC00636=-95465,238245
EC00637=-95408,238728
EC00638=-96022,239095
EC00639=-96636,239461
EC00640=-97249,239827
EC00641=-97861,240191
EC00642=-98474,240555
EC00643=-99501,241184
EC00644=-100111,241546
EC00645=-100721,241907
EC00646=-101330,242267
EC00647=-101938,242627
EC00648=-102546,242985
EC00649=-103562,243611
EC00650=-104168,243968
EC00651=-104773,244325
EC00652=-105377,244680
EC00653=-105981,245034
EC00654=-106584,245388
EC00655=-107187,245741
EC00656=-108190,246364
EC00657=-108790,246715
EC00658=-109389,247066
EC00659=-109988,247415
EC00660=-110585,247764
EC00661=-111182,248112
EC00662=-112174,248735
EC00663=-112768,249081
EC00664=-113362,249427
EC00665=-113955,249773
EC00666=-114546,250117
EC00667=-115137,250460
EC00668=-116117,251083
EC00669=-116705,251425
EC00670=-117293,251767
EC00671=-117879,252108
EC00672=-118465,252448
EC00673=-119049,252787
EC00674=-120017,253411
EC00675=-120599,253749
EC00676=-121180,254086
EC00677=-121377,254136
EC00678=-121574,254184
EC00679=-121771,254231
EC00680=-121967,254277
EC00681=-122164,254322
EC00682=-122361,254365
EC00683=-122558,254407
EC00684=-122755,254449
EC00685=-122952,254489
EC00686=-123149,254528
EC00687=-123346,254565
EC00688=-123543,254602
EC00689=-123740,254637
EC00690=-123937,254672
EC00691=-124134,254705
EC00692=-124331,254737
EC00693=-124528,254768
EC00694=-125125,255104
EC00695=-125722,255440
EC00696=-126318,255775
EC00697=-127310,256419
EC00698=-127904,256755
EC00699=-128497,257090
EC00700=-129089,257425
EC00701=-129680,257760
EC00702=-130270,258094
EC00703=-131254,258741
EC00704=-131842,259076
EC00705=-132429,259410
EC00706=-133015,259744
EC00707=-133600,260078
EC00708=-134185,260412
EC00709=-135160,261060
EC00710=-135743,261394
EC00711=-136324,261727
EC00712=-136904,262060
EC00713=-137484,262393
EC00714=-138062,262726
EC00715=-138640,263058
EC00716=-139609,263707
EC00717=-140184,264040
EC00718=-140759,264372
EC00719=-141332,264703
EC00720=-141905,265035
EC00721=-142477,265366
EC00722=-143441,266014
EC00723=-144011,266345
EC00724=-144580,266676
EC00725=-145148,267007
EC00726=-145715,267337
EC00727=-146281,267668
EC00728=-147242,268313
EC00729=-147847,268459
EC00730=-148481,268459
EC00731=-149112,268459
EC00732=-149538,268459
EC00733=-149263,268459
EC00734=-148779,268459
EC00735=-148510,268459
EC00736=-148242,268459
EC00737=-147976,268459
EC00738=-147711,268459
EC00739=-147447,268459
EC00740=-147008,268459
EC00741=-146751,268459
EC00742=-146497,268459
EC00743=-146244,268459
EC00744=-145992,268459
EC00745=-145743,268459
EC00746=-145356,268459
EC00747=-145116,268459
EC00748=-144877,268459
EC00749=-144642,268459
EC00750=-144408,268459
EC00751=-144177,268459
EC00752=-143851,268459
EC00753=-143768,268459
EC00754=-143703,268459
EC00755=-143627,268459
EC00756=-143542,268459
EC00757=-143447,268459
EC00758=-143344,268459
EC00759=-143289,268459
EC00760=-142530,268459
EC00761=-141196,268459
EC00762=-140433,268459
EC00763=-139668,268459
EC00764=-138901,268459
EC00765=-138133,268459
EC00766=-137363,268459
EC00767=-136010,268459
EC00768=-135235,268459
EC00769=-134459,268459
EC00770=-133680,268459
EC00771=-132900,268459
EC00772=-132119,268459
EC00773=-130745,268459
EC00774=-129957,268459
EC00775=-129169,268459
EC00776=-128379,268459
EC00777=-127587,268459
EC00778=-126794,268459
EC00779=-125999,268459
EC00780=-124598,268459
EC00781=-123798,268459
EC00782=-122996,268459
EC00783=-122193,268459
EC00784=-121389,268459
EC00785=-120582,268459
EC00786=-119158,268459
EC00787=-118347,268459
EC00788=-117534,268459
EC00789=-116720,268459
EC00790=-115905,268459
EC00791=-115088,268459
EC00792=-113640,268459
EC00793=-112819,268459
EC00794=-111996,268459
EC00795=-111173,268459
EC00796=-110348,268459
EC00797=-109523,268459
EC00798=-108694,268459
EC00799=-108508,268459
EC00800=-108320,268459
EC00801=-108130,268459
EC00802=-107938,268459
EC00803=-107745,268459
EC00804=-107550,268459
EC00805=-107353,268459
EC00806=-107155,268459
EC00807=-106954,268459
EC00808=-106752,268459
EC00809=-106548,268459
EC00810=-106342,268459
EC00811=-106135,268459
EC00812=-105925,268459
EC00813=-105714,268458
EC00814=-105501,268457
EC00815=-104660,268452
EC00816=-103818,268444
EC00817=-102973,268432
EC00818=-102127,268417
EC00819=-101279,268397
EC00820=-100430,268374
EC00821=-98936,268333
EC00822=-98082,268300
EC00823=-97227,268264
EC00824=-96370,268223
EC00825=-95513,268179
EC00826=-94655,268131
EC00827=-93138,268049
EC00828=-92278,267991
EC00829=-91416,267929
EC00830=-90555,267864
EC00831=-89693,267794
EC00832=-88832,267721
EC00833=-87301,267596
EC00834=-86438,267512
EC00835=-85577,267425
EC00836=-84717,267333
EC00837=-83857,267238
EC00838=-82999,267139
EC00839=-82142,267037
EC00840=-80607,266862
EC00841=-79753,266750
EC00842=-78901,266634
EC00843=-78051,266514
EC00844=-77203,266391
EC00845=-76358,266265
EC00846=-74834,266049
EC00847=-73995,265914
EC00848=-73159,265775
EC00849=-72326,265634
EC00850=-71496,265490
EC00851=-70670,265342
EC00852=-69172,265089
//INST
///DATE 2023/04/27 18:14
///ATTR SC,RW
///GROUP1 RB2
///GROUP2 ST1
NOP
MOVL C00000 V=30.0 PL=0 +MOVJ EC00000
MOVL C00001 V=26.0 +MOVJ EC00001
MOVL C00002 V=63.5 +MOVJ EC00002
MOVL C00003 V=26.0 +MOVJ EC00003
MOVL C00004 V=63.6 +MOVJ EC00004
MOVL C00005 V=26.0 +MOVJ EC00005
MOVL C00006 V=63.6 +MOVJ EC00006
MOVL C00007 V=26.0 +MOVJ EC00007
MOVL C00008 V=63.6 +MOVJ EC00008
MOVL C00009 V=26.0 +MOVJ EC00009
MOVL C00010 V=63.6 +MOVJ EC00010
MOVL C00011 V=26.1 +MOVJ EC00011
MOVL C00012 V=63.6 +MOVJ EC00012
MOVL C00013 V=26.1 +MOVJ EC00013
MOVL C00014 V=26.1 +MOVJ EC00014
MOVL C00015 V=63.7 +MOVJ EC00015
MOVL C00016 V=26.1 +MOVJ EC00016
MOVL C00017 V=63.7 +MOVJ EC00017
MOVL C00018 V=26.1 +MOVJ EC00018
MOVL C00019 V=63.7 +MOVJ EC00019
MOVL C00020 V=26.1 +MOVJ EC00020
MOVL C00021 V=63.7 +MOVJ EC00021
MOVL C00022 V=26.2 +MOVJ EC00022
MOVL C00023 V=63.7 +MOVJ EC00023
MOVL C00024 V=26.2 +MOVJ EC00024
MOVL C00025 V=63.7 +MOVJ EC00025
MOVL C00026 V=26.2 +MOVJ EC00026
MOVL C00027 V=63.7 +MOVJ EC00027
MOVL C00028 V=26.3 +MOVJ EC00028
MOVL C00029 V=26.2 +MOVJ EC00029
MOVL C00030 V=63.7 +MOVJ EC00030
MOVL C00031 V=26.3 +MOVJ EC00031
MOVL C00032 V=63.7 +MOVJ EC00032
MOVL C00033 V=26.3 +MOVJ EC00033
MOVL C00034 V=63.7 +MOVJ EC00034
MOVL C00035 V=26.4 +MOVJ EC00035
MOVL C00036 V=63.7 +MOVJ EC00036
MOVL C00037 V=26.4 +MOVJ EC00037
MOVL C00038 V=63.6 +MOVJ EC00038
MOVL C00039 V=26.4 +MOVJ EC00039
MOVL C00040 V=63.6 +MOVJ EC00040
MOVL C00041 V=26.5 +MOVJ EC00041
MOVL C00042 V=63.7 +MOVJ EC00042
MOVL C00043 V=26.4 +MOVJ EC00043
MOVL C00044 V=26.5 +MOVJ EC00044
MOVL C00045 V=63.6 +MOVJ EC00045
MOVL C00046 V=26.5 +MOVJ EC00046
MOVL C00047 V=63.6 +MOVJ EC00047
MOVL C00048 V=26.6 +MOVJ EC00048
MOVL C00049 V=63.5 +MOVJ EC00049
MOVL C00050 V=26.6 +MOVJ EC00050
MOVL C00051 V=63.5 +MOVJ EC00051
MOVL C00052 V=26.7 +MOVJ EC00052
MOVL C00053 V=63.4 +MOVJ EC00053
MOVL C00054 V=26.7 +MOVJ EC00054
MOVL C00055 V=63.3 +MOVJ EC00055
MOVL C00056 V=26.8 +MOVJ EC00056
MOVL C00057 V=26.8 +MOVJ EC00057
MOVL C00058 V=63.4 +MOVJ EC00058
MOVL C00059 V=26.8 +MOVJ EC00059
MOVL C00060 V=63.3 +MOVJ EC00060
MOVL C00061 V=26.9 +MOVJ EC00061
MOVL C00062 V=63.2 +MOVJ EC00062
MOVL C00063 V=26.9 +MOVJ EC00063
MOVL C00064 V=63.1 +MOVJ EC00064
MOVL C00065 V=27.0 +MOVJ EC00065
MOVL C00066 V=63.0 +MOVJ EC00066
MOVL C00067 V=27.0 +MOVJ EC00067
MOVL C00068 V=62.9 +MOVJ EC00068
MOVL C00069 V=27.1 +MOVJ EC00069
MOVL C00070 V=62.8 +MOVJ EC00070
MOVL C00071 V=27.2 +MOVJ EC00071
MOVL C00072 V=27.2 +MOVJ EC00072
MOVL C00073 V=62.7 +MOVJ EC00073
MOVL C00074 V=27.2 +MOVJ EC00074
MOVL C00075 V=62.6 +MOVJ EC00075
MOVL C00076 V=27.3 +MOVJ EC00076
MOVL C00077 V=62.4 +MOVJ EC00077
MOVL C00078 V=27.4 +MOVJ EC00078
MOVL C00079 V=62.3 +MOVJ EC00079
MOVL C00080 V=27.4 +MOVJ EC00080
MOVL C00081 V=62.1 +MOVJ EC00081
MOVL C00082 V=27.5 +MOVJ EC00082
MOVL C00083 V=61.9 +MOVJ EC00083
MOVL C00084 V=27.6 +MOVJ EC00084
MOVL C00085 V=61.8 +MOVJ EC00085
MOVL C00086 V=27.6 +MOVJ EC00086
MOVL C00087 V=27.7 +MOVJ EC00087
MOVL C00088 V=61.6 +MOVJ EC00088
MOVL C00089 V=27.7 +MOVJ EC00089
MOVL C00090 V=61.4 +MOVJ EC00090
MOVL C00091 V=27.8 +MOVJ EC00091
MOVL C00092 V=61.1 +MOVJ EC00092
MOVL C00093 V=27.9 +MOVJ EC00093
MOVL C00094 V=60.9 +MOVJ EC00094
MOVL C00095 V=28.0 +MOVJ EC00095
MOVL C00096 V=60.6 +MOVJ EC00096
MOVL C00097 V=28.0 +MOVJ EC00097
MOVL C00098 V=28.0 +MOVJ EC00098
MOVL C00099 V=27.9 +MOVJ EC00099
MOVL C00100 V=27.9 +MOVJ EC00100
MOVL C00101 V=27.9 +MOVJ EC00101
MOVL C00102 V=27.9 +MOVJ EC00102
MOVL C00103 V=27.9 +MOVJ EC00103
MOVL C00104 V=27.8 +MOVJ EC00104
MOVL C00105 V=27.8 +MOVJ EC00105
MOVL C00106 V=27.8 +MOVJ EC00106
MOVL C00107 V=27.8 +MOVJ EC00107
MOVL C00108 V=27.8 +MOVJ EC00108
MOVL C00109 V=27.7 +MOVJ EC00109
MOVL C00110 V=27.7 +MOVJ EC00110
MOVL C00111 V=27.7 +MOVJ EC00111
MOVL C00112 V=27.7 +MOVJ EC00112
MOVL C00113 V=27.6 +MOVJ EC00113
MOVL C00114 V=27.6 +MOVJ EC00114
MOVL C00115 V=27.6 +MOVJ EC00115
MOVL C00116 V=27.6 +MOVJ EC00116
MOVL C00117 V=27.6 +MOVJ EC00117
MOVL C00118 V=27.5 +MOVJ EC00118
MOVL C00119 V=27.5 +MOVJ EC00119
MOVL C00120 V=27.5 +MOVJ EC00120
MOVL C00121 V=27.5 +MOVJ EC00121
MOVL C00122 V=27.5 +MOVJ EC00122
MOVL C00123 V=27.4 +MOVJ EC00123
MOVL C00124 V=27.4 +MOVJ EC00124
MOVL C00125 V=27.4 +MOVJ EC00125
MOVL C00126 V=27.4 +MOVJ EC00126
MOVL C00127 V=27.3 +MOVJ EC00127
MOVL C00128 V=27.3 +MOVJ EC00128
MOVL C00129 V=27.3 +MOVJ EC00129
MOVL C00130 V=27.3 +MOVJ EC00130
MOVL C00131 V=27.3 +MOVJ EC00131
MOVL C00132 V=27.2 +MOVJ EC00132
MOVL C00133 V=27.2 +MOVJ EC00133
MOVL C00134 V=27.2 +MOVJ EC00134
MOVL C00135 V=27.2 +MOVJ EC00135
MOVL C00136 V=27.1 +MOVJ EC00136
MOVL C00137 V=27.1 +MOVJ EC00137
MOVL C00138 V=27.1 +MOVJ EC00138
MOVL C00139 V=27.2 +MOVJ EC00139
MOVL C00140 V=27.2 +MOVJ EC00140
MOVL C00141 V=63.0 +MOVJ EC00141
MOVL C00142 V=27.3 +MOVJ EC00142
MOVL C00143 V=62.8 +MOVJ EC00143
MOVL C00144 V=27.4 +MOVJ EC00144
MOVL C00145 V=62.5 +MOVJ EC00145
MOVL C00146 V=27.5 +MOVJ EC00146
MOVL C00147 V=62.3 +MOVJ EC00147
MOVL C00148 V=27.6 +MOVJ EC00148
MOVL C00149 V=62.1 +MOVJ EC00149
MOVL C00150 V=27.5 +MOVJ EC00150
MOVL C00151 V=27.7 +MOVJ EC00151
MOVL C00152 V=61.8 +MOVJ EC00152
MOVL C00153 V=27.8 +MOVJ EC00153
MOVL C00154 V=61.4 +MOVJ EC00154
MOVL C00155 V=27.9 +MOVJ EC00155
MOVL C00156 V=61.1 +MOVJ EC00156
MOVL C00157 V=28.0 +MOVJ EC00157
MOVL C00158 V=60.7 +MOVJ EC00158
MOVL C00159 V=28.1 +MOVJ EC00159
MOVL C00160 V=60.3 +MOVJ EC00160
MOVL C00161 V=28.2 +MOVJ EC00161
MOVL C00162 V=59.9 +MOVJ EC00162
MOVL C00163 V=28.4 +MOVJ EC00163
MOVL C00164 V=28.3 +MOVJ EC00164
MOVL C00165 V=59.6 +MOVJ EC00165
MOVL C00166 V=28.5 +MOVJ EC00166
MOVL C00167 V=59.2 +MOVJ EC00167
MOVL C00168 V=28.6 +MOVJ EC00168
MOVL C00169 V=58.7 +MOVJ EC00169
MOVL C00170 V=28.7 +MOVJ EC00170
MOVL C00171 V=58.3 +MOVJ EC00171
MOVL C00172 V=28.8 +MOVJ EC00172
MOVL C00173 V=57.8 +MOVJ EC00173
MOVL C00174 V=29.0 +MOVJ EC00174
MOVL C00175 V=57.3 +MOVJ EC00175
MOVL C00176 V=29.1 +MOVJ EC00176
MOVL C00177 V=56.9 +MOVJ EC00177
MOVL C00178 V=29.2 +MOVJ EC00178
MOVL C00179 V=29.2 +MOVJ EC00179
MOVL C00180 V=56.5 +MOVJ EC00180
MOVL C00181 V=29.3 +MOVJ EC00181
MOVL C00182 V=56.0 +MOVJ EC00182
MOVL C00183 V=29.4 +MOVJ EC00183
MOVL C00184 V=55.5 +MOVJ EC00184
MOVL C00185 V=29.5 +MOVJ EC00185
MOVL C00186 V=55.0 +MOVJ EC00186
MOVL C00187 V=29.6 +MOVJ EC00187
MOVL C00188 V=54.5 +MOVJ EC00188
MOVL C00189 V=29.7 +MOVJ EC00189
MOVL C00190 V=54.0 +MOVJ EC00190
MOVL C00191 V=29.8 +MOVJ EC00191
MOVL C00192 V=53.6 +MOVJ EC00192
MOVL C00193 V=29.9 +MOVJ EC00193
MOVL C00194 V=29.9 +MOVJ EC00194
MOVL C00195 V=53.2 +MOVJ EC00195
MOVL C00196 V=30.0 +MOVJ EC00196
MOVL C00197 V=52.7 +MOVJ EC00197
MOVL C00198 V=30.1 +MOVJ EC00198
MOVL C00199 V=52.2 +MOVJ EC00199
MOVL C00200 V=30.2 +MOVJ EC00200
MOVL C00201 V=51.8 +MOVJ EC00201
MOVL C00202 V=30.3 +MOVJ EC00202
MOVL C00203 V=51.3 +MOVJ EC00203
MOVL C00204 V=30.4 +MOVJ EC00204
MOVL C00205 V=50.9 +MOVJ EC00205
MOVL C00206 V=30.4 +MOVJ EC00206
MOVL C00207 V=30.4 +MOVJ EC00207
MOVL C00208 V=50.5 +MOVJ EC00208
MOVL C00209 V=30.5 +MOVJ EC00209
MOVL C00210 V=50.1 +MOVJ EC00210
MOVL C00211 V=30.6 +MOVJ EC00211
MOVL C00212 V=49.6 +MOVJ EC00212
MOVL C00213 V=30.6 +MOVJ EC00213
MOVL C00214 V=49.2 +MOVJ EC00214
MOVL C00215 V=30.7 +MOVJ EC00215
MOVL C00216 V=48.8 +MOVJ EC00216
MOVL C00217 V=30.7 +MOVJ EC00217
MOVL C00218 V=48.4 +MOVJ EC00218
MOVL C00219 V=30.8 +MOVJ EC00219
MOVL C00220 V=48.1 +MOVJ EC00220
MOVL C00221 V=30.8 +MOVJ EC00221
MOVL C00222 V=30.8 +MOVJ EC00222
MOVL C00223 V=47.7 +MOVJ EC00223
MOVL C00224 V=30.9 +MOVJ EC00224
MOVL C00225 V=47.4 +MOVJ EC00225
MOVL C00226 V=30.9 +MOVJ EC00226
MOVL C00227 V=47.0 +MOVJ EC00227
MOVL C00228 V=30.9 +MOVJ EC00228
MOVL C00229 V=46.7 +MOVJ EC00229
MOVL C00230 V=31.0 +MOVJ EC00230
MOVL C00231 V=46.3 +MOVJ EC00231
MOVL C00232 V=31.0 +MOVJ EC00232
MOVL C00233 V=46.0 +MOVJ EC00233
MOVL C00234 V=31.0 +MOVJ EC00234
MOVL C00235 V=45.7 +MOVJ EC00235
MOVL C00236 V=29.3 +MOVJ EC00236
MOVL C00237 V=29.3 +MOVJ EC00237
MOVL C00238 V=67.0 +MOVJ EC00238
MOVL C00239 V=29.3 +MOVJ EC00239
MOVL C00240 V=66.6 +MOVJ EC00240
MOVL C00241 V=29.3 +MOVJ EC00241
MOVL C00242 V=66.2 +MOVJ EC00242
MOVL C00243 V=29.2 +MOVJ EC00243
MOVL C00244 V=65.7 +MOVJ EC00244
MOVL C00245 V=29.2 +MOVJ EC00245
MOVL C00246 V=65.2 +MOVJ EC00246
MOVL C00247 V=29.2 +MOVJ EC00247
MOVL C00248 V=64.6 +MOVJ EC00248
MOVL C00249 V=29.2 +MOVJ EC00249
MOVL C00250 V=29.2 +MOVJ EC00250
MOVL C00251 V=64.0 +MOVJ EC00251
MOVL C00252 V=29.2 +MOVJ EC00252
MOVL C00253 V=63.4 +MOVJ EC00253
MOVL C00254 V=29.1 +MOVJ EC00254
MOVL C00255 V=62.7 +MOVJ EC00255
MOVL C00256 V=29.1 +MOVJ EC00256
MOVL C00257 V=62.0 +MOVJ EC00257
MOVL C00258 V=29.1 +MOVJ EC00258
MOVL C00259 V=61.3 +MOVJ EC00259
MOVL C00260 V=29.1 +MOVJ EC00260
MOVL C00261 V=60.6 +MOVJ EC00261
MOVL C00262 V=29.0 +MOVJ EC00262
MOVL C00263 V=59.9 +MOVJ EC00263
MOVL C00264 V=29.0 +MOVJ EC00264
MOVL C00265 V=29.0 +MOVJ EC00265
MOVL C00266 V=59.1 +MOVJ EC00266
MOVL C00267 V=29.0 +MOVJ EC00267
MOVL C00268 V=58.4 +MOVJ EC00268
MOVL C00269 V=28.9 +MOVJ EC00269
MOVL C00270 V=57.6 +MOVJ EC00270
MOVL C00271 V=28.9 +MOVJ EC00271
MOVL C00272 V=56.8 +MOVJ EC00272
MOVL C00273 V=28.9 +MOVJ EC00273
MOVL C00274 V=56.1 +MOVJ EC00274
MOVL C00275 V=28.9 +MOVJ EC00275
MOVL C00276 V=55.3 +MOVJ EC00276
MOVL C00277 V=28.8 +MOVJ EC00277
MOVL C00278 V=54.5 +MOVJ EC00278
MOVL C00279 V=28.8 +MOVJ EC00279
MOVL C00280 V=28.8 +MOVJ EC00280
MOVL C00281 V=53.7 +MOVJ EC00281
MOVL C00282 V=28.8 +MOVJ EC00282
MOVL C00283 V=52.9 +MOVJ EC00283
MOVL C00284 V=28.7 +MOVJ EC00284
MOVL C00285 V=52.1 +MOVJ EC00285
MOVL C00286 V=28.7 +MOVJ EC00286
MOVL C00287 V=51.3 +MOVJ EC00287
MOVL C00288 V=28.7 +MOVJ EC00288
MOVL C00289 V=50.6 +MOVJ EC00289
MOVL C00290 V=28.6 +MOVJ EC00290
MOVL C00291 V=49.8 +MOVJ EC00291
MOVL C00292 V=28.6 +MOVJ EC00292
MOVL C00293 V=28.6 +MOVJ EC00293
MOVL C00294 V=49.0 +MOVJ EC00294
MOVL C00295 V=28.6 +MOVJ EC00295
MOVL C00296 V=48.2 +MOVJ EC00296
MOVL C00297 V=28.5 +MOVJ EC00297
MOVL C00298 V=47.5 +MOVJ EC00298
MOVL C00299 V=28.5 +MOVJ EC00299
MOVL C00300 V=46.7 +MOVJ EC00300
MOVL C00301 V=28.5 +MOVJ EC00301
MOVL C00302 V=46.0 +MOVJ EC00302
MOVL C00303 V=28.5 +MOVJ EC00303
MOVL C00304 V=45.3 +MOVJ EC00304
MOVL C00305 V=28.4 +MOVJ EC00305
MOVL C00306 V=44.5 +MOVJ EC00306
MOVL C00307 V=28.4 +MOVJ EC00307
MOVL C00308 V=28.4 +MOVJ EC00308
MOVL C00309 V=43.8 +MOVJ EC00309
MOVL C00310 V=28.4 +MOVJ EC00310
MOVL C00311 V=43.1 +MOVJ EC00311
MOVL C00312 V=28.3 +MOVJ EC00312
MOVL C00313 V=42.4 +MOVJ EC00313
MOVL C00314 V=28.3 +MOVJ EC00314
MOVL C00315 V=41.7 +MOVJ EC00315
MOVL C00316 V=28.3 +MOVJ EC00316
MOVL C00317 V=41.1 +MOVJ EC00317
MOVL C00318 V=28.3 +MOVJ EC00318
MOVL C00319 V=40.4 +MOVJ EC00319
MOVL C00320 V=28.2 +MOVJ EC00320
MOVL C00321 V=39.8 +MOVJ EC00321
MOVL C00322 V=28.2 +MOVJ EC00322
MOVL C00323 V=28.2 +MOVJ EC00323
MOVL C00324 V=39.1 +MOVJ EC00324
MOVL C00325 V=28.2 +MOVJ EC00325
MOVL C00326 V=38.5 +MOVJ EC00326
MOVL C00327 V=28.2 +MOVJ EC00327
MOVL C00328 V=37.9 +MOVJ EC00328
MOVL C00329 V=28.1 +MOVJ EC00329
MOVL C00330 V=37.4 +MOVJ EC00330
MOVL C00331 V=28.1 +MOVJ EC00331
MOVL C00332 V=36.8 +MOVJ EC00332
MOVL C00333 V=28.1 +MOVJ EC00333
MOVL C00334 V=36.3 +MOVJ EC00334
MOVL C00335 V=28.1 +MOVJ EC00335
MOVL C00336 V=28.1 +MOVJ EC00336
MOVL C00337 V=35.7 +MOVJ EC00337
MOVL C00338 V=28.1 +MOVJ EC00338
MOVL C00339 V=35.2 +MOVJ EC00339
MOVL C00340 V=28.0 +MOVJ EC00340
MOVL C00341 V=34.8 +MOVJ EC00341
MOVL C00342 V=28.0 +MOVJ EC00342
MOVL C00343 V=34.3 +MOVJ EC00343
MOVL C00344 V=28.0 +MOVJ EC00344
MOVL C00345 V=33.9 +MOVJ EC00345
MOVL C00346 V=28.0 +MOVJ EC00346
MOVL C00347 V=33.5 +MOVJ EC00347
MOVL C00348 V=28.0 +MOVJ EC00348
MOVL C00349 V=33.2 +MOVJ EC00349
MOVL C00350 V=27.9 +MOVJ EC00350
MOVL C00351 V=27.9 +MOVJ EC00351
MOVL C00352 V=32.9 +MOVJ EC00352
MOVL C00353 V=27.9 +MOVJ EC00353
MOVL C00354 V=32.7 +MOVJ EC00354
MOVL C00355 V=27.9 +MOVJ EC00355
MOVL C00356 V=32.5 +MOVJ EC00356
MOVL C00357 V=27.9 +MOVJ EC00357
MOVL C00358 V=32.3 +MOVJ EC00358
MOVL C00359 V=27.9 +MOVJ EC00359
MOVL C00360 V=32.3 +MOVJ EC00360
MOVL C00361 V=27.9 +MOVJ EC00361
MOVL C00362 V=32.3 +MOVJ EC00362
MOVL C00363 V=27.9 +MOVJ EC00363
MOVL C00364 V=32.3 +MOVJ EC00364
MOVL C00365 V=31.4 +MOVJ EC00365
MOVL C00366 V=25.4 +MOVJ EC00366
MOVL C00367 V=53.3 +MOVJ EC00367
MOVL C00368 V=25.4 +MOVJ EC00368
MOVL C00369 V=53.3 +MOVJ EC00369
MOVL C00370 V=25.3 +MOVJ EC00370
MOVL C00371 V=53.3 +MOVJ EC00371
MOVL C00372 V=25.3 +MOVJ EC00372
MOVL C00373 V=53.3 +MOVJ EC00373
MOVL C00374 V=25.3 +MOVJ EC00374
MOVL C00375 V=53.2 +MOVJ EC00375
MOVL C00376 V=25.3 +MOVJ EC00376
MOVL C00377 V=53.2 +MOVJ EC00377
MOVL C00378 V=25.3 +MOVJ EC00378
MOVL C00379 V=25.3 +MOVJ EC00379
MOVL C00380 V=53.2 +MOVJ EC00380
MOVL C00381 V=25.3 +MOVJ EC00381
MOVL C00382 V=53.1 +MOVJ EC00382
MOVL C00383 V=25.2 +MOVJ EC00383
MOVL C00384 V=53.1 +MOVJ EC00384
MOVL C00385 V=25.2 +MOVJ EC00385
MOVL C00386 V=53.1 +MOVJ EC00386
MOVL C00387 V=25.2 +MOVJ EC00387
MOVL C00388 V=53.1 +MOVJ EC00388
MOVL C00389 V=25.2 +MOVJ EC00389
MOVL C00390 V=53.0 +MOVJ EC00390
MOVL C00391 V=25.2 +MOVJ EC00391
MOVL C00392 V=25.2 +MOVJ EC00392
MOVL C00393 V=53.0 +MOVJ EC00393
MOVL C00394 V=25.2 +MOVJ EC00394
MOVL C00395 V=53.0 +MOVJ EC00395
MOVL C00396 V=25.2 +MOVJ EC00396
MOVL C00397 V=52.9 +MOVJ EC00397
MOVL C00398 V=25.2 +MOVJ EC00398
MOVL C00399 V=52.9 +MOVJ EC00399
MOVL C00400 V=25.2 +MOVJ EC00400
MOVL C00401 V=52.9 +MOVJ EC00401
MOVL C00402 V=25.2 +MOVJ EC00402
MOVL C00403 V=52.9 +MOVJ EC00403
MOVL C00404 V=25.2 +MOVJ EC00404
MOVL C00405 V=52.8 +MOVJ EC00405
MOVL C00406 V=25.2 +MOVJ EC00406
MOVL C00407 V=25.2 +MOVJ EC00407
MOVL C00408 V=52.8 +MOVJ EC00408
MOVL C00409 V=25.2 +MOVJ EC00409
MOVL C00410 V=52.8 +MOVJ EC00410
MOVL C00411 V=25.2 +MOVJ EC00411
MOVL C00412 V=52.8 +MOVJ EC00412
MOVL C00413 V=25.2 +MOVJ EC00413
MOVL C00414 V=52.7 +MOVJ EC00414
MOVL C00415 V=25.1 +MOVJ EC00415
MOVL C00416 V=52.7 +MOVJ EC00416
MOVL C00417 V=25.1 +MOVJ EC00417
MOVL C00418 V=52.7 +MOVJ EC00418
MOVL C00419 V=25.1 +MOVJ EC00419
MOVL C00420 V=52.7 +MOVJ EC00420
MOVL C00421 V=25.1 +MOVJ EC00421
MOVL C00422 V=25.2 +MOVJ EC00422
MOVL C00423 V=52.6 +MOVJ EC00423
MOVL C00424 V=25.2 +MOVJ EC00424
MOVL C00425 V=52.6 +MOVJ EC00425
MOVL C00426 V=25.2 +MOVJ EC00426
MOVL C00427 V=52.6 +MOVJ EC00427
MOVL C00428 V=25.2 +MOVJ EC00428
MOVL C00429 V=52.5 +MOVJ EC00429
MOVL C00430 V=25.2 +MOVJ EC00430
MOVL C00431 V=52.5 +MOVJ EC00431
MOVL C00432 V=25.2 +MOVJ EC00432
MOVL C00433 V=52.5 +MOVJ EC00433
MOVL C00434 V=25.2 +MOVJ EC00434
MOVL C00435 V=25.2 +MOVJ EC00435
MOVL C00436 V=52.5 +MOVJ EC00436
MOVL C00437 V=25.2 +MOVJ EC00437
MOVL C00438 V=52.4 +MOVJ EC00438
MOVL C00439 V=25.2 +MOVJ EC00439
MOVL C00440 V=52.4 +MOVJ EC00440
MOVL C00441 V=25.2 +MOVJ EC00441
MOVL C00442 V=52.4 +MOVJ EC00442
MOVL C00443 V=25.2 +MOVJ EC00443
MOVL C00444 V=52.4 +MOVJ EC00444
MOVL C00445 V=25.3 +MOVJ EC00445
MOVL C00446 V=52.4 +MOVJ EC00446
MOVL C00447 V=25.3 +MOVJ EC00447
MOVL C00448 V=52.3 +MOVJ EC00448
MOVL C00449 V=25.8 +MOVJ EC00449
MOVL C00450 V=25.9 +MOVJ EC00450
MOVL C00451 V=49.1 +MOVJ EC00451
MOVL C00452 V=25.9 +MOVJ EC00452
MOVL C00453 V=48.9 +MOVJ EC00453
MOVL C00454 V=25.9 +MOVJ EC00454
MOVL C00455 V=48.8 +MOVJ EC00455
MOVL C00456 V=25.9 +MOVJ EC00456
MOVL C00457 V=48.7 +MOVJ EC00457
MOVL C00458 V=25.9 +MOVJ EC00458
MOVL C00459 V=29.2 +MOVJ EC00459
MOVL C00460 V=30.0 +MOVJ EC00460
MOVL C00461 V=30.0 +MOVJ EC00461
MOVL C00462 V=30.0 +MOVJ EC00462
MOVL C00463 V=30.0 +MOVJ EC00463
MOVL C00464 V=30.0 +MOVJ EC00464
MOVL C00465 V=30.0 +MOVJ EC00465
MOVL C00466 V=30.0 +MOVJ EC00466
MOVL C00467 V=30.0 +MOVJ EC00467
MOVL C00468 V=30.0 +MOVJ EC00468
MOVL C00469 V=30.0 +MOVJ EC00469
MOVL C00470 V=30.0 +MOVJ EC00470
MOVL C00471 V=30.0 +MOVJ EC00471
MOVL C00472 V=30.0 +MOVJ EC00472
MOVL C00473 V=30.0 +MOVJ EC00473
MOVL C00474 V=30.0 +MOVJ EC00474
MOVL C00475 V=30.0 +MOVJ EC00475
MOVL C00476 V=30.0 +MOVJ EC00476
MOVL C00477 V=30.0 +MOVJ EC00477
MOVL C00478 V=30.0 +MOVJ EC00478
MOVL C00479 V=30.0 +MOVJ EC00479
MOVL C00480 V=30.0 +MOVJ EC00480
MOVL C00481 V=30.0 +MOVJ EC00481
MOVL C00482 V=30.0 +MOVJ EC00482
MOVL C00483 V=30.0 +MOVJ EC00483
MOVL C00484 V=30.0 +MOVJ EC00484
MOVL C00485 V=30.0 +MOVJ EC00485
MOVL C00486 V=30.0 +MOVJ EC00486
MOVL C00487 V=30.0 +MOVJ EC00487
MOVL C00488 V=30.0 +MOVJ EC00488
MOVL C00489 V=30.0 +MOVJ EC00489
MOVL C00490 V=30.0 +MOVJ EC00490
MOVL C00491 V=30.0 +MOVJ EC00491
MOVL C00492 V=30.0 +MOVJ EC00492
MOVL C00493 V=30.0 +MOVJ EC00493
MOVL C00494 V=30.0 +MOVJ EC00494
MOVL C00495 V=30.0 +MOVJ EC00495
MOVL C00496 V=30.0 +MOVJ EC00496
MOVL C00497 V=30.0 +MOVJ EC00497
MOVL C00498 V=30.0 +MOVJ EC00498
MOVL C00499 V=30.0 +MOVJ EC00499
MOVL C00500 V=30.0 +MOVJ EC00500
MOVL C00501 V=30.0 +MOVJ EC00501
MOVL C00502 V=30.0 +MOVJ EC00502
MOVL C00503 V=30.0 +MOVJ EC00503
MOVL C00504 V=30.0 +MOVJ EC00504
MOVL C00505 V=30.0 +MOVJ EC00505
MOVL C00506 V=30.0 +MOVJ EC00506
MOVL C00507 V=30.0 +MOVJ EC00507
MOVL C00508 V=30.0 +MOVJ EC00508
MOVL C00509 V=30.0 +MOVJ EC00509
MOVL C00510 V=30.0 +MOVJ EC00510
MOVL C00511 V=30.0 +MOVJ EC00511
MOVL C00512 V=30.0 +MOVJ EC00512
MOVL C00513 V=30.0 +MOVJ EC00513
MOVL C00514 V=30.0 +MOVJ EC00514
MOVL C00515 V=30.0 +MOVJ EC00515
MOVL C00516 V=30.0 +MOVJ EC00516
MOVL C00517 V=30.0 +MOVJ EC00517
MOVL C00518 V=30.0 +MOVJ EC00518
MOVL C00519 V=30.0 +MOVJ EC00519
MOVL C00520 V=30.0 +MOVJ EC00520
MOVL C00521 V=30.0 +MOVJ EC00521
MOVL C00522 V=30.0 +MOVJ EC00522
MOVL C00523 V=30.0 +MOVJ EC00523
MOVL C00524 V=30.0 +MOVJ EC00524
MOVL C00525 V=30.0 +MOVJ EC00525
MOVL C00526 V=30.0 +MOVJ EC00526
MOVL C00527 V=30.0 +MOVJ EC00527
MOVL C00528 V=30.0 +MOVJ EC00528
MOVL C00529 V=30.0 +MOVJ EC00529
MOVL C00530 V=30.0 +MOVJ EC00530
MOVL C00531 V=30.0 +MOVJ EC00531
MOVL C00532 V=30.0 +MOVJ EC00532
MOVL C00533 V=30.0 +MOVJ EC00533
MOVL C00534 V=30.0 +MOVJ EC00534
MOVL C00535 V=30.0 +MOVJ EC00535
MOVL C00536 V=30.0 +MOVJ EC00536
MOVL C00537 V=30.0 +MOVJ EC00537
MOVL C00538 V=30.0 +MOVJ EC00538
MOVL C00539 V=30.0 +MOVJ EC00539
MOVL C00540 V=30.0 +MOVJ EC00540
MOVL C00541 V=30.0 +MOVJ EC00541
MOVL C00542 V=30.0 +MOVJ EC00542
MOVL C00543 V=30.0 +MOVJ EC00543
MOVL C00544 V=30.0 +MOVJ EC00544
MOVL C00545 V=30.0 +MOVJ EC00545
MOVL C00546 V=30.0 +MOVJ EC00546
MOVL C00547 V=30.0 +MOVJ EC00547
MOVL C00548 V=30.0 +MOVJ EC00548
MOVL C00549 V=30.0 +MOVJ EC00549
MOVL C00550 V=30.0 +MOVJ EC00550
MOVL C00551 V=30.0 +MOVJ EC00551
MOVL C00552 V=30.0 +MOVJ EC00552
MOVL C00553 V=30.0 +MOVJ EC00553
MOVL C00554 V=30.0 +MOVJ EC00554
MOVL C00555 V=30.0 +MOVJ EC00555
MOVL C00556 V=30.0 +MOVJ EC00556
MOVL C00557 V=30.0 +MOVJ EC00557
MOVL C00558 V=30.0 +MOVJ EC00558
MOVL C00559 V=30.0 +MOVJ EC00559
MOVL C00560 V=30.0 +MOVJ EC00560
MOVL C00561 V=30.0 +MOVJ EC00561
MOVL C00562 V=30.0 +MOVJ EC00562
MOVL C00563 V=30.0 +MOVJ EC00563
MOVL C00564 V=30.0 +MOVJ EC00564
MOVL C00565 V=30.0 +MOVJ EC00565
MOVL C00566 V=30.0 +MOVJ EC00566
MOVL C00567 V=30.0 +MOVJ EC00567
MOVL C00568 V=30.0 +MOVJ EC00568
MOVL C00569 V=30.0 +MOVJ EC00569
MOVL C00570 V=30.0 +MOVJ EC00570
MOVL C00571 V=30.0 +MOVJ EC00571
MOVL C00572 V=30.0 +MOVJ EC00572
MOVL C00573 V=30.0 +MOVJ EC00573
MOVL C00574 V=30.0 +MOVJ EC00574
MOVL C00575 V=30.0 +MOVJ EC00575
MOVL C00576 V=30.0 +MOVJ EC00576
MOVL C00577 V=30.0 +MOVJ EC00577
MOVL C00578 V=30.0 +MOVJ EC00578
MOVL C00579 V=30.0 +MOVJ EC00579
MOVL C00580 V=30.0 +MOVJ EC00580
MOVL C00581 V=30.0 +MOVJ EC00581
MOVL C00582 V=30.0 +MOVJ EC00582
MOVL C00583 V=30.0 +MOVJ EC00583
MOVL C00584 V=30.0 +MOVJ EC00584
MOVL C00585 V=30.0 +MOVJ EC00585
MOVL C00586 V=30.0 +MOVJ EC00586
MOVL C00587 V=30.0 +MOVJ EC00587
MOVL C00588 V=30.0 +MOVJ EC00588
MOVL C00589 V=30.0 +MOVJ EC00589
MOVL C00590 V=30.0 +MOVJ EC00590
MOVL C00591 V=30.0 +MOVJ EC00591
MOVL C00592 V=30.0 +MOVJ EC00592
MOVL C00593 V=30.0 +MOVJ EC00593
MOVL C00594 V=30.0 +MOVJ EC00594
MOVL C00595 V=30.0 +MOVJ EC00595
MOVL C00596 V=30.0 +MOVJ EC00596
MOVL C00597 V=30.0 +MOVJ EC00597
MOVL C00598 V=30.0 +MOVJ EC00598
MOVL C00599 V=30.0 +MOVJ EC00599
MOVL C00600 V=30.0 +MOVJ EC00600
MOVL C00601 V=28.5 +MOVJ EC00601
MOVL C00602 V=28.4 +MOVJ EC00602
MOVL C00603 V=28.4 +MOVJ EC00603
MOVL C00604 V=28.4 +MOVJ EC00604
MOVL C00605 V=28.4 +MOVJ EC00605
MOVL C00606 V=28.4 +MOVJ EC00606
MOVL C00607 V=28.4 +MOVJ EC00607
MOVL C00608 V=28.4 +MOVJ EC00608
MOVL C00609 V=28.4 +MOVJ EC00609
MOVL C00610 V=28.4 +MOVJ EC00610
MOVL C00611 V=28.4 +MOVJ EC00611
MOVL C00612 V=28.4 +MOVJ EC00612
MOVL C00613 V=27.8 +MOVJ EC00613
MOVL C00614 V=26.7 +MOVJ EC00614
MOVL C00615 V=59.1 +MOVJ EC00615
MOVL C00616 V=26.6 +MOVJ EC00616
MOVL C00617 V=59.1 +MOVJ EC00617
MOVL C00618 V=26.6 +MOVJ EC00618
MOVL C00619 V=26.6 +MOVJ EC00619
MOVL C00620 V=59.1 +MOVJ EC00620
MOVL C00621 V=26.6 +MOVJ EC00621
MOVL C00622 V=59.1 +MOVJ EC00622
MOVL C00623 V=26.5 +MOVJ EC00623
MOVL C00624 V=59.0 +MOVJ EC00624
MOVL C00625 V=26.5 +MOVJ EC00625
MOVL C00626 V=59.0 +MOVJ EC00626
MOVL C00627 V=26.5 +MOVJ EC00627
MOVL C00628 V=59.0 +MOVJ EC00628
MOVL C00629 V=26.5 +MOVJ EC00629
MOVL C00630 V=58.9 +MOVJ EC00630
MOVL C00631 V=26.4 +MOVJ EC00631
MOVL C00632 V=58.9 +MOVJ EC00632
MOVL C00633 V=26.4 +MOVJ EC00633
MOVL C00634 V=26.4 +MOVJ EC00634
MOVL C00635 V=58.8 +MOVJ EC00635
MOVL C00636 V=26.4 +MOVJ EC00636
MOVL C00637 V=58.8 +MOVJ EC00637
MOVL C00638 V=26.4 +MOVJ EC00638
MOVL C00639 V=58.8 +MOVJ EC00639
MOVL C00640 V=26.3 +MOVJ EC00640
MOVL C00641 V=58.7 +MOVJ EC00641
MOVL C00642 V=26.3 +MOVJ EC00642
MOVL C00643 V=58.7 +MOVJ EC00643
MOVL C00644 V=26.3 +MOVJ EC00644
MOVL C00645 V=58.6 +MOVJ EC00645
MOVL C00646 V=26.3 +MOVJ EC00646
MOVL C00647 V=26.3 +MOVJ EC00647
MOVL C00648 V=58.5 +MOVJ EC00648
MOVL C00649 V=26.2 +MOVJ EC00649
MOVL C00650 V=58.5 +MOVJ EC00650
MOVL C00651 V=26.2 +MOVJ EC00651
MOVL C00652 V=58.4 +MOVJ EC00652
MOVL C00653 V=26.2 +MOVJ EC00653
MOVL C00654 V=58.4 +MOVJ EC00654
MOVL C00655 V=26.2 +MOVJ EC00655
MOVL C00656 V=58.3 +MOVJ EC00656
MOVL C00657 V=26.2 +MOVJ EC00657
MOVL C00658 V=58.2 +MOVJ EC00658
MOVL C00659 V=26.1 +MOVJ EC00659
MOVL C00660 V=58.2 +MOVJ EC00660
MOVL C00661 V=26.1 +MOVJ EC00661
MOVL C00662 V=26.1 +MOVJ EC00662
MOVL C00663 V=58.1 +MOVJ EC00663
MOVL C00664 V=26.1 +MOVJ EC00664
MOVL C00665 V=58.0 +MOVJ EC00665
MOVL C00666 V=26.1 +MOVJ EC00666
MOVL C00667 V=58.0 +MOVJ EC00667
MOVL C00668 V=26.1 +MOVJ EC00668
MOVL C00669 V=57.9 +MOVJ EC00669
MOVL C00670 V=26.0 +MOVJ EC00670
MOVL C00671 V=57.8 +MOVJ EC00671
MOVL C00672 V=26.0 +MOVJ EC00672
MOVL C00673 V=57.8 +MOVJ EC00673
MOVL C00674 V=26.0 +MOVJ EC00674
MOVL C00675 V=57.7 +MOVJ EC00675
MOVL C00676 V=26.0 +MOVJ EC00676
MOVL C00677 V=26.0 +MOVJ EC00677
MOVL C00678 V=57.6 +MOVJ EC00678
MOVL C00679 V=26.0 +MOVJ EC00679
MOVL C00680 V=57.5 +MOVJ EC00680
MOVL C00681 V=26.0 +MOVJ EC00681
MOVL C00682 V=57.5 +MOVJ EC00682
MOVL C00683 V=25.9 +MOVJ EC00683
MOVL C00684 V=57.4 +MOVJ EC00684
MOVL C00685 V=25.9 +MOVJ EC00685
MOVL C00686 V=57.3 +MOVJ EC00686
MOVL C00687 V=25.9 +MOVJ EC00687
MOVL C00688 V=57.3 +MOVJ EC00688
MOVL C00689 V=25.9 +MOVJ EC00689
MOVL C00690 V=25.9 +MOVJ EC00690
MOVL C00691 V=57.2 +MOVJ EC00691
MOVL C00692 V=25.9 +MOVJ EC00692
MOVL C00693 V=57.1 +MOVJ EC00693
MOVL C00694 V=25.9 +MOVJ EC00694
MOVL C00695 V=57.0 +MOVJ EC00695
MOVL C00696 V=25.9 +MOVJ EC00696
MOVL C00697 V=57.0 +MOVJ EC00697
MOVL C00698 V=25.9 +MOVJ EC00698
MOVL C00699 V=56.9 +MOVJ EC00699
MOVL C00700 V=25.9 +MOVJ EC00700
MOVL C00701 V=56.8 +MOVJ EC00701
MOVL C00702 V=25.9 +MOVJ EC00702
MOVL C00703 V=56.7 +MOVJ EC00703
MOVL C00704 V=25.9 +MOVJ EC00704
MOVL C00705 V=25.9 +MOVJ EC00705
MOVL C00706 V=56.7 +MOVJ EC00706
MOVL C00707 V=25.9 +MOVJ EC00707
MOVL C00708 V=56.6 +MOVJ EC00708
MOVL C00709 V=25.9 +MOVJ EC00709
MOVL C00710 V=56.5 +MOVJ EC00710
MOVL C00711 V=25.8 +MOVJ EC00711
MOVL C00712 V=25.8 +MOVJ EC00712
MOVL C00713 V=25.8 +MOVJ EC00713
MOVL C00714 V=25.8 +MOVJ EC00714
MOVL C00715 V=25.8 +MOVJ EC00715
MOVL C00716 V=25.8 +MOVJ EC00716
MOVL C00717 V=25.8 +MOVJ EC00717
MOVL C00718 V=25.8 +MOVJ EC00718
MOVL C00719 V=25.8 +MOVJ EC00719
MOVL C00720 V=25.8 +MOVJ EC00720
MOVL C00721 V=25.8 +MOVJ EC00721
MOVL C00722 V=25.8 +MOVJ EC00722
MOVL C00723 V=25.8 +MOVJ EC00723
MOVL C00724 V=25.8 +MOVJ EC00724
MOVL C00725 V=25.8 +MOVJ EC00725
MOVL C00726 V=25.8 +MOVJ EC00726
MOVL C00727 V=25.7 +MOVJ EC00727
MOVL C00728 V=25.7 +MOVJ EC00728
MOVL C00729 V=25.7 +MOVJ EC00729
MOVL C00730 V=25.7 +MOVJ EC00730
MOVL C00731 V=25.7 +MOVJ EC00731
MOVL C00732 V=25.7 +MOVJ EC00732
MOVL C00733 V=25.7 +MOVJ EC00733
MOVL C00734 V=25.7 +MOVJ EC00734
MOVL C00735 V=25.7 +MOVJ EC00735
MOVL C00736 V=25.7 +MOVJ EC00736
MOVL C00737 V=25.7 +MOVJ EC00737
MOVL C00738 V=25.7 +MOVJ EC00738
MOVL C00739 V=25.7 +MOVJ EC00739
MOVL C00740 V=25.7 +MOVJ EC00740
MOVL C00741 V=25.7 +MOVJ EC00741
MOVL C00742 V=25.7 +MOVJ EC00742
MOVL C00743 V=25.7 +MOVJ EC00743
MOVL C00744 V=25.6 +MOVJ EC00744
MOVL C00745 V=25.6 +MOVJ EC00745
MOVL C00746 V=25.6 +MOVJ EC00746
MOVL C00747 V=25.6 +MOVJ EC00747
MOVL C00748 V=25.6 +MOVJ EC00748
MOVL C00749 V=25.6 +MOVJ EC00749
MOVL C00750 V=25.6 +MOVJ EC00750
MOVL C00751 V=25.6 +MOVJ EC00751
MOVL C00752 V=25.6 +MOVJ EC00752
MOVL C00753 V=25.6 +MOVJ EC00753
MOVL C00754 V=25.6 +MOVJ EC00754
MOVL C00755 V=54.0 +MOVJ EC00755
MOVL C00756 V=25.6 +MOVJ EC00756
MOVL C00757 V=54.0 +MOVJ EC00757
MOVL C00758 V=25.5 +MOVJ EC00758
MOVL C00759 V=54.0 +MOVJ EC00759
MOVL C00760 V=25.5 +MOVJ EC00760
MOVL C00761 V=54.0 +MOVJ EC00761
MOVL C00762 V=25.5 +MOVJ EC00762
MOVL C00763 V=54.0 +MOVJ EC00763
MOVL C00764 V=25.5 +MOVJ EC00764
MOVL C00765 V=54.0 +MOVJ EC00765
MOVL C00766 V=25.5 +MOVJ EC00766
MOVL C00767 V=53.9 +MOVJ EC00767
MOVL C00768 V=25.4 +MOVJ EC00768
MOVL C00769 V=25.4 +MOVJ EC00769
MOVL C00770 V=53.9 +MOVJ EC00770
MOVL C00771 V=25.4 +MOVJ EC00771
MOVL C00772 V=53.9 +MOVJ EC00772
MOVL C00773 V=25.4 +MOVJ EC00773
MOVL C00774 V=53.9 +MOVJ EC00774
MOVL C00775 V=25.4 +MOVJ EC00775
MOVL C00776 V=53.9 +MOVJ EC00776
MOVL C00777 V=25.4 +MOVJ EC00777
MOVL C00778 V=53.9 +MOVJ EC00778
MOVL C00779 V=25.3 +MOVJ EC00779
MOVL C00780 V=53.9 +MOVJ EC00780
MOVL C00781 V=25.3 +MOVJ EC00781
MOVL C00782 V=53.9 +MOVJ EC00782
MOVL C00783 V=25.3 +MOVJ EC00783
MOVL C00784 V=25.3 +MOVJ EC00784
MOVL C00785 V=53.8 +MOVJ EC00785
MOVL C00786 V=25.3 +MOVJ EC00786
MOVL C00787 V=53.8 +MOVJ EC00787
MOVL C00788 V=25.3 +MOVJ EC00788
MOVL C00789 V=53.8 +MOVJ EC00789
MOVL C00790 V=25.3 +MOVJ EC00790
MOVL C00791 V=53.8 +MOVJ EC00791
MOVL C00792 V=25.3 +MOVJ EC00792
MOVL C00793 V=53.8 +MOVJ EC00793
MOVL C00794 V=25.3 +MOVJ EC00794
MOVL C00795 V=53.8 +MOVJ EC00795
MOVL C00796 V=25.3 +MOVJ EC00796
MOVL C00797 V=25.3 +MOVJ EC00797
MOVL C00798 V=53.8 +MOVJ EC00798
MOVL C00799 V=25.2 +MOVJ EC00799
MOVL C00800 V=53.8 +MOVJ EC00800
MOVL C00801 V=25.2 +MOVJ EC00801
MOVL C00802 V=53.8 +MOVJ EC00802
MOVL C00803 V=25.2 +MOVJ EC00803
MOVL C00804 V=53.8 +MOVJ EC00804
MOVL C00805 V=25.2 +MOVJ EC00805
MOVL C00806 V=53.7 +MOVJ EC00806
MOVL C00807 V=25.2 +MOVJ EC00807
MOVL C00808 V=53.7 +MOVJ EC00808
MOVL C00809 V=25.2 +MOVJ EC00809
MOVL C00810 V=53.7 +MOVJ EC00810
MOVL C00811 V=25.2 +MOVJ EC00811
MOVL C00812 V=25.2 +MOVJ EC00812
MOVL C00813 V=53.7 +MOVJ EC00813
MOVL C00814 V=25.2 +MOVJ EC00814
MOVL C00815 V=53.7 +MOVJ EC00815
MOVL C00816 V=25.2 +MOVJ EC00816
MOVL C00817 V=53.7 +MOVJ EC00817
MOVL C00818 V=25.2 +MOVJ EC00818
MOVL C00819 V=53.7 +MOVJ EC00819
MOVL C00820 V=25.2 +MOVJ EC00820
MOVL C00821 V=53.7 +MOVJ EC00821
MOVL C00822 V=25.2 +MOVJ EC00822
MOVL C00823 V=53.7 +MOVJ EC00823
MOVL C00824 V=25.2 +MOVJ EC00824
MOVL C00825 V=53.7 +MOVJ EC00825
MOVL C00826 V=25.2 +MOVJ EC00826
MOVL C00827 V=25.2 +MOVJ EC00827
MOVL C00828 V=53.7 +MOVJ EC00828
MOVL C00829 V=25.3 +MOVJ EC00829
MOVL C00830 V=53.7 +MOVJ EC00830
MOVL C00831 V=25.3 +MOVJ EC00831
MOVL C00832 V=53.7 +MOVJ EC00832
MOVL C00833 V=25.3 +MOVJ EC00833
MOVL C00834 V=53.7 +MOVJ EC00834
MOVL C00835 V=25.3 +MOVJ EC00835
MOVL C00836 V=53.7 +MOVJ EC00836
MOVL C00837 V=25.3 +MOVJ EC00837
MOVL C00838 V=53.7 +MOVJ EC00838
MOVL C00839 V=25.3 +MOVJ EC00839
MOVL C00840 V=25.3 +MOVJ EC00840
MOVL C00841 V=53.7 +MOVJ EC00841
MOVL C00842 V=25.3 +MOVJ EC00842
MOVL C00843 V=53.7 +MOVJ EC00843
MOVL C00844 V=25.3 +MOVJ EC00844
MOVL C00845 V=53.7 +MOVJ EC00845
MOVL C00846 V=25.3 +MOVJ EC00846
MOVL C00847 V=53.6 +MOVJ EC00847
MOVL C00848 V=25.4 +MOVJ EC00848
MOVL C00849 V=54.4 +MOVJ EC00849
MOVL C00850 V=27.6 +MOVJ EC00850
MOVL C00851 V=31.0 +MOVJ EC00851
MOVL C00852 V=27.0 PL=0 +MOVJ EC00852
END
