/JOB
//NAME AAA
//POS
///NPOS 847,0,847,0,0,0
///TOOL 12
///POSTYPE PULSE
///PULSE
C00000=44986,59403,-25006,-66486,77021,21362
C00001=44588,59473,-24584,-66778,76262,21486
C00002=44189,59551,-24159,-67069,75500,21612
C00003=43789,59638,-23731,-67357,74733,21740
C00004=43388,59732,-23301,-67644,73961,21871
C00005=43666,59832,-23652,-67149,74989,21670
C00006=44150,60082,-24305,-66174,77017,21265
C00007=44584,60188,-24895,-65530,78540,20956
C00008=45012,60330,-25510,-64852,80176,20613
C00009=45429,60513,-26144,-64143,81923,20235
C00010=45723,60529,-26993,-63151,83320,19764
C00011=45731,59982,-28228,-61768,83320,19257
C00012=45707,59443,-29456,-60324,83320,18747
C00013=45651,58921,-30661,-58830,83320,18239
C00014=45565,58418,-31833,-57300,83320,17741
C00015=45456,57935,-32964,-55753,83320,17259
C00016=45343,57458,-34069,-54213,83320,16799
C00017=45215,57010,-35114,-52689,83320,16364
C00018=44940,56566,-36245,-50675,83320,15836
C00019=44814,56167,-37163,-49261,83320,15475
C00020=44433,55784,-38214,-46986,83320,14955
C00021=44110,55435,-39147,-44951,83320,14526
C00022=43382,55165,-40173,-41563,83320,13910
C00023=42184,55509,-40233,-37827,83318,13373
C00024=41765,55872,-39751,-37124,83314,13299
C00025=41468,56221,-39222,-36846,83317,13283
C00026=41199,56539,-38654,-36722,83208,13290
C00027=40935,56816,-38081,-36646,82977,13307
C00028=40671,57057,-37493,-36614,82624,13334
C00029=40405,57299,-36897,-36585,82257,13362
C00030=40140,57521,-36293,-36583,81820,13395
C00031=39880,57718,-35693,-36608,81315,13433
C00032=39620,57896,-35085,-36660,80740,13476
C00033=39358,58056,-34467,-36737,80096,13524
C00034=39095,58267,-33857,-36758,79597,13561
C00035=38829,58474,-33239,-36790,79067,13599
C00036=38564,58596,-32600,-36927,78260,13658
C00037=38294,58788,-31969,-36987,77654,13700
C00038=38027,58971,-31341,-37059,77021,13744
C00039=37758,59150,-30708,-37141,76360,13790
C00040=37486,59326,-30069,-37233,75674,13836
C00041=37213,59499,-29426,-37334,74966,13883
C00042=36939,59670,-28782,-37443,74239,13930
C00043=36659,59845,-28126,-37556,73495,13978
C00044=36380,60017,-27472,-37676,72739,14025
C00045=36102,60186,-26823,-37802,71975,14072
C00046=35822,60359,-26169,-37929,71207,14118
C00047=35539,60536,-25513,-38057,70439,14163
C00048=35256,60717,-24859,-38184,69675,14206
C00049=34974,60901,-24208,-38311,68919,14248
C00050=34700,61184,-23601,-38306,68512,14270
C00051=34403,61323,-22895,-38522,67501,14325
C00052=34105,61474,-22183,-38733,66486,14382
C00053=33760,61406,-21314,-39274,64509,14501
C00054=33465,61382,-20874,-39526,63532,14574
C00055=33296,61136,-21256,-39885,63929,14324
C00056=33129,60893,-21642,-40250,64327,14073
C00057=32964,60651,-22033,-40620,64725,13819
C00058=32858,60428,-22416,-41319,65402,13276
C00059=32699,60190,-22815,-41705,65798,13019
C00060=32543,59954,-23217,-42097,66193,12760
C00061=32388,59721,-23622,-42496,66588,12500
C00062=32236,59490,-24029,-42900,66981,12237
C00063=32149,59272,-24431,-43654,67628,11682
C00064=32003,59046,-24844,-44075,68014,11416
C00065=31859,58823,-25258,-44503,68396,11147
C00066=31717,58603,-25673,-44936,68775,10877
C00067=31578,58386,-26090,-45377,69151,10605
C00068=31509,58174,-26499,-46187,69746,10038
C00069=31375,57963,-26917,-46643,70106,9762
C00070=31243,57756,-27334,-47106,70460,9485
C00071=31113,57551,-27752,-47576,70809,9205
C00072=30985,57351,-28168,-48051,71150,8924
C00073=30860,57154,-28584,-48533,71484,8641
C00074=30808,56952,-28989,-49406,71985,8061
C00075=30687,56761,-29402,-49902,72295,7775
C00076=30567,56575,-29813,-50404,72596,7488
C00077=30449,56392,-30223,-50912,72886,7198
C00078=30333,56213,-30630,-51424,73167,6908
C00079=30291,56018,-31021,-52343,73558,6321
C00080=30178,55846,-31422,-52868,73807,6028
C00081=30066,55678,-31821,-53397,74043,5733
C00082=29955,55513,-32216,-53931,74266,5438
C00083=29845,55353,-32608,-54468,74477,5142
C00084=29809,55163,-32981,-55420,74734,4553
C00085=29700,55009,-33365,-55966,74906,4256
C00086=29593,54860,-33746,-56514,75063,3958
C00087=29485,54714,-34123,-57064,75206,3660
C00088=29379,54572,-34496,-57617,75333,3361
C00089=29340,54384,-34847,-58587,75436,2776
C00090=29234,54249,-35211,-59143,75520,2478
C00091=29127,54117,-35572,-59699,75587,2181
C00092=29020,53989,-35928,-60255,75638,1883
C00093=28913,53865,-36280,-60811,75673,1587
C00094=28806,53746,-36627,-61367,75690,1290
C00095=28759,53559,-36952,-62334,75597,718
C00096=28650,53445,-37291,-62886,75568,425
C00097=28541,53334,-37625,-63437,75522,132
C00098=28431,53228,-37956,-63984,75459,-159
C00099=28321,53126,-38282,-64530,75379,-449
C00100=28260,52936,-38588,-65473,75114,-1003
C00101=28146,52839,-38906,-66008,74987,-1288
C00102=28032,52746,-39220,-66540,74843,-1571
C00103=27917,52657,-39530,-67068,74683,-1853
C00104=27801,52572,-39835,-67591,74506,-2133
C00105=27722,52378,-40129,-68491,74075,-2663
C00106=27602,52298,-40427,-68999,73853,-2937
C00107=27481,52223,-40721,-69503,73616,-3209
C00108=27359,52151,-41011,-70000,73364,-3478
C00109=27237,52084,-41297,-70491,73096,-3746
C00110=27138,51887,-41583,-71332,72508,-4248
C00111=27011,51826,-41863,-71805,72200,-4508
C00112=26884,51770,-42139,-72271,71877,-4767
C00113=26755,51717,-42411,-72730,71540,-5023
C00114=26626,51670,-42679,-73181,71189,-5276
C00115=26496,51626,-42944,-73626,70825,-5528
C00116=26373,51430,-43224,-74383,70075,-5995
C00117=26239,51394,-43482,-74806,69675,-6239
C00118=26105,51363,-43737,-75222,69263,-6480
C00119=25969,51336,-43988,-75630,68839,-6719
C00120=25833,51314,-44236,-76029,68404,-6956
C00121=25690,51122,-44515,-76708,67532,-7393
C00122=25551,51108,-44756,-77086,67066,-7623
C00123=25412,51099,-44994,-77455,66589,-7850
C00124=25272,51096,-45227,-77816,66102,-8075
C00125=25132,51098,-45457,-78169,65604,-8297
C00126=24970,50913,-45735,-78766,64628,-8706
C00127=24827,50924,-45958,-79097,64103,-8921
C00128=24684,50940,-46178,-79419,63570,-9134
C00129=24526,50735,-46470,-79964,62536,-9524
C00130=24883,50681,-46809,-80624,63001,-9725
C00131=25244,50636,-47136,-81291,63458,-9929
C00132=25609,50601,-47453,-81964,63906,-10136
C00133=25977,50575,-47758,-82643,64344,-10347
C00134=25828,50414,-47814,-82171,63992,-10183
C00135=25238,49803,-47986,-80303,62578,-9524
C00136=24407,48577,-48577,-77137,60100,-8333
C00137=24329,47830,-49377,-76245,59262,-7936
C00138=24415,47379,-50018,-76079,59000,-7823
C00139=24549,47013,-50614,-76127,58907,-7795
C00140=24705,46703,-51170,-76291,58906,-7815
C00141=24879,46419,-51716,-76529,58958,-7864
C00142=25073,46161,-52251,-76842,59064,-7943
C00143=25268,45910,-52776,-77162,59176,-8026
C00144=25477,45677,-53292,-77527,59318,-8127
C00145=25696,45467,-53789,-77938,59492,-8246
C00146=25911,45225,-54310,-78291,59619,-8341
C00147=26154,45052,-54781,-78783,59847,-8493
C00148=26388,44836,-55282,-79193,60011,-8612
C00149=26656,44701,-55728,-79773,60295,-8798
C00150=26908,44521,-56198,-80243,60498,-8940
C00151=27169,44354,-56654,-80737,60715,-9092
C00152=27438,44202,-57096,-81256,60948,-9253
C00153=27715,44066,-57524,-81802,61196,-9425
C00154=28001,43946,-57938,-82372,61459,-9606
C00155=28263,43734,-58408,-82750,61586,-9712
C00156=28565,43640,-58794,-83362,61874,-9908
C00157=28874,43564,-59164,-84000,62177,-10114
C00158=29160,43374,-59610,-84413,62321,-10233
C00159=29484,43326,-59950,-85090,62646,-10452
C00160=29819,43292,-60280,-85794,62984,-10680
C00161=30127,43127,-60697,-86241,63146,-10811
C00162=30473,43124,-60992,-86979,63504,-11050
C00163=30790,42980,-61378,-87441,63676,-11186
C00164=31149,43004,-61645,-88212,64051,-11434
C00165=31479,42875,-62010,-88691,64231,-11576
C00166=31817,42751,-62369,-89175,64413,-11719
C00167=32188,42816,-62585,-89979,64808,-11975
C00168=32535,42709,-62919,-90475,64997,-12121
C00169=32916,42796,-63109,-91299,65402,-12380
C00170=33277,42700,-63425,-91805,65596,-12528
C00171=33636,42615,-63724,-92311,65791,-12675
C00172=34020,42737,-63862,-93146,66205,-12933
C00173=34389,42663,-64141,-93655,66404,-13079
C00174=34763,42594,-64411,-94165,66603,-13226
C00175=35153,42738,-64513,-95002,67020,-13477
C00176=35533,42679,-64761,-95510,67220,-13621
C00177=35916,42625,-64999,-96016,67421,-13763
C00178=36311,42783,-65070,-96842,67835,-14004
C00179=36704,42734,-65293,-97344,68035,-14142
C00180=37098,42898,-65345,-98153,68442,-14373
C00181=37490,42857,-65546,-98643,68640,-14505
C00182=37891,42814,-65743,-99132,68838,-14636
C00183=38286,42982,-65771,-99911,69235,-14850
C00184=38684,42946,-65947,-100385,69429,-14974
C00185=39079,43110,-65963,-101137,69816,-15175
C00186=39481,43075,-66124,-101596,70007,-15292
C00187=39875,43234,-66130,-102318,70382,-15480
C00188=40279,43199,-66278,-102761,70570,-15590
C00189=40670,43350,-66275,-103452,70933,-15764
C00190=41084,43310,-66415,-103881,71117,-15868
C00191=41474,43452,-66404,-104539,71467,-16028
C00192=41867,43585,-66395,-105177,71809,-16181
C00193=42276,43543,-66513,-105575,71986,-16273
C00194=42667,43665,-66498,-106181,72317,-16413
C00195=43062,43776,-66486,-106768,72639,-16547
C00196=43453,43879,-66471,-107334,72952,-16672
C00197=43841,43976,-66456,-107879,73258,-16791
C00198=44234,44061,-66443,-108407,73556,-16904
C00199=44648,44005,-66532,-108749,73719,-16974
C00200=45020,44193,-66431,-109384,74100,-17108
C00201=45310,44767,-66024,-110492,74815,-17345
C00202=45674,44974,-65897,-111138,75181,-17481
C00203=45941,45031,-65850,-111733,75592,-17596
C00204=46112,44408,-66274,-111750,75773,-17564
C00205=46284,43784,-66695,-111765,75958,-17532
C00206=46457,43158,-67114,-111780,76144,-17498
C00207=46630,42531,-67529,-111794,76333,-17464
C00208=46804,41903,-67942,-111806,76525,-17428
C00209=46346,42835,-66972,-114331,76866,-18354
C00210=46023,42614,-67147,-113717,76491,-18244
C00211=45810,42016,-67607,-112660,75775,-18054
C00212=45478,41812,-67758,-112054,75387,-17946
C00213=45156,41633,-67915,-111467,74978,-17845
C00214=44829,41535,-68016,-111089,74530,-17830
C00215=44470,41534,-68038,-110753,74220,-17797
C00216=44168,41265,-68245,-110148,73642,-17730
C00217=43805,41239,-68269,-109760,73320,-17681
C00218=43441,41216,-68284,-109368,73003,-17629
C00219=43122,40956,-68465,-108729,72444,-17543
C00220=42750,40950,-68453,-108338,72147,-17486
C00221=42417,40716,-68601,-107701,71619,-17391
C00222=42035,40723,-68564,-107303,71339,-17328
C00223=41696,40500,-68690,-106653,70832,-17221
C00224=41329,40526,-68671,-106310,70467,-17193
C00225=40967,40547,-68647,-105963,70108,-17162
C00226=40643,40307,-68795,-105370,69472,-17102
C00227=40269,40328,-68745,-104986,69140,-17051
C00228=39892,40350,-68682,-104589,68820,-16994
C00229=39546,40120,-68793,-103921,68241,-16891
C00230=39163,40146,-68706,-103501,67943,-16820
C00231=38779,40175,-68609,-103075,67652,-16746
C00232=38419,39960,-68683,-102367,67109,-16616
C00233=38033,39996,-68563,-101929,66831,-16533
C00234=37648,40036,-68434,-101488,66559,-16447
C00235=37280,39838,-68472,-100757,66041,-16300
C00236=36895,39886,-68321,-100308,65780,-16207
C00237=36511,39938,-68159,-99857,65524,-16113
C00238=36139,39759,-68162,-99110,65027,-15950
C00239=35758,39820,-67980,-98655,64781,-15850
C00240=35384,39655,-67960,-97903,64294,-15679
C00241=35006,39726,-67759,-97448,64053,-15577
C00242=34631,39801,-67549,-96993,63813,-15474
C00243=34259,39657,-67499,-96248,63329,-15300
C00244=33890,39744,-67274,-95801,63089,-15199
C00245=33524,39837,-67042,-95359,62848,-15098
C00246=33147,39726,-66953,-94636,62357,-14930
C00247=32783,39839,-66700,-94208,62112,-14835
C00248=32409,39749,-66592,-93519,61612,-14678
C00249=32049,39882,-66323,-93108,61358,-14590
C00250=31693,40023,-66050,-92709,61103,-14506
C00251=31318,39975,-65907,-92071,60582,-14370
C00252=30968,40139,-65620,-91697,60318,-14297
C00253=30596,40120,-65458,-91107,59781,-14180
C00254=30252,40308,-65161,-90761,59508,-14119
C00255=29884,40318,-64984,-90223,58954,-14025
C00256=29519,40342,-64800,-89720,58389,-13945
C00257=29183,40571,-64488,-89424,58098,-13905
C00258=28824,40626,-64293,-88974,57514,-13849
C00259=28468,40696,-64093,-88561,56921,-13808
C00260=28141,40967,-63774,-88315,56608,-13790
C00261=27790,41070,-63567,-87954,55991,-13773
C00262=27441,41188,-63357,-87627,55360,-13772
C00263=27095,41325,-63144,-87335,54715,-13786
C00264=26791,41639,-62843,-87163,54369,-13800
C00265=26460,41790,-62645,-86925,53694,-13839
C00266=26134,41950,-62455,-86721,52999,-13893
C00267=25815,42118,-62271,-86550,52283,-13963
C00268=25542,42463,-62005,-86451,51897,-14009
C00269=25234,42647,-61838,-86330,51145,-14103
C00270=24931,42842,-61677,-86239,50368,-14212
C00271=24635,43036,-61528,-86176,49566,-14334
C00272=24396,43395,-61305,-86140,49131,-14408
C00273=24113,43596,-61174,-86117,48292,-14551
C00274=23833,43809,-61046,-86116,47428,-14705
C00275=23562,44011,-60930,-86135,46543,-14868
C00276=23352,44382,-60738,-86144,46063,-14963
C00277=23089,44602,-60627,-86188,45148,-15139
C00278=22833,44812,-60525,-86243,44221,-15320
C00279=22643,45186,-60345,-86271,43715,-15423
C00280=22393,45410,-60243,-86339,42764,-15611
C00281=22213,45795,-60062,-86373,42252,-15716
C00282=21971,46032,-59956,-86447,41287,-15906
C00283=21730,46277,-59847,-86522,40316,-16097
C00284=21564,46675,-59659,-86559,39796,-16202
C00285=21329,46931,-59543,-86631,38822,-16390
C00286=21171,47335,-59347,-86665,38301,-16493
C00287=20940,47611,-59216,-86731,37328,-16676
C00288=20710,47901,-59074,-86791,36358,-16854
C00289=20562,48326,-58858,-86818,35844,-16952
C00290=20337,48633,-58699,-86868,34888,-17122
C00291=20116,48951,-58529,-86912,33945,-17287
C00292=19897,49280,-58349,-86949,33019,-17445
C00293=19761,49734,-58096,-86964,32533,-17532
C00294=19550,50094,-57887,-86993,31639,-17680
C00295=19344,50461,-57667,-87018,30773,-17821
C00296=19143,50844,-57431,-87040,29938,-17956
C00297=18949,51241,-57180,-87059,29137,-18083
C00298=18763,51652,-56913,-87078,28375,-18204
C00299=18518,52016,-56660,-87110,27330,-18366
C00300=18352,52464,-56356,-87136,26673,-18473
C00301=18144,52874,-56063,-87191,25794,-18619
C00302=17965,53313,-55752,-87276,25022,-18761
C00303=17793,53756,-55447,-87463,24168,-18951
C00304=17697,54235,-55152,-87754,23478,-19159
C00305=17580,54710,-54779,-88238,22832,-19442
C00306=17544,55206,-54376,-89014,22519,-19800
C00307=17201,55326,-53991,-88445,22451,-19602
C00308=16863,55456,-53586,-87881,22388,-19405
C00309=16533,55589,-53171,-87320,22328,-19209
C00310=16211,55724,-52748,-86763,22269,-19013
C00311=15986,55352,-52791,-86225,22193,-18809
C00312=16277,55148,-52861,-86366,23772,-18682
C00313=16390,54806,-52983,-86417,24598,-18601
C00314=16502,54471,-53093,-86460,25421,-18515
C00315=16614,54146,-53191,-86496,26240,-18424
C00316=16726,53829,-53276,-86524,27055,-18330
C00317=16838,53520,-53350,-86544,27867,-18230
C00318=17099,53399,-53317,-86583,29390,-18044
C00319=17207,53110,-53365,-86580,30189,-17933
C00320=17315,52828,-53402,-86569,30983,-17818
C00321=17423,52554,-53429,-86550,31772,-17700
C00322=17531,52287,-53446,-86523,32557,-17578
C00323=17768,52222,-53349,-86472,34020,-17348
C00324=17873,51972,-53346,-86421,34790,-17216
C00325=17978,51728,-53333,-86363,35554,-17081
C00326=18084,51492,-53311,-86297,36313,-16942
C00327=18190,51262,-53281,-86223,37067,-16801
C00328=18405,51240,-53138,-86082,38465,-16535
C00329=18510,51025,-53092,-85985,39202,-16385
C00330=18614,50816,-53038,-85879,39933,-16232
C00331=18720,50613,-52976,-85766,40658,-16077
C00332=18826,50416,-52907,-85645,41377,-15919
C00333=19023,50428,-52732,-85416,42706,-15621
C00334=19128,50244,-52650,-85273,43407,-15456
C00335=19234,50066,-52562,-85121,44102,-15288
C00336=19340,49894,-52467,-84962,44790,-15118
C00337=19448,49727,-52366,-84794,45472,-14946
C00338=19556,49566,-52259,-84619,46147,-14771
C00339=19736,49610,-52058,-84291,47392,-14442
C00340=19844,49460,-51940,-84093,48047,-14261
C00341=19954,49316,-51818,-83888,48696,-14077
C00342=20064,49177,-51690,-83676,49338,-13892
C00343=20175,49043,-51556,-83456,49972,-13704
C00344=20342,49107,-51344,-83043,51140,-13350
C00345=20453,48983,-51203,-82801,51753,-13157
C00346=20565,48864,-51056,-82551,52359,-12961
C00347=20678,48751,-50905,-82294,52958,-12764
C00348=20792,48643,-50750,-82029,53548,-12564
C00349=20948,48721,-50532,-81535,54633,-12186
C00350=21062,48622,-50370,-81248,55201,-11981
C00351=21177,48528,-50204,-80954,55760,-11774
C00352=21293,48438,-50033,-80653,56311,-11565
C00353=21410,48354,-49858,-80344,56853,-11354
C00354=21554,48442,-49639,-79770,57848,-10952
C00355=21671,48366,-49459,-79439,58365,-10736
C00356=21789,48295,-49275,-79101,58873,-10517
C00357=21908,48228,-49086,-78756,59371,-10297
C00358=22027,48167,-48894,-78403,59859,-10075
C00359=22147,48110,-48699,-78043,60337,-9850
C00360=22278,48207,-48479,-77377,61215,-9421
C00361=22397,48157,-48278,-76997,61665,-9192
C00362=22517,48112,-48074,-76608,62104,-8960
C00363=22637,48072,-47865,-76213,62531,-8727
C00364=22758,48036,-47653,-75810,62948,-8491
C00365=22876,48135,-47434,-75069,63713,-8038
C00366=22996,48106,-47217,-74646,64097,-7797
C00367=23115,48081,-46996,-74217,64469,-7554
C00368=23236,48061,-46772,-73780,64829,-7310
C00369=23356,48046,-46543,-73336,65175,-7063
C00370=23458,48144,-46323,-72523,65812,-6586
C00371=23577,48135,-46088,-72061,66122,-6334
C00372=23695,48130,-45850,-71593,66418,-6080
C00373=23814,48130,-45608,-71118,66701,-5825
C00374=23932,48133,-45361,-70636,66969,-5568
C00375=24018,48230,-45134,-69758,67460,-5067
C00376=24134,48240,-44880,-69260,67687,-4804
C00377=24249,48255,-44622,-68756,67898,-4540
C00378=24364,48273,-44360,-68247,68094,-4275
C00379=24479,48297,-44093,-67733,68273,-4008
C00380=24593,48325,-43821,-67213,68437,-3740
C00381=24659,48420,-43576,-66269,68737,-3213
C00382=24770,48454,-43295,-65737,68853,-2940
C00383=24881,48493,-43009,-65200,68953,-2666
C00384=24991,48536,-42717,-64659,69035,-2391
C00385=25100,48584,-42420,-64114,69099,-2115
C00386=25214,48411,-42664,-63329,69253,-1607
C00387=25632,48342,-43116,-63780,70225,-1748
C00388=26199,48650,-43470,-64549,72108,-2034
C00389=26624,48619,-43893,-65029,73075,-2191
C00390=27055,48621,-44259,-65505,74036,-2354
C00391=27323,48318,-44553,-65344,74060,-2206
C00392=27559,47934,-44842,-65087,73879,-2013
C00393=27691,47611,-44910,-64582,73496,-1716
C00394=27734,47302,-44840,-63733,72881,-1238
C00395=27869,47102,-44752,-63176,72590,-923
C00396=28018,46933,-44686,-62607,72395,-590
C00397=28189,46798,-44633,-62022,72306,-238
C00398=28402,46679,-44581,-61610,72298,9
C00399=28594,46609,-44549,-60992,72383,395
C00400=28822,46534,-44514,-60558,72484,664
C00401=29055,46476,-44485,-60112,72625,943
C00402=29297,46432,-44460,-59656,72802,1231
C00403=29563,46345,-44426,-59412,72888,1378
C00404=29812,46327,-44409,-58940,73113,1678
C00405=30060,46325,-44396,-58457,73367,1987
C00406=30334,46262,-44370,-58201,73487,2143
C00407=30587,46282,-44364,-57704,73776,2462
C00408=30868,46231,-44341,-57442,73911,2623
C00409=31128,46268,-44341,-56933,74225,2952
C00410=31413,46230,-44321,-56666,74370,3116
C00411=31669,46286,-44328,-56146,74702,3453
C00412=31956,46259,-44310,-55874,74852,3621
C00413=32216,46327,-44321,-55346,75192,3964
C00414=32502,46312,-44304,-55071,75342,4134
C00415=32761,46390,-44317,-54535,75676,4484
C00416=33050,46385,-44299,-54258,75819,4656
C00417=33309,46469,-44311,-53718,76136,5010
C00418=33596,46471,-44290,-53439,76265,5183
C00419=33883,46479,-44267,-53160,76388,5356
C00420=34134,46570,-44272,-52622,76659,5713
C00421=34422,46583,-44242,-52344,76758,5887
C00422=34672,46673,-44238,-51811,76979,6243
C00423=34953,46693,-44199,-51538,77049,6415
C00424=35198,46779,-44184,-51018,77209,6768
C00425=35481,46803,-44133,-50752,77244,6937
C00426=35723,46883,-44102,-50252,77334,7283
C00427=35960,46956,-44062,-49769,77375,7623
C00428=36234,46986,-43987,-49522,77345,7782
C00429=36468,47053,-43923,-49068,77305,8109
C00430=36696,47113,-43845,-48637,77210,8427
C00431=36921,47167,-43748,-48230,77059,8735
C00432=37142,47217,-43630,-47848,76848,9031
C00433=37353,47265,-43488,-47492,76580,9317
C00434=37518,47297,-43317,-47027,76110,9734
C00435=37716,47347,-43097,-46735,75686,9992
C00436=37847,47369,-42828,-46372,74993,10369
C00437=37958,47397,-42486,-46070,74172,10720
C00438=38034,47444,-42056,-45828,73225,11045
C00439=38005,47454,-41488,-45627,71821,11447
C00440=37837,47422,-40724,-45561,69835,11888
C00441=37535,47411,-39821,-45679,67618,12251
C00442=37105,47395,-38854,-45974,65236,12538
C00443=36584,47363,-37871,-46416,62747,12761
C00444=36077,47425,-36976,-46822,60694,12903
C00445=35537,47504,-36066,-47267,58598,13026
C00446=34980,47587,-35156,-47741,56457,13137
C00447=34396,47709,-34214,-48230,54274,13238
C00448=33892,47937,-33373,-48574,52611,13308
C00449=33286,48117,-32370,-49057,50301,13416
C00450=32760,48396,-31471,-49380,48498,13507
C00451=32128,48570,-30653,-49988,46574,13479
C00452=31582,48802,-29971,-50442,45131,13446
C00453=30924,48978,-29181,-51116,43164,13376
C00454=30501,49131,-28503,-51615,41561,13328
C00455=30930,48988,-28736,-51302,42124,13408
C00456=31359,48851,-28970,-50986,42684,13488
C00457=31788,48720,-29204,-50667,43241,13569
C00458=32336,48675,-29602,-49952,44426,13751
C00459=32152,48263,-30091,-49981,44458,13800
C00460=31967,47851,-30578,-50009,44488,13849
C00461=31782,47438,-31063,-50037,44518,13898
C00462=31595,47025,-31546,-50065,44547,13947
C00463=31407,46612,-32026,-50092,44575,13997
C00464=31218,46198,-32505,-50119,44602,14048
C00465=31028,45783,-32982,-50145,44628,14098
C00466=30836,45369,-33457,-50171,44653,14150
C00467=30644,44953,-33930,-50197,44677,14201
C00468=30450,44538,-34400,-50223,44700,14253
C00469=30255,44122,-34869,-50248,44723,14305
C00470=30059,43706,-35335,-50273,44744,14357
C00471=29862,43290,-35799,-50297,44764,14410
C00472=29664,42873,-36261,-50321,44784,14464
C00473=29464,42456,-36721,-50345,44802,14517
C00474=29263,42039,-37179,-50368,44820,14571
C00475=30821,42015,-39336,-55518,53990,10192
C00476=30419,42083,-39190,-55831,53436,10095
C00477=30016,42157,-39045,-56141,52880,9997
C00478=29504,42123,-38759,-56789,51678,9794
C00479=29247,42056,-38683,-57120,51081,9696
C00480=29803,41891,-39277,-56775,52584,9744
C00481=30365,41747,-39892,-56439,54149,9776
C00482=30920,41601,-40525,-56145,55703,9786
C00483=31457,41448,-41168,-55899,57207,9775
C00484=31972,41286,-41817,-55701,58646,9746
C00485=32577,41226,-42612,-55433,60677,9676
C00486=33087,41138,-43504,-55372,62750,9492
C00487=33423,40905,-44368,-55584,64255,9250
C00488=33804,40793,-45297,-55860,66220,8899
C00489=34174,40800,-46208,-56226,68425,8449
C00490=34359,40721,-46960,-56575,69875,8123
C00491=34505,40774,-47625,-57016,71467,7698
C00492=34548,40858,-48133,-57472,72742,7291
C00493=34504,40953,-48519,-57952,73741,6891
C00494=34363,41019,-48789,-58348,74344,6591
C00495=34187,41091,-48982,-58761,74799,6287
C00496=33987,41155,-49112,-59193,75103,5979
C00497=33772,41198,-49191,-59643,75256,5668
C00498=33507,41249,-49241,-59959,75292,5461
C00499=33230,41298,-49265,-60279,75261,5254
C00500=32970,41285,-49252,-60766,75075,4939
C00501=32677,41309,-49236,-61104,74891,4728
C00502=32376,41325,-49208,-61447,74653,4516
C00503=32065,41408,-49189,-61622,74529,4410
C00504=31762,41411,-49145,-61976,74214,4193
C00505=31455,41405,-49095,-62337,73854,3974
C00506=31139,41393,-49040,-62705,73452,3753
C00507=30821,41477,-49001,-62888,73249,3642
C00508=30503,41456,-48939,-63262,72789,3419
C00509=30180,41431,-48873,-63637,72299,3195
C00510=29862,41518,-48824,-63822,72050,3083
C00511=29537,41490,-48753,-64197,71514,2860
C00512=29214,41586,-48697,-64379,71247,2748
C00513=28886,41560,-48620,-64748,70676,2528
C00514=28567,41662,-48558,-64925,70393,2419
C00515=28239,41639,-48477,-65284,69797,2204
C00516=27921,41751,-48407,-65454,69503,2096
C00517=27591,41738,-48321,-65801,68891,1888
C00518=27275,41861,-48246,-65964,68591,1783
C00519=26936,41868,-48153,-66296,67974,1581
C00520=26619,42008,-48070,-66450,67674,1480
C00521=26286,42026,-47975,-66767,67060,1285
C00522=25954,42053,-47878,-67075,66453,1096
C00523=25642,42216,-47786,-67215,66161,1000
C00524=25311,42266,-47685,-67507,65572,817
C00525=24983,42327,-47583,-67789,64999,639
C00526=24677,42518,-47482,-67916,64726,549
C00527=24356,42602,-47376,-68184,64181,378
C00528=24036,42703,-47266,-68441,63659,212
C00529=23719,42821,-47153,-68688,63162,51
C00530=23406,42957,-47037,-68924,62693,-104
C00531=23099,43111,-46915,-69148,62253,-254
C00532=22797,43282,-46787,-69361,61844,-397
C00533=22504,43472,-46653,-69562,61470,-535
C00534=22213,43687,-46510,-69751,61131,-668
C00535=21923,43858,-46364,-70034,60689,-853
C00536=21650,44120,-46207,-70204,60449,-974
C00537=21382,44328,-46050,-70568,60084,-1201
C00538=21140,44614,-45899,-70841,59932,-1373
C00539=20932,44925,-45767,-71244,59895,-1606
C00540=20823,45326,-45682,-71956,60233,-1978
C00541=20944,45791,-45802,-73091,61269,-2505
C00542=21338,46307,-46027,-74527,62950,-3128
C00543=21573,46998,-45832,-75680,64374,-3662
C00544=21223,47089,-45427,-75107,63673,-3470
C00545=20876,47190,-45013,-74544,62965,-3283
C00546=20534,47303,-44589,-73991,62251,-3101
C00547=20196,47427,-44156,-73449,61531,-2924
C00548=19880,47322,-44328,-73090,60814,-2760
C00549=19677,47194,-44535,-73869,60115,-3175
C00550=19491,47213,-44733,-74286,59754,-3387
C00551=19306,47237,-44928,-74697,59382,-3596
C00552=19122,47265,-45121,-75102,59000,-3805
C00553=18939,47298,-45310,-75502,58608,-4011
C00554=18724,47178,-45518,-76225,57803,-4403
C00555=18541,47219,-45703,-76609,57384,-4604
C00556=18360,47265,-45886,-76988,56955,-4803
C00557=18179,47316,-46066,-77361,56518,-5001
C00558=18000,47372,-46243,-77729,56071,-5197
C00559=17776,47262,-46453,-78392,55172,-5566
C00560=17598,47327,-46626,-78744,54701,-5757
C00561=17421,47396,-46796,-79090,54223,-5946
C00562=17246,47471,-46964,-79431,53736,-6133
C00563=17072,47551,-47128,-79765,53242,-6319
C00564=16842,47455,-47340,-80368,52257,-6667
C00565=16670,47543,-47500,-80687,51741,-6848
C00566=16500,47637,-47657,-81000,51218,-7026
C00567=16331,47737,-47811,-81307,50687,-7204
C00568=16165,47841,-47961,-81609,50150,-7379
C00569=16000,47950,-48108,-81905,49605,-7553
C00570=15764,47877,-48319,-82435,48531,-7876
C00571=15602,47996,-48461,-82715,47968,-8045
C00572=15442,48121,-48600,-82990,47397,-8212
C00573=15283,48252,-48734,-83258,46821,-8378
C00574=15127,48387,-48865,-83521,46238,-8542
C00575=14886,48336,-49072,-83989,45095,-8843
C00576=14733,48483,-49197,-84236,44495,-9002
C00577=14582,48635,-49317,-84477,43888,-9158
C00578=14433,48793,-49433,-84713,43276,-9313
C00579=14286,48956,-49545,-84943,42658,-9467
C00580=14041,48933,-49743,-85348,41451,-9746
C00581=13897,49108,-49847,-85562,40817,-9894
C00582=13755,49289,-49945,-85770,40177,-10040
C00583=13616,49475,-50039,-85972,39532,-10184
C00584=13479,49668,-50128,-86169,38882,-10326
C00585=13230,49677,-50311,-86510,37615,-10582
C00586=13095,49883,-50390,-86690,36949,-10719
C00587=12964,50094,-50463,-86865,36279,-10853
C00588=12834,50312,-50530,-87034,35604,-10985
C00589=12707,50536,-50592,-87197,34924,-11115
C00590=12582,50766,-50648,-87355,34239,-11243
C00591=12329,50822,-50800,-87620,32906,-11469
C00592=12207,51067,-50842,-87761,32207,-11591
C00593=12087,51318,-50878,-87897,31505,-11710
C00594=11970,51575,-50907,-88026,30797,-11826
C00595=11854,51839,-50929,-88151,30086,-11940
C00596=11596,51942,-51046,-88350,28700,-12139
C00597=11484,52222,-51052,-88457,27976,-12245
C00598=11374,52509,-51050,-88559,27248,-12349
C00599=11266,52803,-51040,-88655,26516,-12451
C00600=11160,53103,-51022,-88746,25780,-12550
C00601=10897,53261,-51091,-88879,24347,-12716
C00602=10794,53580,-51053,-88953,23600,-12806
C00603=10693,53905,-51007,-89021,22850,-12893
C00604=10595,54238,-50951,-89084,22097,-12977
C00605=10499,54579,-50886,-89141,21341,-13059
C00606=10230,54800,-50893,-89208,19866,-13189
C00607=10137,55160,-50804,-89249,19100,-13260
C00608=10046,55528,-50705,-89284,18332,-13328
C00609=9957,55904,-50595,-89314,17562,-13393
C00610=9870,56288,-50474,-89339,16790,-13454
C00611=9786,56679,-50342,-89359,16016,-13511
C00612=9514,56987,-50256,-89351,14502,-13593
C00613=9433,57400,-50096,-89355,13722,-13640
C00614=9355,57821,-49924,-89355,12940,-13682
C00615=9279,58251,-49739,-89349,12158,-13721
C00616=9205,58689,-49542,-89339,11375,-13756
C00617=8933,59079,-49361,-89271,9839,-13791
C00618=8863,59540,-49131,-89247,9054,-13814
C00619=8796,60009,-48888,-89219,8268,-13832
C00620=8732,60487,-48632,-89187,7483,-13847
C00621=8671,60973,-48361,-89151,6699,-13857
C00622=8403,61453,-48069,-89030,5155,-13842
C00623=8354,61484,-48281,-88956,4362,-13822
C00624=8589,61292,-48856,-89428,4312,-14032
C00625=8926,61113,-49511,-90380,4336,-14457
C00626=9183,60918,-50074,-90860,4291,-14670
C00627=9441,60715,-50614,-91305,4270,-14867
C00628=9653,60455,-51135,-91480,4283,-14941
C00629=9912,60176,-51705,-91822,4368,-15088
C00630=10139,59882,-52256,-92070,4417,-15194
C00631=10368,59568,-52817,-92313,4476,-15297
C00632=10619,59201,-53405,-92620,4669,-15425
C00633=10863,58777,-53988,-92842,4990,-15512
C00634=11121,58356,-54567,-93097,5338,-15612
C00635=11335,57922,-55141,-93282,5558,-15682
C00636=11614,57482,-55723,-93575,5972,-15794
C00637=11839,57023,-56293,-93778,6258,-15869
C00638=12135,56565,-56860,-94085,6776,-15982
C00639=12365,56091,-57410,-94292,7135,-16054
C00640=12670,55623,-57950,-94594,7750,-16158
C00641=12903,55124,-58489,-94792,8175,-16220
C00642=13136,54613,-59020,-94984,8630,-16277
C00643=13447,54122,-59519,-95256,9388,-16355
C00644=13675,53611,-60007,-95429,9924,-16397
C00645=13901,53089,-60484,-95592,10497,-16431
C00646=14125,52558,-60948,-95746,11104,-16457
C00647=14435,52077,-61352,-95951,12075,-16485
C00648=14653,51557,-61767,-96075,12762,-16490
C00649=14869,51033,-62167,-96187,13477,-16486
C00650=15082,50520,-62542,-96287,14218,-16472
C00651=15291,50019,-62894,-96373,14981,-16451
C00652=15499,49519,-63232,-96448,15764,-16420
C00653=15704,49020,-63556,-96510,16564,-16382
C00654=15908,48524,-63866,-96562,17380,-16335
C00655=16111,48056,-64148,-96603,18208,-16281
C00656=16314,47591,-64419,-96636,19048,-16221
C00657=16517,47129,-64680,-96661,19898,-16154
C00658=16723,46672,-64933,-96680,20757,-16083
C00659=16930,46220,-65177,-96695,21622,-16006
C00660=17139,45797,-65400,-96706,22488,-15927
C00661=17352,45380,-65617,-96718,23356,-15845
C00662=17568,44970,-65831,-96730,24223,-15762
C00663=17789,44567,-66041,-96747,25084,-15678
C00664=18014,44173,-66248,-96769,25937,-15595
C00665=18245,43788,-66456,-96799,26778,-15515
C00666=18481,43413,-66663,-96841,27604,-15439
C00667=18726,43037,-66880,-96898,28412,-15368
C00668=18980,42659,-67109,-96972,29200,-15303
C00669=19242,42293,-67344,-97066,29965,-15246
C00670=19514,41938,-67585,-97184,30705,-15199
C00671=19796,41594,-67835,-97329,31421,-15163
C00672=20082,41283,-68077,-97501,32111,-15139
C00673=20380,40981,-68328,-97704,32780,-15127
C00674=20685,40697,-68582,-97938,33426,-15128
C00675=20946,40297,-68929,-98097,33750,-15132
C00676=21269,40053,-69180,-98385,34369,-15154
C00677=21600,39825,-69431,-98707,34975,-15188
C00678=21935,39621,-69673,-99061,35568,-15235
C00679=22226,39288,-70011,-99288,35856,-15265
C00680=22571,39126,-70237,-99694,36432,-15332
C00681=22917,38984,-70453,-100131,36996,-15409
C00682=23228,38693,-70778,-100405,37272,-15457
C00683=23582,38590,-70973,-100891,37830,-15551
C00684=23899,38328,-71280,-101190,38100,-15607
C00685=24224,38072,-71585,-101499,38369,-15667
C00686=24587,38016,-71747,-102046,38928,-15780
C00687=24917,37787,-72031,-102377,39202,-15846
C00688=25285,37764,-72165,-102965,39776,-15969
C00689=25625,37550,-72432,-103317,40063,-16039
C00690=25965,37347,-72687,-103675,40356,-16111
C00691=26332,37379,-72766,-104307,40974,-16240
C00692=26675,37200,-72992,-104680,41290,-16312
C00693=27023,37023,-73212,-105060,41616,-16384
C00694=27370,36857,-73417,-105444,41951,-16456
C00695=27722,36694,-73615,-105834,42298,-16528
C00696=28087,36813,-73601,-106518,43012,-16654
C00697=28439,36676,-73767,-106920,43388,-16724
C00698=28788,36550,-73917,-107324,43777,-16792
C00699=29135,36435,-74052,-107732,44179,-16859
C00700=29486,36324,-74177,-108143,44597,-16923
C00701=29834,36224,-74285,-108557,45033,-16985
C00702=30179,36135,-74375,-108970,45490,-17044
C00703=30520,36057,-74447,-109383,45968,-17098
C00704=30858,35992,-74500,-109795,46471,-17147
C00705=31198,35932,-74541,-110209,46998,-17192
C00706=31563,35950,-74584,-110643,47502,-17242
C00707=31923,35898,-74681,-111106,47807,-17334
C00708=32253,36168,-74532,-111924,48447,-17494
C00709=32607,36152,-74587,-112410,48797,-17583
C00710=32960,36148,-74625,-112903,49164,-17671
C00711=33311,36158,-74646,-113405,49552,-17757
C00712=33660,36181,-74649,-113915,49961,-17841
C00713=34000,36224,-74629,-114430,50391,-17922
C00714=34390,35888,-74881,-114557,50430,-17940
C00715=34727,35946,-74832,-115079,50888,-18018
C00716=35060,36020,-74765,-115607,51369,-18092
C00717=35379,36115,-74673,-116136,51872,-18161
C00718=35691,36224,-74563,-116665,52396,-18225
C00719=36001,36340,-74439,-117192,52939,-18283
C00720=36304,36462,-74302,-117707,53496,-18333
C00721=36604,36584,-74161,-118205,54057,-18375
C00722=36935,36675,-74088,-118750,54408,-18468
C00723=37264,36775,-74004,-119297,54758,-18560
C00724=37591,36882,-73910,-119845,55107,-18651
C00725=37916,36997,-73805,-120394,55454,-18742
C00726=37736,37215,-73365,-120365,56543,-18530
C00727=37577,37051,-73166,-119880,57345,-18237
C00728=37419,36895,-72960,-119383,58134,-17943
C00729=37263,36747,-72748,-118875,58910,-17647
C00730=37109,36606,-72528,-118356,59673,-17350
C00731=36956,36474,-72302,-117825,60422,-17051
C00732=36796,36541,-71994,-116899,61628,-16519
C00733=36648,36421,-71759,-116339,62340,-16216
C00734=36501,36308,-71517,-115767,63039,-15910
C00735=36356,36203,-71269,-115185,63722,-15603
C00736=36213,36105,-71015,-114593,64391,-15294
C00737=36068,36181,-70711,-113565,65466,-14744
C00738=35928,36094,-70448,-112945,66096,-14429
C00739=35791,36015,-70178,-112314,66710,-14113
C00740=35655,35943,-69903,-111673,67308,-13794
C00741=35520,35878,-69621,-111022,67890,-13472
C00742=35383,35956,-69320,-109900,68821,-12899
C00743=35252,35901,-69030,-109224,69360,-12571
C00744=35122,35854,-68733,-108538,69881,-12241
C00745=34993,35813,-68430,-107844,70385,-11909
C00746=34865,35780,-68122,-107141,70871,-11574
C00747=34731,35855,-67820,-105933,71643,-10973
C00748=34606,35832,-67502,-105207,72081,-10631
C00749=34481,35815,-67178,-104474,72500,-10287
C00750=34357,35805,-66847,-103734,72900,-9941
C00751=34235,35802,-66511,-102986,73280,-9593
C00752=34114,35806,-66168,-102231,73640,-9242
C00753=33977,35880,-65855,-100940,74202,-8607
C00754=33856,35893,-65501,-100169,74508,-8250
C00755=33737,35914,-65141,-99393,74795,-7891
C00756=33618,35941,-64774,-98611,75060,-7531
C00757=33500,35976,-64401,-97825,75304,-7168
C00758=33355,36049,-64071,-96486,75669,-6505
C00759=33238,36094,-63685,-95689,75856,-6138
C00760=33121,36146,-63293,-94890,76021,-5769
C00761=33006,36205,-62894,-94088,76165,-5399
C00762=32892,36271,-62488,-93285,76287,-5028
C00763=32666,36411,-62187,-91979,76425,-4369
C00764=32251,36294,-62101,-91597,75694,-4232
C00765=31839,36191,-62006,-91221,74962,-4099
C00766=31428,36101,-61902,-90850,74228,-3969
C00767=30974,35580,-61955,-90248,72804,-3724
C00768=30663,35681,-61965,-90387,72434,-3826
C00769=30339,35801,-61939,-90485,72060,-3912
C00770=30002,35833,-61903,-90583,71523,-4007
C00771=29658,35987,-61797,-90586,71153,-4056
C00772=29297,36063,-61683,-90566,70631,-4102
C00773=28934,36153,-61537,-90496,70124,-4126
C00774=28610,36315,-61485,-90543,69760,-4189
C00775=28263,36299,-61460,-90614,69083,-4277
C00776=27903,36305,-61399,-90610,68414,-4333
C00777=27544,36318,-61312,-90548,67757,-4361
C00778=27197,36541,-61122,-90451,67412,-4370
C00779=26825,36588,-60977,-90317,66765,-4370
C00780=26454,36642,-60813,-90150,66124,-4356
C00781=26084,36704,-60630,-89955,65489,-4330
C00782=25717,36774,-60430,-89735,64860,-4293
C00783=25353,36853,-60214,-89496,64240,-4247
C00784=24993,36940,-59984,-89242,63630,-4195
C00785=24666,37210,-59670,-89048,63315,-4167
C00786=24309,37318,-59412,-88780,62710,-4110
C00787=23949,37441,-59140,-88510,62107,-4053
C00788=23592,37571,-58863,-88244,61501,-3999
C00789=23236,37707,-58583,-87984,60891,-3947
C00790=22887,37839,-58309,-87736,60274,-3900
C00791=22544,37966,-58042,-87499,59648,-3857
C00792=22201,38100,-57773,-87273,59013,-3819
C00793=21900,38409,-57435,-87110,58689,-3806
C00794=21558,38553,-57168,-86904,58039,-3778
C00795=21215,38702,-56902,-86712,57377,-3756
C00796=20872,38858,-56638,-86535,56704,-3741
C00797=20531,39009,-56384,-86375,56018,-3733
C00798=20194,39157,-56141,-86234,55318,-3734
C00799=19909,39483,-55833,-86129,54963,-3743
C00800=19570,39642,-55598,-86017,54241,-3756
C00801=19237,39787,-55382,-85925,53503,-3777
C00802=18901,39940,-55167,-85849,52750,-3806
C00803=18626,40273,-54888,-85786,52370,-3831
C00804=18297,40419,-54695,-85739,51596,-3871
C00805=17965,40573,-54503,-85705,50808,-3917
C00806=17701,40909,-54242,-85666,50414,-3951
C00807=17369,41077,-54054,-85652,49612,-4007
C00808=17044,41233,-53880,-85650,48803,-4066
C00809=16792,41572,-53632,-85630,48401,-4106
C00810=16471,41742,-53458,-85640,47588,-4171
C00811=16227,42089,-53211,-85627,47186,-4214
C00812=15911,42271,-53037,-85648,46374,-4283
C00813=15599,42461,-52863,-85672,45565,-4353
C00814=15367,42820,-52614,-85667,45170,-4398
C00815=15064,43021,-52438,-85696,44371,-4469
C00816=14760,43248,-52248,-85725,43581,-4541
C00817=14539,43629,-51988,-85724,43199,-4587
C00818=14246,43866,-51794,-85754,42426,-4659
C00819=13959,44106,-51599,-85783,41665,-4729
C00820=13752,44507,-51324,-85783,41301,-4774
C00821=13472,44776,-51111,-85809,40562,-4843
C00822=13200,45048,-50895,-85833,39838,-4909
C00823=12931,45344,-50663,-85854,39134,-4975
C00824=12744,45765,-50367,-85851,38800,-5017
C00825=12487,46074,-50120,-85866,38124,-5079
C00826=12237,46394,-49864,-85877,37470,-5138
C00827=11995,46724,-49596,-85883,36841,-5193
C00828=11761,47063,-49318,-85883,36238,-5246
C00829=11535,47421,-49021,-85878,35664,-5295
C00830=11316,47797,-48703,-85867,35121,-5342
C00831=11107,48179,-48374,-85851,34610,-5385
C00832=10906,48576,-48025,-85832,34132,-5427
C00833=10662,48908,-47703,-85810,33450,-5473
C00834=10484,49331,-47322,-85789,33053,-5511
C00835=10270,49697,-46966,-85773,32489,-5556
C00836=10115,50139,-46561,-85763,32171,-5595
C00837=9935,50542,-46176,-85773,31728,-5647
C00838=9748,50949,-45784,-85833,31246,-5722
C00839=9606,51391,-45387,-85960,30916,-5820
C00840=9504,51873,-45032,-86272,30672,-5992
C00841=9438,52363,-44599,-86635,30584,-6184
C00842=9369,52839,-44087,-86930,30580,-6346
C00843=9304,53251,-43529,-87072,30683,-6438
C00844=9118,53486,-43000,-86592,30418,-6276
C00845=8937,53726,-42465,-86116,30148,-6115
C00846=8649,53837,-41985,-85210,29514,-5778
EC00000=29915,96370
EC00001=29851,95922
EC00002=29786,95474
EC00003=29722,95026
EC00004=29657,94577
EC00005=29753,95161
EC00006=29925,96311
EC00007=30014,97182
EC00008=30090,98119
EC00009=30150,99120
EC00010=30224,100500
EC00011=30329,102411
EC00012=30418,104418
EC00013=30486,106507
EC00014=30530,108664
EC00015=30543,110867
EC00016=30520,113102
EC00017=30462,115335
EC00018=30356,118217
EC00019=30211,120358
EC00020=29964,123641
EC00021=29645,126644
EC00022=29008,131483
EC00023=28237,136396
EC00024=28176,137086
EC00025=28232,137192
EC00026=28337,137081
EC00027=28453,136910
EC00028=28583,136678
EC00029=28715,136439
EC00030=28853,136166
EC00031=28995,135861
EC00032=29144,135523
EC00033=29298,135151
EC00034=29436,134851
EC00035=29576,134536
EC00036=29742,134088
EC00037=29886,133737
EC00038=30030,133375
EC00039=30174,133000
EC00040=30319,132613
EC00041=30463,132217
EC00042=30606,131813
EC00043=30749,131401
EC00044=30889,130985
EC00045=31026,130567
EC00046=31161,130148
EC00047=31293,129731
EC00048=31421,129316
EC00049=31546,128907
EC00050=31642,128658
EC00051=31784,128133
EC00052=31928,127608
EC00053=32157,126650
EC00054=32272,126170
EC00055=31839,126340
EC00056=31409,126506
EC00057=30980,126668
EC00058=30186,126918
EC00059=29763,127067
EC00060=29342,127211
EC00061=28923,127350
EC00062=28506,127484
EC00063=27732,127686
EC00064=27320,127806
EC00065=26910,127919
EC00066=26501,128027
EC00067=26095,128129
EC00068=25338,128278
EC00069=24935,128364
EC00070=24534,128443
EC00071=24135,128517
EC00072=23737,128584
EC00073=23339,128644
EC00074=22596,128725
EC00075=22201,128769
EC00076=21807,128807
EC00077=21413,128838
EC00078=21020,128863
EC00079=20281,128887
EC00080=19888,128896
EC00081=19495,128899
EC00082=19102,128895
EC00083=18708,128886
EC00084=17967,128857
EC00085=17571,128834
EC00086=17175,128805
EC00087=16777,128770
EC00088=16378,128731
EC00089=15627,128656
EC00090=15225,128604
EC00091=14820,128549
EC00092=14414,128489
EC00093=14006,128425
EC00094=13596,128357
EC00095=12825,128240
EC00096=12409,128165
EC00097=11990,128086
EC00098=11569,128005
EC00099=11145,127921
EC00100=10350,127781
EC00101=9919,127693
EC00102=9484,127603
EC00103=9046,127512
EC00104=8606,127419
EC00105=7781,127270
EC00106=7331,127176
EC00107=6878,127083
EC00108=6421,126989
EC00109=5961,126896
EC00110=5102,126748
EC00111=4631,126657
EC00112=4157,126567
EC00113=3678,126478
EC00114=3196,126391
EC00115=2710,126305
EC00116=1805,126172
EC00117=1307,126092
EC00118=806,126013
EC00119=300,125936
EC00120=-210,125862
EC00121=-1158,125751
EC00122=-1679,125683
EC00123=-2206,125618
EC00124=-2736,125557
EC00125=-3271,125497
EC00126=-4264,125413
EC00127=-4811,125362
EC00128=-5363,125314
EC00129=-6380,125245
EC00130=-6018,124840
EC00131=-5662,124436
EC00132=-5310,124032
EC00133=-4963,123628
EC00134=-5222,123903
EC00135=-6235,124999
EC00136=-7864,126851
EC00137=-8347,127356
EC00138=-8472,127436
EC00139=-8496,127390
EC00140=-8465,127276
EC00141=-8400,127120
EC00142=-8301,126919
EC00143=-8198,126715
EC00144=-8074,126484
EC00145=-7927,126227
EC00146=-7809,126004
EC00147=-7622,125700
EC00148=-7476,125444
EC00149=-7244,125087
EC00150=-7065,124797
EC00151=-6872,124492
EC00152=-6665,124173
EC00153=-6442,123838
EC00154=-6204,123489
EC00155=-6066,123256
EC00156=-5801,122882
EC00157=-5519,122492
EC00158=-5359,122239
EC00159=-5049,121826
EC00160=-4720,121396
EC00161=-4535,121124
EC00162=-4177,120673
EC00163=-3977,120391
EC00164=-3591,119919
EC00165=-3375,119628
EC00166=-3155,119334
EC00167=-2731,118841
EC00168=-2496,118540
EC00169=-2047,118033
EC00170=-1798,117725
EC00171=-1545,117418
EC00172=-1067,116902
EC00173=-803,116591
EC00174=-534,116281
EC00175=-33,115761
EC00176=245,115451
EC00177=525,115142
EC00178=1042,114626
EC00179=1330,114319
EC00180=1852,113812
EC00181=2143,113511
EC00182=2437,113211
EC00183=2962,112718
EC00184=3257,112427
EC00185=3778,111949
EC00186=4073,111666
EC00187=4589,111204
EC00188=4883,110929
EC00189=5390,110486
EC00190=5683,110219
EC00191=6179,109794
EC00192=6668,109380
EC00193=6954,109130
EC00194=7430,108735
EC00195=7898,108351
EC00196=8357,107979
EC00197=8805,107618
EC00198=9245,107268
EC00199=9515,107050
EC00200=10064,106621
EC00201=11046,105860
EC00202=11590,105431
EC00203=12109,105038
EC00204=12155,105048
EC00205=12202,105057
EC00206=12250,105067
EC00207=12298,105077
EC00208=12348,105087
EC00209=13163,103938
EC00210=12593,104375
EC00211=11582,105149
EC00212=11009,105587
EC00213=10424,106023
EC00214=9850,106380
EC00215=9425,106663
EC00216=8669,107175
EC00217=8218,107488
EC00218=7773,107800
EC00219=7031,108320
EC00220=6607,108625
EC00221=5899,109131
EC00222=5490,109434
EC00223=4803,109940
EC00224=4327,110241
EC00225=3855,110544
EC00226=3056,111061
EC00227=2603,111374
EC00228=2159,111691
EC00229=1405,112228
EC00230=980,112551
EC00231=561,112876
EC00232=-161,113423
EC00233=-566,113750
EC00234=-966,114078
EC00235=-1659,114630
EC00236=-2045,114959
EC00237=-2426,115289
EC00238=-3091,115842
EC00239=-3460,116173
EC00240=-4108,116724
EC00241=-4465,117053
EC00242=-4821,117382
EC00243=-5454,117928
EC00244=-5804,118253
EC00245=-6152,118575
EC00246=-6779,119109
EC00247=-7127,119426
EC00248=-7750,119941
EC00249=-8102,120251
EC00250=-8452,120555
EC00251=-9083,121046
EC00252=-9437,121339
EC00253=-10075,121806
EC00254=-10435,122086
EC00255=-11081,122527
EC00256=-11733,122951
EC00257=-12105,123208
EC00258=-12769,123604
EC00259=-13439,123982
EC00260=-13830,124217
EC00261=-14519,124569
EC00262=-15220,124904
EC00263=-15932,125222
EC00264=-16351,125422
EC00265=-17087,125711
EC00266=-17840,125982
EC00267=-18610,126236
EC00268=-19062,126399
EC00269=-19863,126627
EC00270=-20686,126839
EC00271=-21528,127034
EC00272=-22020,127162
EC00273=-22894,127334
EC00274=-23790,127493
EC00275=-24701,127638
EC00276=-25231,127739
EC00277=-26170,127867
EC00278=-27115,127983
EC00279=-27666,128070
EC00280=-28634,128175
EC00281=-29191,128256
EC00282=-30173,128351
EC00283=-31161,128442
EC00284=-31726,128517
EC00285=-32720,128602
EC00286=-33288,128675
EC00287=-34285,128758
EC00288=-35282,128840
EC00289=-35849,128912
EC00290=-36839,128992
EC00291=-37819,129071
EC00292=-38786,129149
EC00293=-39337,129221
EC00294=-40282,129298
EC00295=-41202,129372
EC00296=-42096,129444
EC00297=-42960,129514
EC00298=-43790,129580
EC00299=-44895,129637
EC00300=-45628,129694
EC00301=-46571,129730
EC00302=-47405,129745
EC00303=-48288,129696
EC00304=-48973,129583
EC00305=-49572,129370
EC00306=-49757,129012
EC00307=-50098,129384
EC00308=-50435,129758
EC00309=-50768,130131
EC00310=-51095,130502
EC00311=-51301,130768
EC00312=-49658,130695
EC00313=-48774,130638
EC00314=-47900,130582
EC00315=-47034,130528
EC00316=-46177,130475
EC00317=-45328,130424
EC00318=-43799,130362
EC00319=-42976,130315
EC00320=-42161,130271
EC00321=-41355,130229
EC00322=-40558,130189
EC00323=-39124,130145
EC00324=-38350,130112
EC00325=-37585,130081
EC00326=-36828,130053
EC00327=-36080,130028
EC00328=-34736,130007
EC00329=-34010,129990
EC00330=-33291,129975
EC00331=-32581,129964
EC00332=-31877,129955
EC00333=-30618,129962
EC00334=-29935,129961
EC00335=-29260,129965
EC00336=-28592,129971
EC00337=-27931,129981
EC00338=-27277,129994
EC00339=-26107,130036
EC00340=-25472,130058
EC00341=-24844,130083
EC00342=-24222,130112
EC00343=-23607,130145
EC00344=-22508,130217
EC00345=-21911,130259
EC00346=-21320,130304
EC00347=-20735,130353
EC00348=-20157,130405
EC00349=-19123,130510
EC00350=-18562,130572
EC00351=-18006,130637
EC00352=-17457,130706
EC00353=-16913,130778
EC00354=-15942,130915
EC00355=-15414,130997
EC00356=-14893,131082
EC00357=-14377,131171
EC00358=-13866,131263
EC00359=-13362,131358
EC00360=-12460,131533
EC00361=-11971,131638
EC00362=-11488,131746
EC00363=-11010,131857
EC00364=-10538,131971
EC00365=-9693,132177
EC00366=-9236,132300
EC00367=-8784,132426
EC00368=-8338,132555
EC00369=-7898,132687
EC00370=-7107,132920
EC00371=-6682,133059
EC00372=-6261,133201
EC00373=-5846,133345
EC00374=-5437,133492
EC00375=-4699,133748
EC00376=-4303,133901
EC00377=-3913,134055
EC00378=-3528,134211
EC00379=-3149,134369
EC00380=-2774,134528
EC00381=-2095,134803
EC00382=-1734,134965
EC00383=-1378,135128
EC00384=-1026,135292
EC00385=-680,135456
EC00386=-78,135651
EC00387=373,135379
EC00388=1212,134922
EC00389=1650,134657
EC00390=2085,134400
EC00391=2291,134421
EC00392=2421,134490
EC00393=2547,134648
EC00394=2735,134917
EC00395=2955,135076
EC00396=3252,135225
EC00397=3632,135363
EC00398=3951,135451
EC00399=4467,135574
EC00400=4873,135654
EC00401=5310,135731
EC00402=5779,135806
EC00403=6052,135844
EC00404=6562,135917
EC00405=7095,135988
EC00406=7397,136025
EC00407=7963,136094
EC00408=8279,136130
EC00409=8871,136199
EC00410=9197,136235
EC00411=9808,136303
EC00412=10142,136339
EC00413=10767,136406
EC00414=11106,136441
EC00415=11738,136507
EC00416=12079,136541
EC00417=12714,136604
EC00418=13054,136636
EC00419=13392,136667
EC00420=14019,136723
EC00421=14353,136750
EC00422=14967,136798
EC00423=15293,136819
EC00424=15888,136855
EC00425=16203,136868
EC00426=16774,136889
EC00427=17326,136898
EC00428=17617,136894
EC00429=18138,136882
EC00430=18637,136854
EC00431=19113,136808
EC00432=19566,136745
EC00433=19997,136661
EC00434=20578,136507
EC00435=20959,136367
EC00436=21464,136130
EC00437=21928,135839
EC00438=22354,135493
EC00439=22836,134966
EC00440=23319,134202
EC00441=23680,133324
EC00442=23918,132366
EC00443=24046,131362
EC00444=24101,130527
EC00445=24120,129681
EC00446=24114,128829
EC00447=24087,127971
EC00448=24066,127313
EC00449=24029,126438
EC00450=24016,125756
EC00451=23834,125013
EC00452=23674,124456
EC00453=23413,123728
EC00454=23219,123168
EC00455=23388,123412
EC00456=23554,123660
EC00457=23715,123912
EC00458=24012,124426
EC00459=23948,124483
EC00460=23885,124539
EC00461=23824,124593
EC00462=23764,124645
EC00463=23706,124696
EC00464=23650,124746
EC00465=23595,124794
EC00466=23542,124841
EC00467=23490,124886
EC00468=23440,124930
EC00469=23392,124972
EC00470=23346,125013
EC00471=23301,125053
EC00472=23257,125091
EC00473=23216,125128
EC00474=23176,125163
EC00475=20075,126685
EC00476=19763,126527
EC00477=19447,126372
EC00478=18835,126069
EC00479=18522,125926
EC00480=19068,126212
EC00481=19607,126522
EC00482=20110,126841
EC00483=20564,127160
EC00484=20971,127475
EC00485=21497,127924
EC00486=21866,128382
EC00487=21975,128706
EC00488=22106,129119
EC00489=22210,129570
EC00490=22214,129865
EC00491=22163,130175
EC00492=22038,130413
EC00493=21835,130590
EC00494=21612,130690
EC00495=21338,130760
EC00496=21009,130802
EC00497=20624,130818
EC00498=20317,130816
EC00499=19983,130805
EC00500=19463,130773
EC00501=19065,130743
EC00502=18642,130708
EC00503=18392,130689
EC00504=17931,130648
EC00505=17447,130604
EC00506=16939,130558
EC00507=16648,130535
EC00508=16111,130488
EC00509=15558,130441
EC00510=15243,130419
EC00511=14668,130373
EC00512=14344,130353
EC00513=13753,130311
EC00514=13424,130294
EC00515=12824,130256
EC00516=12490,130242
EC00517=11887,130210
EC00518=11553,130200
EC00519=10950,130174
EC00520=10616,130168
EC00521=10022,130148
EC00522=9435,130131
EC00523=9110,130131
EC00524=8537,130119
EC00525=7978,130110
EC00526=7666,130115
EC00527=7128,130110
EC00528=6607,130106
EC00529=6104,130104
EC00530=5621,130103
EC00531=5160,130104
EC00532=4724,130106
EC00533=4312,130108
EC00534=3926,130111
EC00535=3440,130097
EC00536=3124,130096
EC00537=2661,130045
EC00538=2372,129996
EC00539=2125,129883
EC00540=2054,129599
EC00541=2409,129039
EC00542=3230,128258
EC00543=3913,127650
EC00544=3460,127993
EC00545=3003,128338
EC00546=2540,128684
EC00547=2073,129030
EC00548=1613,129268
EC00549=842,129080
EC00550=419,128975
EC00551=-8,128872
EC00552=-440,128771
EC00553=-877,128673
EC00554=-1695,128506
EC00555=-2145,128414
EC00556=-2600,128325
EC00557=-3059,128238
EC00558=-3524,128154
EC00559=-4389,128010
EC00560=-4867,127933
EC00561=-5349,127859
EC00562=-5836,127787
EC00563=-6328,127718
EC00564=-7241,127598
EC00565=-7747,127536
EC00566=-8257,127477
EC00567=-8773,127421
EC00568=-9293,127368
EC00569=-9818,127318
EC00570=-10789,127226
EC00571=-11327,127183
EC00572=-11871,127142
EC00573=-12419,127105
EC00574=-12973,127070
EC00575=-13995,127002
EC00576=-14562,126974
EC00577=-15135,126949
EC00578=-15713,126926
EC00579=-16295,126907
EC00580=-17370,126862
EC00581=-17967,126849
EC00582=-18570,126838
EC00583=-19177,126831
EC00584=-19790,126826
EC00585=-20920,126803
EC00586=-21548,126804
EC00587=-22181,126808
EC00588=-22820,126815
EC00589=-23465,126824
EC00590=-24114,126836
EC00591=-25312,126837
EC00592=-25978,126855
EC00593=-26649,126874
EC00594=-27326,126897
EC00595=-28008,126921
EC00596=-29267,126941
EC00597=-29966,126971
EC00598=-30670,127003
EC00599=-31381,127038
EC00600=-32098,127074
EC00601=-33419,127110
EC00602=-34152,127151
EC00603=-34891,127194
EC00604=-35636,127239
EC00605=-36387,127285
EC00606=-37773,127335
EC00607=-38541,127385
EC00608=-39314,127436
EC00609=-40093,127489
EC00610=-40878,127543
EC00611=-41669,127598
EC00612=-43128,127659
EC00613=-43935,127716
EC00614=-44747,127774
EC00615=-45564,127833
EC00616=-46386,127893
EC00617=-47904,127957
EC00618=-48740,128018
EC00619=-49581,128078
EC00620=-50426,128138
EC00621=-51276,128198
EC00622=-52843,128261
EC00623=-53534,128220
EC00624=-53276,127902
EC00625=-52786,127365
EC00626=-52515,127046
EC00627=-52233,126747
EC00628=-52000,126571
EC00629=-51633,126318
EC00630=-51332,126108
EC00631=-51016,125898
EC00632=-50544,125664
EC00633=-49974,125478
EC00634=-49368,125278
EC00635=-48905,125101
EC00636=-48218,124885
EC00637=-47684,124702
EC00638=-46893,124484
EC00639=-46291,124305
EC00640=-45413,124094
EC00641=-44751,123920
EC00642=-44064,123749
EC00643=-43064,123557
EC00644=-42316,123402
EC00645=-41539,123251
EC00646=-40735,123107
EC00647=-39575,122952
EC00648=-38717,122823
EC00649=-37839,122700
EC00650=-36948,122583
EC00651=-36046,122472
EC00652=-35133,122365
EC00653=-34211,122262
EC00654=-33280,122161
EC00655=-32349,122065
EC00656=-31412,121969
EC00657=-30470,121873
EC00658=-29523,121775
EC00659=-28573,121674
EC00660=-27628,121573
EC00661=-26683,121466
EC00662=-25740,121353
EC00663=-24800,121232
EC00664=-23868,121103
EC00665=-22944,120963
EC00666=-22032,120813
EC00667=-21130,120648
EC00668=-20239,120467
EC00669=-19365,120270
EC00670=-18506,120055
EC00671=-17661,119822
EC00672=-16836,119572
EC00673=-16022,119299
EC00674=-15221,119007
EC00675=-14745,118794
EC00676=-13955,118467
EC00677=-13169,118117
EC00678=-12387,117746
EC00679=-11931,117493
EC00680=-11153,117090
EC00681=-10378,116666
EC00682=-9921,116383
EC00683=-9139,115925
EC00684=-8685,115628
EC00685=-8227,115323
EC00686=-7428,114823
EC00687=-6961,114504
EC00688=-6134,113971
EC00689=-5648,113634
EC00690=-5155,113292
EC00691=-4274,112718
EC00692=-3757,112362
EC00693=-3228,111998
EC00694=-2689,111630
EC00695=-2139,111256
EC00696=-1149,110619
EC00697=-568,110229
EC00698=24,109833
EC00699=629,109433
EC00700=1251,109025
EC00701=1889,108612
EC00702=2544,108193
EC00703=3220,107769
EC00704=3916,107338
EC00705=4635,106898
EC00706=5343,106446
EC00707=5867,106030
EC00708=6822,105298
EC00709=7395,104852
EC00710=7988,104396
EC00711=8601,103926
EC00712=9238,103444
EC00713=9893,102952
EC00714=10053,102824
EC00715=10736,102318
EC00716=11442,101798
EC00717=12165,101270
EC00718=12907,100732
EC00719=13665,100187
EC00720=14431,99641
EC00721=15193,99102
EC00722=15777,98613
EC00723=16359,98124
EC00724=16940,97633
EC00725=17520,97141
EC00726=18490,96709
EC00727=19033,96665
EC00728=19567,96626
EC00729=20092,96593
EC00730=20608,96566
EC00731=21114,96545
EC00732=21946,96517
EC00733=22427,96511
EC00734=22899,96509
EC00735=23362,96512
EC00736=23816,96520
EC00737=24558,96543
EC00738=24988,96562
EC00739=25408,96586
EC00740=25820,96613
EC00741=26223,96643
EC00742=26877,96706
EC00743=27256,96745
EC00744=27626,96788
EC00745=27988,96832
EC00746=28341,96880
EC00747=28910,96969
EC00748=29240,97022
EC00749=29561,97077
EC00750=29875,97132
EC00751=30180,97189
EC00752=30477,97246
EC00753=30953,97351
EC00754=31229,97410
EC00755=31498,97469
EC00756=31759,97527
EC00757=32013,97585
EC00758=32418,97687
EC00759=32653,97743
EC00760=32881,97796
EC00761=33103,97848
EC00762=33319,97898
EC00763=33614,97989
EC00764=32959,98162
EC00765=32304,98339
EC00766=31648,98519
EC00767=30448,98846
EC00768=30025,98903
EC00769=29601,98967
EC00770=29041,99059
EC00771=28632,99139
EC00772=28095,99251
EC00773=27579,99370
EC00774=27169,99442
EC00775=26493,99563
EC00776=25828,99701
EC00777=25180,99852
EC00778=24795,99959
EC00779=24159,100130
EC00780=23531,100310
EC00781=22910,100498
EC00782=22299,100694
EC00783=21697,100897
EC00784=21105,101103
EC00785=20754,101243
EC00786=20167,101457
EC00787=19580,101674
EC00788=18992,101893
EC00789=18399,102112
EC00790=17802,102329
EC00791=17198,102546
EC00792=16586,102763
EC00793=16220,102908
EC00794=15591,103124
EC00795=14951,103340
EC00796=14299,103553
EC00797=13636,103764
EC00798=12961,103971
EC00799=12561,104111
EC00800=11862,104314
EC00801=11153,104512
EC00802=10428,104708
EC00803=10001,104841
EC00804=9258,105030
EC00805=8501,105218
EC00806=8060,105346
EC00807=7287,105531
EC00808=6512,105711
EC00809=6063,105836
EC00810=5281,106013
EC00811=4831,106137
EC00812=4048,106311
EC00813=3268,106484
EC00814=2820,106607
EC00815=2047,106777
EC00816=1277,106948
EC00817=836,107072
EC00818=79,107241
EC00819=-668,107408
EC00820=-1098,107533
EC00821=-1832,107702
EC00822=-2551,107869
EC00823=-3259,108038
EC00824=-3669,108166
EC00825=-4356,108335
EC00826=-5027,108505
EC00827=-5678,108675
EC00828=-6309,108844
EC00829=-6920,109016
EC00830=-7509,109188
EC00831=-8072,109360
EC00832=-8612,109532
EC00833=-9314,109733
EC00834=-9791,109899
EC00835=-10400,110084
EC00836=-10813,110237
EC00837=-11324,110395
EC00838=-11867,110536
EC00839=-12280,110622
EC00840=-12607,110595
EC00841=-12802,110528
EC00842=-12936,110494
EC00843=-12981,110523
EC00844=-13358,110908
EC00845=-13737,111295
EC00846=-14425,111939
//INST
///DATE 2023/05/23 19:41
///ATTR SC,RW
///GROUP1 RB2
///GROUP2 ST1
NOP
MOVL C00000 V=30.0 PL=0 +MOVJ EC00000
MOVL C00001 V=30.1 +MOVJ EC00001
MOVL C00002 V=43.9 +MOVJ EC00002
MOVL C00003 V=30.1 +MOVJ EC00003
MOVL C00004 V=43.8 +MOVJ EC00004
MOVL C00005 V=30.1 +MOVJ EC00005
MOVL C00006 V=43.7 +MOVJ EC00006
MOVL C00007 V=30.1 +MOVJ EC00007
MOVL C00008 V=43.7 +MOVJ EC00008
MOVL C00009 V=30.1 +MOVJ EC00009
MOVL C00010 V=48.4 +MOVJ EC00010
MOVL C00011 V=42.5 +MOVJ EC00011
MOVL C00012 V=43.3 +MOVJ EC00012
MOVL C00013 V=37.6 +MOVJ EC00013
MOVL C00014 V=43.6 +MOVJ EC00014
MOVL C00015 V=39.9 +MOVJ EC00015
MOVL C00016 V=33.1 +MOVJ EC00016
MOVL C00017 V=39.7 +MOVJ EC00017
MOVL C00018 V=42.1 +MOVJ EC00018
MOVL C00019 V=34.2 +MOVJ EC00019
MOVL C00020 V=42.0 +MOVJ EC00020
MOVL C00021 V=34.3 +MOVJ EC00021
MOVL C00022 V=42.5 +MOVJ EC00022
MOVL C00023 V=34.6 +MOVJ EC00023
MOVL C00024 V=53.5 +MOVJ EC00024
MOVL C00025 V=44.3 +MOVJ EC00025
MOVL C00026 V=43.7 +MOVJ EC00026
MOVL C00027 V=46.9 +MOVJ EC00027
MOVL C00028 V=64.0 +MOVJ EC00028
MOVL C00029 V=45.5 +MOVJ EC00029
MOVL C00030 V=45.3 +MOVJ EC00030
MOVL C00031 V=48.9 +MOVJ EC00031
MOVL C00032 V=70.6 +MOVJ EC00032
MOVL C00033 V=48.6 +MOVJ EC00033
MOVL C00034 V=49.0 +MOVJ EC00034
MOVL C00035 V=49.2 +MOVJ EC00035
MOVL C00036 V=49.5 +MOVJ EC00036
MOVL C00037 V=50.0 +MOVJ EC00037
MOVL C00038 V=65.0 +MOVJ EC00038
MOVL C00039 V=47.8 +MOVJ EC00039
MOVL C00040 V=48.5 +MOVJ EC00040
MOVL C00041 V=68.0 +MOVJ EC00041
MOVL C00042 V=47.1 +MOVJ EC00042
MOVL C00043 V=48.4 +MOVJ EC00043
MOVL C00044 V=68.8 +MOVJ EC00044
MOVL C00045 V=48.0 +MOVJ EC00045
MOVL C00046 V=63.9 +MOVJ EC00046
MOVL C00047 V=48.0 +MOVJ EC00047
MOVL C00048 V=61.3 +MOVJ EC00048
MOVL C00049 V=59.3 +MOVJ EC00049
MOVL C00050 V=57.4 +MOVJ EC00050
MOVL C00051 V=55.7 +MOVJ EC00051
MOVL C00052 V=65.8 +MOVJ EC00052
MOVL C00053 V=64.3 +MOVJ EC00053
MOVL C00054 V=77.5 +MOVJ EC00054
MOVL C00055 V=165.6 +MOVJ EC00055
MOVL C00056 V=63.8 +MOVJ EC00056
MOVL C00057 V=49.4 +MOVJ EC00057
MOVL C00058 V=39.5 +MOVJ EC00058
MOVL C00059 V=34.3 +MOVJ EC00059
MOVL C00060 V=32.7 +MOVJ EC00060
MOVL C00061 V=31.8 +MOVJ EC00061
MOVL C00062 V=29.6 +MOVJ EC00062
MOVL C00063 V=29.3 +MOVJ EC00063
MOVL C00064 V=28.9 +MOVJ EC00064
MOVL C00065 V=28.6 +MOVJ EC00065
MOVL C00066 V=28.8 +MOVJ EC00066
MOVL C00067 V=28.5 +MOVJ EC00067
MOVL C00068 V=28.5 +MOVJ EC00068
MOVL C00069 V=28.7 +MOVJ EC00069
MOVL C00070 V=28.2 +MOVJ EC00070
MOVL C00071 V=29.2 +MOVJ EC00071
MOVL C00072 V=28.1 +MOVJ EC00072
MOVL C00073 V=29.9 +MOVJ EC00073
MOVL C00074 V=29.0 +MOVJ EC00074
MOVL C00075 V=30.7 +MOVJ EC00075
MOVL C00076 V=30.0 +MOVJ EC00076
MOVL C00077 V=30.8 +MOVJ EC00077
MOVL C00078 V=30.3 +MOVJ EC00078
MOVL C00079 V=29.4 +MOVJ EC00079
MOVL C00080 V=31.4 +MOVJ EC00080
MOVL C00081 V=30.5 +MOVJ EC00081
MOVL C00082 V=29.6 +MOVJ EC00082
MOVL C00083 V=31.7 +MOVJ EC00083
MOVL C00084 V=30.7 +MOVJ EC00084
MOVL C00085 V=29.8 +MOVJ EC00085
MOVL C00086 V=31.9 +MOVJ EC00086
MOVL C00087 V=30.9 +MOVJ EC00087
MOVL C00088 V=30.0 +MOVJ EC00088
MOVL C00089 V=32.2 +MOVJ EC00089
MOVL C00090 V=31.2 +MOVJ EC00090
MOVL C00091 V=30.4 +MOVJ EC00091
MOVL C00092 V=29.3 +MOVJ EC00092
MOVL C00093 V=32.6 +MOVJ EC00093
MOVL C00094 V=31.7 +MOVJ EC00094
MOVL C00095 V=30.9 +MOVJ EC00095
MOVL C00096 V=33.2 +MOVJ EC00096
MOVL C00097 V=32.4 +MOVJ EC00097
MOVL C00098 V=31.6 +MOVJ EC00098
MOVL C00099 V=29.3 +MOVJ EC00099
MOVL C00100 V=31.0 +MOVJ EC00100
MOVL C00101 V=33.5 +MOVJ EC00101
MOVL C00102 V=32.8 +MOVJ EC00102
MOVL C00103 V=32.3 +MOVJ EC00103
MOVL C00104 V=29.3 +MOVJ EC00104
MOVL C00105 V=31.8 +MOVJ EC00105
MOVL C00106 V=31.4 +MOVJ EC00106
MOVL C00107 V=31.1 +MOVJ EC00107
MOVL C00108 V=33.9 +MOVJ EC00108
MOVL C00109 V=29.3 +MOVJ EC00109
MOVL C00110 V=33.6 +MOVJ EC00110
MOVL C00111 V=33.4 +MOVJ EC00111
MOVL C00112 V=33.3 +MOVJ EC00112
MOVL C00113 V=29.3 +MOVJ EC00113
MOVL C00114 V=33.2 +MOVJ EC00114
MOVL C00115 V=33.2 +MOVJ EC00115
MOVL C00116 V=33.3 +MOVJ EC00116
MOVL C00117 V=29.3 +MOVJ EC00117
MOVL C00118 V=33.5 +MOVJ EC00118
MOVL C00119 V=33.7 +MOVJ EC00119
MOVL C00120 V=33.9 +MOVJ EC00120
MOVL C00121 V=34.2 +MOVJ EC00121
MOVL C00122 V=29.3 +MOVJ EC00122
MOVL C00123 V=31.8 +MOVJ EC00123
MOVL C00124 V=29.3 +MOVJ EC00124
MOVL C00125 V=43.8 +MOVJ EC00125
MOVL C00126 V=29.3 +MOVJ EC00126
MOVL C00127 V=43.8 +MOVJ EC00127
MOVL C00128 V=29.3 +MOVJ EC00128
MOVL C00129 V=29.3 +MOVJ EC00129
MOVL C00130 V=43.8 +MOVJ EC00130
MOVL C00131 V=29.2 +MOVJ EC00131
MOVL C00132 V=43.8 +MOVJ EC00132
MOVL C00133 V=29.2 +MOVJ EC00133
MOVL C00134 V=44.1 +MOVJ EC00134
MOVL C00135 V=29.5 +MOVJ EC00135
MOVL C00136 V=45.1 +MOVJ EC00136
MOVL C00137 V=29.5 +MOVJ EC00137
MOVL C00138 V=45.2 +MOVJ EC00138
MOVL C00139 V=29.5 +MOVJ EC00139
MOVL C00140 V=45.3 +MOVJ EC00140
MOVL C00141 V=29.5 +MOVJ EC00141
MOVL C00142 V=45.4 +MOVJ EC00142
MOVL C00143 V=29.5 +MOVJ EC00143
MOVL C00144 V=45.5 +MOVJ EC00144
MOVL C00145 V=29.5 +MOVJ EC00145
MOVL C00146 V=45.6 +MOVJ EC00146
MOVL C00147 V=29.5 +MOVJ EC00147
MOVL C00148 V=45.7 +MOVJ EC00148
MOVL C00149 V=29.4 +MOVJ EC00149
MOVL C00150 V=29.5 +MOVJ EC00150
MOVL C00151 V=45.8 +MOVJ EC00151
MOVL C00152 V=29.4 +MOVJ EC00152
MOVL C00153 V=45.9 +MOVJ EC00153
MOVL C00154 V=29.4 +MOVJ EC00154
MOVL C00155 V=46.0 +MOVJ EC00155
MOVL C00156 V=29.4 +MOVJ EC00156
MOVL C00157 V=46.1 +MOVJ EC00157
MOVL C00158 V=29.4 +MOVJ EC00158
MOVL C00159 V=46.2 +MOVJ EC00159
MOVL C00160 V=29.4 +MOVJ EC00160
MOVL C00161 V=46.3 +MOVJ EC00161
MOVL C00162 V=29.4 +MOVJ EC00162
MOVL C00163 V=46.4 +MOVJ EC00163
MOVL C00164 V=29.4 +MOVJ EC00164
MOVL C00165 V=46.6 +MOVJ EC00165
MOVL C00166 V=29.4 +MOVJ EC00166
MOVL C00167 V=46.7 +MOVJ EC00167
MOVL C00168 V=29.4 +MOVJ EC00168
MOVL C00169 V=46.8 +MOVJ EC00169
MOVL C00170 V=29.4 +MOVJ EC00170
MOVL C00171 V=29.4 +MOVJ EC00171
MOVL C00172 V=46.9 +MOVJ EC00172
MOVL C00173 V=29.4 +MOVJ EC00173
MOVL C00174 V=47.0 +MOVJ EC00174
MOVL C00175 V=29.4 +MOVJ EC00175
MOVL C00176 V=47.2 +MOVJ EC00176
MOVL C00177 V=29.3 +MOVJ EC00177
MOVL C00178 V=47.3 +MOVJ EC00178
MOVL C00179 V=29.3 +MOVJ EC00179
MOVL C00180 V=47.4 +MOVJ EC00180
MOVL C00181 V=29.3 +MOVJ EC00181
MOVL C00182 V=47.5 +MOVJ EC00182
MOVL C00183 V=29.3 +MOVJ EC00183
MOVL C00184 V=47.7 +MOVJ EC00184
MOVL C00185 V=29.3 +MOVJ EC00185
MOVL C00186 V=47.8 +MOVJ EC00186
MOVL C00187 V=29.3 +MOVJ EC00187
MOVL C00188 V=47.9 +MOVJ EC00188
MOVL C00189 V=29.3 +MOVJ EC00189
MOVL C00190 V=48.0 +MOVJ EC00190
MOVL C00191 V=29.2 +MOVJ EC00191
MOVL C00192 V=29.2 +MOVJ EC00192
MOVL C00193 V=48.1 +MOVJ EC00193
MOVL C00194 V=29.2 +MOVJ EC00194
MOVL C00195 V=48.3 +MOVJ EC00195
MOVL C00196 V=29.2 +MOVJ EC00196
MOVL C00197 V=48.4 +MOVJ EC00197
MOVL C00198 V=29.2 +MOVJ EC00198
MOVL C00199 V=48.5 +MOVJ EC00199
MOVL C00200 V=29.2 +MOVJ EC00200
MOVL C00201 V=48.6 +MOVJ EC00201
MOVL C00202 V=29.1 +MOVJ EC00202
MOVL C00203 V=48.7 +MOVJ EC00203
MOVL C00204 V=29.1 +MOVJ EC00204
MOVL C00205 V=48.8 +MOVJ EC00205
MOVL C00206 V=29.1 +MOVJ EC00206
MOVL C00207 V=49.0 +MOVJ EC00207
MOVL C00208 V=29.1 +MOVJ EC00208
MOVL C00209 V=49.1 +MOVJ EC00209
MOVL C00210 V=29.0 +MOVJ EC00210
MOVL C00211 V=49.2 +MOVJ EC00211
MOVL C00212 V=29.0 +MOVJ EC00212
MOVL C00213 V=29.0 +MOVJ EC00213
MOVL C00214 V=49.2 +MOVJ EC00214
MOVL C00215 V=29.0 +MOVJ EC00215
MOVL C00216 V=49.3 +MOVJ EC00216
MOVL C00217 V=29.0 +MOVJ EC00217
MOVL C00218 V=49.4 +MOVJ EC00218
MOVL C00219 V=28.9 +MOVJ EC00219
MOVL C00220 V=49.5 +MOVJ EC00220
MOVL C00221 V=28.9 +MOVJ EC00221
MOVL C00222 V=49.6 +MOVJ EC00222
MOVL C00223 V=28.9 +MOVJ EC00223
MOVL C00224 V=49.7 +MOVJ EC00224
MOVL C00225 V=28.9 +MOVJ EC00225
MOVL C00226 V=49.8 +MOVJ EC00226
MOVL C00227 V=28.8 +MOVJ EC00227
MOVL C00228 V=49.9 +MOVJ EC00228
MOVL C00229 V=28.8 +MOVJ EC00229
MOVL C00230 V=50.0 +MOVJ EC00230
MOVL C00231 V=28.8 +MOVJ EC00231
MOVL C00232 V=50.1 +MOVJ EC00232
MOVL C00233 V=28.7 +MOVJ EC00233
MOVL C00234 V=28.7 +MOVJ EC00234
MOVL C00235 V=50.1 +MOVJ EC00235
MOVL C00236 V=28.7 +MOVJ EC00236
MOVL C00237 V=50.2 +MOVJ EC00237
MOVL C00238 V=28.7 +MOVJ EC00238
MOVL C00239 V=50.3 +MOVJ EC00239
MOVL C00240 V=28.7 +MOVJ EC00240
MOVL C00241 V=50.4 +MOVJ EC00241
MOVL C00242 V=28.6 +MOVJ EC00242
MOVL C00243 V=50.5 +MOVJ EC00243
MOVL C00244 V=28.6 +MOVJ EC00244
MOVL C00245 V=50.5 +MOVJ EC00245
MOVL C00246 V=28.6 +MOVJ EC00246
MOVL C00247 V=50.6 +MOVJ EC00247
MOVL C00248 V=28.6 +MOVJ EC00248
MOVL C00249 V=50.7 +MOVJ EC00249
MOVL C00250 V=28.5 +MOVJ EC00250
MOVL C00251 V=50.8 +MOVJ EC00251
MOVL C00252 V=28.5 +MOVJ EC00252
MOVL C00253 V=50.9 +MOVJ EC00253
MOVL C00254 V=28.5 +MOVJ EC00254
MOVL C00255 V=28.5 +MOVJ EC00255
MOVL C00256 V=50.9 +MOVJ EC00256
MOVL C00257 V=28.5 +MOVJ EC00257
MOVL C00258 V=51.0 +MOVJ EC00258
MOVL C00259 V=28.5 +MOVJ EC00259
MOVL C00260 V=51.1 +MOVJ EC00260
MOVL C00261 V=28.4 +MOVJ EC00261
MOVL C00262 V=51.1 +MOVJ EC00262
MOVL C00263 V=28.4 +MOVJ EC00263
MOVL C00264 V=51.2 +MOVJ EC00264
MOVL C00265 V=28.4 +MOVJ EC00265
MOVL C00266 V=51.3 +MOVJ EC00266
MOVL C00267 V=28.4 +MOVJ EC00267
MOVL C00268 V=51.4 +MOVJ EC00268
MOVL C00269 V=28.4 +MOVJ EC00269
MOVL C00270 V=51.4 +MOVJ EC00270
MOVL C00271 V=28.4 +MOVJ EC00271
MOVL C00272 V=51.5 +MOVJ EC00272
MOVL C00273 V=28.3 +MOVJ EC00273
MOVL C00274 V=51.6 +MOVJ EC00274
MOVL C00275 V=28.3 +MOVJ EC00275
MOVL C00276 V=28.3 +MOVJ EC00276
MOVL C00277 V=51.7 +MOVJ EC00277
MOVL C00278 V=28.3 +MOVJ EC00278
MOVL C00279 V=51.7 +MOVJ EC00279
MOVL C00280 V=28.3 +MOVJ EC00280
MOVL C00281 V=51.8 +MOVJ EC00281
MOVL C00282 V=28.3 +MOVJ EC00282
MOVL C00283 V=51.9 +MOVJ EC00283
MOVL C00284 V=28.3 +MOVJ EC00284
MOVL C00285 V=52.0 +MOVJ EC00285
MOVL C00286 V=28.3 +MOVJ EC00286
MOVL C00287 V=52.1 +MOVJ EC00287
MOVL C00288 V=28.3 +MOVJ EC00288
MOVL C00289 V=52.2 +MOVJ EC00289
MOVL C00290 V=28.3 +MOVJ EC00290
MOVL C00291 V=52.2 +MOVJ EC00291
MOVL C00292 V=28.3 +MOVJ EC00292
MOVL C00293 V=52.3 +MOVJ EC00293
MOVL C00294 V=28.2 +MOVJ EC00294
MOVL C00295 V=52.4 +MOVJ EC00295
MOVL C00296 V=28.2 +MOVJ EC00296
MOVL C00297 V=28.2 +MOVJ EC00297
MOVL C00298 V=52.5 +MOVJ EC00298
MOVL C00299 V=28.2 +MOVJ EC00299
MOVL C00300 V=52.6 +MOVJ EC00300
MOVL C00301 V=28.2 +MOVJ EC00301
MOVL C00302 V=52.7 +MOVJ EC00302
MOVL C00303 V=28.2 +MOVJ EC00303
MOVL C00304 V=52.7 +MOVJ EC00304
MOVL C00305 V=28.2 +MOVJ EC00305
MOVL C00306 V=52.8 +MOVJ EC00306
MOVL C00307 V=28.2 +MOVJ EC00307
MOVL C00308 V=52.9 +MOVJ EC00308
MOVL C00309 V=28.2 +MOVJ EC00309
MOVL C00310 V=53.0 +MOVJ EC00310
MOVL C00311 V=28.2 +MOVJ EC00311
MOVL C00312 V=53.1 +MOVJ EC00312
MOVL C00313 V=28.2 +MOVJ EC00313
MOVL C00314 V=53.2 +MOVJ EC00314
MOVL C00315 V=28.2 +MOVJ EC00315
MOVL C00316 V=53.3 +MOVJ EC00316
MOVL C00317 V=28.2 +MOVJ EC00317
MOVL C00318 V=28.2 +MOVJ EC00318
MOVL C00319 V=53.3 +MOVJ EC00319
MOVL C00320 V=28.2 +MOVJ EC00320
MOVL C00321 V=53.4 +MOVJ EC00321
MOVL C00322 V=54.5 +MOVJ EC00322
MOVL C00323 V=28.5 +MOVJ EC00323
MOVL C00324 V=48.2 +MOVJ EC00324
MOVL C00325 V=28.5 +MOVJ EC00325
MOVL C00326 V=48.2 +MOVJ EC00326
MOVL C00327 V=28.6 +MOVJ EC00327
MOVL C00328 V=48.2 +MOVJ EC00328
MOVL C00329 V=28.6 +MOVJ EC00329
MOVL C00330 V=48.1 +MOVJ EC00330
MOVL C00331 V=28.6 +MOVJ EC00331
MOVL C00332 V=48.1 +MOVJ EC00332
MOVL C00333 V=38.8 +MOVJ EC00333
MOVL C00334 V=46.8 +MOVJ EC00334
MOVL C00335 V=58.9 +MOVJ EC00335
MOVL C00336 V=43.7 +MOVJ EC00336
MOVL C00337 V=49.5 +MOVJ EC00337
MOVL C00338 V=58.9 +MOVJ EC00338
MOVL C00339 V=86.6 +MOVJ EC00339
MOVL C00340 V=49.3 +MOVJ EC00340
MOVL C00341 V=40.3 +MOVJ EC00341
MOVL C00342 V=33.7 +MOVJ EC00342
MOVL C00343 V=32.4 +MOVJ EC00343
MOVL C00344 V=30.5 +MOVJ EC00344
MOVL C00345 V=29.9 +MOVJ EC00345
MOVL C00346 V=29.6 +MOVJ EC00346
MOVL C00347 V=28.7 +MOVJ EC00347
MOVL C00348 V=28.5 +MOVJ EC00348
MOVL C00349 V=28.5 +MOVJ EC00349
MOVL C00350 V=28.0 +MOVJ EC00350
MOVL C00351 V=29.1 +MOVJ EC00351
MOVL C00352 V=28.2 +MOVJ EC00352
MOVL C00353 V=29.3 +MOVJ EC00353
MOVL C00354 V=28.5 +MOVJ EC00354
MOVL C00355 V=29.5 +MOVJ EC00355
MOVL C00356 V=28.9 +MOVJ EC00356
MOVL C00357 V=30.1 +MOVJ EC00357
MOVL C00358 V=30.2 +MOVJ EC00358
MOVL C00359 V=30.6 +MOVJ EC00359
MOVL C00360 V=29.8 +MOVJ EC00360
MOVL C00361 V=31.0 +MOVJ EC00361
MOVL C00362 V=30.6 +MOVJ EC00362
MOVL C00363 V=29.9 +MOVJ EC00363
MOVL C00364 V=31.4 +MOVJ EC00364
MOVL C00365 V=30.6 +MOVJ EC00365
MOVL C00366 V=32.2 +MOVJ EC00366
MOVL C00367 V=31.3 +MOVJ EC00367
MOVL C00368 V=30.6 +MOVJ EC00368
MOVL C00369 V=32.1 +MOVJ EC00369
MOVL C00370 V=31.2 +MOVJ EC00370
MOVL C00371 V=32.8 +MOVJ EC00371
MOVL C00372 V=31.9 +MOVJ EC00372
MOVL C00373 V=33.5 +MOVJ EC00373
MOVL C00374 V=32.5 +MOVJ EC00374
MOVL C00375 V=34.2 +MOVJ EC00375
MOVL C00376 V=28.5 +MOVJ EC00376
MOVL C00377 V=33.2 +MOVJ EC00377
MOVL C00378 V=34.8 +MOVJ EC00378
MOVL C00379 V=33.8 +MOVJ EC00379
MOVL C00380 V=35.5 +MOVJ EC00380
MOVL C00381 V=28.5 +MOVJ EC00381
MOVL C00382 V=34.4 +MOVJ EC00382
MOVL C00383 V=36.1 +MOVJ EC00383
MOVL C00384 V=35.1 +MOVJ EC00384
MOVL C00385 V=28.5 +MOVJ EC00385
MOVL C00386 V=36.8 +MOVJ EC00386
MOVL C00387 V=35.7 +MOVJ EC00387
MOVL C00388 V=28.5 +MOVJ EC00388
MOVL C00389 V=37.5 +MOVJ EC00389
MOVL C00390 V=36.4 +MOVJ EC00390
MOVL C00391 V=28.5 +MOVJ EC00391
MOVL C00392 V=38.2 +MOVJ EC00392
MOVL C00393 V=37.2 +MOVJ EC00393
MOVL C00394 V=28.5 +MOVJ EC00394
MOVL C00395 V=39.0 +MOVJ EC00395
MOVL C00396 V=38.0 +MOVJ EC00396
MOVL C00397 V=28.5 +MOVJ EC00397
MOVL C00398 V=37.0 +MOVJ EC00398
MOVL C00399 V=38.9 +MOVJ EC00399
MOVL C00400 V=28.4 +MOVJ EC00400
MOVL C00401 V=38.0 +MOVJ EC00401
MOVL C00402 V=28.4 +MOVJ EC00402
MOVL C00403 V=40.0 +MOVJ EC00403
MOVL C00404 V=39.1 +MOVJ EC00404
MOVL C00405 V=28.4 +MOVJ EC00405
MOVL C00406 V=41.3 +MOVJ EC00406
MOVL C00407 V=28.4 +MOVJ EC00407
MOVL C00408 V=40.4 +MOVJ EC00408
MOVL C00409 V=39.6 +MOVJ EC00409
MOVL C00410 V=28.4 +MOVJ EC00410
MOVL C00411 V=42.0 +MOVJ EC00411
MOVL C00412 V=28.4 +MOVJ EC00412
MOVL C00413 V=41.3 +MOVJ EC00413
MOVL C00414 V=28.3 +MOVJ EC00414
MOVL C00415 V=40.7 +MOVJ EC00415
MOVL C00416 V=43.3 +MOVJ EC00416
MOVL C00417 V=28.2 +MOVJ EC00417
MOVL C00418 V=42.7 +MOVJ EC00418
MOVL C00419 V=28.3 +MOVJ EC00419
MOVL C00420 V=42.3 +MOVJ EC00420
MOVL C00421 V=28.3 +MOVJ EC00421
MOVL C00422 V=41.9 +MOVJ EC00422
MOVL C00423 V=28.3 +MOVJ EC00423
MOVL C00424 V=41.6 +MOVJ EC00424
MOVL C00425 V=28.2 +MOVJ EC00425
MOVL C00426 V=44.6 +MOVJ EC00426
MOVL C00427 V=44.4 +MOVJ EC00427
MOVL C00428 V=28.2 +MOVJ EC00428
MOVL C00429 V=44.4 +MOVJ EC00429
MOVL C00430 V=28.2 +MOVJ EC00430
MOVL C00431 V=44.4 +MOVJ EC00431
MOVL C00432 V=28.1 +MOVJ EC00432
MOVL C00433 V=44.4 +MOVJ EC00433
MOVL C00434 V=28.1 +MOVJ EC00434
MOVL C00435 V=44.6 +MOVJ EC00435
MOVL C00436 V=28.1 +MOVJ EC00436
MOVL C00437 V=44.8 +MOVJ EC00437
MOVL C00438 V=45.2 +MOVJ EC00438
MOVL C00439 V=27.9 +MOVJ EC00439
MOVL C00440 V=45.5 +MOVJ EC00440
MOVL C00441 V=28.0 +MOVJ EC00441
MOVL C00442 V=45.9 +MOVJ EC00442
MOVL C00443 V=28.0 +MOVJ EC00443
MOVL C00444 V=43.1 +MOVJ EC00444
MOVL C00445 V=28.0 +MOVJ EC00445
MOVL C00446 V=43.6 +MOVJ EC00446
MOVL C00447 V=27.9 +MOVJ EC00447
MOVL C00448 V=44.2 +MOVJ EC00448
MOVL C00449 V=44.9 +MOVJ EC00449
MOVL C00450 V=27.9 +MOVJ EC00450
MOVL C00451 V=45.7 +MOVJ EC00451
MOVL C00452 V=27.8 +MOVJ EC00452
MOVL C00453 V=43.1 +MOVJ EC00453
MOVL C00454 V=27.8 +MOVJ EC00454
MOVL C00455 V=43.9 +MOVJ EC00455
MOVL C00456 V=44.7 +MOVJ EC00456
MOVL C00457 V=27.7 +MOVJ EC00457
MOVL C00458 V=45.6 +MOVJ EC00458
MOVL C00459 V=27.7 +MOVJ EC00459
MOVL C00460 V=43.2 +MOVJ EC00460
MOVL C00461 V=27.7 +MOVJ EC00461
MOVL C00462 V=44.1 +MOVJ EC00462
MOVL C00463 V=45.1 +MOVJ EC00463
MOVL C00464 V=27.6 +MOVJ EC00464
MOVL C00465 V=42.7 +MOVJ EC00465
MOVL C00466 V=27.6 +MOVJ EC00466
MOVL C00467 V=43.6 +MOVJ EC00467
MOVL C00468 V=44.7 +MOVJ EC00468
MOVL C00469 V=27.5 +MOVJ EC00469
MOVL C00470 V=42.3 +MOVJ EC00470
MOVL C00471 V=43.3 +MOVJ EC00471
MOVL C00472 V=27.4 +MOVJ EC00472
MOVL C00473 V=41.0 +MOVJ EC00473
MOVL C00474 V=27.4 +MOVJ EC00474
MOVL C00475 V=41.9 +MOVJ EC00475
MOVL C00476 V=43.0 +MOVJ EC00476
MOVL C00477 V=27.3 +MOVJ EC00477
MOVL C00478 V=40.6 +MOVJ EC00478
MOVL C00479 V=41.6 +MOVJ EC00479
MOVL C00480 V=27.2 +MOVJ EC00480
MOVL C00481 V=42.6 +MOVJ EC00481
MOVL C00482 V=40.2 +MOVJ EC00482
MOVL C00483 V=41.2 +MOVJ EC00483
MOVL C00484 V=27.1 +MOVJ EC00484
MOVL C00485 V=38.9 +MOVJ EC00485
MOVL C00486 V=39.7 +MOVJ EC00486
MOVL C00487 V=27.1 +MOVJ EC00487
MOVL C00488 V=40.6 +MOVJ EC00488
MOVL C00489 V=38.3 +MOVJ EC00489
MOVL C00490 V=39.1 +MOVJ EC00490
MOVL C00491 V=27.0 +MOVJ EC00491
MOVL C00492 V=39.9 +MOVJ EC00492
MOVL C00493 V=37.5 +MOVJ EC00493
MOVL C00494 V=38.3 +MOVJ EC00494
MOVL C00495 V=26.9 +MOVJ EC00495
MOVL C00496 V=39.1 +MOVJ EC00496
MOVL C00497 V=26.8 +MOVJ EC00497
MOVL C00498 V=62.6 +MOVJ EC00498
MOVL C00499 V=26.8 +MOVJ EC00499
MOVL C00500 V=62.6 +MOVJ EC00500
MOVL C00501 V=26.8 +MOVJ EC00501
MOVL C00502 V=62.5 +MOVJ EC00502
MOVL C00503 V=26.8 +MOVJ EC00503
MOVL C00504 V=62.5 +MOVJ EC00504
MOVL C00505 V=26.7 +MOVJ EC00505
MOVL C00506 V=63.5 +MOVJ EC00506
MOVL C00507 V=29.7 +MOVJ EC00507
MOVL C00508 V=29.7 +MOVJ EC00508
MOVL C00509 V=29.7 +MOVJ EC00509
MOVL C00510 V=29.7 +MOVJ EC00510
MOVL C00511 V=29.7 +MOVJ EC00511
MOVL C00512 V=29.7 +MOVJ EC00512
MOVL C00513 V=29.7 +MOVJ EC00513
MOVL C00514 V=29.7 +MOVJ EC00514
MOVL C00515 V=29.7 +MOVJ EC00515
MOVL C00516 V=29.7 +MOVJ EC00516
MOVL C00517 V=29.6 +MOVJ EC00517
MOVL C00518 V=29.6 +MOVJ EC00518
MOVL C00519 V=29.6 +MOVJ EC00519
MOVL C00520 V=29.6 +MOVJ EC00520
MOVL C00521 V=122.9 +MOVJ EC00521
MOVL C00522 V=26.0 +MOVJ EC00522
MOVL C00523 V=64.3 +MOVJ EC00523
MOVL C00524 V=26.0 +MOVJ EC00524
MOVL C00525 V=64.4 +MOVJ EC00525
MOVL C00526 V=26.1 +MOVJ EC00526
MOVL C00527 V=64.5 +MOVJ EC00527
MOVL C00528 V=26.1 +MOVJ EC00528
MOVL C00529 V=64.6 +MOVJ EC00529
MOVL C00530 V=26.1 +MOVJ EC00530
MOVL C00531 V=64.3 +MOVJ EC00531
MOVL C00532 V=37.6 +MOVJ EC00532
MOVL C00533 V=25.6 +MOVJ EC00533
MOVL C00534 V=43.6 +MOVJ EC00534
MOVL C00535 V=48.4 +MOVJ EC00535
MOVL C00536 V=25.7 +MOVJ EC00536
MOVL C00537 V=50.2 +MOVJ EC00537
MOVL C00538 V=25.9 +MOVJ EC00538
MOVL C00539 V=47.6 +MOVJ EC00539
MOVL C00540 V=25.9 +MOVJ EC00540
MOVL C00541 V=50.5 +MOVJ EC00541
MOVL C00542 V=26.0 +MOVJ EC00542
MOVL C00543 V=50.7 +MOVJ EC00543
MOVL C00544 V=26.0 +MOVJ EC00544
MOVL C00545 V=47.8 +MOVJ EC00545
MOVL C00546 V=48.7 +MOVJ EC00546
MOVL C00547 V=26.1 +MOVJ EC00547
MOVL C00548 V=49.9 +MOVJ EC00548
MOVL C00549 V=26.2 +MOVJ EC00549
MOVL C00550 V=46.9 +MOVJ EC00550
MOVL C00551 V=26.2 +MOVJ EC00551
MOVL C00552 V=47.3 +MOVJ EC00552
MOVL C00553 V=47.5 +MOVJ EC00553
MOVL C00554 V=26.3 +MOVJ EC00554
MOVL C00555 V=47.5 +MOVJ EC00555
MOVL C00556 V=26.4 +MOVJ EC00556
MOVL C00557 V=47.1 +MOVJ EC00557
MOVL C00558 V=26.0 +MOVJ EC00558
MOVL C00559 V=48.6 +MOVJ EC00559
MOVL C00560 V=26.1 +MOVJ EC00560
MOVL C00561 V=51.8 +MOVJ EC00561
MOVL C00562 V=51.3 +MOVJ EC00562
MOVL C00563 V=26.2 +MOVJ EC00563
MOVL C00564 V=50.8 +MOVJ EC00564
MOVL C00565 V=26.3 +MOVJ EC00565
MOVL C00566 V=50.4 +MOVJ EC00566
MOVL C00567 V=26.4 +MOVJ EC00567
MOVL C00568 V=50.0 +MOVJ EC00568
MOVL C00569 V=26.5 +MOVJ EC00569
MOVL C00570 V=49.6 +MOVJ EC00570
MOVL C00571 V=26.5 +MOVJ EC00571
MOVL C00572 V=49.3 +MOVJ EC00572
MOVL C00573 V=26.6 +MOVJ EC00573
MOVL C00574 V=49.0 +MOVJ EC00574
MOVL C00575 V=48.7 +MOVJ EC00575
MOVL C00576 V=26.7 +MOVJ EC00576
MOVL C00577 V=48.5 +MOVJ EC00577
MOVL C00578 V=26.8 +MOVJ EC00578
MOVL C00579 V=48.3 +MOVJ EC00579
MOVL C00580 V=26.8 +MOVJ EC00580
MOVL C00581 V=48.1 +MOVJ EC00581
MOVL C00582 V=26.9 +MOVJ EC00582
MOVL C00583 V=48.0 +MOVJ EC00583
MOVL C00584 V=26.9 +MOVJ EC00584
MOVL C00585 V=47.9 +MOVJ EC00585
MOVL C00586 V=47.8 +MOVJ EC00586
MOVL C00587 V=26.9 +MOVJ EC00587
MOVL C00588 V=47.6 +MOVJ EC00588
MOVL C00589 V=27.1 +MOVJ EC00589
MOVL C00590 V=47.5 +MOVJ EC00590
MOVL C00591 V=27.1 +MOVJ EC00591
MOVL C00592 V=47.4 +MOVJ EC00592
MOVL C00593 V=27.1 +MOVJ EC00593
MOVL C00594 V=47.3 +MOVJ EC00594
MOVL C00595 V=27.2 +MOVJ EC00595
MOVL C00596 V=47.2 +MOVJ EC00596
MOVL C00597 V=27.2 +MOVJ EC00597
MOVL C00598 V=47.2 +MOVJ EC00598
MOVL C00599 V=47.2 +MOVJ EC00599
MOVL C00600 V=27.3 +MOVJ EC00600
MOVL C00601 V=47.3 +MOVJ EC00601
MOVL C00602 V=27.3 +MOVJ EC00602
MOVL C00603 V=47.2 +MOVJ EC00603
MOVL C00604 V=27.3 +MOVJ EC00604
MOVL C00605 V=47.4 +MOVJ EC00605
MOVL C00606 V=27.4 +MOVJ EC00606
MOVL C00607 V=47.7 +MOVJ EC00607
MOVL C00608 V=27.4 +MOVJ EC00608
MOVL C00609 V=48.1 +MOVJ EC00609
MOVL C00610 V=27.4 +MOVJ EC00610
MOVL C00611 V=48.5 +MOVJ EC00611
MOVL C00612 V=45.5 +MOVJ EC00612
MOVL C00613 V=27.4 +MOVJ EC00613
MOVL C00614 V=46.1 +MOVJ EC00614
MOVL C00615 V=27.4 +MOVJ EC00615
MOVL C00616 V=46.8 +MOVJ EC00616
MOVL C00617 V=27.4 +MOVJ EC00617
MOVL C00618 V=47.6 +MOVJ EC00618
MOVL C00619 V=45.0 +MOVJ EC00619
MOVL C00620 V=27.3 +MOVJ EC00620
MOVL C00621 V=45.8 +MOVJ EC00621
MOVL C00622 V=27.4 +MOVJ EC00622
MOVL C00623 V=46.7 +MOVJ EC00623
MOVL C00624 V=27.4 +MOVJ EC00624
MOVL C00625 V=44.3 +MOVJ EC00625
MOVL C00626 V=45.3 +MOVJ EC00626
MOVL C00627 V=27.4 +MOVJ EC00627
MOVL C00628 V=46.4 +MOVJ EC00628
MOVL C00629 V=27.4 +MOVJ EC00629
MOVL C00630 V=44.0 +MOVJ EC00630
MOVL C00631 V=45.1 +MOVJ EC00631
MOVL C00632 V=27.3 +MOVJ EC00632
MOVL C00633 V=46.2 +MOVJ EC00633
MOVL C00634 V=27.3 +MOVJ EC00634
MOVL C00635 V=43.9 +MOVJ EC00635
MOVL C00636 V=45.0 +MOVJ EC00636
MOVL C00637 V=27.3 +MOVJ EC00637
MOVL C00638 V=46.1 +MOVJ EC00638
MOVL C00639 V=43.7 +MOVJ EC00639
MOVL C00640 V=27.3 +MOVJ EC00640
MOVL C00641 V=44.7 +MOVJ EC00641
MOVL C00642 V=45.9 +MOVJ EC00642
MOVL C00643 V=27.1 +MOVJ EC00643
MOVL C00644 V=43.3 +MOVJ EC00644
MOVL C00645 V=44.3 +MOVJ EC00645
MOVL C00646 V=27.1 +MOVJ EC00646
MOVL C00647 V=45.1 +MOVJ EC00647
MOVL C00648 V=42.5 +MOVJ EC00648
MOVL C00649 V=27.2 +MOVJ EC00649
MOVL C00650 V=43.3 +MOVJ EC00650
MOVL C00651 V=44.1 +MOVJ EC00651
MOVL C00652 V=27.1 +MOVJ EC00652
MOVL C00653 V=44.8 +MOVJ EC00653
MOVL C00654 V=42.0 +MOVJ EC00654
MOVL C00655 V=27.1 +MOVJ EC00655
MOVL C00656 V=42.6 +MOVJ EC00656
MOVL C00657 V=43.1 +MOVJ EC00657
MOVL C00658 V=43.5 +MOVJ EC00658
MOVL C00659 V=27.1 +MOVJ EC00659
MOVL C00660 V=43.9 +MOVJ EC00660
MOVL C00661 V=44.2 +MOVJ EC00661
MOVL C00662 V=27.1 +MOVJ EC00662
MOVL C00663 V=44.5 +MOVJ EC00663
MOVL C00664 V=44.6 +MOVJ EC00664
MOVL C00665 V=44.7 +MOVJ EC00665
MOVL C00666 V=27.1 +MOVJ EC00666
MOVL C00667 V=44.7 +MOVJ EC00667
MOVL C00668 V=44.7 +MOVJ EC00668
MOVL C00669 V=27.1 +MOVJ EC00669
MOVL C00670 V=44.5 +MOVJ EC00670
MOVL C00671 V=44.3 +MOVJ EC00671
MOVL C00672 V=44.0 +MOVJ EC00672
MOVL C00673 V=27.2 +MOVJ EC00673
MOVL C00674 V=43.7 +MOVJ EC00674
MOVL C00675 V=43.3 +MOVJ EC00675
MOVL C00676 V=27.2 +MOVJ EC00676
MOVL C00677 V=46.3 +MOVJ EC00677
MOVL C00678 V=45.8 +MOVJ EC00678
MOVL C00679 V=27.3 +MOVJ EC00679
MOVL C00680 V=45.3 +MOVJ EC00680
MOVL C00681 V=44.7 +MOVJ EC00681
MOVL C00682 V=44.1 +MOVJ EC00682
MOVL C00683 V=27.4 +MOVJ EC00683
MOVL C00684 V=43.6 +MOVJ EC00684
MOVL C00685 V=46.5 +MOVJ EC00685
MOVL C00686 V=27.5 +MOVJ EC00686
MOVL C00687 V=45.9 +MOVJ EC00687
MOVL C00688 V=45.4 +MOVJ EC00688
MOVL C00689 V=27.5 +MOVJ EC00689
MOVL C00690 V=44.9 +MOVJ EC00690
MOVL C00691 V=44.4 +MOVJ EC00691
MOVL C00692 V=27.6 +MOVJ EC00692
MOVL C00693 V=47.5 +MOVJ EC00693
MOVL C00694 V=47.2 +MOVJ EC00694
MOVL C00695 V=27.5 +MOVJ EC00695
MOVL C00696 V=46.8 +MOVJ EC00696
MOVL C00697 V=27.6 +MOVJ EC00697
MOVL C00698 V=46.5 +MOVJ EC00698
MOVL C00699 V=46.3 +MOVJ EC00699
MOVL C00700 V=27.7 +MOVJ EC00700
MOVL C00701 V=46.1 +MOVJ EC00701
MOVL C00702 V=46.0 +MOVJ EC00702
MOVL C00703 V=27.7 +MOVJ EC00703
MOVL C00704 V=45.9 +MOVJ EC00704
MOVL C00705 V=45.9 +MOVJ EC00705
MOVL C00706 V=27.8 +MOVJ EC00706
MOVL C00707 V=46.0 +MOVJ EC00707
MOVL C00708 V=46.1 +MOVJ EC00708
MOVL C00709 V=27.8 +MOVJ EC00709
MOVL C00710 V=46.2 +MOVJ EC00710
MOVL C00711 V=27.8 +MOVJ EC00711
MOVL C00712 V=46.4 +MOVJ EC00712
MOVL C00713 V=46.7 +MOVJ EC00713
MOVL C00714 V=27.9 +MOVJ EC00714
MOVL C00715 V=47.0 +MOVJ EC00715
MOVL C00716 V=43.9 +MOVJ EC00716
MOVL C00717 V=27.9 +MOVJ EC00717
MOVL C00718 V=44.3 +MOVJ EC00718
MOVL C00719 V=44.8 +MOVJ EC00719
MOVL C00720 V=27.9 +MOVJ EC00720
MOVL C00721 V=45.3 +MOVJ EC00721
MOVL C00722 V=45.9 +MOVJ EC00722
MOVL C00723 V=27.9 +MOVJ EC00723
MOVL C00724 V=43.2 +MOVJ EC00724
MOVL C00725 V=43.8 +MOVJ EC00725
MOVL C00726 V=44.7 +MOVJ EC00726
MOVL C00727 V=27.8 +MOVJ EC00727
MOVL C00728 V=45.4 +MOVJ EC00728
MOVL C00729 V=43.0 +MOVJ EC00729
MOVL C00730 V=27.9 +MOVJ EC00730
MOVL C00731 V=43.9 +MOVJ EC00731
MOVL C00732 V=41.6 +MOVJ EC00732
MOVL C00733 V=42.6 +MOVJ EC00733
MOVL C00734 V=28.0 +MOVJ EC00734
MOVL C00735 V=43.7 +MOVJ EC00735
MOVL C00736 V=41.6 +MOVJ EC00736
MOVL C00737 V=42.8 +MOVJ EC00737
MOVL C00738 V=28.0 +MOVJ EC00738
MOVL C00739 V=40.9 +MOVJ EC00739
MOVL C00740 V=42.1 +MOVJ EC00740
MOVL C00741 V=40.3 +MOVJ EC00741
MOVL C00742 V=41.6 +MOVJ EC00742
MOVL C00743 V=39.9 +MOVJ EC00743
MOVL C00744 V=28.0 +MOVJ EC00744
MOVL C00745 V=38.2 +MOVJ EC00745
MOVL C00746 V=39.6 +MOVJ EC00746
MOVL C00747 V=38.0 +MOVJ EC00747
MOVL C00748 V=39.4 +MOVJ EC00748
MOVL C00749 V=37.8 +MOVJ EC00749
MOVL C00750 V=36.4 +MOVJ EC00750
MOVL C00751 V=37.9 +MOVJ EC00751
MOVL C00752 V=43.9 +MOVJ EC00752
MOVL C00753 V=35.5 +MOVJ EC00753
MOVL C00754 V=35.3 +MOVJ EC00754
MOVL C00755 V=39.2 +MOVJ EC00755
MOVL C00756 V=34.3 +MOVJ EC00756
MOVL C00757 V=37.1 +MOVJ EC00757
MOVL C00758 V=33.2 +MOVJ EC00758
MOVL C00759 V=36.3 +MOVJ EC00759
MOVL C00760 V=33.9 +MOVJ EC00760
MOVL C00761 V=33.7 +MOVJ EC00761
MOVL C00762 V=31.5 +MOVJ EC00762
MOVL C00763 V=34.0 +MOVJ EC00763
MOVL C00764 V=37.5 +MOVJ EC00764
MOVL C00765 V=27.9 +MOVJ EC00765
MOVL C00766 V=27.9 +MOVJ EC00766
MOVL C00767 V=46.4 +MOVJ EC00767
MOVL C00768 V=27.9 +MOVJ EC00768
MOVL C00769 V=46.3 +MOVJ EC00769
MOVL C00770 V=27.9 +MOVJ EC00770
MOVL C00771 V=46.2 +MOVJ EC00771
MOVL C00772 V=27.9 +MOVJ EC00772
MOVL C00773 V=46.1 +MOVJ EC00773
MOVL C00774 V=27.9 +MOVJ EC00774
MOVL C00775 V=46.1 +MOVJ EC00775
MOVL C00776 V=28.7 +MOVJ EC00776
MOVL C00777 V=58.3 +MOVJ EC00777
MOVL C00778 V=28.7 +MOVJ EC00778
MOVL C00779 V=58.3 +MOVJ EC00779
MOVL C00780 V=28.7 +MOVJ EC00780
MOVL C00781 V=28.7 +MOVJ EC00781
MOVL C00782 V=58.3 +MOVJ EC00782
MOVL C00783 V=28.7 +MOVJ EC00783
MOVL C00784 V=58.2 +MOVJ EC00784
MOVL C00785 V=28.7 +MOVJ EC00785
MOVL C00786 V=58.2 +MOVJ EC00786
MOVL C00787 V=28.6 +MOVJ EC00787
MOVL C00788 V=58.2 +MOVJ EC00788
MOVL C00789 V=28.6 +MOVJ EC00789
MOVL C00790 V=58.1 +MOVJ EC00790
MOVL C00791 V=28.6 +MOVJ EC00791
MOVL C00792 V=58.1 +MOVJ EC00792
MOVL C00793 V=28.6 +MOVJ EC00793
MOVL C00794 V=58.0 +MOVJ EC00794
MOVL C00795 V=28.6 +MOVJ EC00795
MOVL C00796 V=57.9 +MOVJ EC00796
MOVL C00797 V=28.6 +MOVJ EC00797
MOVL C00798 V=57.9 +MOVJ EC00798
MOVL C00799 V=28.6 +MOVJ EC00799
MOVL C00800 V=57.8 +MOVJ EC00800
MOVL C00801 V=28.5 +MOVJ EC00801
MOVL C00802 V=28.5 +MOVJ EC00802
MOVL C00803 V=57.7 +MOVJ EC00803
MOVL C00804 V=28.5 +MOVJ EC00804
MOVL C00805 V=57.6 +MOVJ EC00805
MOVL C00806 V=28.5 +MOVJ EC00806
MOVL C00807 V=57.5 +MOVJ EC00807
MOVL C00808 V=28.5 +MOVJ EC00808
MOVL C00809 V=57.4 +MOVJ EC00809
MOVL C00810 V=28.5 +MOVJ EC00810
MOVL C00811 V=57.3 +MOVJ EC00811
MOVL C00812 V=28.5 +MOVJ EC00812
MOVL C00813 V=57.2 +MOVJ EC00813
MOVL C00814 V=28.5 +MOVJ EC00814
MOVL C00815 V=57.1 +MOVJ EC00815
MOVL C00816 V=28.4 +MOVJ EC00816
MOVL C00817 V=57.0 +MOVJ EC00817
MOVL C00818 V=28.4 +MOVJ EC00818
MOVL C00819 V=56.8 +MOVJ EC00819
MOVL C00820 V=28.4 +MOVJ EC00820
MOVL C00821 V=56.7 +MOVJ EC00821
MOVL C00822 V=28.4 +MOVJ EC00822
MOVL C00823 V=28.4 +MOVJ EC00823
MOVL C00824 V=56.6 +MOVJ EC00824
MOVL C00825 V=28.4 +MOVJ EC00825
MOVL C00826 V=56.5 +MOVJ EC00826
MOVL C00827 V=28.4 +MOVJ EC00827
MOVL C00828 V=56.3 +MOVJ EC00828
MOVL C00829 V=28.4 +MOVJ EC00829
MOVL C00830 V=56.2 +MOVJ EC00830
MOVL C00831 V=28.3 +MOVJ EC00831
MOVL C00832 V=56.1 +MOVJ EC00832
MOVL C00833 V=28.3 +MOVJ EC00833
MOVL C00834 V=56.0 +MOVJ EC00834
MOVL C00835 V=28.3 +MOVJ EC00835
MOVL C00836 V=55.8 +MOVJ EC00836
MOVL C00837 V=28.3 +MOVJ EC00837
MOVL C00838 V=55.7 +MOVJ EC00838
MOVL C00839 V=28.3 +MOVJ EC00839
MOVL C00840 V=55.6 +MOVJ EC00840
MOVL C00841 V=28.3 +MOVJ EC00841
MOVL C00842 V=55.5 +MOVJ EC00842
MOVL C00843 V=28.3 +MOVJ EC00843
MOVL C00844 V=28.3 +MOVJ EC00844
MOVL C00845 V=55.3 +MOVJ EC00845
MOVL C00846 V=27.0 PL=0 +MOVJ EC00846
END
