/JOB
//NAME AAA
//POS
///NPOS 579,0,0,0,0,0
///TOOL 12
///POSTYPE PULSE
///PULSE
C00000=-5366,38153,-39822,-4091,-3921,1819
C00001=-2683,38153,-39822,-2046,-1960,910
C00002=2683,38153,-39822,2046,1960,-910
C00003=5366,38153,-39822,4091,3921,-1819
C00004=8048,38153,-39822,6137,5881,-2729
C00005=0,38153,-31858,0,0,0
C00006=-8048,38153,-31858,-6137,-5881,2729
C00007=-5366,38153,-31858,-4091,-3921,1819
C00008=-2683,38153,-31858,-2046,-1960,910
C00009=2683,38153,-31858,2046,1960,-910
C00010=5366,38153,-31858,4091,3921,-1819
C00011=8048,38153,-31858,6137,5881,-2729
C00012=0,38153,-23893,0,0,0
C00013=-8048,38153,-23893,-6137,-5881,2729
C00014=-5366,38153,-23893,-4091,-3921,1819
C00015=-2683,38153,-23893,-2046,-1960,910
C00016=2683,38153,-23893,2046,1960,-910
C00017=5366,38153,-23893,4091,3921,-1819
C00018=8048,38153,-23893,6137,5881,-2729
C00019=0,38153,-15929,0,0,0
C00020=-8048,38153,-15929,-6137,-5881,2729
C00021=-5366,38153,-15929,-4091,-3921,1819
C00022=-2683,38153,-15929,-2046,-1960,910
C00023=2683,38153,-15929,2046,1960,-910
C00024=5366,38153,-15929,4091,3921,-1819
C00025=8048,38153,-15929,6137,5881,-2729
C00026=0,38153,-7964,0,0,0
C00027=-8048,38153,-7964,-6137,-5881,2729
C00028=-5366,38153,-7964,-4091,-3921,1819
C00029=-2683,38153,-7964,-2046,-1960,910
C00030=2683,38153,-7964,2046,1960,-910
C00031=5366,38153,-7964,4091,3921,-1819
C00032=8048,38153,-7964,6137,5881,-2729
C00033=0,38153,0,0,0,0
C00034=-8048,38153,0,-6137,-5881,2729
C00035=-5366,38153,0,-4091,-3921,1819
C00036=-2683,38153,0,-2046,-1960,910
C00037=2683,38153,0,2046,1960,-910
C00038=5366,38153,0,4091,3921,-1819
C00039=8048,38153,0,6137,5881,-2729
C00040=0,38153,7964,0,0,0
C00041=-8048,38153,7964,-6137,-5881,2729
C00042=-5366,38153,7964,-4091,-3921,1819
C00043=-2683,38153,7964,-2046,-1960,910
C00044=2683,38153,7964,2046,1960,-910
C00045=5366,38153,7964,4091,3921,-1819
C00046=8048,38153,7964,6137,5881,-2729
C00047=0,38153,15929,0,0,0
C00048=-8048,38153,15929,-6137,-5881,2729
C00049=-5366,38153,15929,-4091,-3921,1819
C00050=-2683,38153,15929,-2046,-1960,910
C00051=2683,38153,15929,2046,1960,-910
C00052=5366,38153,15929,4091,3921,-1819
C00053=8048,38153,15929,6137,5881,-2729
C00054=0,38153,23893,0,0,0
C00055=-8048,38153,23893,-6137,-5881,2729
C00056=-5366,38153,23893,-4091,-3921,1819
C00057=-2683,38153,23893,-2046,-1960,910
C00058=2683,38153,23893,2046,1960,-910
C00059=5366,38153,23893,4091,3921,-1819
C00060=8048,38153,23893,6137,5881,-2729
C00061=0,38153,31858,0,0,0
C00062=-8048,38153,31858,-6137,-5881,2729
C00063=-5366,38153,31858,-4091,-3921,1819
C00064=-2683,38153,31858,-2046,-1960,910
C00065=2683,38153,31858,2046,1960,-910
C00066=5366,38153,31858,4091,3921,-1819
C00067=8048,38153,31858,6137,5881,-2729
C00068=0,38153,39822,0,0,0
C00069=-8048,38153,39822,-6137,-5881,2729
C00070=-5366,38153,39822,-4091,-3921,1819
C00071=-2683,38153,39822,-2046,-1960,910
C00072=2683,38153,39822,2046,1960,-910
C00073=5366,38153,39822,4091,3921,-1819
C00074=8048,38153,39822,6137,5881,-2729
C00075=0,38153,41415,0,0,0
C00076=-8048,38153,41415,-6137,-5881,2729
C00077=-5366,38153,41415,-4091,-3921,1819
C00078=-2683,38153,41415,-2046,-1960,910
C00079=2683,38153,41415,2046,1960,-910
C00080=5366,38153,41415,4091,3921,-1819
C00081=8048,38153,41415,6137,5881,-2729
C00082=0,47692,-39822,0,0,0
C00083=-8048,47692,-39822,-6137,-5881,2729
C00084=-5366,47692,-39822,-4091,-3921,1819
C00085=-2683,47692,-39822,-2046,-1960,910
C00086=2683,47692,-39822,2046,1960,-910
C00087=5366,47692,-39822,4091,3921,-1819
C00088=8048,47692,-39822,6137,5881,-2729
C00089=0,47692,-31858,0,0,0
C00090=-8048,47692,-31858,-6137,-5881,2729
C00091=-5366,47692,-31858,-4091,-3921,1819
C00092=-2683,47692,-31858,-2046,-1960,910
C00093=2683,47692,-31858,2046,1960,-910
C00094=5366,47692,-31858,4091,3921,-1819
C00095=8048,47692,-31858,6137,5881,-2729
C00096=0,47692,-23893,0,0,0
C00097=-8048,47692,-23893,-6137,-5881,2729
C00098=-5366,47692,-23893,-4091,-3921,1819
C00099=-2683,47692,-23893,-2046,-1960,910
C00100=2683,47692,-23893,2046,1960,-910
C00101=5366,47692,-23893,4091,3921,-1819
C00102=8048,47692,-23893,6137,5881,-2729
C00103=0,47692,-15929,0,0,0
C00104=-8048,47692,-15929,-6137,-5881,2729
C00105=-5366,47692,-15929,-4091,-3921,1819
C00106=-2683,47692,-15929,-2046,-1960,910
C00107=2683,47692,-15929,2046,1960,-910
C00108=5366,47692,-15929,4091,3921,-1819
C00109=8048,47692,-15929,6137,5881,-2729
C00110=0,47692,-7964,0,0,0
C00111=-8048,47692,-7964,-6137,-5881,2729
C00112=-5366,47692,-7964,-4091,-3921,1819
C00113=-2683,47692,-7964,-2046,-1960,910
C00114=2683,47692,-7964,2046,1960,-910
C00115=5366,47692,-7964,4091,3921,-1819
C00116=8048,47692,-7964,6137,5881,-2729
C00117=0,47692,0,0,0,0
C00118=-8048,47692,0,-6137,-5881,2729
C00119=-5366,47692,0,-4091,-3921,1819
C00120=-2683,47692,0,-2046,-1960,910
C00121=2683,47692,0,2046,1960,-910
C00122=5366,47692,0,4091,3921,-1819
C00123=8048,47692,0,6137,5881,-2729
C00124=0,47692,7964,0,0,0
C00125=-8048,47692,7964,-6137,-5881,2729
C00126=-5366,47692,7964,-4091,-3921,1819
C00127=-2683,47692,7964,-2046,-1960,910
C00128=2683,47692,7964,2046,1960,-910
C00129=5366,47692,7964,4091,3921,-1819
C00130=8048,47692,7964,6137,5881,-2729
C00131=0,47692,15929,0,0,0
C00132=-8048,47692,15929,-6137,-5881,2729
C00133=-5366,47692,15929,-4091,-3921,1819
C00134=-2683,47692,15929,-2046,-1960,910
C00135=2683,47692,15929,2046,1960,-910
C00136=5366,47692,15929,4091,3921,-1819
C00137=8048,47692,15929,6137,5881,-2729
C00138=0,47692,23893,0,0,0
C00139=-8048,47692,23893,-6137,-5881,2729
C00140=-5366,47692,23893,-4091,-3921,1819
C00141=-2683,47692,23893,-2046,-1960,910
C00142=2683,47692,23893,2046,1960,-910
C00143=5366,47692,23893,4091,3921,-1819
C00144=8048,47692,23893,6137,5881,-2729
C00145=0,47692,31858,0,0,0
C00146=-8048,47692,31858,-6137,-5881,2729
C00147=-5366,47692,31858,-4091,-3921,1819
C00148=-2683,47692,31858,-2046,-1960,910
C00149=2683,47692,31858,2046,1960,-910
C00150=5366,47692,31858,4091,3921,-1819
C00151=8048,47692,31858,6137,5881,-2729
C00152=0,47692,39822,0,0,0
C00153=-8048,47692,39822,-6137,-5881,2729
C00154=-5366,47692,39822,-4091,-3921,1819
C00155=-2683,47692,39822,-2046,-1960,910
C00156=2683,47692,39822,2046,1960,-910
C00157=5366,47692,39822,4091,3921,-1819
C00158=8048,47692,39822,6137,5881,-2729
C00159=0,47692,47787,0,0,0
C00160=-8048,47692,47787,-6137,-5881,2729
C00161=-5366,47692,47787,-4091,-3921,1819
C00162=-2683,47692,47787,-2046,-1960,910
C00163=2683,47692,47787,2046,1960,-910
C00164=5366,47692,47787,4091,3921,-1819
C00165=8048,47692,47787,6137,5881,-2729
C00166=0,57230,-31858,0,0,0
C00167=-8048,57230,-31858,-6137,-5881,2729
C00168=-5366,57230,-31858,-4091,-3921,1819
C00169=-2683,57230,-31858,-2046,-1960,910
C00170=2683,57230,-31858,2046,1960,-910
C00171=5366,57230,-31858,4091,3921,-1819
C00172=8048,57230,-31858,6137,5881,-2729
C00173=0,57230,-23893,0,0,0
C00174=-8048,57230,-23893,-6137,-5881,2729
C00175=-5366,57230,-23893,-4091,-3921,1819
C00176=-2683,57230,-23893,-2046,-1960,910
C00177=2683,57230,-23893,2046,1960,-910
C00178=5366,57230,-23893,4091,3921,-1819
C00179=8048,57230,-23893,6137,5881,-2729
C00180=0,57230,-15929,0,0,0
C00181=-8048,57230,-15929,-6137,-5881,2729
C00182=-5366,57230,-15929,-4091,-3921,1819
C00183=-2683,57230,-15929,-2046,-1960,910
C00184=2683,57230,-15929,2046,1960,-910
C00185=5366,57230,-15929,4091,3921,-1819
C00186=8048,57230,-15929,6137,5881,-2729
C00187=0,57230,-7964,0,0,0
C00188=-8048,57230,-7964,-6137,-5881,2729
C00189=-5366,57230,-7964,-4091,-3921,1819
C00190=-2683,57230,-7964,-2046,-1960,910
C00191=2683,57230,-7964,2046,1960,-910
C00192=5366,57230,-7964,4091,3921,-1819
C00193=8048,57230,-7964,6137,5881,-2729
C00194=0,57230,0,0,0,0
C00195=-8048,57230,0,-6137,-5881,2729
C00196=-5366,57230,0,-4091,-3921,1819
C00197=-2683,57230,0,-2046,-1960,910
C00198=2683,57230,0,2046,1960,-910
C00199=5366,57230,0,4091,3921,-1819
C00200=8048,57230,0,6137,5881,-2729
C00201=0,57230,7964,0,0,0
C00202=-8048,57230,7964,-6137,-5881,2729
C00203=-5366,57230,7964,-4091,-3921,1819
C00204=-2683,57230,7964,-2046,-1960,910
C00205=2683,57230,7964,2046,1960,-910
C00206=5366,57230,7964,4091,3921,-1819
C00207=8048,57230,7964,6137,5881,-2729
C00208=0,57230,15929,0,0,0
C00209=-8048,57230,15929,-6137,-5881,2729
C00210=-5366,57230,15929,-4091,-3921,1819
C00211=-2683,57230,15929,-2046,-1960,910
C00212=2683,57230,15929,2046,1960,-910
C00213=5366,57230,15929,4091,3921,-1819
C00214=8048,57230,15929,6137,5881,-2729
C00215=0,57230,23893,0,0,0
C00216=-8048,57230,23893,-6137,-5881,2729
C00217=-5366,57230,23893,-4091,-3921,1819
C00218=-2683,57230,23893,-2046,-1960,910
C00219=2683,57230,23893,2046,1960,-910
C00220=5366,57230,23893,4091,3921,-1819
C00221=8048,57230,23893,6137,5881,-2729
C00222=0,57230,31858,0,0,0
C00223=-8048,57230,31858,-6137,-5881,2729
C00224=-5366,57230,31858,-4091,-3921,1819
C00225=-2683,57230,31858,-2046,-1960,910
C00226=2683,57230,31858,2046,1960,-910
C00227=5366,57230,31858,4091,3921,-1819
C00228=8048,57230,31858,6137,5881,-2729
C00229=0,57230,39822,0,0,0
C00230=-8048,57230,39822,-6137,-5881,2729
C00231=-5366,57230,39822,-4091,-3921,1819
C00232=-2683,57230,39822,-2046,-1960,910
C00233=2683,57230,39822,2046,1960,-910
C00234=5366,57230,39822,4091,3921,-1819
C00235=8048,57230,39822,6137,5881,-2729
C00236=0,57230,47787,0,0,0
C00237=-8048,57230,47787,-6137,-5881,2729
C00238=-5366,57230,47787,-4091,-3921,1819
C00239=-2683,57230,47787,-2046,-1960,910
C00240=2683,57230,47787,2046,1960,-910
C00241=5366,57230,47787,4091,3921,-1819
C00242=8048,57230,47787,6137,5881,-2729
C00243=0,57230,54158,0,0,0
C00244=-8048,57230,54158,-6137,-5881,2729
C00245=-5366,57230,54158,-4091,-3921,1819
C00246=-2683,57230,54158,-2046,-1960,910
C00247=2683,57230,54158,2046,1960,-910
C00248=5366,57230,54158,4091,3921,-1819
C00249=8048,57230,54158,6137,5881,-2729
C00250=0,66769,-23893,0,0,0
C00251=-8048,66769,-23893,-6137,-5881,2729
C00252=-5366,66769,-23893,-4091,-3921,1819
C00253=-2683,66769,-23893,-2046,-1960,910
C00254=2683,66769,-23893,2046,1960,-910
C00255=5366,66769,-23893,4091,3921,-1819
C00256=8048,66769,-23893,6137,5881,-2729
C00257=0,66769,-15929,0,0,0
C00258=-8048,66769,-15929,-6137,-5881,2729
C00259=-5366,66769,-15929,-4091,-3921,1819
C00260=-2683,66769,-15929,-2046,-1960,910
C00261=2683,66769,-15929,2046,1960,-910
C00262=5366,66769,-15929,4091,3921,-1819
C00263=8048,66769,-15929,6137,5881,-2729
C00264=0,66769,-7964,0,0,0
C00265=-8048,66769,-7964,-6137,-5881,2729
C00266=-5366,66769,-7964,-4091,-3921,1819
C00267=-2683,66769,-7964,-2046,-1960,910
C00268=2683,66769,-7964,2046,1960,-910
C00269=5366,66769,-7964,4091,3921,-1819
C00270=8048,66769,-7964,6137,5881,-2729
C00271=0,66769,0,0,0,0
C00272=-8048,66769,0,-6137,-5881,2729
C00273=-5366,66769,0,-4091,-3921,1819
C00274=-2683,66769,0,-2046,-1960,910
C00275=2683,66769,0,2046,1960,-910
C00276=5366,66769,0,4091,3921,-1819
C00277=8048,66769,0,6137,5881,-2729
C00278=0,66769,7964,0,0,0
C00279=-8048,66769,7964,-6137,-5881,2729
C00280=-5366,66769,7964,-4091,-3921,1819
C00281=-2683,66769,7964,-2046,-1960,910
C00282=2683,66769,7964,2046,1960,-910
C00283=5366,66769,7964,4091,3921,-1819
C00284=8048,66769,7964,6137,5881,-2729
C00285=0,66769,15929,0,0,0
C00286=-8048,66769,15929,-6137,-5881,2729
C00287=-5366,66769,15929,-4091,-3921,1819
C00288=-2683,66769,15929,-2046,-1960,910
C00289=2683,66769,15929,2046,1960,-910
C00290=5366,66769,15929,4091,3921,-1819
C00291=8048,66769,15929,6137,5881,-2729
C00292=0,66769,23893,0,0,0
C00293=-8048,66769,23893,-6137,-5881,2729
C00294=-5366,66769,23893,-4091,-3921,1819
C00295=-2683,66769,23893,-2046,-1960,910
C00296=2683,66769,23893,2046,1960,-910
C00297=5366,66769,23893,4091,3921,-1819
C00298=8048,66769,23893,6137,5881,-2729
C00299=0,66769,31858,0,0,0
C00300=-8048,66769,31858,-6137,-5881,2729
C00301=-5366,66769,31858,-4091,-3921,1819
C00302=-2683,66769,31858,-2046,-1960,910
C00303=2683,66769,31858,2046,1960,-910
C00304=5366,66769,31858,4091,3921,-1819
C00305=8048,66769,31858,6137,5881,-2729
C00306=0,66769,39822,0,0,0
C00307=-8048,66769,39822,-6137,-5881,2729
C00308=-5366,66769,39822,-4091,-3921,1819
C00309=-2683,66769,39822,-2046,-1960,910
C00310=2683,66769,39822,2046,1960,-910
C00311=5366,66769,39822,4091,3921,-1819
C00312=8048,66769,39822,6137,5881,-2729
C00313=0,66769,47787,0,0,0
C00314=-8048,66769,47787,-6137,-5881,2729
C00315=-5366,66769,47787,-4091,-3921,1819
C00316=-2683,66769,47787,-2046,-1960,910
C00317=2683,66769,47787,2046,1960,-910
C00318=5366,66769,47787,4091,3921,-1819
C00319=8048,66769,47787,6137,5881,-2729
C00320=0,66769,55751,0,0,0
C00321=-8048,66769,55751,-6137,-5881,2729
C00322=-5366,66769,55751,-4091,-3921,1819
C00323=-2683,66769,55751,-2046,-1960,910
C00324=2683,66769,55751,2046,1960,-910
C00325=5366,66769,55751,4091,3921,-1819
C00326=8048,66769,55751,6137,5881,-2729
C00327=0,66769,60530,0,0,0
C00328=-8048,66769,60530,-6137,-5881,2729
C00329=-5366,66769,60530,-4091,-3921,1819
C00330=-2683,66769,60530,-2046,-1960,910
C00331=2683,66769,60530,2046,1960,-910
C00332=5366,66769,60530,4091,3921,-1819
C00333=8048,66769,60530,6137,5881,-2729
C00334=0,76307,-15929,0,0,0
C00335=-8048,76307,-15929,-6137,-5881,2729
C00336=-5366,76307,-15929,-4091,-3921,1819
C00337=-2683,76307,-15929,-2046,-1960,910
C00338=2683,76307,-15929,2046,1960,-910
C00339=5366,76307,-15929,4091,3921,-1819
C00340=8048,76307,-15929,6137,5881,-2729
C00341=0,76307,-7964,0,0,0
C00342=-8048,76307,-7964,-6137,-5881,2729
C00343=-5366,76307,-7964,-4091,-3921,1819
C00344=-2683,76307,-7964,-2046,-1960,910
C00345=2683,76307,-7964,2046,1960,-910
C00346=5366,76307,-7964,4091,3921,-1819
C00347=8048,76307,-7964,6137,5881,-2729
C00348=0,76307,0,0,0,0
C00349=-8048,76307,0,-6137,-5881,2729
C00350=-5366,76307,0,-4091,-3921,1819
C00351=-2683,76307,0,-2046,-1960,910
C00352=2683,76307,0,2046,1960,-910
C00353=5366,76307,0,4091,3921,-1819
C00354=8048,76307,0,6137,5881,-2729
C00355=0,76307,7964,0,0,0
C00356=-8048,76307,7964,-6137,-5881,2729
C00357=-5366,76307,7964,-4091,-3921,1819
C00358=-2683,76307,7964,-2046,-1960,910
C00359=2683,76307,7964,2046,1960,-910
C00360=5366,76307,7964,4091,3921,-1819
C00361=8048,76307,7964,6137,5881,-2729
C00362=0,76307,15929,0,0,0
C00363=-8048,76307,15929,-6137,-5881,2729
C00364=-5366,76307,15929,-4091,-3921,1819
C00365=-2683,76307,15929,-2046,-1960,910
C00366=2683,76307,15929,2046,1960,-910
C00367=5366,76307,15929,4091,3921,-1819
C00368=8048,76307,15929,6137,5881,-2729
C00369=0,76307,23893,0,0,0
C00370=-8048,76307,23893,-6137,-5881,2729
C00371=-5366,76307,23893,-4091,-3921,1819
C00372=-2683,76307,23893,-2046,-1960,910
C00373=2683,76307,23893,2046,1960,-910
C00374=5366,76307,23893,4091,3921,-1819
C00375=8048,76307,23893,6137,5881,-2729
C00376=0,76307,31858,0,0,0
C00377=-8048,76307,31858,-6137,-5881,2729
C00378=-5366,76307,31858,-4091,-3921,1819
C00379=-2683,76307,31858,-2046,-1960,910
C00380=2683,76307,31858,2046,1960,-910
C00381=5366,76307,31858,4091,3921,-1819
C00382=8048,76307,31858,6137,5881,-2729
C00383=0,76307,39822,0,0,0
C00384=-8048,76307,39822,-6137,-5881,2729
C00385=-5366,76307,39822,-4091,-3921,1819
C00386=-2683,76307,39822,-2046,-1960,910
C00387=2683,76307,39822,2046,1960,-910
C00388=5366,76307,39822,4091,3921,-1819
C00389=8048,76307,39822,6137,5881,-2729
C00390=0,76307,47787,0,0,0
C00391=-8048,76307,47787,-6137,-5881,2729
C00392=-5366,76307,47787,-4091,-3921,1819
C00393=-2683,76307,47787,-2046,-1960,910
C00394=2683,76307,47787,2046,1960,-910
C00395=5366,76307,47787,4091,3921,-1819
C00396=8048,76307,47787,6137,5881,-2729
C00397=0,76307,55751,0,0,0
C00398=-8048,76307,55751,-6137,-5881,2729
C00399=-5366,76307,55751,-4091,-3921,1819
C00400=-2683,76307,55751,-2046,-1960,910
C00401=2683,76307,55751,2046,1960,-910
C00402=5366,76307,55751,4091,3921,-1819
C00403=8048,76307,55751,6137,5881,-2729
C00404=0,76307,63716,0,0,0
C00405=-8048,76307,63716,-6137,-5881,2729
C00406=-5366,76307,63716,-4091,-3921,1819
C00407=-2683,76307,63716,-2046,-1960,910
C00408=2683,76307,63716,2046,1960,-910
C00409=5366,76307,63716,4091,3921,-1819
C00410=8048,76307,63716,6137,5881,-2729
C00411=0,76307,66901,0,0,0
C00412=-8048,76307,66901,-6137,-5881,2729
C00413=-5366,76307,66901,-4091,-3921,1819
C00414=-2683,76307,66901,-2046,-1960,910
C00415=2683,76307,66901,2046,1960,-910
C00416=5366,76307,66901,4091,3921,-1819
C00417=8048,76307,66901,6137,5881,-2729
C00418=0,85845,-7964,0,0,0
C00419=-8048,85845,-7964,-6137,-5881,2729
C00420=-5366,85845,-7964,-4091,-3921,1819
C00421=-2683,85845,-7964,-2046,-1960,910
C00422=2683,85845,-7964,2046,1960,-910
C00423=5366,85845,-7964,4091,3921,-1819
C00424=8048,85845,-7964,6137,5881,-2729
C00425=0,85845,0,0,0,0
C00426=-8048,85845,0,-6137,-5881,2729
C00427=-5366,85845,0,-4091,-3921,1819
C00428=-2683,85845,0,-2046,-1960,910
C00429=2683,85845,0,2046,1960,-910
C00430=5366,85845,0,4091,3921,-1819
C00431=8048,85845,0,6137,5881,-2729
C00432=0,85845,7964,0,0,0
C00433=-8048,85845,7964,-6137,-5881,2729
C00434=-5366,85845,7964,-4091,-3921,1819
C00435=-2683,85845,7964,-2046,-1960,910
C00436=2683,85845,7964,2046,1960,-910
C00437=5366,85845,7964,4091,3921,-1819
C00438=8048,85845,7964,6137,5881,-2729
C00439=0,85845,15929,0,0,0
C00440=-8048,85845,15929,-6137,-5881,2729
C00441=-5366,85845,15929,-4091,-3921,1819
C00442=-2683,85845,15929,-2046,-1960,910
C00443=2683,85845,15929,2046,1960,-910
C00444=5366,85845,15929,4091,3921,-1819
C00445=8048,85845,15929,6137,5881,-2729
C00446=0,85845,23893,0,0,0
C00447=-8048,85845,23893,-6137,-5881,2729
C00448=-5366,85845,23893,-4091,-3921,1819
C00449=-2683,85845,23893,-2046,-1960,910
C00450=2683,85845,23893,2046,1960,-910
C00451=5366,85845,23893,4091,3921,-1819
C00452=8048,85845,23893,6137,5881,-2729
C00453=0,85845,31858,0,0,0
C00454=-8048,85845,31858,-6137,-5881,2729
C00455=-5366,85845,31858,-4091,-3921,1819
C00456=-2683,85845,31858,-2046,-1960,910
C00457=2683,85845,31858,2046,1960,-910
C00458=5366,85845,31858,4091,3921,-1819
C00459=8048,85845,31858,6137,5881,-2729
C00460=0,85845,39822,0,0,0
C00461=-8048,85845,39822,-6137,-5881,2729
C00462=-5366,85845,39822,-4091,-3921,1819
C00463=-2683,85845,39822,-2046,-1960,910
C00464=2683,85845,39822,2046,1960,-910
C00465=5366,85845,39822,4091,3921,-1819
C00466=8048,85845,39822,6137,5881,-2729
C00467=0,85845,47787,0,0,0
C00468=-8048,85845,47787,-6137,-5881,2729
C00469=-5366,85845,47787,-4091,-3921,1819
C00470=-2683,85845,47787,-2046,-1960,910
C00471=2683,85845,47787,2046,1960,-910
C00472=5366,85845,47787,4091,3921,-1819
C00473=8048,85845,47787,6137,5881,-2729
C00474=0,85845,55751,0,0,0
C00475=-8048,85845,55751,-6137,-5881,2729
C00476=-5366,85845,55751,-4091,-3921,1819
C00477=-2683,85845,55751,-2046,-1960,910
C00478=2683,85845,55751,2046,1960,-910
C00479=5366,85845,55751,4091,3921,-1819
C00480=8048,85845,55751,6137,5881,-2729
C00481=0,85845,63716,0,0,0
C00482=-8048,85845,63716,-6137,-5881,2729
C00483=-5366,85845,63716,-4091,-3921,1819
C00484=-2683,85845,63716,-2046,-1960,910
C00485=2683,85845,63716,2046,1960,-910
C00486=5366,85845,63716,4091,3921,-1819
C00487=8048,85845,63716,6137,5881,-2729
C00488=0,85845,71680,0,0,0
C00489=-8048,85845,71680,-6137,-5881,2729
C00490=-5366,85845,71680,-4091,-3921,1819
C00491=-2683,85845,71680,-2046,-1960,910
C00492=2683,85845,71680,2046,1960,-910
C00493=5366,85845,71680,4091,3921,-1819
C00494=8048,85845,71680,6137,5881,-2729
C00495=0,85845,73273,0,0,0
C00496=-8048,85845,73273,-6137,-5881,2729
C00497=-5366,85845,73273,-4091,-3921,1819
C00498=-2683,85845,73273,-2046,-1960,910
C00499=2683,85845,73273,2046,1960,-910
C00500=5366,85845,73273,4091,3921,-1819
C00501=8048,85845,73273,6137,5881,-2729
C00502=0,95384,0,0,0,0
C00503=-8048,95384,0,-6137,-5881,2729
C00504=-5366,95384,0,-4091,-3921,1819
C00505=-2683,95384,0,-2046,-1960,910
C00506=2683,95384,0,2046,1960,-910
C00507=5366,95384,0,4091,3921,-1819
C00508=8048,95384,0,6137,5881,-2729
C00509=0,95384,7964,0,0,0
C00510=-8048,95384,7964,-6137,-5881,2729
C00511=-5366,95384,7964,-4091,-3921,1819
C00512=-2683,95384,7964,-2046,-1960,910
C00513=2683,95384,7964,2046,1960,-910
C00514=5366,95384,7964,4091,3921,-1819
C00515=8048,95384,7964,6137,5881,-2729
C00516=0,95384,15929,0,0,0
C00517=-8048,95384,15929,-6137,-5881,2729
C00518=-5366,95384,15929,-4091,-3921,1819
C00519=-2683,95384,15929,-2046,-1960,910
C00520=2683,95384,15929,2046,1960,-910
C00521=5366,95384,15929,4091,3921,-1819
C00522=8048,95384,15929,6137,5881,-2729
C00523=0,95384,23893,0,0,0
C00524=-8048,95384,23893,-6137,-5881,2729
C00525=-5366,95384,23893,-4091,-3921,1819
C00526=-2683,95384,23893,-2046,-1960,910
C00527=2683,95384,23893,2046,1960,-910
C00528=5366,95384,23893,4091,3921,-1819
C00529=8048,95384,23893,6137,5881,-2729
C00530=0,95384,31858,0,0,0
C00531=-8048,95384,31858,-6137,-5881,2729
C00532=-5366,95384,31858,-4091,-3921,1819
C00533=-2683,95384,31858,-2046,-1960,910
C00534=2683,95384,31858,2046,1960,-910
C00535=5366,95384,31858,4091,3921,-1819
C00536=8048,95384,31858,6137,5881,-2729
C00537=0,95384,39822,0,0,0
C00538=-8048,95384,39822,-6137,-5881,2729
C00539=-5366,95384,39822,-4091,-3921,1819
C00540=-2683,95384,39822,-2046,-1960,910
C00541=2683,95384,39822,2046,1960,-910
C00542=5366,95384,39822,4091,3921,-1819
C00543=8048,95384,39822,6137,5881,-2729
C00544=0,95384,47787,0,0,0
C00545=-8048,95384,47787,-6137,-5881,2729
C00546=-5366,95384,47787,-4091,-3921,1819
C00547=-2683,95384,47787,-2046,-1960,910
C00548=2683,95384,47787,2046,1960,-910
C00549=5366,95384,47787,4091,3921,-1819
C00550=8048,95384,47787,6137,5881,-2729
C00551=0,95384,55751,0,0,0
C00552=-8048,95384,55751,-6137,-5881,2729
C00553=-5366,95384,55751,-4091,-3921,1819
C00554=-2683,95384,55751,-2046,-1960,910
C00555=2683,95384,55751,2046,1960,-910
C00556=5366,95384,55751,4091,3921,-1819
C00557=8048,95384,55751,6137,5881,-2729
C00558=0,95384,63716,0,0,0
C00559=-8048,95384,63716,-6137,-5881,2729
C00560=-5366,95384,63716,-4091,-3921,1819
C00561=-2683,95384,63716,-2046,-1960,910
C00562=2683,95384,63716,2046,1960,-910
C00563=5366,95384,63716,4091,3921,-1819
C00564=8048,95384,63716,6137,5881,-2729
C00565=0,95384,71680,0,0,0
C00566=-8048,95384,71680,-6137,-5881,2729
C00567=-5366,95384,71680,-4091,-3921,1819
C00568=-2683,95384,71680,-2046,-1960,910
C00569=2683,95384,71680,2046,1960,-910
C00570=5366,95384,71680,4091,3921,-1819
C00571=8048,95384,71680,6137,5881,-2729
C00572=0,95384,79644,0,0,0
C00573=-8048,95384,79644,-6137,-5881,2729
C00574=-5366,95384,79644,-4091,-3921,1819
C00575=-2683,95384,79644,-2046,-1960,910
C00576=2683,95384,79644,2046,1960,-910
C00577=5366,95384,79644,4091,3921,-1819
C00578=8048,95384,79644,6137,5881,-2729
//INST
///DATE 2023/05/24 14:21
///ATTR SC,RW
///GROUP1 RB1
NOP
MOVJ C00000 VJ=5.0 PL=0
TIMER T=0.50
MOVJ C00001 VJ=5.0 PL=0
TIMER T=0.50
MOVJ C00002 VJ=5.0 PL=0
TIMER T=0.50
MOVJ C00003 VJ=5.0 PL=0
TIMER T=0.50
MOVJ C00004 VJ=5.0 PL=0
TIMER T=0.50
MOVJ C00005 VJ=5.0 PL=0
TIMER T=0.50
MOVJ C00006 VJ=5.0 PL=0
TIMER T=0.50
MOVJ C00007 VJ=5.0 PL=0
TIMER T=0.50
MOVJ C00008 VJ=5.0 PL=0
TIMER T=0.50
MOVJ C00009 VJ=5.0 PL=0
TIMER T=0.50
MOVJ C00010 VJ=5.0 PL=0
TIMER T=0.50
MOVJ C00011 VJ=5.0 PL=0
TIMER T=0.50
MOVJ C00012 VJ=5.0 PL=0
TIMER T=0.50
MOVJ C00013 VJ=5.0 PL=0
TIMER T=0.50
MOVJ C00014 VJ=5.0 PL=0
TIMER T=0.50
MOVJ C00015 VJ=5.0 PL=0
TIMER T=0.50
MOVJ C00016 VJ=5.0 PL=0
TIMER T=0.50
MOVJ C00017 VJ=5.0 PL=0
TIMER T=0.50
MOVJ C00018 VJ=5.0 PL=0
TIMER T=0.50
MOVJ C00019 VJ=5.0 PL=0
TIMER T=0.50
MOVJ C00020 VJ=5.0 PL=0
TIMER T=0.50
MOVJ C00021 VJ=5.0 PL=0
TIMER T=0.50
MOVJ C00022 VJ=5.0 PL=0
TIMER T=0.50
MOVJ C00023 VJ=5.0 PL=0
TIMER T=0.50
MOVJ C00024 VJ=5.0 PL=0
TIMER T=0.50
MOVJ C00025 VJ=5.0 PL=0
TIMER T=0.50
MOVJ C00026 VJ=5.0 PL=0
TIMER T=0.50
MOVJ C00027 VJ=5.0 PL=0
TIMER T=0.50
MOVJ C00028 VJ=5.0 PL=0
TIMER T=0.50
MOVJ C00029 VJ=5.0 PL=0
TIMER T=0.50
MOVJ C00030 VJ=5.0 PL=0
TIMER T=0.50
MOVJ C00031 VJ=5.0 PL=0
TIMER T=0.50
MOVJ C00032 VJ=5.0 PL=0
TIMER T=0.50
MOVJ C00033 VJ=5.0 PL=0
TIMER T=0.50
MOVJ C00034 VJ=5.0 PL=0
TIMER T=0.50
MOVJ C00035 VJ=5.0 PL=0
TIMER T=0.50
MOVJ C00036 VJ=5.0 PL=0
TIMER T=0.50
MOVJ C00037 VJ=5.0 PL=0
TIMER T=0.50
MOVJ C00038 VJ=5.0 PL=0
TIMER T=0.50
MOVJ C00039 VJ=5.0 PL=0
TIMER T=0.50
MOVJ C00040 VJ=5.0 PL=0
TIMER T=0.50
MOVJ C00041 VJ=5.0 PL=0
TIMER T=0.50
MOVJ C00042 VJ=5.0 PL=0
TIMER T=0.50
MOVJ C00043 VJ=5.0 PL=0
TIMER T=0.50
MOVJ C00044 VJ=5.0 PL=0
TIMER T=0.50
MOVJ C00045 VJ=5.0 PL=0
TIMER T=0.50
MOVJ C00046 VJ=5.0 PL=0
TIMER T=0.50
MOVJ C00047 VJ=5.0 PL=0
TIMER T=0.50
MOVJ C00048 VJ=5.0 PL=0
TIMER T=0.50
MOVJ C00049 VJ=5.0 PL=0
TIMER T=0.50
MOVJ C00050 VJ=5.0 PL=0
TIMER T=0.50
MOVJ C00051 VJ=5.0 PL=0
TIMER T=0.50
MOVJ C00052 VJ=5.0 PL=0
TIMER T=0.50
MOVJ C00053 VJ=5.0 PL=0
TIMER T=0.50
MOVJ C00054 VJ=5.0 PL=0
TIMER T=0.50
MOVJ C00055 VJ=5.0 PL=0
TIMER T=0.50
MOVJ C00056 VJ=5.0 PL=0
TIMER T=0.50
MOVJ C00057 VJ=5.0 PL=0
TIMER T=0.50
MOVJ C00058 VJ=5.0 PL=0
TIMER T=0.50
MOVJ C00059 VJ=5.0 PL=0
TIMER T=0.50
MOVJ C00060 VJ=5.0 PL=0
TIMER T=0.50
MOVJ C00061 VJ=5.0 PL=0
TIMER T=0.50
MOVJ C00062 VJ=5.0 PL=0
TIMER T=0.50
MOVJ C00063 VJ=5.0 PL=0
TIMER T=0.50
MOVJ C00064 VJ=5.0 PL=0
TIMER T=0.50
MOVJ C00065 VJ=5.0 PL=0
TIMER T=0.50
MOVJ C00066 VJ=5.0 PL=0
TIMER T=0.50
MOVJ C00067 VJ=5.0 PL=0
TIMER T=0.50
MOVJ C00068 VJ=5.0 PL=0
TIMER T=0.50
MOVJ C00069 VJ=5.0 PL=0
TIMER T=0.50
MOVJ C00070 VJ=5.0 PL=0
TIMER T=0.50
MOVJ C00071 VJ=5.0 PL=0
TIMER T=0.50
MOVJ C00072 VJ=5.0 PL=0
TIMER T=0.50
MOVJ C00073 VJ=5.0 PL=0
TIMER T=0.50
MOVJ C00074 VJ=5.0 PL=0
TIMER T=0.50
MOVJ C00075 VJ=5.0 PL=0
TIMER T=0.50
MOVJ C00076 VJ=5.0 PL=0
TIMER T=0.50
MOVJ C00077 VJ=5.0 PL=0
TIMER T=0.50
MOVJ C00078 VJ=5.0 PL=0
TIMER T=0.50
MOVJ C00079 VJ=5.0 PL=0
TIMER T=0.50
MOVJ C00080 VJ=5.0 PL=0
TIMER T=0.50
MOVJ C00081 VJ=5.0 PL=0
TIMER T=0.50
MOVJ C00082 VJ=5.0 PL=0
TIMER T=0.50
MOVJ C00083 VJ=5.0 PL=0
TIMER T=0.50
MOVJ C00084 VJ=5.0 PL=0
TIMER T=0.50
MOVJ C00085 VJ=5.0 PL=0
TIMER T=0.50
MOVJ C00086 VJ=5.0 PL=0
TIMER T=0.50
MOVJ C00087 VJ=5.0 PL=0
TIMER T=0.50
MOVJ C00088 VJ=5.0 PL=0
TIMER T=0.50
MOVJ C00089 VJ=5.0 PL=0
TIMER T=0.50
MOVJ C00090 VJ=5.0 PL=0
TIMER T=0.50
MOVJ C00091 VJ=5.0 PL=0
TIMER T=0.50
MOVJ C00092 VJ=5.0 PL=0
TIMER T=0.50
MOVJ C00093 VJ=5.0 PL=0
TIMER T=0.50
MOVJ C00094 VJ=5.0 PL=0
TIMER T=0.50
MOVJ C00095 VJ=5.0 PL=0
TIMER T=0.50
MOVJ C00096 VJ=5.0 PL=0
TIMER T=0.50
MOVJ C00097 VJ=5.0 PL=0
TIMER T=0.50
MOVJ C00098 VJ=5.0 PL=0
TIMER T=0.50
MOVJ C00099 VJ=5.0 PL=0
TIMER T=0.50
MOVJ C00100 VJ=5.0 PL=0
TIMER T=0.50
MOVJ C00101 VJ=5.0 PL=0
TIMER T=0.50
MOVJ C00102 VJ=5.0 PL=0
TIMER T=0.50
MOVJ C00103 VJ=5.0 PL=0
TIMER T=0.50
MOVJ C00104 VJ=5.0 PL=0
TIMER T=0.50
MOVJ C00105 VJ=5.0 PL=0
TIMER T=0.50
MOVJ C00106 VJ=5.0 PL=0
TIMER T=0.50
MOVJ C00107 VJ=5.0 PL=0
TIMER T=0.50
MOVJ C00108 VJ=5.0 PL=0
TIMER T=0.50
MOVJ C00109 VJ=5.0 PL=0
TIMER T=0.50
MOVJ C00110 VJ=5.0 PL=0
TIMER T=0.50
MOVJ C00111 VJ=5.0 PL=0
TIMER T=0.50
MOVJ C00112 VJ=5.0 PL=0
TIMER T=0.50
MOVJ C00113 VJ=5.0 PL=0
TIMER T=0.50
MOVJ C00114 VJ=5.0 PL=0
TIMER T=0.50
MOVJ C00115 VJ=5.0 PL=0
TIMER T=0.50
MOVJ C00116 VJ=5.0 PL=0
TIMER T=0.50
MOVJ C00117 VJ=5.0 PL=0
TIMER T=0.50
MOVJ C00118 VJ=5.0 PL=0
TIMER T=0.50
MOVJ C00119 VJ=5.0 PL=0
TIMER T=0.50
MOVJ C00120 VJ=5.0 PL=0
TIMER T=0.50
MOVJ C00121 VJ=5.0 PL=0
TIMER T=0.50
MOVJ C00122 VJ=5.0 PL=0
TIMER T=0.50
MOVJ C00123 VJ=5.0 PL=0
TIMER T=0.50
MOVJ C00124 VJ=5.0 PL=0
TIMER T=0.50
MOVJ C00125 VJ=5.0 PL=0
TIMER T=0.50
MOVJ C00126 VJ=5.0 PL=0
TIMER T=0.50
MOVJ C00127 VJ=5.0 PL=0
TIMER T=0.50
MOVJ C00128 VJ=5.0 PL=0
TIMER T=0.50
MOVJ C00129 VJ=5.0 PL=0
TIMER T=0.50
MOVJ C00130 VJ=5.0 PL=0
TIMER T=0.50
MOVJ C00131 VJ=5.0 PL=0
TIMER T=0.50
MOVJ C00132 VJ=5.0 PL=0
TIMER T=0.50
MOVJ C00133 VJ=5.0 PL=0
TIMER T=0.50
MOVJ C00134 VJ=5.0 PL=0
TIMER T=0.50
MOVJ C00135 VJ=5.0 PL=0
TIMER T=0.50
MOVJ C00136 VJ=5.0 PL=0
TIMER T=0.50
MOVJ C00137 VJ=5.0 PL=0
TIMER T=0.50
MOVJ C00138 VJ=5.0 PL=0
TIMER T=0.50
MOVJ C00139 VJ=5.0 PL=0
TIMER T=0.50
MOVJ C00140 VJ=5.0 PL=0
TIMER T=0.50
MOVJ C00141 VJ=5.0 PL=0
TIMER T=0.50
MOVJ C00142 VJ=5.0 PL=0
TIMER T=0.50
MOVJ C00143 VJ=5.0 PL=0
TIMER T=0.50
MOVJ C00144 VJ=5.0 PL=0
TIMER T=0.50
MOVJ C00145 VJ=5.0 PL=0
TIMER T=0.50
MOVJ C00146 VJ=5.0 PL=0
TIMER T=0.50
MOVJ C00147 VJ=5.0 PL=0
TIMER T=0.50
MOVJ C00148 VJ=5.0 PL=0
TIMER T=0.50
MOVJ C00149 VJ=5.0 PL=0
TIMER T=0.50
MOVJ C00150 VJ=5.0 PL=0
TIMER T=0.50
MOVJ C00151 VJ=5.0 PL=0
TIMER T=0.50
MOVJ C00152 VJ=5.0 PL=0
TIMER T=0.50
MOVJ C00153 VJ=5.0 PL=0
TIMER T=0.50
MOVJ C00154 VJ=5.0 PL=0
TIMER T=0.50
MOVJ C00155 VJ=5.0 PL=0
TIMER T=0.50
MOVJ C00156 VJ=5.0 PL=0
TIMER T=0.50
MOVJ C00157 VJ=5.0 PL=0
TIMER T=0.50
MOVJ C00158 VJ=5.0 PL=0
TIMER T=0.50
MOVJ C00159 VJ=5.0 PL=0
TIMER T=0.50
MOVJ C00160 VJ=5.0 PL=0
TIMER T=0.50
MOVJ C00161 VJ=5.0 PL=0
TIMER T=0.50
MOVJ C00162 VJ=5.0 PL=0
TIMER T=0.50
MOVJ C00163 VJ=5.0 PL=0
TIMER T=0.50
MOVJ C00164 VJ=5.0 PL=0
TIMER T=0.50
MOVJ C00165 VJ=5.0 PL=0
TIMER T=0.50
MOVJ C00166 VJ=5.0 PL=0
TIMER T=0.50
MOVJ C00167 VJ=5.0 PL=0
TIMER T=0.50
MOVJ C00168 VJ=5.0 PL=0
TIMER T=0.50
MOVJ C00169 VJ=5.0 PL=0
TIMER T=0.50
MOVJ C00170 VJ=5.0 PL=0
TIMER T=0.50
MOVJ C00171 VJ=5.0 PL=0
TIMER T=0.50
MOVJ C00172 VJ=5.0 PL=0
TIMER T=0.50
MOVJ C00173 VJ=5.0 PL=0
TIMER T=0.50
MOVJ C00174 VJ=5.0 PL=0
TIMER T=0.50
MOVJ C00175 VJ=5.0 PL=0
TIMER T=0.50
MOVJ C00176 VJ=5.0 PL=0
TIMER T=0.50
MOVJ C00177 VJ=5.0 PL=0
TIMER T=0.50
MOVJ C00178 VJ=5.0 PL=0
TIMER T=0.50
MOVJ C00179 VJ=5.0 PL=0
TIMER T=0.50
MOVJ C00180 VJ=5.0 PL=0
TIMER T=0.50
MOVJ C00181 VJ=5.0 PL=0
TIMER T=0.50
MOVJ C00182 VJ=5.0 PL=0
TIMER T=0.50
MOVJ C00183 VJ=5.0 PL=0
TIMER T=0.50
MOVJ C00184 VJ=5.0 PL=0
TIMER T=0.50
MOVJ C00185 VJ=5.0 PL=0
TIMER T=0.50
MOVJ C00186 VJ=5.0 PL=0
TIMER T=0.50
MOVJ C00187 VJ=5.0 PL=0
TIMER T=0.50
MOVJ C00188 VJ=5.0 PL=0
TIMER T=0.50
MOVJ C00189 VJ=5.0 PL=0
TIMER T=0.50
MOVJ C00190 VJ=5.0 PL=0
TIMER T=0.50
MOVJ C00191 VJ=5.0 PL=0
TIMER T=0.50
MOVJ C00192 VJ=5.0 PL=0
TIMER T=0.50
MOVJ C00193 VJ=5.0 PL=0
TIMER T=0.50
MOVJ C00194 VJ=5.0 PL=0
TIMER T=0.50
MOVJ C00195 VJ=5.0 PL=0
TIMER T=0.50
MOVJ C00196 VJ=5.0 PL=0
TIMER T=0.50
MOVJ C00197 VJ=5.0 PL=0
TIMER T=0.50
MOVJ C00198 VJ=5.0 PL=0
TIMER T=0.50
MOVJ C00199 VJ=5.0 PL=0
TIMER T=0.50
MOVJ C00200 VJ=5.0 PL=0
TIMER T=0.50
MOVJ C00201 VJ=5.0 PL=0
TIMER T=0.50
MOVJ C00202 VJ=5.0 PL=0
TIMER T=0.50
MOVJ C00203 VJ=5.0 PL=0
TIMER T=0.50
MOVJ C00204 VJ=5.0 PL=0
TIMER T=0.50
MOVJ C00205 VJ=5.0 PL=0
TIMER T=0.50
MOVJ C00206 VJ=5.0 PL=0
TIMER T=0.50
MOVJ C00207 VJ=5.0 PL=0
TIMER T=0.50
MOVJ C00208 VJ=5.0 PL=0
TIMER T=0.50
MOVJ C00209 VJ=5.0 PL=0
TIMER T=0.50
MOVJ C00210 VJ=5.0 PL=0
TIMER T=0.50
MOVJ C00211 VJ=5.0 PL=0
TIMER T=0.50
MOVJ C00212 VJ=5.0 PL=0
TIMER T=0.50
MOVJ C00213 VJ=5.0 PL=0
TIMER T=0.50
MOVJ C00214 VJ=5.0 PL=0
TIMER T=0.50
MOVJ C00215 VJ=5.0 PL=0
TIMER T=0.50
MOVJ C00216 VJ=5.0 PL=0
TIMER T=0.50
MOVJ C00217 VJ=5.0 PL=0
TIMER T=0.50
MOVJ C00218 VJ=5.0 PL=0
TIMER T=0.50
MOVJ C00219 VJ=5.0 PL=0
TIMER T=0.50
MOVJ C00220 VJ=5.0 PL=0
TIMER T=0.50
MOVJ C00221 VJ=5.0 PL=0
TIMER T=0.50
MOVJ C00222 VJ=5.0 PL=0
TIMER T=0.50
MOVJ C00223 VJ=5.0 PL=0
TIMER T=0.50
MOVJ C00224 VJ=5.0 PL=0
TIMER T=0.50
MOVJ C00225 VJ=5.0 PL=0
TIMER T=0.50
MOVJ C00226 VJ=5.0 PL=0
TIMER T=0.50
MOVJ C00227 VJ=5.0 PL=0
TIMER T=0.50
MOVJ C00228 VJ=5.0 PL=0
TIMER T=0.50
MOVJ C00229 VJ=5.0 PL=0
TIMER T=0.50
MOVJ C00230 VJ=5.0 PL=0
TIMER T=0.50
MOVJ C00231 VJ=5.0 PL=0
TIMER T=0.50
MOVJ C00232 VJ=5.0 PL=0
TIMER T=0.50
MOVJ C00233 VJ=5.0 PL=0
TIMER T=0.50
MOVJ C00234 VJ=5.0 PL=0
TIMER T=0.50
MOVJ C00235 VJ=5.0 PL=0
TIMER T=0.50
MOVJ C00236 VJ=5.0 PL=0
TIMER T=0.50
MOVJ C00237 VJ=5.0 PL=0
TIMER T=0.50
MOVJ C00238 VJ=5.0 PL=0
TIMER T=0.50
MOVJ C00239 VJ=5.0 PL=0
TIMER T=0.50
MOVJ C00240 VJ=5.0 PL=0
TIMER T=0.50
MOVJ C00241 VJ=5.0 PL=0
TIMER T=0.50
MOVJ C00242 VJ=5.0 PL=0
TIMER T=0.50
MOVJ C00243 VJ=5.0 PL=0
TIMER T=0.50
MOVJ C00244 VJ=5.0 PL=0
TIMER T=0.50
MOVJ C00245 VJ=5.0 PL=0
TIMER T=0.50
MOVJ C00246 VJ=5.0 PL=0
TIMER T=0.50
MOVJ C00247 VJ=5.0 PL=0
TIMER T=0.50
MOVJ C00248 VJ=5.0 PL=0
TIMER T=0.50
MOVJ C00249 VJ=5.0 PL=0
TIMER T=0.50
MOVJ C00250 VJ=5.0 PL=0
TIMER T=0.50
MOVJ C00251 VJ=5.0 PL=0
TIMER T=0.50
MOVJ C00252 VJ=5.0 PL=0
TIMER T=0.50
MOVJ C00253 VJ=5.0 PL=0
TIMER T=0.50
MOVJ C00254 VJ=5.0 PL=0
TIMER T=0.50
MOVJ C00255 VJ=5.0 PL=0
TIMER T=0.50
MOVJ C00256 VJ=5.0 PL=0
TIMER T=0.50
MOVJ C00257 VJ=5.0 PL=0
TIMER T=0.50
MOVJ C00258 VJ=5.0 PL=0
TIMER T=0.50
MOVJ C00259 VJ=5.0 PL=0
TIMER T=0.50
MOVJ C00260 VJ=5.0 PL=0
TIMER T=0.50
MOVJ C00261 VJ=5.0 PL=0
TIMER T=0.50
MOVJ C00262 VJ=5.0 PL=0
TIMER T=0.50
MOVJ C00263 VJ=5.0 PL=0
TIMER T=0.50
MOVJ C00264 VJ=5.0 PL=0
TIMER T=0.50
MOVJ C00265 VJ=5.0 PL=0
TIMER T=0.50
MOVJ C00266 VJ=5.0 PL=0
TIMER T=0.50
MOVJ C00267 VJ=5.0 PL=0
TIMER T=0.50
MOVJ C00268 VJ=5.0 PL=0
TIMER T=0.50
MOVJ C00269 VJ=5.0 PL=0
TIMER T=0.50
MOVJ C00270 VJ=5.0 PL=0
TIMER T=0.50
MOVJ C00271 VJ=5.0 PL=0
TIMER T=0.50
MOVJ C00272 VJ=5.0 PL=0
TIMER T=0.50
MOVJ C00273 VJ=5.0 PL=0
TIMER T=0.50
MOVJ C00274 VJ=5.0 PL=0
TIMER T=0.50
MOVJ C00275 VJ=5.0 PL=0
TIMER T=0.50
MOVJ C00276 VJ=5.0 PL=0
TIMER T=0.50
MOVJ C00277 VJ=5.0 PL=0
TIMER T=0.50
MOVJ C00278 VJ=5.0 PL=0
TIMER T=0.50
MOVJ C00279 VJ=5.0 PL=0
TIMER T=0.50
MOVJ C00280 VJ=5.0 PL=0
TIMER T=0.50
MOVJ C00281 VJ=5.0 PL=0
TIMER T=0.50
MOVJ C00282 VJ=5.0 PL=0
TIMER T=0.50
MOVJ C00283 VJ=5.0 PL=0
TIMER T=0.50
MOVJ C00284 VJ=5.0 PL=0
TIMER T=0.50
MOVJ C00285 VJ=5.0 PL=0
TIMER T=0.50
MOVJ C00286 VJ=5.0 PL=0
TIMER T=0.50
MOVJ C00287 VJ=5.0 PL=0
TIMER T=0.50
MOVJ C00288 VJ=5.0 PL=0
TIMER T=0.50
MOVJ C00289 VJ=5.0 PL=0
TIMER T=0.50
MOVJ C00290 VJ=5.0 PL=0
TIMER T=0.50
MOVJ C00291 VJ=5.0 PL=0
TIMER T=0.50
MOVJ C00292 VJ=5.0 PL=0
TIMER T=0.50
MOVJ C00293 VJ=5.0 PL=0
TIMER T=0.50
MOVJ C00294 VJ=5.0 PL=0
TIMER T=0.50
MOVJ C00295 VJ=5.0 PL=0
TIMER T=0.50
MOVJ C00296 VJ=5.0 PL=0
TIMER T=0.50
MOVJ C00297 VJ=5.0 PL=0
TIMER T=0.50
MOVJ C00298 VJ=5.0 PL=0
TIMER T=0.50
MOVJ C00299 VJ=5.0 PL=0
TIMER T=0.50
MOVJ C00300 VJ=5.0 PL=0
TIMER T=0.50
MOVJ C00301 VJ=5.0 PL=0
TIMER T=0.50
MOVJ C00302 VJ=5.0 PL=0
TIMER T=0.50
MOVJ C00303 VJ=5.0 PL=0
TIMER T=0.50
MOVJ C00304 VJ=5.0 PL=0
TIMER T=0.50
MOVJ C00305 VJ=5.0 PL=0
TIMER T=0.50
MOVJ C00306 VJ=5.0 PL=0
TIMER T=0.50
MOVJ C00307 VJ=5.0 PL=0
TIMER T=0.50
MOVJ C00308 VJ=5.0 PL=0
TIMER T=0.50
MOVJ C00309 VJ=5.0 PL=0
TIMER T=0.50
MOVJ C00310 VJ=5.0 PL=0
TIMER T=0.50
MOVJ C00311 VJ=5.0 PL=0
TIMER T=0.50
MOVJ C00312 VJ=5.0 PL=0
TIMER T=0.50
MOVJ C00313 VJ=5.0 PL=0
TIMER T=0.50
MOVJ C00314 VJ=5.0 PL=0
TIMER T=0.50
MOVJ C00315 VJ=5.0 PL=0
TIMER T=0.50
MOVJ C00316 VJ=5.0 PL=0
TIMER T=0.50
MOVJ C00317 VJ=5.0 PL=0
TIMER T=0.50
MOVJ C00318 VJ=5.0 PL=0
TIMER T=0.50
MOVJ C00319 VJ=5.0 PL=0
TIMER T=0.50
MOVJ C00320 VJ=5.0 PL=0
TIMER T=0.50
MOVJ C00321 VJ=5.0 PL=0
TIMER T=0.50
MOVJ C00322 VJ=5.0 PL=0
TIMER T=0.50
MOVJ C00323 VJ=5.0 PL=0
TIMER T=0.50
MOVJ C00324 VJ=5.0 PL=0
TIMER T=0.50
MOVJ C00325 VJ=5.0 PL=0
TIMER T=0.50
MOVJ C00326 VJ=5.0 PL=0
TIMER T=0.50
MOVJ C00327 VJ=5.0 PL=0
TIMER T=0.50
MOVJ C00328 VJ=5.0 PL=0
TIMER T=0.50
MOVJ C00329 VJ=5.0 PL=0
TIMER T=0.50
MOVJ C00330 VJ=5.0 PL=0
TIMER T=0.50
MOVJ C00331 VJ=5.0 PL=0
TIMER T=0.50
MOVJ C00332 VJ=5.0 PL=0
TIMER T=0.50
MOVJ C00333 VJ=5.0 PL=0
TIMER T=0.50
MOVJ C00334 VJ=5.0 PL=0
TIMER T=0.50
MOVJ C00335 VJ=5.0 PL=0
TIMER T=0.50
MOVJ C00336 VJ=5.0 PL=0
TIMER T=0.50
MOVJ C00337 VJ=5.0 PL=0
TIMER T=0.50
MOVJ C00338 VJ=5.0 PL=0
TIMER T=0.50
MOVJ C00339 VJ=5.0 PL=0
TIMER T=0.50
MOVJ C00340 VJ=5.0 PL=0
TIMER T=0.50
MOVJ C00341 VJ=5.0 PL=0
TIMER T=0.50
MOVJ C00342 VJ=5.0 PL=0
TIMER T=0.50
MOVJ C00343 VJ=5.0 PL=0
TIMER T=0.50
MOVJ C00344 VJ=5.0 PL=0
TIMER T=0.50
MOVJ C00345 VJ=5.0 PL=0
TIMER T=0.50
MOVJ C00346 VJ=5.0 PL=0
TIMER T=0.50
MOVJ C00347 VJ=5.0 PL=0
TIMER T=0.50
MOVJ C00348 VJ=5.0 PL=0
TIMER T=0.50
MOVJ C00349 VJ=5.0 PL=0
TIMER T=0.50
MOVJ C00350 VJ=5.0 PL=0
TIMER T=0.50
MOVJ C00351 VJ=5.0 PL=0
TIMER T=0.50
MOVJ C00352 VJ=5.0 PL=0
TIMER T=0.50
MOVJ C00353 VJ=5.0 PL=0
TIMER T=0.50
MOVJ C00354 VJ=5.0 PL=0
TIMER T=0.50
MOVJ C00355 VJ=5.0 PL=0
TIMER T=0.50
MOVJ C00356 VJ=5.0 PL=0
TIMER T=0.50
MOVJ C00357 VJ=5.0 PL=0
TIMER T=0.50
MOVJ C00358 VJ=5.0 PL=0
TIMER T=0.50
MOVJ C00359 VJ=5.0 PL=0
TIMER T=0.50
MOVJ C00360 VJ=5.0 PL=0
TIMER T=0.50
MOVJ C00361 VJ=5.0 PL=0
TIMER T=0.50
MOVJ C00362 VJ=5.0 PL=0
TIMER T=0.50
MOVJ C00363 VJ=5.0 PL=0
TIMER T=0.50
MOVJ C00364 VJ=5.0 PL=0
TIMER T=0.50
MOVJ C00365 VJ=5.0 PL=0
TIMER T=0.50
MOVJ C00366 VJ=5.0 PL=0
TIMER T=0.50
MOVJ C00367 VJ=5.0 PL=0
TIMER T=0.50
MOVJ C00368 VJ=5.0 PL=0
TIMER T=0.50
MOVJ C00369 VJ=5.0 PL=0
TIMER T=0.50
MOVJ C00370 VJ=5.0 PL=0
TIMER T=0.50
MOVJ C00371 VJ=5.0 PL=0
TIMER T=0.50
MOVJ C00372 VJ=5.0 PL=0
TIMER T=0.50
MOVJ C00373 VJ=5.0 PL=0
TIMER T=0.50
MOVJ C00374 VJ=5.0 PL=0
TIMER T=0.50
MOVJ C00375 VJ=5.0 PL=0
TIMER T=0.50
MOVJ C00376 VJ=5.0 PL=0
TIMER T=0.50
MOVJ C00377 VJ=5.0 PL=0
TIMER T=0.50
MOVJ C00378 VJ=5.0 PL=0
TIMER T=0.50
MOVJ C00379 VJ=5.0 PL=0
TIMER T=0.50
MOVJ C00380 VJ=5.0 PL=0
TIMER T=0.50
MOVJ C00381 VJ=5.0 PL=0
TIMER T=0.50
MOVJ C00382 VJ=5.0 PL=0
TIMER T=0.50
MOVJ C00383 VJ=5.0 PL=0
TIMER T=0.50
MOVJ C00384 VJ=5.0 PL=0
TIMER T=0.50
MOVJ C00385 VJ=5.0 PL=0
TIMER T=0.50
MOVJ C00386 VJ=5.0 PL=0
TIMER T=0.50
MOVJ C00387 VJ=5.0 PL=0
TIMER T=0.50
MOVJ C00388 VJ=5.0 PL=0
TIMER T=0.50
MOVJ C00389 VJ=5.0 PL=0
TIMER T=0.50
MOVJ C00390 VJ=5.0 PL=0
TIMER T=0.50
MOVJ C00391 VJ=5.0 PL=0
TIMER T=0.50
MOVJ C00392 VJ=5.0 PL=0
TIMER T=0.50
MOVJ C00393 VJ=5.0 PL=0
TIMER T=0.50
MOVJ C00394 VJ=5.0 PL=0
TIMER T=0.50
MOVJ C00395 VJ=5.0 PL=0
TIMER T=0.50
MOVJ C00396 VJ=5.0 PL=0
TIMER T=0.50
MOVJ C00397 VJ=5.0 PL=0
TIMER T=0.50
MOVJ C00398 VJ=5.0 PL=0
TIMER T=0.50
MOVJ C00399 VJ=5.0 PL=0
TIMER T=0.50
MOVJ C00400 VJ=5.0 PL=0
TIMER T=0.50
MOVJ C00401 VJ=5.0 PL=0
TIMER T=0.50
MOVJ C00402 VJ=5.0 PL=0
TIMER T=0.50
MOVJ C00403 VJ=5.0 PL=0
TIMER T=0.50
MOVJ C00404 VJ=5.0 PL=0
TIMER T=0.50
MOVJ C00405 VJ=5.0 PL=0
TIMER T=0.50
MOVJ C00406 VJ=5.0 PL=0
TIMER T=0.50
MOVJ C00407 VJ=5.0 PL=0
TIMER T=0.50
MOVJ C00408 VJ=5.0 PL=0
TIMER T=0.50
MOVJ C00409 VJ=5.0 PL=0
TIMER T=0.50
MOVJ C00410 VJ=5.0 PL=0
TIMER T=0.50
MOVJ C00411 VJ=5.0 PL=0
TIMER T=0.50
MOVJ C00412 VJ=5.0 PL=0
TIMER T=0.50
MOVJ C00413 VJ=5.0 PL=0
TIMER T=0.50
MOVJ C00414 VJ=5.0 PL=0
TIMER T=0.50
MOVJ C00415 VJ=5.0 PL=0
TIMER T=0.50
MOVJ C00416 VJ=5.0 PL=0
TIMER T=0.50
MOVJ C00417 VJ=5.0 PL=0
TIMER T=0.50
MOVJ C00418 VJ=5.0 PL=0
TIMER T=0.50
MOVJ C00419 VJ=5.0 PL=0
TIMER T=0.50
MOVJ C00420 VJ=5.0 PL=0
TIMER T=0.50
MOVJ C00421 VJ=5.0 PL=0
TIMER T=0.50
MOVJ C00422 VJ=5.0 PL=0
TIMER T=0.50
MOVJ C00423 VJ=5.0 PL=0
TIMER T=0.50
MOVJ C00424 VJ=5.0 PL=0
TIMER T=0.50
MOVJ C00425 VJ=5.0 PL=0
TIMER T=0.50
MOVJ C00426 VJ=5.0 PL=0
TIMER T=0.50
MOVJ C00427 VJ=5.0 PL=0
TIMER T=0.50
MOVJ C00428 VJ=5.0 PL=0
TIMER T=0.50
MOVJ C00429 VJ=5.0 PL=0
TIMER T=0.50
MOVJ C00430 VJ=5.0 PL=0
TIMER T=0.50
MOVJ C00431 VJ=5.0 PL=0
TIMER T=0.50
MOVJ C00432 VJ=5.0 PL=0
TIMER T=0.50
MOVJ C00433 VJ=5.0 PL=0
TIMER T=0.50
MOVJ C00434 VJ=5.0 PL=0
TIMER T=0.50
MOVJ C00435 VJ=5.0 PL=0
TIMER T=0.50
MOVJ C00436 VJ=5.0 PL=0
TIMER T=0.50
MOVJ C00437 VJ=5.0 PL=0
TIMER T=0.50
MOVJ C00438 VJ=5.0 PL=0
TIMER T=0.50
MOVJ C00439 VJ=5.0 PL=0
TIMER T=0.50
MOVJ C00440 VJ=5.0 PL=0
TIMER T=0.50
MOVJ C00441 VJ=5.0 PL=0
TIMER T=0.50
MOVJ C00442 VJ=5.0 PL=0
TIMER T=0.50
MOVJ C00443 VJ=5.0 PL=0
TIMER T=0.50
MOVJ C00444 VJ=5.0 PL=0
TIMER T=0.50
MOVJ C00445 VJ=5.0 PL=0
TIMER T=0.50
MOVJ C00446 VJ=5.0 PL=0
TIMER T=0.50
MOVJ C00447 VJ=5.0 PL=0
TIMER T=0.50
MOVJ C00448 VJ=5.0 PL=0
TIMER T=0.50
MOVJ C00449 VJ=5.0 PL=0
TIMER T=0.50
MOVJ C00450 VJ=5.0 PL=0
TIMER T=0.50
MOVJ C00451 VJ=5.0 PL=0
TIMER T=0.50
MOVJ C00452 VJ=5.0 PL=0
TIMER T=0.50
MOVJ C00453 VJ=5.0 PL=0
TIMER T=0.50
MOVJ C00454 VJ=5.0 PL=0
TIMER T=0.50
MOVJ C00455 VJ=5.0 PL=0
TIMER T=0.50
MOVJ C00456 VJ=5.0 PL=0
TIMER T=0.50
MOVJ C00457 VJ=5.0 PL=0
TIMER T=0.50
MOVJ C00458 VJ=5.0 PL=0
TIMER T=0.50
MOVJ C00459 VJ=5.0 PL=0
TIMER T=0.50
MOVJ C00460 VJ=5.0 PL=0
TIMER T=0.50
MOVJ C00461 VJ=5.0 PL=0
TIMER T=0.50
MOVJ C00462 VJ=5.0 PL=0
TIMER T=0.50
MOVJ C00463 VJ=5.0 PL=0
TIMER T=0.50
MOVJ C00464 VJ=5.0 PL=0
TIMER T=0.50
MOVJ C00465 VJ=5.0 PL=0
TIMER T=0.50
MOVJ C00466 VJ=5.0 PL=0
TIMER T=0.50
MOVJ C00467 VJ=5.0 PL=0
TIMER T=0.50
MOVJ C00468 VJ=5.0 PL=0
TIMER T=0.50
MOVJ C00469 VJ=5.0 PL=0
TIMER T=0.50
MOVJ C00470 VJ=5.0 PL=0
TIMER T=0.50
MOVJ C00471 VJ=5.0 PL=0
TIMER T=0.50
MOVJ C00472 VJ=5.0 PL=0
TIMER T=0.50
MOVJ C00473 VJ=5.0 PL=0
TIMER T=0.50
MOVJ C00474 VJ=5.0 PL=0
TIMER T=0.50
MOVJ C00475 VJ=5.0 PL=0
TIMER T=0.50
MOVJ C00476 VJ=5.0 PL=0
TIMER T=0.50
MOVJ C00477 VJ=5.0 PL=0
TIMER T=0.50
MOVJ C00478 VJ=5.0 PL=0
TIMER T=0.50
MOVJ C00479 VJ=5.0 PL=0
TIMER T=0.50
MOVJ C00480 VJ=5.0 PL=0
TIMER T=0.50
MOVJ C00481 VJ=5.0 PL=0
TIMER T=0.50
MOVJ C00482 VJ=5.0 PL=0
TIMER T=0.50
MOVJ C00483 VJ=5.0 PL=0
TIMER T=0.50
MOVJ C00484 VJ=5.0 PL=0
TIMER T=0.50
MOVJ C00485 VJ=5.0 PL=0
TIMER T=0.50
MOVJ C00486 VJ=5.0 PL=0
TIMER T=0.50
MOVJ C00487 VJ=5.0 PL=0
TIMER T=0.50
MOVJ C00488 VJ=5.0 PL=0
TIMER T=0.50
MOVJ C00489 VJ=5.0 PL=0
TIMER T=0.50
MOVJ C00490 VJ=5.0 PL=0
TIMER T=0.50
MOVJ C00491 VJ=5.0 PL=0
TIMER T=0.50
MOVJ C00492 VJ=5.0 PL=0
TIMER T=0.50
MOVJ C00493 VJ=5.0 PL=0
TIMER T=0.50
MOVJ C00494 VJ=5.0 PL=0
TIMER T=0.50
MOVJ C00495 VJ=5.0 PL=0
TIMER T=0.50
MOVJ C00496 VJ=5.0 PL=0
TIMER T=0.50
MOVJ C00497 VJ=5.0 PL=0
TIMER T=0.50
MOVJ C00498 VJ=5.0 PL=0
TIMER T=0.50
MOVJ C00499 VJ=5.0 PL=0
TIMER T=0.50
MOVJ C00500 VJ=5.0 PL=0
TIMER T=0.50
MOVJ C00501 VJ=5.0 PL=0
TIMER T=0.50
MOVJ C00502 VJ=5.0 PL=0
TIMER T=0.50
MOVJ C00503 VJ=5.0 PL=0
TIMER T=0.50
MOVJ C00504 VJ=5.0 PL=0
TIMER T=0.50
MOVJ C00505 VJ=5.0 PL=0
TIMER T=0.50
MOVJ C00506 VJ=5.0 PL=0
TIMER T=0.50
MOVJ C00507 VJ=5.0 PL=0
TIMER T=0.50
MOVJ C00508 VJ=5.0 PL=0
TIMER T=0.50
MOVJ C00509 VJ=5.0 PL=0
TIMER T=0.50
MOVJ C00510 VJ=5.0 PL=0
TIMER T=0.50
MOVJ C00511 VJ=5.0 PL=0
TIMER T=0.50
MOVJ C00512 VJ=5.0 PL=0
TIMER T=0.50
MOVJ C00513 VJ=5.0 PL=0
TIMER T=0.50
MOVJ C00514 VJ=5.0 PL=0
TIMER T=0.50
MOVJ C00515 VJ=5.0 PL=0
TIMER T=0.50
MOVJ C00516 VJ=5.0 PL=0
TIMER T=0.50
MOVJ C00517 VJ=5.0 PL=0
TIMER T=0.50
MOVJ C00518 VJ=5.0 PL=0
TIMER T=0.50
MOVJ C00519 VJ=5.0 PL=0
TIMER T=0.50
MOVJ C00520 VJ=5.0 PL=0
TIMER T=0.50
MOVJ C00521 VJ=5.0 PL=0
TIMER T=0.50
MOVJ C00522 VJ=5.0 PL=0
TIMER T=0.50
MOVJ C00523 VJ=5.0 PL=0
TIMER T=0.50
MOVJ C00524 VJ=5.0 PL=0
TIMER T=0.50
MOVJ C00525 VJ=5.0 PL=0
TIMER T=0.50
MOVJ C00526 VJ=5.0 PL=0
TIMER T=0.50
MOVJ C00527 VJ=5.0 PL=0
TIMER T=0.50
MOVJ C00528 VJ=5.0 PL=0
TIMER T=0.50
MOVJ C00529 VJ=5.0 PL=0
TIMER T=0.50
MOVJ C00530 VJ=5.0 PL=0
TIMER T=0.50
MOVJ C00531 VJ=5.0 PL=0
TIMER T=0.50
MOVJ C00532 VJ=5.0 PL=0
TIMER T=0.50
MOVJ C00533 VJ=5.0 PL=0
TIMER T=0.50
MOVJ C00534 VJ=5.0 PL=0
TIMER T=0.50
MOVJ C00535 VJ=5.0 PL=0
TIMER T=0.50
MOVJ C00536 VJ=5.0 PL=0
TIMER T=0.50
MOVJ C00537 VJ=5.0 PL=0
TIMER T=0.50
MOVJ C00538 VJ=5.0 PL=0
TIMER T=0.50
MOVJ C00539 VJ=5.0 PL=0
TIMER T=0.50
MOVJ C00540 VJ=5.0 PL=0
TIMER T=0.50
MOVJ C00541 VJ=5.0 PL=0
TIMER T=0.50
MOVJ C00542 VJ=5.0 PL=0
TIMER T=0.50
MOVJ C00543 VJ=5.0 PL=0
TIMER T=0.50
MOVJ C00544 VJ=5.0 PL=0
TIMER T=0.50
MOVJ C00545 VJ=5.0 PL=0
TIMER T=0.50
MOVJ C00546 VJ=5.0 PL=0
TIMER T=0.50
MOVJ C00547 VJ=5.0 PL=0
TIMER T=0.50
MOVJ C00548 VJ=5.0 PL=0
TIMER T=0.50
MOVJ C00549 VJ=5.0 PL=0
TIMER T=0.50
MOVJ C00550 VJ=5.0 PL=0
TIMER T=0.50
MOVJ C00551 VJ=5.0 PL=0
TIMER T=0.50
MOVJ C00552 VJ=5.0 PL=0
TIMER T=0.50
MOVJ C00553 VJ=5.0 PL=0
TIMER T=0.50
MOVJ C00554 VJ=5.0 PL=0
TIMER T=0.50
MOVJ C00555 VJ=5.0 PL=0
TIMER T=0.50
MOVJ C00556 VJ=5.0 PL=0
TIMER T=0.50
MOVJ C00557 VJ=5.0 PL=0
TIMER T=0.50
MOVJ C00558 VJ=5.0 PL=0
TIMER T=0.50
MOVJ C00559 VJ=5.0 PL=0
TIMER T=0.50
MOVJ C00560 VJ=5.0 PL=0
TIMER T=0.50
MOVJ C00561 VJ=5.0 PL=0
TIMER T=0.50
MOVJ C00562 VJ=5.0 PL=0
TIMER T=0.50
MOVJ C00563 VJ=5.0 PL=0
TIMER T=0.50
MOVJ C00564 VJ=5.0 PL=0
TIMER T=0.50
MOVJ C00565 VJ=5.0 PL=0
TIMER T=0.50
MOVJ C00566 VJ=5.0 PL=0
TIMER T=0.50
MOVJ C00567 VJ=5.0 PL=0
TIMER T=0.50
MOVJ C00568 VJ=5.0 PL=0
TIMER T=0.50
MOVJ C00569 VJ=5.0 PL=0
TIMER T=0.50
MOVJ C00570 VJ=5.0 PL=0
TIMER T=0.50
MOVJ C00571 VJ=5.0 PL=0
TIMER T=0.50
MOVJ C00572 VJ=5.0 PL=0
TIMER T=0.50
MOVJ C00573 VJ=5.0 PL=0
TIMER T=0.50
MOVJ C00574 VJ=5.0 PL=0
TIMER T=0.50
MOVJ C00575 VJ=5.0 PL=0
TIMER T=0.50
MOVJ C00576 VJ=5.0 PL=0
TIMER T=0.50
MOVJ C00577 VJ=5.0 PL=0
TIMER T=0.50
MOVJ C00578 VJ=5.0 PL=0
TIMER T=0.50
END
