/JOB
//NAME AAA
//POS
///NPOS 497,0,0,0,0,0
///TOOL 12
///POSTYPE PULSE
///PULSE
C00000=0,58514,28444,0,21565,0
C00001=114,58144,27810,18,21440,72
C00002=230,57777,27185,32,21311,145
C00003=346,57415,26569,43,21179,219
C00004=463,57056,25961,51,21044,295
C00005=580,56702,25361,54,20906,372
C00006=699,56351,24769,54,20765,451
C00007=818,56004,24185,50,20621,531
C00008=939,55660,23609,42,20475,612
C00009=1060,55320,23040,30,20325,696
C00010=1182,54983,22479,14,20173,780
C00011=1305,54650,21925,-7,20018,866
C00012=1428,54320,21378,-31,19861,954
C00013=1553,53994,20838,-60,19701,1044
C00014=1678,53671,20305,-93,19538,1135
C00015=1805,53351,19779,-131,19373,1229
C00016=1932,53034,19259,-174,19206,1324
C00017=2060,52720,18746,-221,19036,1420
C00018=2188,52409,18240,-274,18864,1519
C00019=2318,52102,17739,-331,18690,1620
C00020=2449,51797,17245,-394,18514,1723
C00021=2580,51495,16757,-461,18335,1828
C00022=2713,51196,16275,-535,18155,1935
C00023=2846,50901,15798,-614,17972,2045
C00024=2980,50607,15328,-699,17787,2157
C00025=3115,50317,14863,-790,17600,2271
C00026=3251,50030,14404,-888,17412,2388
C00027=3388,49745,13951,-991,17222,2508
C00028=3525,49463,13503,-1102,17029,2630
C00029=3664,49183,13060,-1220,16835,2755
C00030=3803,48907,12623,-1344,16639,2883
C00031=3943,48633,12191,-1477,16442,3015
C00032=4085,48361,11764,-1617,16243,3149
C00033=4227,48092,11342,-1765,16042,3287
C00034=4370,47826,10926,-1921,15839,3429
C00035=4514,47562,10514,-2086,15635,3574
C00036=4658,47301,10107,-2260,15430,3723
C00037=4804,47042,9705,-2444,15223,3876
C00038=4951,46786,9308,-2637,15015,4033
C00039=5098,46532,8916,-2841,14805,4195
C00040=5246,46281,8529,-3056,14595,4361
C00041=5396,46032,8146,-3282,14382,4532
C00042=5546,45786,7767,-3519,14169,4709
C00043=5697,45542,7394,-3769,13955,4891
C00044=5849,45300,7024,-4032,13739,5078
C00045=6001,45061,6660,-4309,13523,5271
C00046=6155,44824,6299,-4599,13305,5471
C00047=6310,44589,5943,-4905,13087,5677
C00048=6465,44357,5591,-5227,12867,5890
C00049=6622,44127,5244,-5565,12647,6111
C00050=6779,43900,4901,-5921,12426,6339
C00051=6937,43675,4562,-6295,12205,6576
C00052=7096,43452,4227,-6689,11983,6821
C00053=7256,43231,3896,-7103,11760,7076
C00054=7417,43013,3569,-7539,11537,7341
C00055=7579,42797,3247,-7999,11314,7615
C00056=7742,42583,2928,-8483,11091,7902
C00057=7905,42372,2613,-8993,10867,8199
C00058=8070,42162,2302,-9530,10643,8510
C00059=8235,41955,1995,-10097,10420,8834
C00060=8401,41751,1692,-10696,10196,9172
C00061=8568,41548,1393,-11328,9973,9525
C00062=8736,41348,1097,-11995,9751,9894
C00063=8905,41150,806,-12701,9529,10281
C00064=9075,40954,518,-13447,9307,10687
C00065=9245,40760,233,-14236,9087,11112
C00066=9417,40569,-47,-15072,8868,11559
C00067=9589,40380,-324,-15957,8651,12029
C00068=9762,40193,-598,-16896,8435,12523
C00069=9936,40008,-868,-17891,8221,13043
C00070=10111,39825,-1134,-18947,8009,13591
C00071=10287,39645,-1397,-20069,7799,14170
C00072=10464,39467,-1656,-21260,7592,14781
C00073=10641,39291,-1912,-22525,7389,15426
C00074=10820,39117,-2164,-23871,7189,16108
C00075=10999,38945,-2413,-25301,6993,16830
C00076=11179,38776,-2658,-26823,6802,17594
C00077=11360,38608,-2901,-28440,6615,18402
C00078=11542,38443,-3139,-30159,6434,19258
C00079=11724,38280,-3375,-31985,6260,20164
C00080=11908,38119,-3607,-33924,6092,21122
C00081=12092,37961,-3836,-35981,5932,22134
C00082=12277,37804,-4062,-38158,5780,23203
C00083=12463,37650,-4284,-40459,5637,24330
C00084=12650,37498,-4503,-42886,5505,25515
C00085=12837,37348,-4719,-45438,5384,26758
C00086=13026,37200,-4932,-48113,5274,28058
C00087=13215,37055,-5142,-50904,5177,29413
C00088=13405,36911,-5348,-53805,5094,30819
C00089=13596,36770,-5552,-56804,5026,32270
C00090=13787,36631,-5752,-59888,4972,33760
C00091=13980,36494,-5949,-63038,4935,35281
C00092=14173,36359,-6143,-66235,4913,36824
C00093=14367,36227,-6334,-69459,4909,38379
C00094=14562,36096,-6522,-72687,4921,39935
C00095=14757,35968,-6708,-75896,4951,41482
C00096=14953,35842,-6890,-79064,4997,43010
C00097=15151,35718,-7069,-82173,5059,44509
C00098=15348,35596,-7245,-85203,5137,45971
C00099=15547,35477,-7418,86451,-5231,-34467
C00100=15746,35360,-7589,83619,-5339,-33099
C00101=15946,35244,-7756,80900,-5461,-31784
C00102=16147,35131,-7921,78301,-5596,-30526
C00103=16349,35020,-8082,75825,-5743,-29326
C00104=16551,34912,-8241,73473,-5902,-28185
C00105=16754,34805,-8397,71243,-6071,-27101
C00106=16958,34701,-8550,69135,-6249,-26075
C00107=17162,34599,-8701,67143,-6437,-25104
C00108=17367,34499,-8848,65264,-6633,-24185
C00109=17573,34401,-8993,63491,-6837,-23318
C00110=17780,34305,-9135,61821,-7048,-22499
C00111=17987,34212,-9274,60246,-7265,-21725
C00112=18195,34121,-9410,58762,-7489,-20994
C00113=18403,34032,-9544,57364,-7718,-20303
C00114=18612,33945,-9675,56044,-7952,-19650
C00115=18822,33860,-9804,54799,-8190,-19032
C00116=19033,33778,-9929,53624,-8433,-18448
C00117=19244,33697,-10052,52513,-8680,-17894
C00118=19456,33619,-10172,51462,-8931,-17369
C00119=19668,33543,-10290,50468,-9185,-16870
C00120=19881,33470,-10405,49527,-9442,-16397
C00121=20095,33398,-10517,48634,-9702,-15947
C00122=20309,33329,-10627,47787,-9965,-15519
C00123=20524,33262,-10734,46983,-10231,-15111
C00124=20740,33197,-10839,46218,-10498,-14722
C00125=20956,33134,-10941,45490,-10769,-14351
C00126=21172,33074,-11040,44797,-11041,-13997
C00127=21390,33015,-11137,44136,-11315,-13658
C00128=21607,32959,-11231,43506,-11591,-13334
C00129=21826,32905,-11323,42904,-11868,-13023
C00130=22045,32854,-11412,42328,-12148,-12726
C00131=22264,32804,-11499,41777,-12428,-12440
C00132=22484,32757,-11583,41250,-12711,-12166
C00133=22705,32712,-11664,40744,-12994,-11902
C00134=22926,32669,-11744,40259,-13279,-11649
C00135=23147,32628,-11820,39793,-13565,-11405
C00136=23370,32590,-11895,39346,-13852,-11169
C00137=23592,32553,-11966,38916,-14140,-10943
C00138=23815,32519,-12036,38501,-14429,-10724
C00139=24039,32488,-12103,38102,-14719,-10513
C00140=24263,32458,-12167,37718,-15009,-10309
C00141=24487,32430,-12229,37347,-15301,-10112
C00142=24712,32405,-12288,36988,-15593,-9921
C00143=24938,32382,-12346,36642,-15887,-9736
C00144=25163,32362,-12400,36307,-16181,-9557
C00145=25390,32343,-12453,35983,-16475,-9383
C00146=25616,32327,-12503,35670,-16770,-9215
C00147=25843,32312,-12550,35365,-17066,-9051
C00148=26071,32301,-12596,35071,-17362,-8893
C00149=26299,32291,-12638,34785,-17659,-8738
C00150=26527,32284,-12679,34507,-17956,-8588
C00151=26756,32278,-12717,34237,-18254,-8443
C00152=26985,32275,-12753,33974,-18552,-8301
C00153=27214,32274,-12786,33719,-18850,-8162
C00154=27444,32276,-12818,33470,-19149,-8028
C00155=27674,32279,-12847,33228,-19449,-7896
C00156=27905,32285,-12873,32992,-19748,-7768
C00157=28136,32293,-12897,32762,-20048,-7643
C00158=28367,32303,-12919,32537,-20348,-7521
C00159=28598,32316,-12939,32318,-20649,-7402
C00160=28830,32330,-12956,32103,-20950,-7285
C00161=29062,32347,-12971,31893,-21251,-7172
C00162=29294,32366,-12984,31688,-21552,-7060
C00163=29527,32388,-12995,31488,-21853,-6952
C00164=29760,32411,-13003,31291,-22155,-6845
C00165=29993,32437,-13009,31098,-22456,-6741
C00166=30226,32465,-13013,30910,-22758,-6638
C00167=30460,32495,-13014,30724,-23060,-6538
C00168=30694,32527,-13014,30542,-23363,-6440
C00169=30928,32562,-13011,30364,-23665,-6344
C00170=31162,32598,-13006,30189,-23967,-6250
C00171=31397,32637,-12998,30016,-24270,-6157
C00172=31632,32678,-12989,29847,-24572,-6066
C00173=31867,32722,-12977,29680,-24875,-5977
C00174=32102,32767,-12963,29516,-25177,-5889
C00175=32337,32815,-12946,29354,-25480,-5803
C00176=32573,32865,-12928,29195,-25782,-5718
C00177=32808,32917,-12907,29038,-26085,-5635
C00178=33044,32971,-12884,28883,-26388,-5553
C00179=33280,33028,-12859,28730,-26690,-5472
C00180=33516,33086,-12832,28579,-26993,-5393
C00181=33753,33147,-12803,28430,-27295,-5315
C00182=33989,33210,-12771,28283,-27598,-5238
C00183=34225,33275,-12737,28138,-27901,-5162
C00184=34462,33342,-12701,27994,-28203,-5087
C00185=34699,33412,-12663,27852,-28505,-5014
C00186=34935,33484,-12623,27712,-28808,-4941
C00187=35172,33558,-12581,27573,-29110,-4870
C00188=35409,33634,-12536,27435,-29412,-4799
C00189=35646,33712,-12489,27299,-29714,-4730
C00190=35883,33792,-12440,27164,-30016,-4661
C00191=36120,33875,-12389,27030,-30318,-4593
C00192=36357,33959,-12336,26897,-30620,-4527
C00193=36594,34046,-12281,26765,-30922,-4460
C00194=36832,34135,-12223,26634,-31223,-4395
C00195=37069,34226,-12163,26505,-31525,-4331
C00196=37306,34320,-12102,26376,-31826,-4267
C00197=37543,34415,-12038,26248,-32127,-4204
C00198=37780,34513,-11972,26121,-32429,-4142
C00199=38017,34612,-11903,25995,-32730,-4080
C00200=38255,34714,-11833,25870,-33030,-4019
C00201=38492,34818,-11760,25745,-33331,-3959
C00202=38729,34924,-11686,25621,-33631,-3899
C00203=38966,35032,-11609,25498,-33932,-3840
C00204=39203,35143,-11530,25376,-34232,-3782
C00205=39440,35255,-11449,25254,-34532,-3724
C00206=39677,35370,-11366,25132,-34832,-3667
C00207=39913,35486,-11281,25011,-35132,-3610
C00208=40150,35605,-11193,24891,-35431,-3554
C00209=40387,35726,-11104,24771,-35731,-3498
C00210=40623,35849,-11012,24652,-36030,-3443
C00211=40860,35974,-10918,24533,-36329,-3388
C00212=41096,36101,-10822,24414,-36628,-3334
C00213=41332,36231,-10724,24296,-36926,-3280
C00214=41569,36362,-10624,24178,-37225,-3226
C00215=41805,36495,-10522,24060,-37523,-3173
C00216=42041,36631,-10417,23943,-37821,-3121
C00217=42276,36769,-10311,23826,-38119,-3069
C00218=42512,36908,-10202,23710,-38417,-3017
C00219=42747,37050,-10091,23593,-38715,-2966
C00220=42983,37194,-9978,23477,-39012,-2915
C00221=43218,37340,-9863,23361,-39309,-2864
C00222=43453,37488,-9746,23246,-39606,-2814
C00223=43688,37638,-9626,23130,-39903,-2764
C00224=43922,37790,-9505,23015,-40200,-2714
C00225=44157,37944,-9381,22900,-40497,-2665
C00226=44391,38100,-9255,22785,-40793,-2616
C00227=44625,38258,-9127,22670,-41089,-2567
C00228=44859,38419,-8997,22555,-41385,-2518
C00229=45093,38581,-8864,22440,-41681,-2470
C00230=45326,38745,-8730,22326,-41977,-2422
C00231=45559,38911,-8593,22211,-42272,-2375
C00232=45792,39080,-8455,22097,-42568,-2327
C00233=46025,39250,-8314,21983,-42863,-2280
C00234=46258,39422,-8170,21868,-43158,-2233
C00235=46490,39597,-8025,21754,-43453,-2187
C00236=46722,39773,-7878,21640,-43747,-2140
C00237=46954,39951,-7728,21526,-44042,-2094
C00238=47186,40132,-7576,21412,-44336,-2048
C00239=47417,40314,-7422,21297,-44631,-2002
C00240=47648,40499,-7266,21183,-44925,-1957
C00241=47879,40685,-7107,21069,-45219,-1911
C00242=48110,40873,-6947,20955,-45513,-1866
C00243=48340,41064,-6784,20841,-45806,-1821
C00244=48570,41256,-6619,20726,-46100,-1776
C00245=48800,41450,-6452,20612,-46393,-1732
C00246=49029,41646,-6282,20498,-46687,-1687
C00247=49258,41844,-6110,20384,-46980,-1643
C00248=49487,42045,-5936,20269,-47273,-1599
C00249=49716,42247,-5760,20155,-47566,-1555
C00250=49944,42451,-5582,20040,-47859,-1511
C00251=50172,42657,-5401,19926,-48152,-1467
C00252=50400,42865,-5218,19811,-48445,-1424
C00253=50627,43075,-5033,19696,-48737,-1380
C00254=50854,43286,-4846,19582,-49030,-1337
C00255=51081,43500,-4656,19467,-49322,-1294
C00256=51308,43716,-4464,19352,-49615,-1250
C00257=51534,43934,-4270,19237,-49907,-1207
C00258=51760,44153,-4073,19122,-50200,-1165
C00259=51985,44375,-3874,19006,-50492,-1122
C00260=52210,44598,-3673,18891,-50784,-1079
C00261=52435,44824,-3469,18776,-51076,-1037
C00262=52660,45051,-3263,18660,-51368,-994
C00263=52884,45280,-3055,18545,-51661,-952
C00264=53108,45511,-2844,18429,-51953,-910
C00265=52941,44966,-3296,18550,-51689,-972
C00266=52774,44424,-3742,18670,-51427,-1035
C00267=52607,43884,-4181,18791,-51167,-1097
C00268=52438,43347,-4614,18911,-50908,-1159
C00269=52269,42813,-5042,19030,-50652,-1221
C00270=52099,42282,-5463,19150,-50397,-1282
C00271=51929,41754,-5879,19269,-50143,-1343
C00272=51757,41228,-6289,19387,-49891,-1404
C00273=51585,40705,-6693,19506,-49641,-1464
C00274=51413,40185,-7092,19624,-49392,-1524
C00275=51239,39668,-7485,19741,-49145,-1583
C00276=51065,39154,-7872,19858,-48900,-1642
C00277=50890,38642,-8254,19975,-48655,-1701
C00278=50715,38133,-8631,20091,-48412,-1760
C00279=50539,37626,-9002,20207,-48171,-1818
C00280=50362,37123,-9367,20322,-47930,-1875
C00281=50184,36622,-9728,20437,-47691,-1933
C00282=50005,36124,-10083,20551,-47454,-1990
C00283=49826,35629,-10433,20665,-47217,-2046
C00284=49646,35136,-10777,20778,-46982,-2102
C00285=49465,34646,-11117,20890,-46748,-2158
C00286=49284,34159,-11451,21002,-46515,-2213
C00287=49102,33674,-11780,21113,-46283,-2268
C00288=48919,33193,-12104,21224,-46053,-2323
C00289=48735,32714,-12423,21333,-45823,-2377
C00290=48550,32237,-12738,21443,-45594,-2431
C00291=48365,31764,-13047,21551,-45366,-2484
C00292=48179,31293,-13351,21659,-45140,-2537
C00293=47992,30825,-13651,21766,-44914,-2589
C00294=47804,30360,-13945,21872,-44689,-2641
C00295=47616,29897,-14235,21977,-44465,-2693
C00296=47426,29437,-14520,22082,-44241,-2744
C00297=47236,28980,-14800,22186,-44019,-2795
C00298=47045,28526,-15076,22289,-43797,-2845
C00299=46854,28075,-15347,22391,-43576,-2895
C00300=46661,27626,-15613,22492,-43356,-2945
C00301=46468,27180,-15875,22592,-43137,-2994
C00302=46274,26737,-16132,22691,-42918,-3042
C00303=46079,26297,-16385,22790,-42700,-3091
C00304=45883,25859,-16633,22887,-42482,-3138
C00305=45687,25424,-16877,22984,-42265,-3186
C00306=45490,24992,-17116,23079,-42049,-3232
C00307=45291,24563,-17351,23174,-41833,-3279
C00308=45092,24137,-17581,23267,-41618,-3325
C00309=44893,23713,-17807,23360,-41403,-3370
C00310=44692,23293,-18029,23451,-41188,-3415
C00311=44491,22875,-18246,23542,-40974,-3460
C00312=44288,22460,-18459,23631,-40761,-3504
C00313=44085,22048,-18667,23719,-40548,-3548
C00314=43881,21639,-18872,23806,-40335,-3591
C00315=43676,21233,-19072,23892,-40123,-3634
C00316=43471,20829,-19268,23977,-39910,-3676
C00317=43264,20429,-19460,24060,-39699,-3718
C00318=43057,20031,-19648,24142,-39487,-3759
C00319=42849,19636,-19831,24224,-39276,-3800
C00320=42640,19245,-20011,24303,-39065,-3841
C00321=42430,18856,-20186,24382,-38854,-3881
C00322=42220,18470,-20358,24460,-38643,-3921
C00323=42008,18087,-20525,24536,-38433,-3960
C00324=41796,17707,-20689,24611,-38222,-3999
C00325=41583,17330,-20848,24684,-38012,-4037
C00326=41369,16956,-21004,24757,-37802,-4075
C00327=41154,16585,-21155,24827,-37592,-4112
C00328=40939,16217,-21303,24897,-37382,-4149
C00329=40722,15852,-21446,24965,-37172,-4185
C00330=40505,15490,-21586,25032,-36962,-4221
C00331=40287,15130,-21722,25098,-36752,-4257
C00332=40068,14774,-21854,25162,-36542,-4292
C00333=39848,14421,-21983,25224,-36332,-4326
C00334=39628,14072,-22107,25286,-36122,-4361
C00335=39406,13725,-22228,25345,-35912,-4394
C00336=39184,13381,-22345,25404,-35702,-4428
C00337=38961,13040,-22459,25461,-35492,-4460
C00338=38737,12702,-22568,25516,-35281,-4493
C00339=38512,12367,-22674,25570,-35071,-4525
C00340=38287,12036,-22777,25622,-34860,-4556
C00341=38061,11708,-22875,25673,-34649,-4587
C00342=37834,11382,-22970,25723,-34438,-4618
C00343=37606,11060,-23062,25770,-34227,-4648
C00344=37377,10741,-23150,25817,-34016,-4678
C00345=37148,10425,-23234,25861,-33804,-4707
C00346=36917,10112,-23315,25904,-33593,-4736
C00347=36686,9802,-23392,25946,-33381,-4765
C00348=36454,9496,-23466,25986,-33168,-4793
C00349=36222,9192,-23536,26024,-32956,-4820
C00350=35989,8892,-23602,26060,-32743,-4847
C00351=35755,8595,-23666,26095,-32530,-4874
C00352=35520,8301,-23726,26129,-32317,-4900
C00353=35284,8010,-23782,26160,-32103,-4926
C00354=35048,7723,-23835,26190,-31889,-4952
C00355=34811,7438,-23884,26219,-31675,-4977
C00356=34573,7157,-23931,26245,-31460,-5001
C00357=34334,6879,-23973,26270,-31245,-5026
C00358=34095,6605,-24013,26294,-31030,-5049
C00359=33855,6333,-24049,26315,-30814,-5073
C00360=33614,6065,-24082,26335,-30598,-5096
C00361=33373,5800,-24112,26353,-30382,-5118
C00362=33131,5538,-24138,26369,-30165,-5141
C00363=32888,5279,-24161,26384,-29948,-5162
C00364=32645,5024,-24181,26396,-29730,-5184
C00365=32401,4772,-24197,26407,-29513,-5205
C00366=32156,4523,-24210,26416,-29294,-5225
C00367=31911,4278,-24220,26424,-29076,-5246
C00368=31665,4035,-24227,26429,-28857,-5265
C00369=31418,3796,-24231,26433,-28637,-5285
C00370=31171,3561,-24232,26435,-28417,-5304
C00371=30923,3328,-24229,26435,-28197,-5323
C00372=30675,3099,-24223,26433,-27976,-5341
C00373=30426,2873,-24214,26430,-27755,-5359
C00374=30176,2651,-24202,26424,-27534,-5376
C00375=29926,2431,-24187,26417,-27312,-5394
C00376=29675,2215,-24169,26408,-27089,-5410
C00377=29424,2002,-24148,26397,-26867,-5427
C00378=29172,1793,-24124,26384,-26643,-5443
C00379=28920,1587,-24096,26369,-26420,-5458
C00380=28667,1384,-24066,26352,-26196,-5474
C00381=28414,1184,-24032,26334,-25972,-5489
C00382=28160,988,-23996,26313,-25747,-5503
C00383=27906,795,-23956,26291,-25522,-5518
C00384=27651,606,-23914,26266,-25296,-5531
C00385=27396,419,-23868,26240,-25070,-5545
C00386=27140,236,-23820,26212,-24844,-5558
C00387=26884,57,-23769,26182,-24617,-5571
C00388=26628,-120,-23714,26150,-24390,-5583
C00389=26371,-293,-23657,26116,-24162,-5596
C00390=26114,-463,-23597,26080,-23934,-5607
C00391=25856,-629,-23533,26042,-23706,-5619
C00392=25598,-792,-23467,26002,-23477,-5630
C00393=25340,-952,-23398,25960,-23248,-5641
C00394=25082,-1108,-23326,25916,-23019,-5651
C00395=24823,-1262,-23251,25870,-22789,-5661
C00396=24564,-1411,-23173,25823,-22559,-5671
C00397=24304,-1558,-23093,25773,-22329,-5680
C00398=24045,-1701,-23009,25721,-22098,-5690
C00399=23785,-1841,-22923,25667,-21867,-5698
C00400=23525,-1978,-22833,25611,-21636,-5707
C00401=23265,-2111,-22741,25554,-21404,-5715
C00402=23004,-2241,-22646,25494,-21172,-5723
C00403=22744,-2368,-22548,25432,-20940,-5730
C00404=22483,-2491,-22448,25368,-20708,-5737
C00405=22222,-2611,-22344,25302,-20475,-5744
C00406=21961,-2728,-22238,25234,-20242,-5750
C00407=21700,-2842,-22128,25165,-20009,-5757
C00408=21438,-2952,-22016,25093,-19775,-5762
C00409=21177,-3059,-21901,25019,-19542,-5768
C00410=20916,-3163,-21784,24943,-19308,-5773
C00411=20654,-3263,-21663,24865,-19074,-5778
C00412=20393,-3360,-21540,24785,-18840,-5782
C00413=20132,-3454,-21413,24702,-18606,-5787
C00414=19870,-3544,-21284,24618,-18371,-5791
C00415=19609,-3631,-21152,24532,-18136,-5794
C00416=19348,-3715,-21018,24444,-17902,-5797
C00417=19087,-3796,-20880,24354,-17667,-5800
C00418=18825,-3874,-20740,24261,-17432,-5803
C00419=18564,-3948,-20597,24167,-17197,-5805
C00420=18304,-4019,-20451,24070,-16962,-5807
C00421=18043,-4086,-20302,23972,-16727,-5809
C00422=17782,-4151,-20150,23871,-16491,-5810
C00423=17522,-4212,-19996,23769,-16256,-5811
C00424=17262,-4270,-19839,23664,-16021,-5812
C00425=17002,-4324,-19678,23557,-15786,-5812
C00426=16742,-4376,-19516,23448,-15550,-5813
C00427=16483,-4424,-19350,23337,-15315,-5812
C00428=16224,-4469,-19181,23224,-15080,-5812
C00429=15965,-4511,-19010,23109,-14845,-5811
C00430=15706,-4550,-18835,22992,-14610,-5810
C00431=15448,-4585,-18658,22873,-14375,-5808
C00432=15190,-4617,-18478,22752,-14140,-5806
C00433=14933,-4646,-18295,22628,-13906,-5804
C00434=14676,-4672,-18110,22503,-13671,-5801
C00435=14419,-4694,-17921,22375,-13437,-5799
C00436=14163,-4714,-17730,22246,-13203,-5795
C00437=13907,-4730,-17535,22114,-12969,-5792
C00438=13652,-4743,-17338,21980,-12735,-5788
C00439=13397,-4753,-17138,21844,-12502,-5784
C00440=13143,-4759,-16935,21706,-12268,-5779
C00441=12889,-4763,-16728,21566,-12036,-5774
C00442=12636,-4763,-16520,21424,-11803,-5769
C00443=12383,-4760,-16308,21280,-11570,-5764
C00444=12131,-4754,-16093,21133,-11338,-5758
C00445=11880,-4745,-15875,20985,-11107,-5751
C00446=11629,-4733,-15654,20834,-10875,-5745
C00447=11378,-4717,-15430,20681,-10644,-5738
C00448=11129,-4699,-15203,20527,-10414,-5730
C00449=10880,-4677,-14974,20370,-10184,-5723
C00450=10631,-4652,-14741,20211,-9954,-5715
C00451=10384,-4624,-14505,20050,-9725,-5706
C00452=10137,-4593,-14266,19887,-9496,-5697
C00453=9891,-4559,-14024,19721,-9268,-5688
C00454=9645,-4522,-13779,19554,-9040,-5679
C00455=9401,-4482,-13531,19384,-8812,-5669
C00456=9157,-4438,-13279,19212,-8586,-5658
C00457=8914,-4391,-13025,19039,-8360,-5647
C00458=8672,-4342,-12767,18863,-8134,-5636
C00459=8430,-4289,-12507,18685,-7909,-5625
C00460=8190,-4233,-12243,18504,-7685,-5613
C00461=7950,-4174,-11975,18322,-7461,-5600
C00462=7711,-4112,-11705,18138,-7238,-5587
C00463=7473,-4047,-11431,17951,-7015,-5574
C00464=7236,-3979,-11154,17762,-6794,-5560
C00465=7000,-3907,-10874,17571,-6573,-5546
C00466=6765,-3833,-10591,17378,-6353,-5532
C00467=6530,-3755,-10304,17183,-6133,-5517
C00468=6297,-3675,-10014,16985,-5914,-5501
C00469=6065,-3591,-9720,16785,-5697,-5485
C00470=5833,-3505,-9423,16584,-5479,-5469
C00471=5603,-3415,-9122,16379,-5263,-5452
C00472=5374,-3322,-8818,16173,-5048,-5435
C00473=5145,-3226,-8511,15965,-4833,-5417
C00474=4918,-3127,-8200,15754,-4620,-5398
C00475=4692,-3025,-7886,15541,-4407,-5380
C00476=4467,-2920,-7568,15326,-4195,-5360
C00477=4242,-2812,-7246,15108,-3984,-5340
C00478=4020,-2701,-6921,14889,-3775,-5320
C00479=3798,-2586,-6592,14667,-3566,-5299
C00480=3577,-2469,-6259,14442,-3358,-5277
C00481=3357,-2349,-5923,14216,-3151,-5255
C00482=3138,-2225,-5582,13987,-2945,-5232
C00483=2921,-2099,-5238,13756,-2741,-5209
C00484=2705,-1969,-4890,13522,-2537,-5185
C00485=2489,-1836,-4539,13286,-2335,-5160
C00486=2275,-1700,-4183,13048,-2133,-5135
C00487=2063,-1561,-3823,12807,-1933,-5109
C00488=1851,-1419,-3460,12564,-1734,-5083
C00489=1640,-1274,-3092,12319,-1536,-5056
C00490=1431,-1126,-2720,12071,-1340,-5028
C00491=1223,-974,-2345,11821,-1145,-4999
C00492=1016,-820,-1965,11568,-950,-4970
C00493=810,-662,-1580,11312,-758,-4940
C00494=606,-501,-1192,11054,-566,-4910
C00495=403,-337,-799,10794,-376,-4878
C00496=201,-170,-402,10531,-187,-4846
//INST
///DATE 2023/08/04 18:52
///ATTR SC,RW
///GROUP1 RB2
NOP
MOVJ C00000 VJ=0.2 PL=0
TIMER T=0.75
MOVJ C00001 VJ=0.2 PL=0
TIMER T=0.75
MOVJ C00002 VJ=0.2 PL=0
TIMER T=0.75
MOVJ C00003 VJ=0.2 PL=0
TIMER T=0.75
MOVJ C00004 VJ=0.2 PL=0
TIMER T=0.75
MOVJ C00005 VJ=0.2 PL=0
TIMER T=0.75
MOVJ C00006 VJ=0.2 PL=0
TIMER T=0.75
MOVJ C00007 VJ=0.2 PL=0
TIMER T=0.75
MOVJ C00008 VJ=0.2 PL=0
TIMER T=0.75
MOVJ C00009 VJ=0.2 PL=0
TIMER T=0.75
MOVJ C00010 VJ=0.2 PL=0
TIMER T=0.75
MOVJ C00011 VJ=0.2 PL=0
TIMER T=0.75
MOVJ C00012 VJ=0.2 PL=0
TIMER T=0.75
MOVJ C00013 VJ=0.2 PL=0
TIMER T=0.75
MOVJ C00014 VJ=0.2 PL=0
TIMER T=0.75
MOVJ C00015 VJ=0.2 PL=0
TIMER T=0.75
MOVJ C00016 VJ=0.2 PL=0
TIMER T=0.75
MOVJ C00017 VJ=0.2 PL=0
TIMER T=0.75
MOVJ C00018 VJ=0.2 PL=0
TIMER T=0.75
MOVJ C00019 VJ=0.2 PL=0
TIMER T=0.75
MOVJ C00020 VJ=0.2 PL=0
TIMER T=0.75
MOVJ C00021 VJ=0.2 PL=0
TIMER T=0.75
MOVJ C00022 VJ=0.2 PL=0
TIMER T=0.75
MOVJ C00023 VJ=0.2 PL=0
TIMER T=0.75
MOVJ C00024 VJ=0.2 PL=0
TIMER T=0.75
MOVJ C00025 VJ=0.2 PL=0
TIMER T=0.75
MOVJ C00026 VJ=0.2 PL=0
TIMER T=0.75
MOVJ C00027 VJ=0.2 PL=0
TIMER T=0.75
MOVJ C00028 VJ=0.2 PL=0
TIMER T=0.75
MOVJ C00029 VJ=0.2 PL=0
TIMER T=0.75
MOVJ C00030 VJ=0.2 PL=0
TIMER T=0.75
MOVJ C00031 VJ=0.2 PL=0
TIMER T=0.75
MOVJ C00032 VJ=0.2 PL=0
TIMER T=0.75
MOVJ C00033 VJ=0.2 PL=0
TIMER T=0.75
MOVJ C00034 VJ=0.2 PL=0
TIMER T=0.75
MOVJ C00035 VJ=0.2 PL=0
TIMER T=0.75
MOVJ C00036 VJ=0.2 PL=0
TIMER T=0.75
MOVJ C00037 VJ=0.2 PL=0
TIMER T=0.75
MOVJ C00038 VJ=0.2 PL=0
TIMER T=0.75
MOVJ C00039 VJ=0.2 PL=0
TIMER T=0.75
MOVJ C00040 VJ=0.2 PL=0
TIMER T=0.75
MOVJ C00041 VJ=0.2 PL=0
TIMER T=0.75
MOVJ C00042 VJ=0.2 PL=0
TIMER T=0.75
MOVJ C00043 VJ=0.2 PL=0
TIMER T=0.75
MOVJ C00044 VJ=0.2 PL=0
TIMER T=0.75
MOVJ C00045 VJ=0.2 PL=0
TIMER T=0.75
MOVJ C00046 VJ=0.2 PL=0
TIMER T=0.75
MOVJ C00047 VJ=0.2 PL=0
TIMER T=0.75
MOVJ C00048 VJ=0.2 PL=0
TIMER T=0.75
MOVJ C00049 VJ=0.2 PL=0
TIMER T=0.75
MOVJ C00050 VJ=0.2 PL=0
TIMER T=0.75
MOVJ C00051 VJ=0.2 PL=0
TIMER T=0.75
MOVJ C00052 VJ=0.2 PL=0
TIMER T=0.75
MOVJ C00053 VJ=0.2 PL=0
TIMER T=0.75
MOVJ C00054 VJ=0.2 PL=0
TIMER T=0.75
MOVJ C00055 VJ=0.2 PL=0
TIMER T=0.75
MOVJ C00056 VJ=0.2 PL=0
TIMER T=0.75
MOVJ C00057 VJ=0.2 PL=0
TIMER T=0.75
MOVJ C00058 VJ=0.2 PL=0
TIMER T=0.75
MOVJ C00059 VJ=0.2 PL=0
TIMER T=0.75
MOVJ C00060 VJ=0.2 PL=0
TIMER T=0.75
MOVJ C00061 VJ=0.2 PL=0
TIMER T=0.75
MOVJ C00062 VJ=0.2 PL=0
TIMER T=0.75
MOVJ C00063 VJ=0.2 PL=0
TIMER T=0.75
MOVJ C00064 VJ=0.2 PL=0
TIMER T=0.75
MOVJ C00065 VJ=0.2 PL=0
TIMER T=0.75
MOVJ C00066 VJ=0.2 PL=0
TIMER T=0.75
MOVJ C00067 VJ=0.2 PL=0
TIMER T=0.75
MOVJ C00068 VJ=0.2 PL=0
TIMER T=0.75
MOVJ C00069 VJ=0.2 PL=0
TIMER T=0.75
MOVJ C00070 VJ=0.2 PL=0
TIMER T=0.75
MOVJ C00071 VJ=0.2 PL=0
TIMER T=0.75
MOVJ C00072 VJ=0.2 PL=0
TIMER T=0.75
MOVJ C00073 VJ=0.2 PL=0
TIMER T=0.75
MOVJ C00074 VJ=0.2 PL=0
TIMER T=0.75
MOVJ C00075 VJ=0.2 PL=0
TIMER T=0.75
MOVJ C00076 VJ=0.2 PL=0
TIMER T=0.75
MOVJ C00077 VJ=0.2 PL=0
TIMER T=0.75
MOVJ C00078 VJ=0.2 PL=0
TIMER T=0.75
MOVJ C00079 VJ=0.2 PL=0
TIMER T=0.75
MOVJ C00080 VJ=0.2 PL=0
TIMER T=0.75
MOVJ C00081 VJ=0.2 PL=0
TIMER T=0.75
MOVJ C00082 VJ=0.2 PL=0
TIMER T=0.75
MOVJ C00083 VJ=0.2 PL=0
TIMER T=0.75
MOVJ C00084 VJ=0.2 PL=0
TIMER T=0.75
MOVJ C00085 VJ=0.2 PL=0
TIMER T=0.75
MOVJ C00086 VJ=0.2 PL=0
TIMER T=0.75
MOVJ C00087 VJ=0.2 PL=0
TIMER T=0.75
MOVJ C00088 VJ=0.2 PL=0
TIMER T=0.75
MOVJ C00089 VJ=0.2 PL=0
TIMER T=0.75
MOVJ C00090 VJ=0.2 PL=0
TIMER T=0.75
MOVJ C00091 VJ=0.2 PL=0
TIMER T=0.75
MOVJ C00092 VJ=0.2 PL=0
TIMER T=0.75
MOVJ C00093 VJ=0.2 PL=0
TIMER T=0.75
MOVJ C00094 VJ=0.2 PL=0
TIMER T=0.75
MOVJ C00095 VJ=0.2 PL=0
TIMER T=0.75
MOVJ C00096 VJ=0.2 PL=0
TIMER T=0.75
MOVJ C00097 VJ=0.2 PL=0
TIMER T=0.75
MOVJ C00098 VJ=0.2 PL=0
TIMER T=0.75
MOVJ C00099 VJ=0.2 PL=0
TIMER T=0.75
MOVJ C00100 VJ=0.2 PL=0
TIMER T=0.75
MOVJ C00101 VJ=0.2 PL=0
TIMER T=0.75
MOVJ C00102 VJ=0.2 PL=0
TIMER T=0.75
MOVJ C00103 VJ=0.2 PL=0
TIMER T=0.75
MOVJ C00104 VJ=0.2 PL=0
TIMER T=0.75
MOVJ C00105 VJ=0.2 PL=0
TIMER T=0.75
MOVJ C00106 VJ=0.2 PL=0
TIMER T=0.75
MOVJ C00107 VJ=0.2 PL=0
TIMER T=0.75
MOVJ C00108 VJ=0.2 PL=0
TIMER T=0.75
MOVJ C00109 VJ=0.2 PL=0
TIMER T=0.75
MOVJ C00110 VJ=0.2 PL=0
TIMER T=0.75
MOVJ C00111 VJ=0.2 PL=0
TIMER T=0.75
MOVJ C00112 VJ=0.2 PL=0
TIMER T=0.75
MOVJ C00113 VJ=0.2 PL=0
TIMER T=0.75
MOVJ C00114 VJ=0.2 PL=0
TIMER T=0.75
MOVJ C00115 VJ=0.2 PL=0
TIMER T=0.75
MOVJ C00116 VJ=0.2 PL=0
TIMER T=0.75
MOVJ C00117 VJ=0.2 PL=0
TIMER T=0.75
MOVJ C00118 VJ=0.2 PL=0
TIMER T=0.75
MOVJ C00119 VJ=0.2 PL=0
TIMER T=0.75
MOVJ C00120 VJ=0.2 PL=0
TIMER T=0.75
MOVJ C00121 VJ=0.2 PL=0
TIMER T=0.75
MOVJ C00122 VJ=0.2 PL=0
TIMER T=0.75
MOVJ C00123 VJ=0.2 PL=0
TIMER T=0.75
MOVJ C00124 VJ=0.2 PL=0
TIMER T=0.75
MOVJ C00125 VJ=0.2 PL=0
TIMER T=0.75
MOVJ C00126 VJ=0.2 PL=0
TIMER T=0.75
MOVJ C00127 VJ=0.2 PL=0
TIMER T=0.75
MOVJ C00128 VJ=0.2 PL=0
TIMER T=0.75
MOVJ C00129 VJ=0.2 PL=0
TIMER T=0.75
MOVJ C00130 VJ=0.2 PL=0
TIMER T=0.75
MOVJ C00131 VJ=0.2 PL=0
TIMER T=0.75
MOVJ C00132 VJ=0.2 PL=0
TIMER T=0.75
MOVJ C00133 VJ=0.2 PL=0
TIMER T=0.75
MOVJ C00134 VJ=0.2 PL=0
TIMER T=0.75
MOVJ C00135 VJ=0.2 PL=0
TIMER T=0.75
MOVJ C00136 VJ=0.2 PL=0
TIMER T=0.75
MOVJ C00137 VJ=0.2 PL=0
TIMER T=0.75
MOVJ C00138 VJ=0.2 PL=0
TIMER T=0.75
MOVJ C00139 VJ=0.2 PL=0
TIMER T=0.75
MOVJ C00140 VJ=0.2 PL=0
TIMER T=0.75
MOVJ C00141 VJ=0.2 PL=0
TIMER T=0.75
MOVJ C00142 VJ=0.2 PL=0
TIMER T=0.75
MOVJ C00143 VJ=0.2 PL=0
TIMER T=0.75
MOVJ C00144 VJ=0.2 PL=0
TIMER T=0.75
MOVJ C00145 VJ=0.2 PL=0
TIMER T=0.75
MOVJ C00146 VJ=0.2 PL=0
TIMER T=0.75
MOVJ C00147 VJ=0.2 PL=0
TIMER T=0.75
MOVJ C00148 VJ=0.2 PL=0
TIMER T=0.75
MOVJ C00149 VJ=0.2 PL=0
TIMER T=0.75
MOVJ C00150 VJ=0.2 PL=0
TIMER T=0.75
MOVJ C00151 VJ=0.2 PL=0
TIMER T=0.75
MOVJ C00152 VJ=0.2 PL=0
TIMER T=0.75
MOVJ C00153 VJ=0.2 PL=0
TIMER T=0.75
MOVJ C00154 VJ=0.2 PL=0
TIMER T=0.75
MOVJ C00155 VJ=0.2 PL=0
TIMER T=0.75
MOVJ C00156 VJ=0.2 PL=0
TIMER T=0.75
MOVJ C00157 VJ=0.2 PL=0
TIMER T=0.75
MOVJ C00158 VJ=0.2 PL=0
TIMER T=0.75
MOVJ C00159 VJ=0.2 PL=0
TIMER T=0.75
MOVJ C00160 VJ=0.2 PL=0
TIMER T=0.75
MOVJ C00161 VJ=0.2 PL=0
TIMER T=0.75
MOVJ C00162 VJ=0.2 PL=0
TIMER T=0.75
MOVJ C00163 VJ=0.2 PL=0
TIMER T=0.75
MOVJ C00164 VJ=0.2 PL=0
TIMER T=0.75
MOVJ C00165 VJ=0.2 PL=0
TIMER T=0.75
MOVJ C00166 VJ=0.2 PL=0
TIMER T=0.75
MOVJ C00167 VJ=0.2 PL=0
TIMER T=0.75
MOVJ C00168 VJ=0.2 PL=0
TIMER T=0.75
MOVJ C00169 VJ=0.2 PL=0
TIMER T=0.75
MOVJ C00170 VJ=0.2 PL=0
TIMER T=0.75
MOVJ C00171 VJ=0.2 PL=0
TIMER T=0.75
MOVJ C00172 VJ=0.2 PL=0
TIMER T=0.75
MOVJ C00173 VJ=0.2 PL=0
TIMER T=0.75
MOVJ C00174 VJ=0.2 PL=0
TIMER T=0.75
MOVJ C00175 VJ=0.2 PL=0
TIMER T=0.75
MOVJ C00176 VJ=0.2 PL=0
TIMER T=0.75
MOVJ C00177 VJ=0.2 PL=0
TIMER T=0.75
MOVJ C00178 VJ=0.2 PL=0
TIMER T=0.75
MOVJ C00179 VJ=0.2 PL=0
TIMER T=0.75
MOVJ C00180 VJ=0.2 PL=0
TIMER T=0.75
MOVJ C00181 VJ=0.2 PL=0
TIMER T=0.75
MOVJ C00182 VJ=0.2 PL=0
TIMER T=0.75
MOVJ C00183 VJ=0.2 PL=0
TIMER T=0.75
MOVJ C00184 VJ=0.2 PL=0
TIMER T=0.75
MOVJ C00185 VJ=0.2 PL=0
TIMER T=0.75
MOVJ C00186 VJ=0.2 PL=0
TIMER T=0.75
MOVJ C00187 VJ=0.2 PL=0
TIMER T=0.75
MOVJ C00188 VJ=0.2 PL=0
TIMER T=0.75
MOVJ C00189 VJ=0.2 PL=0
TIMER T=0.75
MOVJ C00190 VJ=0.2 PL=0
TIMER T=0.75
MOVJ C00191 VJ=0.2 PL=0
TIMER T=0.75
MOVJ C00192 VJ=0.2 PL=0
TIMER T=0.75
MOVJ C00193 VJ=0.2 PL=0
TIMER T=0.75
MOVJ C00194 VJ=0.2 PL=0
TIMER T=0.75
MOVJ C00195 VJ=0.2 PL=0
TIMER T=0.75
MOVJ C00196 VJ=0.2 PL=0
TIMER T=0.75
MOVJ C00197 VJ=0.2 PL=0
TIMER T=0.75
MOVJ C00198 VJ=0.2 PL=0
TIMER T=0.75
MOVJ C00199 VJ=0.2 PL=0
TIMER T=0.75
MOVJ C00200 VJ=0.2 PL=0
TIMER T=0.75
MOVJ C00201 VJ=0.2 PL=0
TIMER T=0.75
MOVJ C00202 VJ=0.2 PL=0
TIMER T=0.75
MOVJ C00203 VJ=0.2 PL=0
TIMER T=0.75
MOVJ C00204 VJ=0.2 PL=0
TIMER T=0.75
MOVJ C00205 VJ=0.2 PL=0
TIMER T=0.75
MOVJ C00206 VJ=0.2 PL=0
TIMER T=0.75
MOVJ C00207 VJ=0.2 PL=0
TIMER T=0.75
MOVJ C00208 VJ=0.2 PL=0
TIMER T=0.75
MOVJ C00209 VJ=0.2 PL=0
TIMER T=0.75
MOVJ C00210 VJ=0.2 PL=0
TIMER T=0.75
MOVJ C00211 VJ=0.2 PL=0
TIMER T=0.75
MOVJ C00212 VJ=0.2 PL=0
TIMER T=0.75
MOVJ C00213 VJ=0.2 PL=0
TIMER T=0.75
MOVJ C00214 VJ=0.2 PL=0
TIMER T=0.75
MOVJ C00215 VJ=0.2 PL=0
TIMER T=0.75
MOVJ C00216 VJ=0.2 PL=0
TIMER T=0.75
MOVJ C00217 VJ=0.2 PL=0
TIMER T=0.75
MOVJ C00218 VJ=0.2 PL=0
TIMER T=0.75
MOVJ C00219 VJ=0.2 PL=0
TIMER T=0.75
MOVJ C00220 VJ=0.2 PL=0
TIMER T=0.75
MOVJ C00221 VJ=0.2 PL=0
TIMER T=0.75
MOVJ C00222 VJ=0.2 PL=0
TIMER T=0.75
MOVJ C00223 VJ=0.2 PL=0
TIMER T=0.75
MOVJ C00224 VJ=0.2 PL=0
TIMER T=0.75
MOVJ C00225 VJ=0.2 PL=0
TIMER T=0.75
MOVJ C00226 VJ=0.2 PL=0
TIMER T=0.75
MOVJ C00227 VJ=0.2 PL=0
TIMER T=0.75
MOVJ C00228 VJ=0.2 PL=0
TIMER T=0.75
MOVJ C00229 VJ=0.2 PL=0
TIMER T=0.75
MOVJ C00230 VJ=0.2 PL=0
TIMER T=0.75
MOVJ C00231 VJ=0.2 PL=0
TIMER T=0.75
MOVJ C00232 VJ=0.2 PL=0
TIMER T=0.75
MOVJ C00233 VJ=0.2 PL=0
TIMER T=0.75
MOVJ C00234 VJ=0.2 PL=0
TIMER T=0.75
MOVJ C00235 VJ=0.2 PL=0
TIMER T=0.75
MOVJ C00236 VJ=0.2 PL=0
TIMER T=0.75
MOVJ C00237 VJ=0.2 PL=0
TIMER T=0.75
MOVJ C00238 VJ=0.2 PL=0
TIMER T=0.75
MOVJ C00239 VJ=0.2 PL=0
TIMER T=0.75
MOVJ C00240 VJ=0.2 PL=0
TIMER T=0.75
MOVJ C00241 VJ=0.2 PL=0
TIMER T=0.75
MOVJ C00242 VJ=0.2 PL=0
TIMER T=0.75
MOVJ C00243 VJ=0.2 PL=0
TIMER T=0.75
MOVJ C00244 VJ=0.2 PL=0
TIMER T=0.75
MOVJ C00245 VJ=0.2 PL=0
TIMER T=0.75
MOVJ C00246 VJ=0.2 PL=0
TIMER T=0.75
MOVJ C00247 VJ=0.2 PL=0
TIMER T=0.75
MOVJ C00248 VJ=0.2 PL=0
TIMER T=0.75
MOVJ C00249 VJ=0.2 PL=0
TIMER T=0.75
MOVJ C00250 VJ=0.2 PL=0
TIMER T=0.75
MOVJ C00251 VJ=0.2 PL=0
TIMER T=0.75
MOVJ C00252 VJ=0.2 PL=0
TIMER T=0.75
MOVJ C00253 VJ=0.2 PL=0
TIMER T=0.75
MOVJ C00254 VJ=0.2 PL=0
TIMER T=0.75
MOVJ C00255 VJ=0.2 PL=0
TIMER T=0.75
MOVJ C00256 VJ=0.2 PL=0
TIMER T=0.75
MOVJ C00257 VJ=0.2 PL=0
TIMER T=0.75
MOVJ C00258 VJ=0.2 PL=0
TIMER T=0.75
MOVJ C00259 VJ=0.2 PL=0
TIMER T=0.75
MOVJ C00260 VJ=0.2 PL=0
TIMER T=0.75
MOVJ C00261 VJ=0.2 PL=0
TIMER T=0.75
MOVJ C00262 VJ=0.2 PL=0
TIMER T=0.75
MOVJ C00263 VJ=0.2 PL=0
TIMER T=0.75
MOVJ C00264 VJ=0.2 PL=0
TIMER T=0.75
MOVJ C00265 VJ=0.2 PL=0
TIMER T=0.75
MOVJ C00266 VJ=0.2 PL=0
TIMER T=0.75
MOVJ C00267 VJ=0.2 PL=0
TIMER T=0.75
MOVJ C00268 VJ=0.2 PL=0
TIMER T=0.75
MOVJ C00269 VJ=0.2 PL=0
TIMER T=0.75
MOVJ C00270 VJ=0.2 PL=0
TIMER T=0.75
MOVJ C00271 VJ=0.2 PL=0
TIMER T=0.75
MOVJ C00272 VJ=0.2 PL=0
TIMER T=0.75
MOVJ C00273 VJ=0.2 PL=0
TIMER T=0.75
MOVJ C00274 VJ=0.2 PL=0
TIMER T=0.75
MOVJ C00275 VJ=0.2 PL=0
TIMER T=0.75
MOVJ C00276 VJ=0.2 PL=0
TIMER T=0.75
MOVJ C00277 VJ=0.2 PL=0
TIMER T=0.75
MOVJ C00278 VJ=0.2 PL=0
TIMER T=0.75
MOVJ C00279 VJ=0.2 PL=0
TIMER T=0.75
MOVJ C00280 VJ=0.2 PL=0
TIMER T=0.75
MOVJ C00281 VJ=0.2 PL=0
TIMER T=0.75
MOVJ C00282 VJ=0.2 PL=0
TIMER T=0.75
MOVJ C00283 VJ=0.2 PL=0
TIMER T=0.75
MOVJ C00284 VJ=0.2 PL=0
TIMER T=0.75
MOVJ C00285 VJ=0.2 PL=0
TIMER T=0.75
MOVJ C00286 VJ=0.2 PL=0
TIMER T=0.75
MOVJ C00287 VJ=0.2 PL=0
TIMER T=0.75
MOVJ C00288 VJ=0.2 PL=0
TIMER T=0.75
MOVJ C00289 VJ=0.2 PL=0
TIMER T=0.75
MOVJ C00290 VJ=0.2 PL=0
TIMER T=0.75
MOVJ C00291 VJ=0.2 PL=0
TIMER T=0.75
MOVJ C00292 VJ=0.2 PL=0
TIMER T=0.75
MOVJ C00293 VJ=0.2 PL=0
TIMER T=0.75
MOVJ C00294 VJ=0.2 PL=0
TIMER T=0.75
MOVJ C00295 VJ=0.2 PL=0
TIMER T=0.75
MOVJ C00296 VJ=0.2 PL=0
TIMER T=0.75
MOVJ C00297 VJ=0.2 PL=0
TIMER T=0.75
MOVJ C00298 VJ=0.2 PL=0
TIMER T=0.75
MOVJ C00299 VJ=0.2 PL=0
TIMER T=0.75
MOVJ C00300 VJ=0.2 PL=0
TIMER T=0.75
MOVJ C00301 VJ=0.2 PL=0
TIMER T=0.75
MOVJ C00302 VJ=0.2 PL=0
TIMER T=0.75
MOVJ C00303 VJ=0.2 PL=0
TIMER T=0.75
MOVJ C00304 VJ=0.2 PL=0
TIMER T=0.75
MOVJ C00305 VJ=0.2 PL=0
TIMER T=0.75
MOVJ C00306 VJ=0.2 PL=0
TIMER T=0.75
MOVJ C00307 VJ=0.2 PL=0
TIMER T=0.75
MOVJ C00308 VJ=0.2 PL=0
TIMER T=0.75
MOVJ C00309 VJ=0.2 PL=0
TIMER T=0.75
MOVJ C00310 VJ=0.2 PL=0
TIMER T=0.75
MOVJ C00311 VJ=0.2 PL=0
TIMER T=0.75
MOVJ C00312 VJ=0.2 PL=0
TIMER T=0.75
MOVJ C00313 VJ=0.2 PL=0
TIMER T=0.75
MOVJ C00314 VJ=0.2 PL=0
TIMER T=0.75
MOVJ C00315 VJ=0.2 PL=0
TIMER T=0.75
MOVJ C00316 VJ=0.2 PL=0
TIMER T=0.75
MOVJ C00317 VJ=0.2 PL=0
TIMER T=0.75
MOVJ C00318 VJ=0.2 PL=0
TIMER T=0.75
MOVJ C00319 VJ=0.2 PL=0
TIMER T=0.75
MOVJ C00320 VJ=0.2 PL=0
TIMER T=0.75
MOVJ C00321 VJ=0.2 PL=0
TIMER T=0.75
MOVJ C00322 VJ=0.2 PL=0
TIMER T=0.75
MOVJ C00323 VJ=0.2 PL=0
TIMER T=0.75
MOVJ C00324 VJ=0.2 PL=0
TIMER T=0.75
MOVJ C00325 VJ=0.2 PL=0
TIMER T=0.75
MOVJ C00326 VJ=0.2 PL=0
TIMER T=0.75
MOVJ C00327 VJ=0.2 PL=0
TIMER T=0.75
MOVJ C00328 VJ=0.2 PL=0
TIMER T=0.75
MOVJ C00329 VJ=0.2 PL=0
TIMER T=0.75
MOVJ C00330 VJ=0.2 PL=0
TIMER T=0.75
MOVJ C00331 VJ=0.2 PL=0
TIMER T=0.75
MOVJ C00332 VJ=0.2 PL=0
TIMER T=0.75
MOVJ C00333 VJ=0.2 PL=0
TIMER T=0.75
MOVJ C00334 VJ=0.2 PL=0
TIMER T=0.75
MOVJ C00335 VJ=0.2 PL=0
TIMER T=0.75
MOVJ C00336 VJ=0.2 PL=0
TIMER T=0.75
MOVJ C00337 VJ=0.2 PL=0
TIMER T=0.75
MOVJ C00338 VJ=0.2 PL=0
TIMER T=0.75
MOVJ C00339 VJ=0.2 PL=0
TIMER T=0.75
MOVJ C00340 VJ=0.2 PL=0
TIMER T=0.75
MOVJ C00341 VJ=0.2 PL=0
TIMER T=0.75
MOVJ C00342 VJ=0.2 PL=0
TIMER T=0.75
MOVJ C00343 VJ=0.2 PL=0
TIMER T=0.75
MOVJ C00344 VJ=0.2 PL=0
TIMER T=0.75
MOVJ C00345 VJ=0.2 PL=0
TIMER T=0.75
MOVJ C00346 VJ=0.2 PL=0
TIMER T=0.75
MOVJ C00347 VJ=0.2 PL=0
TIMER T=0.75
MOVJ C00348 VJ=0.2 PL=0
TIMER T=0.75
MOVJ C00349 VJ=0.2 PL=0
TIMER T=0.75
MOVJ C00350 VJ=0.2 PL=0
TIMER T=0.75
MOVJ C00351 VJ=0.2 PL=0
TIMER T=0.75
MOVJ C00352 VJ=0.2 PL=0
TIMER T=0.75
MOVJ C00353 VJ=0.2 PL=0
TIMER T=0.75
MOVJ C00354 VJ=0.2 PL=0
TIMER T=0.75
MOVJ C00355 VJ=0.2 PL=0
TIMER T=0.75
MOVJ C00356 VJ=0.2 PL=0
TIMER T=0.75
MOVJ C00357 VJ=0.2 PL=0
TIMER T=0.75
MOVJ C00358 VJ=0.2 PL=0
TIMER T=0.75
MOVJ C00359 VJ=0.2 PL=0
TIMER T=0.75
MOVJ C00360 VJ=0.2 PL=0
TIMER T=0.75
MOVJ C00361 VJ=0.2 PL=0
TIMER T=0.75
MOVJ C00362 VJ=0.2 PL=0
TIMER T=0.75
MOVJ C00363 VJ=0.2 PL=0
TIMER T=0.75
MOVJ C00364 VJ=0.2 PL=0
TIMER T=0.75
MOVJ C00365 VJ=0.2 PL=0
TIMER T=0.75
MOVJ C00366 VJ=0.2 PL=0
TIMER T=0.75
MOVJ C00367 VJ=0.2 PL=0
TIMER T=0.75
MOVJ C00368 VJ=0.2 PL=0
TIMER T=0.75
MOVJ C00369 VJ=0.2 PL=0
TIMER T=0.75
MOVJ C00370 VJ=0.2 PL=0
TIMER T=0.75
MOVJ C00371 VJ=0.2 PL=0
TIMER T=0.75
MOVJ C00372 VJ=0.2 PL=0
TIMER T=0.75
MOVJ C00373 VJ=0.2 PL=0
TIMER T=0.75
MOVJ C00374 VJ=0.2 PL=0
TIMER T=0.75
MOVJ C00375 VJ=0.2 PL=0
TIMER T=0.75
MOVJ C00376 VJ=0.2 PL=0
TIMER T=0.75
MOVJ C00377 VJ=0.2 PL=0
TIMER T=0.75
MOVJ C00378 VJ=0.2 PL=0
TIMER T=0.75
MOVJ C00379 VJ=0.2 PL=0
TIMER T=0.75
MOVJ C00380 VJ=0.2 PL=0
TIMER T=0.75
MOVJ C00381 VJ=0.2 PL=0
TIMER T=0.75
MOVJ C00382 VJ=0.2 PL=0
TIMER T=0.75
MOVJ C00383 VJ=0.2 PL=0
TIMER T=0.75
MOVJ C00384 VJ=0.2 PL=0
TIMER T=0.75
MOVJ C00385 VJ=0.2 PL=0
TIMER T=0.75
MOVJ C00386 VJ=0.2 PL=0
TIMER T=0.75
MOVJ C00387 VJ=0.2 PL=0
TIMER T=0.75
MOVJ C00388 VJ=0.2 PL=0
TIMER T=0.75
MOVJ C00389 VJ=0.2 PL=0
TIMER T=0.75
MOVJ C00390 VJ=0.2 PL=0
TIMER T=0.75
MOVJ C00391 VJ=0.2 PL=0
TIMER T=0.75
MOVJ C00392 VJ=0.2 PL=0
TIMER T=0.75
MOVJ C00393 VJ=0.2 PL=0
TIMER T=0.75
MOVJ C00394 VJ=0.2 PL=0
TIMER T=0.75
MOVJ C00395 VJ=0.2 PL=0
TIMER T=0.75
MOVJ C00396 VJ=0.2 PL=0
TIMER T=0.75
MOVJ C00397 VJ=0.2 PL=0
TIMER T=0.75
MOVJ C00398 VJ=0.2 PL=0
TIMER T=0.75
MOVJ C00399 VJ=0.2 PL=0
TIMER T=0.75
MOVJ C00400 VJ=0.2 PL=0
TIMER T=0.75
MOVJ C00401 VJ=0.2 PL=0
TIMER T=0.75
MOVJ C00402 VJ=0.2 PL=0
TIMER T=0.75
MOVJ C00403 VJ=0.2 PL=0
TIMER T=0.75
MOVJ C00404 VJ=0.2 PL=0
TIMER T=0.75
MOVJ C00405 VJ=0.2 PL=0
TIMER T=0.75
MOVJ C00406 VJ=0.2 PL=0
TIMER T=0.75
MOVJ C00407 VJ=0.2 PL=0
TIMER T=0.75
MOVJ C00408 VJ=0.2 PL=0
TIMER T=0.75
MOVJ C00409 VJ=0.2 PL=0
TIMER T=0.75
MOVJ C00410 VJ=0.2 PL=0
TIMER T=0.75
MOVJ C00411 VJ=0.2 PL=0
TIMER T=0.75
MOVJ C00412 VJ=0.2 PL=0
TIMER T=0.75
MOVJ C00413 VJ=0.2 PL=0
TIMER T=0.75
MOVJ C00414 VJ=0.2 PL=0
TIMER T=0.75
MOVJ C00415 VJ=0.2 PL=0
TIMER T=0.75
MOVJ C00416 VJ=0.2 PL=0
TIMER T=0.75
MOVJ C00417 VJ=0.2 PL=0
TIMER T=0.75
MOVJ C00418 VJ=0.2 PL=0
TIMER T=0.75
MOVJ C00419 VJ=0.2 PL=0
TIMER T=0.75
MOVJ C00420 VJ=0.2 PL=0
TIMER T=0.75
MOVJ C00421 VJ=0.2 PL=0
TIMER T=0.75
MOVJ C00422 VJ=0.2 PL=0
TIMER T=0.75
MOVJ C00423 VJ=0.2 PL=0
TIMER T=0.75
MOVJ C00424 VJ=0.2 PL=0
TIMER T=0.75
MOVJ C00425 VJ=0.2 PL=0
TIMER T=0.75
MOVJ C00426 VJ=0.2 PL=0
TIMER T=0.75
MOVJ C00427 VJ=0.2 PL=0
TIMER T=0.75
MOVJ C00428 VJ=0.2 PL=0
TIMER T=0.75
MOVJ C00429 VJ=0.2 PL=0
TIMER T=0.75
MOVJ C00430 VJ=0.2 PL=0
TIMER T=0.75
MOVJ C00431 VJ=0.2 PL=0
TIMER T=0.75
MOVJ C00432 VJ=0.2 PL=0
TIMER T=0.75
MOVJ C00433 VJ=0.2 PL=0
TIMER T=0.75
MOVJ C00434 VJ=0.2 PL=0
TIMER T=0.75
MOVJ C00435 VJ=0.2 PL=0
TIMER T=0.75
MOVJ C00436 VJ=0.2 PL=0
TIMER T=0.75
MOVJ C00437 VJ=0.2 PL=0
TIMER T=0.75
MOVJ C00438 VJ=0.2 PL=0
TIMER T=0.75
MOVJ C00439 VJ=0.2 PL=0
TIMER T=0.75
MOVJ C00440 VJ=0.2 PL=0
TIMER T=0.75
MOVJ C00441 VJ=0.2 PL=0
TIMER T=0.75
MOVJ C00442 VJ=0.2 PL=0
TIMER T=0.75
MOVJ C00443 VJ=0.2 PL=0
TIMER T=0.75
MOVJ C00444 VJ=0.2 PL=0
TIMER T=0.75
MOVJ C00445 VJ=0.2 PL=0
TIMER T=0.75
MOVJ C00446 VJ=0.2 PL=0
TIMER T=0.75
MOVJ C00447 VJ=0.2 PL=0
TIMER T=0.75
MOVJ C00448 VJ=0.2 PL=0
TIMER T=0.75
MOVJ C00449 VJ=0.2 PL=0
TIMER T=0.75
MOVJ C00450 VJ=0.2 PL=0
TIMER T=0.75
MOVJ C00451 VJ=0.2 PL=0
TIMER T=0.75
MOVJ C00452 VJ=0.2 PL=0
TIMER T=0.75
MOVJ C00453 VJ=0.2 PL=0
TIMER T=0.75
MOVJ C00454 VJ=0.2 PL=0
TIMER T=0.75
MOVJ C00455 VJ=0.2 PL=0
TIMER T=0.75
MOVJ C00456 VJ=0.2 PL=0
TIMER T=0.75
MOVJ C00457 VJ=0.2 PL=0
TIMER T=0.75
MOVJ C00458 VJ=0.2 PL=0
TIMER T=0.75
MOVJ C00459 VJ=0.2 PL=0
TIMER T=0.75
MOVJ C00460 VJ=0.2 PL=0
TIMER T=0.75
MOVJ C00461 VJ=0.2 PL=0
TIMER T=0.75
MOVJ C00462 VJ=0.2 PL=0
TIMER T=0.75
MOVJ C00463 VJ=0.2 PL=0
TIMER T=0.75
MOVJ C00464 VJ=0.2 PL=0
TIMER T=0.75
MOVJ C00465 VJ=0.2 PL=0
TIMER T=0.75
MOVJ C00466 VJ=0.2 PL=0
TIMER T=0.75
MOVJ C00467 VJ=0.2 PL=0
TIMER T=0.75
MOVJ C00468 VJ=0.2 PL=0
TIMER T=0.75
MOVJ C00469 VJ=0.2 PL=0
TIMER T=0.75
MOVJ C00470 VJ=0.2 PL=0
TIMER T=0.75
MOVJ C00471 VJ=0.2 PL=0
TIMER T=0.75
MOVJ C00472 VJ=0.2 PL=0
TIMER T=0.75
MOVJ C00473 VJ=0.2 PL=0
TIMER T=0.75
MOVJ C00474 VJ=0.2 PL=0
TIMER T=0.75
MOVJ C00475 VJ=0.2 PL=0
TIMER T=0.75
MOVJ C00476 VJ=0.2 PL=0
TIMER T=0.75
MOVJ C00477 VJ=0.2 PL=0
TIMER T=0.75
MOVJ C00478 VJ=0.2 PL=0
TIMER T=0.75
MOVJ C00479 VJ=0.2 PL=0
TIMER T=0.75
MOVJ C00480 VJ=0.2 PL=0
TIMER T=0.75
MOVJ C00481 VJ=0.2 PL=0
TIMER T=0.75
MOVJ C00482 VJ=0.2 PL=0
TIMER T=0.75
MOVJ C00483 VJ=0.2 PL=0
TIMER T=0.75
MOVJ C00484 VJ=0.2 PL=0
TIMER T=0.75
MOVJ C00485 VJ=0.2 PL=0
TIMER T=0.75
MOVJ C00486 VJ=0.2 PL=0
TIMER T=0.75
MOVJ C00487 VJ=0.2 PL=0
TIMER T=0.75
MOVJ C00488 VJ=0.2 PL=0
TIMER T=0.75
MOVJ C00489 VJ=0.2 PL=0
TIMER T=0.75
MOVJ C00490 VJ=0.2 PL=0
TIMER T=0.75
MOVJ C00491 VJ=0.2 PL=0
TIMER T=0.75
MOVJ C00492 VJ=0.2 PL=0
TIMER T=0.75
MOVJ C00493 VJ=0.2 PL=0
TIMER T=0.75
MOVJ C00494 VJ=0.2 PL=0
TIMER T=0.75
MOVJ C00495 VJ=0.2 PL=0
TIMER T=0.75
MOVJ C00496 VJ=0.2 PL=0
TIMER T=0.75
END
