/JOB
//NAME AAA
//POS
///NPOS 12,0,0,0,0,0
///TOOL 12
///POSTYPE PULSE
///PULSE
C00000=42924,26707,-7964,22503,-36269,9095
C00001=-9129,1448,-38862,-22891,-30156,25600
C00002=-54997,59138,9557,-41937,-48032,30014
C00003=-41592,-29259,-61139,-57772,-33384,32358
C00004=0,-114460,-95573,0,-21565,0
C00005=0,-52801,-52475,0,-5622,0
C00006=0,0,0,0,8,0
C00007=0,44285,7081,0,22319,0
C00008=0,108737,49380,0,33328,0
C00009=15156,43838,-7684,11329,7098,7120
C00010=42924,26707,-7964,22503,-36269,9095
C00011=19508,-4991,-18445,9109,-15651,7334
//INST
///DATE 2023/09/05 17:14
///ATTR SC,RW
///GROUP1 RB1
NOP
MOVJ C00000 VJ=10.0 PL=0
TIMER T=0.10
MOVJ C00001 VJ=10.0 PL=0
TIMER T=0.10
MOVJ C00002 VJ=10.0 PL=0
TIMER T=0.10
MOVJ C00003 VJ=10.0 PL=0
TIMER T=0.10
MOVJ C00004 VJ=10.0 PL=0
TIMER T=0.10
MOVJ C00005 VJ=10.0 PL=0
TIMER T=0.10
MOVJ C00006 VJ=10.0 PL=0
TIMER T=0.10
MOVJ C00007 VJ=10.0 PL=0
TIMER T=0.10
MOVJ C00008 VJ=10.0 PL=0
TIMER T=0.10
MOVJ C00009 VJ=10.0 PL=0
TIMER T=0.10
MOVJ C00010 VJ=10.0 PL=0
TIMER T=0.10
MOVJ C00011 VJ=10.0 PL=0
TIMER T=0.10
END
