/JOB
//NAME AAA
//POS
///NPOS 1500,0,0,0,0,0
///TOOL 12
///POSTYPE PULSE
///PULSE
C00000=44266,34338,-22300,-51143,35289,28650
C00001=44074,34006,-22665,-50958,35276,28525
C00002=43881,33676,-23027,-50773,35262,28401
C00003=43688,33347,-23388,-50588,35249,28277
C00004=43494,33019,-23746,-50402,35234,28154
C00005=43299,32692,-24103,-50217,35220,28030
C00006=43104,32367,-24457,-50031,35205,27906
C00007=42907,32043,-24810,-49845,35189,27783
C00008=42710,31720,-25161,-49659,35173,27659
C00009=42513,31399,-25509,-49473,35157,27536
C00010=42314,31079,-25856,-49287,35140,27412
C00011=42115,30760,-26201,-49100,35123,27289
C00012=41916,30442,-26545,-48913,35105,27166
C00013=41715,30126,-26886,-48726,35087,27043
C00014=41514,29811,-27225,-48538,35069,26920
C00015=41312,29497,-27562,-48351,35050,26796
C00016=41109,29185,-27898,-48163,35031,26673
C00017=40906,28874,-28232,-47975,35011,26550
C00018=40701,28564,-28563,-47786,34991,26427
C00019=40497,28255,-28893,-47597,34970,26304
C00020=40291,27948,-29221,-47408,34949,26181
C00021=40084,27642,-29547,-47219,34928,26058
C00022=39877,27338,-29871,-47029,34906,25935
C00023=39670,27034,-30194,-46839,34884,25812
C00024=39461,26733,-30514,-46648,34861,25689
C00025=39252,26432,-30833,-46457,34838,25566
C00026=39042,26133,-31150,-46266,34815,25443
C00027=38831,25835,-31464,-46074,34791,25320
C00028=38619,25538,-31777,-45882,34767,25197
C00029=38407,25243,-32089,-45689,34742,25073
C00030=38194,24949,-32398,-45496,34717,24950
C00031=37980,24656,-32705,-45303,34692,24827
C00032=37766,24365,-33011,-45109,34666,24703
C00033=37551,24075,-33315,-44914,34640,24580
C00034=37335,23787,-33617,-44719,34614,24456
C00035=37118,23499,-33917,-44524,34587,24333
C00036=36900,23214,-34215,-44328,34560,24209
C00037=36682,22929,-34511,-44132,34532,24085
C00038=36463,22646,-34806,-43935,34504,23961
C00039=36244,22364,-35098,-43737,34475,23838
C00040=36023,22084,-35389,-43539,34447,23713
C00041=35802,21805,-35678,-43340,34417,23589
C00042=35580,21528,-35965,-43141,34388,23465
C00043=35358,21252,-36250,-42941,34358,23341
C00044=35134,20977,-36534,-42741,34328,23216
C00045=34910,20704,-36815,-42540,34297,23091
C00046=34685,20432,-37095,-42338,34267,22966
C00047=34460,20162,-37373,-42136,34235,22842
C00048=34233,19893,-37649,-41933,34204,22716
C00049=34006,19625,-37923,-41729,34172,22591
C00050=33778,19359,-38195,-41525,34140,22466
C00051=33550,19094,-38466,-41320,34107,22340
C00052=33321,18831,-38735,-41114,34074,22214
C00053=33091,18569,-39001,-40908,34041,22088
C00054=32860,18309,-39266,-40701,34007,21962
C00055=32628,18051,-39529,-40493,33974,21836
C00056=32396,17793,-39791,-40285,33939,21709
C00057=32163,17538,-40050,-40075,33905,21583
C00058=31929,17283,-40308,-39865,33870,21456
C00059=31695,17031,-40563,-39655,33835,21329
C00060=31460,16779,-40817,-39443,33800,21201
C00061=31224,16530,-41069,-39231,33764,21074
C00062=30987,16282,-41319,-39018,33728,20946
C00063=30750,16035,-41568,-38804,33692,20818
C00064=30512,15790,-41814,-38589,33656,20690
C00065=30273,15546,-42059,-38374,33619,20561
C00066=30034,15304,-42302,-38157,33582,20433
C00067=29794,15064,-42542,-37940,33545,20304
C00068=29553,14825,-42781,-37722,33508,20174
C00069=29311,14588,-43019,-37503,33470,20045
C00070=29069,14352,-43254,-37283,33432,19915
C00071=28826,14118,-43487,-37063,33394,19785
C00072=28582,13886,-43719,-36841,33355,19655
C00073=28337,13655,-43949,-36619,33317,19524
C00074=28092,13426,-44176,-36395,33278,19394
C00075=27846,13198,-44402,-36171,33239,19262
C00076=27600,12973,-44626,-35946,33200,19131
C00077=27352,12748,-44849,-35720,33160,18999
C00078=27104,12526,-45069,-35493,33121,18867
C00079=26856,12305,-45287,-35265,33081,18735
C00080=26606,12086,-45504,-35035,33041,18602
C00081=26356,11868,-45719,-34806,33001,18469
C00082=26105,11653,-45931,-34575,32961,18336
C00083=25854,11439,-46142,-34343,32920,18202
C00084=25602,11226,-46351,-34110,32880,18068
C00085=25349,11015,-46559,-33876,32839,17934
C00086=25096,10807,-46764,-33641,32798,17800
C00087=24841,10599,-46967,-33405,32757,17665
C00088=24587,10394,-47169,-33168,32716,17529
C00089=24331,10190,-47368,-32930,32675,17394
C00090=24075,9989,-47566,-32691,32634,17258
C00091=23818,9788,-47762,-32451,32592,17121
C00092=23561,9590,-47956,-32210,32551,16985
C00093=23303,9394,-48147,-31968,32509,16848
C00094=23044,9199,-48337,-31724,32468,16710
C00095=22784,9006,-48525,-31480,32426,16572
C00096=22524,8815,-48712,-31235,32384,16434
C00097=22264,8626,-48896,-30988,32342,16296
C00098=22002,8439,-49078,-30741,32301,16157
C00099=21740,8253,-49259,-30492,32259,16017
C00100=21478,8070,-49437,-30242,32217,15878
C00101=21215,7888,-49614,-29992,32175,15738
C00102=20951,7708,-49788,-29740,32133,15597
C00103=20686,7530,-49961,-29487,32091,15456
C00104=20421,7354,-50132,-29233,32049,15315
C00105=20156,7180,-50301,-28977,32007,15173
C00106=19890,7008,-50468,-28721,31965,15031
C00107=19623,6838,-50633,-28463,31923,14889
C00108=19355,6669,-50796,-28205,31881,14746
C00109=19087,6503,-50957,-27945,31839,14602
C00110=18819,6339,-51116,-27684,31798,14459
C00111=18550,6176,-51273,-27422,31756,14315
C00112=18280,6016,-51428,-27159,31714,14170
C00113=18010,5857,-51581,-26895,31673,14025
C00114=17739,5701,-51733,-26629,31631,13880
C00115=17467,5546,-51882,-26362,31590,13734
C00116=17195,5394,-52029,-26095,31549,13588
C00117=16923,5244,-52175,-25826,31508,13441
C00118=16650,5095,-52318,-25556,31467,13294
C00119=16376,4949,-52459,-25285,31426,13146
C00120=16102,4805,-52599,-25012,31385,12998
C00121=15827,4663,-52736,-24739,31344,12850
C00122=15552,4522,-52872,-24464,31304,12701
C00123=15277,4384,-53005,-24188,31264,12552
C00124=15001,4248,-53137,-23912,31224,12402
C00125=14724,4115,-53266,-23634,31184,12252
C00126=14447,3983,-53394,-23354,31144,12102
C00127=14169,3853,-53519,-23074,31104,11951
C00128=13891,3726,-53643,-22793,31065,11800
C00129=13613,3600,-53764,-22510,31026,11648
C00130=13333,3477,-53884,-22227,30987,11496
C00131=13054,3356,-54001,-21942,30949,11343
C00132=12774,3237,-54117,-21656,30910,11190
C00133=12494,3121,-54230,-21369,30872,11037
C00134=12213,3006,-54342,-21081,30834,10883
C00135=11931,2894,-54451,-20792,30797,10728
C00136=11650,2783,-54558,-20501,30759,10574
C00137=11368,2676,-54664,-20210,30722,10419
C00138=11085,2570,-54767,-19917,30686,10263
C00139=10802,2466,-54868,-19624,30649,10107
C00140=10519,2365,-54968,-19329,30613,9951
C00141=10235,2266,-55065,-19034,30577,9794
C00142=9951,2169,-55160,-18737,30542,9637
C00143=9667,2074,-55253,-18439,30507,9479
C00144=9382,1982,-55345,-18141,30472,9321
C00145=9096,1892,-55434,-17841,30437,9163
C00146=8811,1804,-55521,-17540,30403,9004
C00147=8525,1718,-55606,-17238,30370,8845
C00148=8239,1635,-55689,-16936,30336,8686
C00149=7952,1554,-55770,-16632,30303,8526
C00150=7665,1475,-55849,-16327,30271,8366
C00151=7378,1399,-55926,-16021,30238,8205
C00152=7090,1324,-56000,-15715,30207,8044
C00153=6802,1253,-56073,-15407,30175,7883
C00154=6514,1183,-56144,-15099,30144,7721
C00155=6226,1116,-56212,-14789,30114,7559
C00156=5937,1051,-56279,-14479,30084,7397
C00157=5648,989,-56344,-14168,30054,7234
C00158=5359,928,-56406,-13856,30025,7071
C00159=5069,870,-56466,-13543,29996,6908
C00160=4780,815,-56524,-13230,29968,6744
C00161=4490,762,-56581,-12915,29940,6580
C00162=4199,711,-56635,-12600,29913,6416
C00163=3909,662,-56687,-12284,29886,6251
C00164=3618,616,-56737,-11967,29859,6086
C00165=3328,572,-56785,-11649,29833,5921
C00166=3036,531,-56831,-11331,29808,5755
C00167=2745,492,-56874,-11012,29783,5590
C00168=2454,456,-56916,-10692,29758,5424
C00169=2162,421,-56956,-10372,29734,5257
C00170=1871,389,-56993,-10051,29711,5091
C00171=1579,360,-57029,-9729,29688,4924
C00172=1287,333,-57062,-9407,29666,4757
C00173=994,308,-57093,-9084,29644,4590
C00174=702,286,-57122,-8761,29623,4422
C00175=410,266,-57150,-8436,29602,4255
C00176=117,249,-57175,-8112,29581,4087
C00177=-175,233,-57197,-7787,29562,3919
C00178=-468,221,-57218,-7461,29542,3750
C00179=-761,210,-57237,-7135,29524,3582
C00180=-1054,203,-57254,-6808,29506,3413
C00181=-1347,197,-57268,-6481,29488,3245
C00182=-1640,194,-57280,-6154,29471,3076
C00183=-1933,193,-57291,-5826,29455,2906
C00184=-2226,195,-57299,-5498,29439,2737
C00185=-2519,199,-57305,-5169,29423,2568
C00186=-2812,206,-57309,-4840,29409,2398
C00187=-3105,215,-57311,-4511,29394,2229
C00188=-3399,226,-57311,-4181,29381,2059
C00189=-3692,240,-57309,-3852,29368,1889
C00190=-3985,256,-57304,-3522,29355,1719
C00191=-4278,275,-57298,-3191,29343,1549
C00192=-4571,296,-57290,-2861,29332,1379
C00193=-4864,319,-57279,-2530,29321,1209
C00194=-5157,345,-57266,-2199,29311,1039
C00195=-5450,374,-57251,-1869,29301,869
C00196=-5743,404,-57234,-1538,29292,699
C00197=-6036,437,-57215,-1206,29283,529
C00198=-6329,473,-57194,-875,29275,358
C00199=-6621,510,-57171,-544,29268,188
C00200=-6914,551,-57146,-213,29261,18
C00201=-7206,593,-57118,118,29255,-152
C00202=-7499,638,-57089,450,29249,-323
C00203=-7791,686,-57057,781,29243,-493
C00204=-8083,736,-57024,1112,29239,-663
C00205=-8375,788,-56988,1443,29235,-833
C00206=-8667,842,-56950,1774,29231,-1003
C00207=-8958,899,-56910,2105,29228,-1173
C00208=-9250,959,-56868,2435,29226,-1343
C00209=-9541,1021,-56824,2766,29224,-1513
C00210=-9832,1085,-56777,3096,29222,-1682
C00211=-10123,1151,-56729,3426,29222,-1852
C00212=-10414,1220,-56678,3756,29221,-2021
C00213=-10704,1291,-56626,4085,29221,-2191
C00214=-10994,1364,-56571,4414,29222,-2360
C00215=-11284,1440,-56515,4743,29223,-2529
C00216=-11574,1519,-56456,5072,29225,-2698
C00217=-11864,1599,-56395,5400,29228,-2867
C00218=-12153,1682,-56332,5728,29230,-3036
C00219=-12442,1767,-56267,6056,29234,-3204
C00220=-12731,1854,-56200,6383,29237,-3372
C00221=-13019,1944,-56131,6709,29242,-3540
C00222=-13307,2036,-56059,7036,29246,-3708
C00223=-13595,2131,-55986,7361,29252,-3876
C00224=-13883,2227,-55911,7687,29257,-4044
C00225=-14170,2326,-55833,8011,29263,-4211
C00226=-14457,2428,-55754,8336,29270,-4378
C00227=-14744,2531,-55672,8659,29277,-4545
C00228=-15030,2637,-55588,8983,29285,-4712
C00229=-15316,2745,-55502,9305,29293,-4878
C00230=-15602,2855,-55414,9627,29301,-5044
C00231=-15887,2968,-55325,9949,29310,-5210
C00232=-16172,3083,-55232,10270,29319,-5376
C00233=-16456,3200,-55138,10590,29329,-5541
C00234=-16741,3319,-55042,10910,29339,-5706
C00235=-17025,3440,-54944,11229,29350,-5871
C00236=-17308,3564,-54844,11547,29361,-6036
C00237=-17591,3690,-54742,11865,29372,-6200
C00238=-17873,3818,-54637,12181,29384,-6364
C00239=-18156,3949,-54531,12498,29396,-6528
C00240=-18438,4081,-54422,12813,29408,-6691
C00241=-18719,4216,-54312,13128,29421,-6854
C00242=-19000,4353,-54199,13442,29434,-7017
C00243=-19280,4491,-54085,13755,29448,-7180
C00244=-19560,4633,-53968,14068,29462,-7342
C00245=-19840,4776,-53850,14380,29476,-7504
C00246=-20119,4921,-53729,14691,29490,-7665
C00247=-20398,5069,-53606,15001,29505,-7827
C00248=-20676,5218,-53481,15310,29520,-7988
C00249=-20954,5370,-53354,15619,29536,-8148
C00250=-21231,5524,-53226,15926,29551,-8308
C00251=-21507,5680,-53095,16233,29567,-8468
C00252=-21784,5838,-52962,16539,29584,-8628
C00253=-22059,5998,-52827,16844,29600,-8787
C00254=-22335,6160,-52690,17149,29617,-8946
C00255=-22609,6324,-52551,17452,29634,-9105
C00256=-22884,6490,-52410,17755,29651,-9263
C00257=-23157,6659,-52267,18057,29669,-9421
C00258=-23430,6829,-52122,18358,29686,-9578
C00259=-23703,7001,-51975,18658,29704,-9736
C00260=-23975,7175,-51826,18957,29723,-9892
C00261=-24247,7352,-51675,19255,29741,-10049
C00262=-24517,7530,-51522,19553,29759,-10205
C00263=-24788,7710,-51367,19849,29778,-10361
C00264=-25058,7892,-51210,20145,29797,-10516
C00265=-25327,8077,-51051,20439,29816,-10671
C00266=-25596,8263,-50890,20733,29835,-10826
C00267=-25864,8451,-50727,21026,29855,-10981
C00268=-26131,8641,-50562,21318,29874,-11135
C00269=-26398,8833,-50395,21609,29894,-11288
C00270=-26664,9027,-50226,21899,29914,-11442
C00271=-26930,9222,-50055,22188,29933,-11595
C00272=-27195,9420,-49882,22477,29953,-11747
C00273=-27460,9619,-49707,22764,29974,-11900
C00274=-27724,9821,-49530,23051,29994,-12052
C00275=-27987,10024,-49351,23336,30014,-12203
C00276=-28250,10229,-49170,23621,30034,-12355
C00277=-28512,10436,-48987,23905,30055,-12505
C00278=-28773,10645,-48803,24188,30075,-12656
C00279=-29034,10855,-48616,24470,30096,-12806
C00280=-29294,11068,-48427,24751,30116,-12956
C00281=-29554,11282,-48236,25031,30137,-13106
C00282=-29813,11498,-48044,25310,30157,-13255
C00283=-30071,11716,-47849,25589,30178,-13404
C00284=-30329,11935,-47653,25866,30199,-13553
C00285=-30586,12157,-47454,26143,30219,-13701
C00286=-30842,12380,-47254,26419,30240,-13849
C00287=-31097,12605,-47051,26694,30260,-13997
C00288=-31352,12831,-46847,26968,30281,-14144
C00289=-31607,13060,-46640,27241,30302,-14291
C00290=-31860,13289,-46432,27513,30322,-14438
C00291=-32113,13521,-46222,27784,30343,-14584
C00292=-32366,13755,-46010,28055,30363,-14730
C00293=-32617,13990,-45796,28325,30384,-14876
C00294=-32868,14227,-45580,28594,30404,-15021
C00295=-33118,14465,-45362,28862,30424,-15167
C00296=-33368,14705,-45142,29129,30444,-15312
C00297=-33617,14947,-44920,29395,30464,-15456
C00298=-33865,15191,-44696,29661,30484,-15601
C00299=-34112,15436,-44470,29926,30504,-15745
C00300=-34359,15682,-44243,30190,30524,-15889
C00301=-34605,15931,-44013,30453,30544,-16032
C00302=-34850,16181,-43782,30715,30563,-16175
C00303=-35095,16433,-43548,30977,30583,-16319
C00304=-35339,16686,-43313,31238,30602,-16461
C00305=-35582,16940,-43076,31498,30621,-16604
C00306=-35825,17197,-42836,31758,30641,-16746
C00307=-36067,17455,-42595,32016,30660,-16888
C00308=-36308,17714,-42352,32274,30678,-17030
C00309=-36548,17975,-42107,32531,30697,-17172
C00310=-36788,18238,-41860,32788,30715,-17313
C00311=-37027,18502,-41612,33044,30734,-17454
C00312=-37265,18768,-41361,33299,30752,-17595
C00313=-37502,19035,-41108,33553,30770,-17736
C00314=-37739,19304,-40854,33807,30787,-17877
C00315=-37975,19574,-40597,34060,30805,-18017
C00316=-38211,19846,-40339,34312,30822,-18157
C00317=-38445,20119,-40079,34564,30840,-18297
C00318=-38679,20393,-39817,34815,30856,-18437
C00319=-38912,20670,-39553,35065,30873,-18576
C00320=-39145,20947,-39287,35315,30890,-18716
C00321=-39376,21226,-39019,35565,30906,-18855
C00322=-39607,21507,-38749,35813,30922,-18994
C00323=-39838,21789,-38477,36061,30938,-19133
C00324=-40067,22073,-38203,36309,30954,-19272
C00325=-40296,22358,-37928,36556,30969,-19411
C00326=-40524,22644,-37650,36802,30984,-19549
C00327=-40751,22932,-37371,37048,30999,-19688
C00328=-40978,23221,-37090,37293,31014,-19826
C00329=-41203,23512,-36807,37538,31028,-19964
C00330=-41428,23804,-36521,37782,31042,-20102
C00331=-41653,24097,-36234,38026,31056,-20240
C00332=-41876,24392,-35945,38270,31070,-20378
C00333=-42099,24688,-35655,38513,31083,-20516
C00334=-42321,24986,-35362,38755,31096,-20653
C00335=-42543,25285,-35067,38997,31109,-20791
C00336=-42763,25585,-34771,39238,31122,-20928
C00337=-42983,25887,-34472,39480,31134,-21066
C00338=-43202,26190,-34171,39720,31146,-21203
C00339=-43421,26495,-33869,39961,31158,-21341
C00340=-43638,26801,-33565,40200,31169,-21478
C00341=-43855,27108,-33259,40440,31180,-21615
C00342=-44071,27416,-32951,40679,31191,-21752
C00343=-44287,27726,-32640,-143197,-31202,59966
C00344=-44502,28037,-32328,-142959,-31212,59829
C00345=-44716,28350,-32015,-142720,-31222,59692
C00346=-44929,28664,-31699,-142482,-31232,59555
C00347=-45141,28979,-31381,-142245,-31241,59418
C00348=-45353,29296,-31061,-142008,-31250,59281
C00349=-45564,29614,-30739,-141770,-31259,59144
C00350=-45774,29933,-30416,-141534,-31267,59007
C00351=-45984,30253,-30090,-141297,-31275,58869
C00352=-46193,30575,-29763,-141061,-31283,58732
C00353=-46401,30898,-29433,-140824,-31291,58595
C00354=-46608,31223,-29102,-140589,-31298,58458
C00355=-46815,31549,-28768,-140353,-31305,58320
C00356=-47021,31876,-28433,-140117,-31311,58183
C00357=-47226,32204,-28096,-139882,-31318,58046
C00358=-47430,32534,-27756,-139646,-31323,57908
C00359=-47634,32865,-27415,-139411,-31329,57771
C00360=-47837,33197,-27072,-139176,-31334,57633
C00361=-48039,33531,-26727,-138941,-31339,57495
C00362=-48241,33866,-26380,-138706,-31344,57358
C00363=-48442,34202,-26030,-138472,-31348,57220
C00364=-48642,34539,-25679,-138237,-31352,57082
C00365=-48841,34878,-25326,-138002,-31356,56943
C00366=-49040,35218,-24971,-137767,-31359,56805
C00367=-49237,35559,-24614,-137533,-31363,56667
C00368=-49435,35902,-24255,-137298,-31365,56528
C00369=-49631,36246,-23893,47052,31368,-25466
C00370=-49560,35641,-24413,47110,31350,-25448
C00371=-49489,35036,-24931,47169,31330,-25430
C00372=-49417,34430,-25447,47230,31310,-25413
C00373=-49344,33825,-25961,47291,31288,-25396
C00374=-49271,33219,-26473,47354,31266,-25380
C00375=-49198,32614,-26984,47418,31242,-25365
C00376=-49124,32008,-27492,47482,31217,-25351
C00377=-49049,31402,-27998,47548,31190,-25337
C00378=-48974,30796,-28503,47615,31163,-25324
C00379=-48899,30190,-29005,47683,31134,-25311
C00380=-48823,29583,-29506,47753,31105,-25300
C00381=-48747,28976,-30005,47823,31074,-25289
C00382=-48670,28369,-30502,47894,31042,-25279
C00383=-48592,27762,-30997,47967,31008,-25269
C00384=-48514,27154,-31490,48041,30974,-25260
C00385=-48435,26546,-31982,48116,30938,-25252
C00386=-48356,25938,-32471,48192,30901,-25245
C00387=-48277,25329,-32959,48269,30864,-25238
C00388=-48196,24720,-33445,48348,30824,-25233
C00389=-48115,24111,-33929,48427,30784,-25228
C00390=-48034,23501,-34412,48508,30743,-25223
C00391=-47952,22891,-34893,48591,30700,-25220
C00392=-47870,22281,-35372,48674,30656,-25217
C00393=-47787,21670,-35849,48759,30611,-25215
C00394=-47703,21058,-36325,48845,30565,-25214
C00395=-47619,20446,-36798,48932,30518,-25213
C00396=-47534,19834,-37270,49020,30469,-25214
C00397=-47449,19221,-37741,49110,30419,-25215
C00398=-47363,18608,-38209,49202,30369,-25217
C00399=-47276,17994,-38676,49294,30317,-25220
C00400=-47189,17380,-39141,49388,30263,-25224
C00401=-47101,16765,-39605,49484,30209,-25228
C00402=-47012,16150,-40067,49580,30153,-25234
C00403=-46923,15534,-40527,49678,30097,-25240
C00404=-46834,14917,-40986,49778,30039,-25247
C00405=-46743,14300,-41442,49879,29980,-25255
C00406=-46652,13682,-41897,49982,29919,-25264
C00407=-46561,13064,-42351,50086,29858,-25274
C00408=-46468,12445,-42803,50191,29795,-25285
C00409=-46375,11825,-43253,50299,29731,-25297
C00410=-46282,11205,-43702,50407,29666,-25309
C00411=-46187,10584,-44149,50518,29600,-25323
C00412=-46092,9963,-44594,50630,29533,-25337
C00413=-45997,9341,-45038,50743,29464,-25353
C00414=-45900,8717,-45480,50859,29394,-25369
C00415=-45803,8094,-45920,50976,29323,-25387
C00416=-45705,7469,-46359,51094,29251,-25405
C00417=-45607,6844,-46796,51215,29178,-25425
C00418=-45508,6219,-47232,51337,29104,-25445
C00419=-45408,5592,-47666,51461,29028,-25467
C00420=-45307,4965,-48098,51587,28951,-25490
C00421=-45205,4337,-48529,51715,28873,-25513
C00422=-45103,3708,-48958,51844,28794,-25538
C00423=-45000,3078,-49385,51976,28713,-25564
C00424=-44897,2448,-49811,52110,28632,-25591
C00425=-44792,1817,-50236,52245,28549,-25619
C00426=-44687,1185,-50658,52383,28465,-25649
C00427=-44581,552,-51079,52523,28380,-25679
C00428=-44474,-82,-51499,52665,28294,-25711
C00429=-44367,-716,-51917,52809,28206,-25744
C00430=-44258,-1352,-52333,52955,28117,-25778
C00431=-44149,-1988,-52748,53104,28027,-25814
C00432=-44039,-2625,-53161,53254,27937,-25851
C00433=-43928,-3263,-53573,53408,27844,-25889
C00434=-43816,-3901,-53983,53563,27751,-25928
C00435=-43704,-4541,-54391,53721,27656,-25969
C00436=-43590,-5181,-54798,53881,27561,-26011
C00437=-43476,-5823,-55203,54044,27464,-26054
C00438=-43361,-6465,-55607,54210,27366,-26099
C00439=-43245,-7108,-56009,54378,27267,-26145
C00440=-43128,-7752,-56409,54548,27166,-26192
C00441=-43010,-8397,-56808,54722,27065,-26242
C00442=-42892,-9043,-57206,54898,26962,-26292
C00443=-42772,-9690,-57601,55077,26858,-26344
C00444=-42651,-10337,-57995,55259,26753,-26398
C00445=-42530,-10986,-58388,55444,26647,-26453
C00446=-42408,-11635,-58778,55632,26540,-26510
C00447=-42284,-12286,-59168,55823,26432,-26568
C00448=-42160,-12937,-59555,56017,26322,-26629
C00449=-42035,-13590,-59941,56215,26212,-26690
C00450=-41908,-14243,-60326,56415,26100,-26754
C00451=-41781,-14897,-60708,56619,25987,-26819
C00452=-41653,-15552,-61090,56827,25873,-26886
C00453=-41524,-16208,-61469,57037,25758,-26955
C00454=-41394,-16865,-61847,57252,25642,-27026
C00455=-41262,-17523,-62223,57470,25525,-27098
C00456=-41130,-18182,-62598,57692,25407,-27173
C00457=-40997,-18842,-62971,57918,25288,-27249
C00458=-40862,-19503,-63342,58147,25167,-27328
C00459=-40727,-20164,-63712,58381,25046,-27408
C00460=-40590,-20827,-64080,58618,24923,-27491
C00461=-40453,-21490,-64446,58860,24800,-27576
C00462=-40314,-22155,-64811,59107,24675,-27663
C00463=-40174,-22820,-65174,59357,24550,-27752
C00464=-40033,-23487,-65535,59612,24423,-27843
C00465=-39891,-24154,-65895,59872,24296,-27937
C00466=-39748,-24822,-66253,60136,24167,-28033
C00467=-39603,-25491,-66610,60405,24038,-28131
C00468=-39458,-26161,-66964,60679,23907,-28232
C00469=-39311,-26832,-67317,60958,23776,-28335
C00470=-39163,-27503,-67668,61242,23643,-28441
C00471=-39014,-28176,-68018,61531,23510,-28549
C00472=-38864,-28850,-68366,61826,23376,-28660
C00473=-38712,-29524,-68712,62126,23241,-28774
C00474=-38559,-30199,-69057,62432,23105,-28891
C00475=-38405,-30875,-69399,62744,22969,-29010
C00476=-38250,-31552,-69740,63062,22831,-29133
C00477=-38093,-32230,-70079,63386,22693,-29258
C00478=-37935,-32909,-70417,63716,22554,-29386
C00479=-37776,-33588,-70752,64052,22414,-29518
C00480=-37616,-34268,-71086,64395,22273,-29652
C00481=-37454,-34949,-71418,64745,22132,-29790
C00482=-37290,-35631,-71749,65102,21990,-29931
C00483=-37126,-36314,-72077,65465,21848,-30076
C00484=-36960,-36997,-72404,65836,21704,-30224
C00485=-36793,-37681,-72729,66214,21560,-30375
C00486=-36624,-38366,-73052,66600,21416,-30530
C00487=-36454,-39051,-73374,66994,21271,-30689
C00488=-36282,-39737,-73693,67396,21126,-30852
C00489=-36109,-40424,-74011,67806,20980,-31018
C00490=-35935,-41112,-74327,68224,20833,-31189
C00491=-35759,-41800,-74641,68651,20686,-31363
C00492=-35582,-42488,-74953,69087,20539,-31542
C00493=-35403,-43178,-75263,69532,20392,-31725
C00494=-35222,-43868,-75571,69986,20244,-31913
C00495=-35040,-44558,-75878,70450,20096,-32104
C00496=-34857,-45249,-76182,70923,19947,-32301
C00497=-34672,-45941,-76485,71407,19799,-32502
C00498=-34485,-46633,-76785,71901,19650,-32708
C00499=-34297,-47325,-77084,72405,19502,-32919
C00500=-34107,-48018,-77381,72920,19353,-33135
C00501=-33915,-48711,-77676,73446,19204,-33356
C00502=-33722,-49405,-77969,73984,19056,-33582
C00503=-33527,-50099,-78260,74533,18907,-33814
C00504=-33330,-50793,-78549,75094,18759,-34051
C00505=-33132,-51488,-78836,75667,18611,-34294
C00506=-32932,-52183,-79121,76253,18464,-34542
C00507=-32731,-52878,-79403,76852,18317,-34797
C00508=-32527,-53573,-79684,77463,18170,-35057
C00509=-32322,-54269,-79963,78088,18024,-35324
C00510=-32115,-54965,-80240,78727,17878,-35597
C00511=-31906,-55660,-80515,79380,17734,-35877
C00512=-31695,-56356,-80788,80047,17590,-36163
C00513=-31483,-57052,-81058,80729,17446,-36455
C00514=-31268,-57748,-81327,81426,17304,-36755
C00515=-31052,-58444,-81593,82138,17163,-37062
C00516=-30834,-59140,-81857,82865,17023,-37375
C00517=-30614,-59835,-82119,83609,16884,-37696
C00518=-30392,-60531,-82379,84369,16747,-38025
C00519=-30167,-61226,-82637,85145,16611,-38360
C00520=-29941,-61921,-82893,85938,16476,-38704
C00521=-29713,-62616,-83147,86748,16343,-39055
C00522=-29483,-63310,-83398,87576,16212,-39414
C00523=-29251,-64004,-83647,88421,16083,-39782
C00524=-29017,-64698,-83894,89284,15956,-40157
C00525=-28780,-65391,-84139,90165,15831,-40541
C00526=-28542,-66084,-84381,91065,15708,-40932
C00527=-28301,-66775,-84621,91983,15587,-41333
C00528=-28059,-67467,-84859,92920,15469,-41741
C00529=-27814,-68158,-85095,93876,15354,-42159
C00530=-27567,-68848,-85329,94850,15241,-42585
C00531=-27317,-69537,-85560,95844,15132,-43019
C00532=-27066,-70225,-85788,96857,15025,-43462
C00533=-26812,-70913,-86015,97889,14921,-43914
C00534=-26556,-71600,-86239,98940,14821,-44375
C00535=-26297,-72285,-86461,100011,14725,-44844
C00536=-26036,-72970,-86680,101100,14632,-45321
C00537=-25773,-73653,-86897,102208,14542,-45808
C00538=-25507,-74336,-87112,103335,14457,-46302
C00539=-25239,-75017,-87324,104480,14376,-46805
C00540=-24969,-75696,-87534,105644,14299,-47316
C00541=-24696,-76375,-87742,106825,14226,-47835
C00542=-24421,-77052,-87947,108023,14158,-48362
C00543=-24143,-77727,-88149,109238,14094,-48896
C00544=-23862,-78401,-88349,110470,14036,-49438
C00545=-23579,-79074,-88547,111717,13982,-49987
C00546=-23294,-79744,-88742,112979,13933,-50543
C00547=-23006,-80413,-88935,114255,13890,-51105
C00548=-22715,-81080,-89125,115545,13852,-51673
C00549=-22421,-81746,-89312,116848,13819,-52246
C00550=-22125,-82409,-89498,118162,13792,-52826
C00551=-21826,-83070,-89680,119487,13771,-53410
C00552=-21525,-83729,-89860,120823,13755,-53998
C00553=-21220,-84386,-90038,122166,13745,-54590
C00554=-20913,-85041,-90212,123518,13742,-55186
C00555=-20603,-85693,-90385,124876,13744,-55785
C00556=-20290,-86344,-90554,126240,13753,-56387
C00557=-19974,-86991,-90722,127608,13767,-56990
C00558=-19656,-87636,-90886,128979,13788,-57595
C00559=-19335,-88279,-91048,130352,13815,-58201
C00560=-19010,-88918,-91207,131726,13849,-58807
C00561=-18683,-89555,-91364,133100,13889,-59413
C00562=-18352,-90190,-91518,134472,13935,-60018
C00563=-18019,-90821,-91669,135842,13988,-60622
C00564=-17682,-91449,-91817,137207,14047,-61225
C00565=-17343,-92074,-91963,138568,14112,-61825
C00566=-17000,-92696,-92106,-44193,-14184,19433
C00567=-16654,-93315,-92247,-42845,-14261,18838
C00568=-16306,-93930,-92384,-41505,-14346,18247
C00569=-15953,-94542,-92519,-40175,-14436,17660
C00570=-15598,-95151,-92652,-38853,-14532,17077
C00571=-15240,-95756,-92781,-37543,-14635,16499
C00572=-14878,-96357,-92908,-36244,-14743,15926
C00573=-14513,-96955,-93032,-34957,-14858,15359
C00574=-14145,-97548,-93153,-33682,-14978,14797
C00575=-13773,-98138,-93272,-32421,-15104,14241
C00576=-13398,-98724,-93388,-31173,-15236,13691
C00577=-13020,-99306,-93501,-29940,-15373,13147
C00578=-12638,-99884,-93611,-28722,-15516,12610
C00579=-12253,-100457,-93718,-27518,-15664,12080
C00580=-11864,-101026,-93822,-26329,-15818,11556
C00581=-11472,-101591,-93924,-25157,-15976,11039
C00582=-11076,-102151,-94023,-23999,-16140,10530
C00583=-10677,-102707,-94119,-22858,-16309,10027
C00584=-10275,-103258,-94213,-21733,-16482,9532
C00585=-9869,-103804,-94303,-20623,-16660,9044
C00586=-9459,-104345,-94391,-19530,-16843,8562
C00587=-9046,-104882,-94475,-18452,-17030,8089
C00588=-8629,-105413,-94557,-17390,-17222,7622
C00589=-8208,-105940,-94636,-16345,-17418,7162
C00590=-7784,-106461,-94713,-15314,-17618,6709
C00591=-7356,-106978,-94786,-14300,-17822,6263
C00592=-6924,-107488,-94857,-13300,-18030,5825
C00593=-6489,-107994,-94924,-12316,-18242,5393
C00594=-6050,-108494,-94989,-11347,-18458,4967
C00595=-5608,-108988,-95051,-10393,-18678,4549
C00596=-5161,-109477,-95110,-9453,-18901,4136
C00597=-4711,-109960,-95167,-8528,-19127,3731
C00598=-4257,-110437,-95220,-7616,-19357,3331
C00599=-3799,-110909,-95271,-6719,-19590,2938
C00600=-3338,-111374,-95319,-5835,-19827,2551
C00601=-2872,-111834,-95364,-4964,-20066,2170
C00602=-2403,-112287,-95406,-4106,-20309,1794
C00603=-1930,-112735,-95445,-3260,-20555,1424
C00604=-1453,-113176,-95481,-2427,-20803,1060
C00605=-973,-113610,-95515,-1606,-21055,702
C00606=-488,-114039,-95545,-797,-21309,348
C00607=0,-114460,-95573,0,-21565,0
C00608=0,-113682,-95146,0,-21317,0
C00609=0,-112909,-94718,0,-21071,0
C00610=0,-112140,-94290,0,-20827,0
C00611=0,-111375,-93862,0,-20586,0
C00612=0,-110615,-93434,0,-20347,0
C00613=0,-109859,-93006,0,-20111,0
C00614=0,-109107,-92577,0,-19876,0
C00615=0,-108360,-92148,0,-19644,0
C00616=0,-107616,-91719,0,-19415,0
C00617=0,-106877,-91290,0,-19187,0
C00618=0,-106141,-90861,0,-18961,0
C00619=0,-105409,-90431,0,-18738,0
C00620=0,-104682,-90001,0,-18517,0
C00621=0,-103958,-89571,0,-18298,0
C00622=0,-103237,-89141,0,-18081,0
C00623=0,-102521,-88710,0,-17866,0
C00624=0,-101807,-88279,0,-17653,0
C00625=0,-101098,-87848,0,-17442,0
C00626=0,-100392,-87417,0,-17232,0
C00627=0,-99689,-86985,0,-17025,0
C00628=0,-98989,-86553,0,-16820,0
C00629=0,-98293,-86121,0,-16617,0
C00630=0,-97600,-85688,0,-16415,0
C00631=0,-96911,-85255,0,-16216,0
C00632=0,-96224,-84822,0,-16018,0
C00633=0,-95541,-84388,0,-15822,0
C00634=0,-94861,-83954,0,-15627,0
C00635=0,-94183,-83520,0,-15435,0
C00636=0,-93509,-83085,0,-15244,0
C00637=0,-92837,-82650,0,-15055,0
C00638=0,-92169,-82214,0,-14868,0
C00639=0,-91503,-81778,0,-14682,0
C00640=0,-90840,-81342,0,-14498,0
C00641=0,-90179,-80905,0,-14316,0
C00642=0,-89522,-80468,0,-14135,0
C00643=0,-88867,-80031,0,-13956,0
C00644=0,-88214,-79593,0,-13779,0
C00645=0,-87564,-79154,0,-13603,0
C00646=0,-86917,-78715,0,-13429,0
C00647=0,-86272,-78276,0,-13256,0
C00648=0,-85630,-77836,0,-13085,0
C00649=0,-84990,-77396,0,-12915,0
C00650=0,-84352,-76955,0,-12747,0
C00651=0,-83717,-76514,0,-12580,0
C00652=0,-83084,-76072,0,-12415,0
C00653=0,-82453,-75630,0,-12251,0
C00654=0,-81824,-75187,0,-12089,0
C00655=0,-81197,-74744,0,-11928,0
C00656=0,-80573,-74300,0,-11769,0
C00657=0,-79951,-73856,0,-11610,0
C00658=0,-79331,-73411,0,-11454,0
C00659=0,-78713,-72966,0,-11298,0
C00660=0,-78097,-72520,0,-11145,0
C00661=0,-77482,-72074,0,-10992,0
C00662=0,-76870,-71627,0,-10841,0
C00663=0,-76260,-71179,0,-10691,0
C00664=0,-75651,-70731,0,-10542,0
C00665=0,-75045,-70282,0,-10395,0
C00666=0,-74440,-69833,0,-10249,0
C00667=0,-73837,-69383,0,-10104,0
C00668=0,-73236,-68932,0,-9961,0
C00669=0,-72636,-68481,0,-9819,0
C00670=0,-72038,-68029,0,-9678,0
C00671=0,-71442,-67577,0,-9538,0
C00672=0,-70847,-67124,0,-9400,0
C00673=0,-70254,-66670,0,-9262,0
C00674=0,-69663,-66215,0,-9126,0
C00675=0,-69073,-65760,0,-8992,0
C00676=0,-68485,-65305,0,-8858,0
C00677=0,-67898,-64848,0,-8726,0
C00678=0,-67312,-64391,0,-8594,0
C00679=0,-66728,-63933,0,-8464,0
C00680=0,-66146,-63475,0,-8335,0
C00681=0,-65565,-63015,0,-8208,0
C00682=0,-64985,-62555,0,-8081,0
C00683=0,-64406,-62095,0,-7956,0
C00684=0,-63829,-61633,0,-7831,0
C00685=0,-63253,-61171,0,-7708,0
C00686=0,-62679,-60708,0,-7586,0
C00687=0,-62105,-60244,0,-7465,0
C00688=0,-61533,-59780,0,-7345,0
C00689=0,-60962,-59315,0,-7226,0
C00690=0,-60392,-58848,0,-7108,0
C00691=0,-59824,-58382,0,-6992,0
C00692=0,-59256,-57914,0,-6876,0
C00693=0,-58689,-57445,0,-6762,0
C00694=0,-58124,-56976,0,-6648,0
C00695=0,-57560,-56506,0,-6536,0
C00696=0,-56996,-56035,0,-6424,0
C00697=0,-56434,-55563,0,-6314,0
C00698=0,-55873,-55090,0,-6205,0
C00699=0,-55312,-54617,0,-6097,0
C00700=0,-54753,-54142,0,-5989,0
C00701=0,-54194,-53667,0,-5883,0
C00702=0,-53636,-53191,0,-5778,0
C00703=0,-53080,-52713,0,-5674,0
C00704=0,-52523,-52235,0,-5571,0
C00705=0,-51968,-51756,0,-5468,0
C00706=0,-51414,-51276,0,-5367,0
C00707=0,-50860,-50795,0,-5267,0
C00708=0,-50308,-50314,0,-5168,0
C00709=0,-49756,-49831,0,-5069,0
C00710=0,-49204,-49347,0,-4972,0
C00711=0,-48654,-48862,0,-4876,0
C00712=0,-48104,-48376,0,-4780,0
C00713=0,-47554,-47889,0,-4686,0
C00714=0,-47005,-47402,0,-4593,0
C00715=0,-46458,-46913,0,-4500,0
C00716=0,-45910,-46423,0,-4409,0
C00717=0,-45363,-45932,0,-4318,0
C00718=0,-44817,-45440,0,-4228,0
C00719=0,-44271,-44947,0,-4140,0
C00720=0,-43726,-44452,0,-4052,0
C00721=0,-43181,-43957,0,-3965,0
C00722=0,-42637,-43461,0,-3879,0
C00723=0,-42093,-42963,0,-3794,0
C00724=0,-41550,-42464,0,-3710,0
C00725=0,-41007,-41964,0,-3627,0
C00726=0,-40464,-41463,0,-3545,0
C00727=0,-39922,-40961,0,-3463,0
C00728=0,-39380,-40458,0,-3383,0
C00729=0,-38839,-39953,0,-3304,0
C00730=0,-38298,-39447,0,-3225,0
C00731=0,-37757,-38940,0,-3147,0
C00732=0,-37216,-38432,0,-3071,0
C00733=0,-36676,-37923,0,-2995,0
C00734=0,-36136,-37412,0,-2920,0
C00735=0,-35596,-36900,0,-2846,0
C00736=0,-35056,-36386,0,-2773,0
C00737=0,-34517,-35872,0,-2701,0
C00738=0,-33978,-35356,0,-2629,0
C00739=0,-33438,-34838,0,-2559,0
C00740=0,-32900,-34320,0,-2489,0
C00741=0,-32361,-33800,0,-2421,0
C00742=0,-31822,-33278,0,-2353,0
C00743=0,-31283,-32756,0,-2286,0
C00744=0,-30744,-32231,0,-2220,0
C00745=0,-30206,-31706,0,-2155,0
C00746=0,-29667,-31179,0,-2091,0
C00747=0,-29129,-30650,0,-2028,0
C00748=0,-28590,-30120,0,-1966,0
C00749=0,-28051,-29588,0,-1904,0
C00750=0,-27512,-29055,0,-1844,0
C00751=0,-26974,-28521,0,-1784,0
C00752=0,-26435,-27985,0,-1725,0
C00753=0,-25896,-27447,0,-1667,0
C00754=0,-25356,-26908,0,-1610,0
C00755=0,-24817,-26367,0,-1554,0
C00756=0,-24277,-25825,0,-1499,0
C00757=0,-23738,-25280,0,-1445,0
C00758=0,-23198,-24735,0,-1391,0
C00759=0,-22657,-24187,0,-1339,0
C00760=0,-22117,-23638,0,-1287,0
C00761=0,-21576,-23087,0,-1237,0
C00762=0,-21035,-22535,0,-1187,0
C00763=0,-20493,-21980,0,-1138,0
C00764=0,-19951,-21424,0,-1090,0
C00765=0,-19409,-20866,0,-1043,0
C00766=0,-18866,-20306,0,-997,0
C00767=0,-18323,-19745,0,-952,0
C00768=0,-17780,-19181,0,-908,0
C00769=0,-17236,-18616,0,-864,0
C00770=0,-16691,-18049,0,-822,0
C00771=0,-16146,-17479,0,-780,0
C00772=0,-15601,-16908,0,-740,0
C00773=0,-15054,-16335,0,-700,0
C00774=0,-14508,-15760,0,-661,0
C00775=0,-13960,-15183,0,-624,0
C00776=0,-13412,-14603,0,-587,0
C00777=0,-12864,-14022,0,-551,0
C00778=0,-12314,-13438,0,-516,0
C00779=0,-11764,-12853,0,-482,0
C00780=0,-11214,-12265,0,-449,0
C00781=0,-10662,-11675,0,-417,0
C00782=0,-10110,-11083,0,-386,0
C00783=0,-9557,-10488,0,-356,0
C00784=0,-9003,-9891,0,-327,0
C00785=0,-8448,-9292,0,-299,0
C00786=0,-7892,-8690,0,-272,0
C00787=0,-7335,-8086,0,-246,0
C00788=0,-6778,-7480,0,-221,0
C00789=0,-6219,-6871,0,-197,0
C00790=0,-5659,-6260,0,-174,0
C00791=0,-5099,-5646,0,-151,0
C00792=0,-4537,-5029,0,-130,0
C00793=0,-3974,-4410,0,-111,0
C00794=0,-3410,-3788,0,-92,0
C00795=0,-2845,-3164,0,-74,0
C00796=0,-2278,-2537,0,-57,0
C00797=0,-1711,-1907,0,-42,0
C00798=0,-1142,-1274,0,-27,0
C00799=0,-572,-639,0,-15,0
C00800=0,0,0,0,8,0
C00801=0,323,-79,0,253,0
C00802=0,649,-155,0,506,0
C00803=0,978,-227,0,758,0
C00804=0,1309,-298,0,1010,0
C00805=0,1642,-364,0,1261,0
C00806=0,1978,-429,0,1512,0
C00807=0,2317,-490,0,1762,0
C00808=0,2658,-548,0,2012,0
C00809=0,3002,-603,0,2261,0
C00810=0,3348,-655,0,2510,0
C00811=0,3696,-705,0,2758,0
C00812=0,4047,-751,0,3006,0
C00813=0,4401,-795,0,3253,0
C00814=0,4757,-835,0,3499,0
C00815=0,5115,-873,0,3745,0
C00816=0,5476,-908,0,3990,0
C00817=0,5839,-939,0,4235,0
C00818=0,6205,-968,0,4479,0
C00819=0,6573,-994,0,4723,0
C00820=0,6943,-1017,0,4966,0
C00821=0,7316,-1037,0,5209,0
C00822=0,7691,-1054,0,5451,0
C00823=0,8069,-1068,0,5692,0
C00824=0,8449,-1079,0,5933,0
C00825=0,8831,-1088,0,6173,0
C00826=0,9215,-1093,0,6412,0
C00827=0,9602,-1095,0,6651,0
C00828=0,9991,-1095,0,6889,0
C00829=0,10383,-1091,0,7127,0
C00830=0,10776,-1085,0,7364,0
C00831=0,11172,-1076,0,7600,0
C00832=0,11571,-1063,0,7836,0
C00833=0,11971,-1048,0,8071,0
C00834=0,12374,-1030,0,8306,0
C00835=0,12779,-1009,0,8539,0
C00836=0,13187,-985,0,8772,0
C00837=0,13596,-958,0,9005,0
C00838=0,14008,-928,0,9237,0
C00839=0,14422,-895,0,9468,0
C00840=0,14838,-859,0,9698,0
C00841=0,15256,-820,0,9928,0
C00842=0,15677,-778,0,10157,0
C00843=0,16100,-734,0,10385,0
C00844=0,16524,-686,0,10613,0
C00845=0,16951,-636,0,10840,0
C00846=0,17381,-582,0,11066,0
C00847=0,17812,-526,0,11292,0
C00848=0,18245,-466,0,11516,0
C00849=0,18681,-404,0,11740,0
C00850=0,19118,-339,0,11964,0
C00851=0,19558,-270,0,12186,0
C00852=0,20000,-199,0,12408,0
C00853=0,20444,-125,0,12629,0
C00854=0,20889,-48,0,12849,0
C00855=0,21337,32,0,13069,0
C00856=0,21787,115,0,13287,0
C00857=0,22239,202,0,13505,0
C00858=0,22693,291,0,13722,0
C00859=0,23149,383,0,13939,0
C00860=0,23607,478,0,14154,0
C00861=0,24067,576,0,14369,0
C00862=0,24529,676,0,14583,0
C00863=0,24994,780,0,14796,0
C00864=0,25459,887,0,15008,0
C00865=0,25927,997,0,15220,0
C00866=0,26397,1110,0,15431,0
C00867=0,26869,1226,0,15640,0
C00868=0,27343,1345,0,15849,0
C00869=0,27819,1466,0,16057,0
C00870=0,28296,1591,0,16265,0
C00871=0,28776,1719,0,16471,0
C00872=0,29257,1850,0,16677,0
C00873=0,29741,1984,0,16881,0
C00874=0,30226,2121,0,17085,0
C00875=0,30713,2261,0,17288,0
C00876=0,31202,2404,0,17490,0
C00877=0,31693,2549,0,17691,0
C00878=0,32186,2698,0,17891,0
C00879=0,32680,2850,0,18090,0
C00880=0,33177,3005,0,18289,0
C00881=0,33675,3163,0,18486,0
C00882=0,34175,3325,0,18682,0
C00883=0,34677,3489,0,18878,0
C00884=0,35181,3656,0,19073,0
C00885=0,35686,3826,0,19266,0
C00886=0,36194,3999,0,19459,0
C00887=0,36703,4176,0,19651,0
C00888=0,37214,4355,0,19841,0
C00889=0,37727,4538,0,20031,0
C00890=0,38241,4723,0,20220,0
C00891=0,38757,4912,0,20408,0
C00892=0,39275,5104,0,20595,0
C00893=0,39795,5299,0,20780,0
C00894=0,40317,5497,0,20965,0
C00895=0,40840,5698,0,21149,0
C00896=0,41365,5902,0,21332,0
C00897=0,41892,6109,0,21514,0
C00898=0,42421,6320,0,21694,0
C00899=0,42951,6533,0,21874,0
C00900=0,43483,6750,0,22053,0
C00901=0,44017,6970,0,22230,0
C00902=0,44552,7193,0,22407,0
C00903=0,45090,7419,0,22582,0
C00904=0,45629,7649,0,22757,0
C00905=0,46169,7881,0,22930,0
C00906=0,46712,8117,0,23102,0
C00907=0,47256,8356,0,23273,0
C00908=0,47802,8598,0,23443,0
C00909=0,48349,8843,0,23612,0
C00910=0,48898,9092,0,23780,0
C00911=0,49449,9344,0,23947,0
C00912=0,50002,9599,0,24113,0
C00913=0,50557,9857,0,24277,0
C00914=0,51113,10119,0,24441,0
C00915=0,51670,10384,0,24603,0
C00916=0,52230,10652,0,24764,0
C00917=0,52791,10924,0,24924,0
C00918=0,53354,11198,0,25082,0
C00919=0,53919,11477,0,25240,0
C00920=0,54485,11758,0,25396,0
C00921=0,55053,12043,0,25552,0
C00922=0,55623,12331,0,25706,0
C00923=0,56194,12623,0,25859,0
C00924=0,56767,12918,0,26010,0
C00925=0,57342,13216,0,26161,0
C00926=0,57919,13518,0,26310,0
C00927=0,58497,13823,0,26458,0
C00928=0,59077,14132,0,26604,0
C00929=0,59659,14444,0,26750,0
C00930=0,60243,14760,0,26894,0
C00931=0,60828,15079,0,27037,0
C00932=0,61415,15401,0,27179,0
C00933=0,62004,15728,0,27319,0
C00934=0,62595,16058,0,27459,0
C00935=0,63187,16391,0,27596,0
C00936=0,63782,16728,0,27733,0
C00937=0,64378,17068,0,27868,0
C00938=0,64975,17413,0,28002,0
C00939=0,65575,17761,0,28135,0
C00940=0,66176,18112,0,28266,0
C00941=0,66779,18467,0,28396,0
C00942=0,67385,18826,0,28525,0
C00943=0,67991,19189,0,28652,0
C00944=0,68600,19555,0,28778,0
C00945=0,69211,19926,0,28903,0
C00946=0,69824,20300,0,29026,0
C00947=0,70438,20678,0,29148,0
C00948=0,71054,21060,0,29268,0
C00949=0,71673,21445,0,29387,0
C00950=0,72293,21835,0,29505,0
C00951=0,72915,22229,0,29621,0
C00952=0,73539,22626,0,29735,0
C00953=0,74165,23028,0,29848,0
C00954=0,74794,23434,0,29960,0
C00955=0,75424,23844,0,30071,0
C00956=0,76056,24258,0,30179,0
C00957=0,76691,24676,0,30287,0
C00958=0,77327,25098,0,30392,0
C00959=0,77966,25525,0,30497,0
C00960=0,78606,25955,0,30599,0
C00961=0,79249,26391,0,30701,0
C00962=0,79895,26830,0,30800,0
C00963=0,80542,27274,0,30898,0
C00964=0,81191,27722,0,30995,0
C00965=0,81843,28175,0,31090,0
C00966=0,82497,28633,0,31183,0
C00967=0,83154,29095,0,31274,0
C00968=0,83813,29562,0,31364,0
C00969=0,84474,30033,0,31453,0
C00970=0,85138,30509,0,31539,0
C00971=0,85804,30990,0,31624,0
C00972=0,86473,31476,0,31708,0
C00973=0,87144,31966,0,31789,0
C00974=0,87817,32462,0,31869,0
C00975=0,88494,32963,0,31947,0
C00976=0,89173,33469,0,32024,0
C00977=0,89855,33980,0,32098,0
C00978=0,90540,34496,0,32171,0
C00979=0,91227,35017,0,32242,0
C00980=0,91917,35545,0,32311,0
C00981=0,92610,36077,0,32378,0
C00982=0,93307,36615,0,32443,0
C00983=0,94006,37159,0,32506,0
C00984=0,94708,37708,0,32568,0
C00985=0,95413,38263,0,32627,0
C00986=0,96122,38824,0,32685,0
C00987=0,96834,39391,0,32740,0
C00988=0,97549,39965,0,32794,0
C00989=0,98268,40544,0,32845,0
C00990=0,98990,41130,0,32894,0
C00991=0,99716,41722,0,32941,0
C00992=0,100445,42321,0,32986,0
C00993=0,101178,42926,0,33029,0
C00994=0,101915,43538,0,33070,0
C00995=0,102656,44158,0,33108,0
C00996=0,103401,44784,0,33144,0
C00997=0,104150,45417,0,33178,0
C00998=0,104904,46058,0,33209,0
C00999=0,105661,46707,0,33238,0
C01000=0,106423,47363,0,33264,0
C01001=0,107190,48027,0,33288,0
C01002=0,107961,48699,0,33309,0
C01003=0,108737,49380,0,33328,0
C01004=95,107889,48337,-135,33414,53
C01005=191,107050,47308,-270,33497,106
C01006=287,106220,46293,-405,33576,158
C01007=383,105398,45291,-540,33651,211
C01008=480,104585,44302,-676,33723,263
C01009=577,103780,43326,-811,33791,315
C01010=675,102983,42361,-947,33856,368
C01011=773,102193,41408,-1084,33918,420
C01012=872,101409,40467,-1220,33977,472
C01013=971,100633,39536,-1357,34033,524
C01014=1071,99864,38615,-1494,34086,576
C01015=1171,99101,37705,-1632,34136,628
C01016=1272,98344,36804,-1770,34184,679
C01017=1373,97593,35913,-1909,34229,731
C01018=1474,96848,35031,-2048,34271,783
C01019=1577,96109,34159,-2188,34311,835
C01020=1679,95375,33295,-2328,34348,887
C01021=1782,94646,32440,-2469,34383,939
C01022=1885,93923,31593,-2611,34416,991
C01023=1989,93204,30754,-2753,34446,1044
C01024=2094,92490,29923,-2895,34474,1096
C01025=2199,91781,29100,-3039,34500,1148
C01026=2304,91077,28284,-3183,34524,1201
C01027=2410,90377,27476,-3327,34546,1254
C01028=2517,89681,26675,-3473,34566,1306
C01029=2624,88989,25881,-3619,34583,1359
C01030=2731,88302,25094,-3766,34599,1412
C01031=2839,87619,24314,-3914,34613,1465
C01032=2948,86939,23540,-4063,34625,1519
C01033=3057,86263,22773,-4212,34635,1572
C01034=3166,85591,22011,-4362,34644,1626
C01035=3276,84922,21256,-4513,34650,1680
C01036=3387,84257,20508,-4665,34655,1734
C01037=3498,83595,19765,-4818,34659,1789
C01038=3610,82937,19028,-4972,34660,1843
C01039=3722,82282,18296,-5127,34660,1898
C01040=3835,81630,17570,-5282,34658,1953
C01041=3948,80981,16850,-5439,34655,2008
C01042=4062,80335,16135,-5596,34650,2064
C01043=4176,79692,15426,-5755,34644,2120
C01044=4291,79052,14721,-5915,34636,2176
C01045=4406,78414,14022,-6075,34627,2232
C01046=4522,77780,13328,-6237,34616,2289
C01047=4639,77148,12638,-6400,34604,2346
C01048=4756,76519,11954,-6564,34590,2403
C01049=4874,75892,11274,-6729,34575,2461
C01050=4992,75268,10599,-6895,34559,2519
C01051=5111,74647,9929,-7063,34542,2577
C01052=5230,74028,9263,-7231,34523,2635
C01053=5350,73411,8602,-7401,34502,2694
C01054=5471,72796,7945,-7572,34481,2754
C01055=5592,72184,7293,-7744,34458,2813
C01056=5713,71574,6644,-7918,34434,2873
C01057=5836,70966,6000,-8092,34409,2934
C01058=5959,70361,5361,-8268,34383,2995
C01059=6082,69757,4725,-8446,34355,3056
C01060=6206,69156,4093,-8624,34326,3118
C01061=6331,68556,3466,-8804,34297,3180
C01062=6456,67959,2842,-8985,34266,3242
C01063=6582,67363,2223,-9168,34234,3305
C01064=6709,66770,1607,-9352,34200,3369
C01065=6836,66178,995,-9538,34166,3432
C01066=6964,65588,386,-9725,34131,3497
C01067=7092,65000,-218,-9913,34095,3562
C01068=7221,64413,-819,-10103,34057,3627
C01069=7350,63829,-1416,-10295,34019,3693
C01070=7481,63246,-2010,-10488,33980,3759
C01071=7612,62665,-2600,-10682,33940,3826
C01072=7743,62085,-3187,-10878,33898,3893
C01073=7875,61507,-3770,-11076,33856,3961
C01074=8008,60931,-4349,-11275,33813,4029
C01075=8141,60356,-4926,-11476,33769,4098
C01076=8276,59783,-5499,-11679,33724,4168
C01077=8410,59211,-6068,-11883,33678,4238
C01078=8546,58641,-6635,-12089,33632,4309
C01079=8682,58072,-7198,-12297,33584,4380
C01080=8819,57505,-7758,-12506,33536,4452
C01081=8956,56939,-8315,-12717,33487,4524
C01082=9094,56374,-8868,-12930,33437,4597
C01083=9233,55811,-9419,-13145,33386,4671
C01084=9372,55249,-9966,-13362,33335,4746
C01085=9512,54689,-10510,-13580,33283,4821
C01086=9653,54130,-11051,-13801,33230,4896
C01087=9794,53572,-11590,-14023,33176,4973
C01088=9937,53016,-12125,-14247,33122,5050
C01089=10079,52460,-12657,-14473,33067,5128
C01090=10223,51906,-13186,-14702,33011,5206
C01091=10367,51354,-13713,-14932,32954,5286
C01092=10512,50802,-14236,-15164,32897,5366
C01093=10658,50252,-14757,-15398,32839,5446
C01094=10804,49702,-15275,-15635,32781,5528
C01095=10951,49154,-15790,-15873,32722,5610
C01096=11099,48608,-16302,-16114,32663,5693
C01097=11248,48062,-16811,-16357,32602,5777
C01098=11397,47517,-17318,-16602,32542,5862
C01099=11547,46974,-17822,-16849,32481,5947
C01100=11698,46431,-18323,-17099,32419,6033
C01101=11849,45890,-18821,-17350,32357,6120
C01102=12001,45349,-19317,-17604,32294,6208
C01103=12154,44810,-19810,-17861,32231,6297
C01104=12308,44272,-20301,-18120,32167,6387
C01105=12463,43735,-20789,-18381,32103,6478
C01106=12618,43199,-21274,-18644,32038,6569
C01107=12774,42664,-21756,-18910,31973,6662
C01108=12931,42130,-22237,-19179,31908,6755
C01109=13088,41596,-22714,-19450,31842,6850
C01110=13246,41064,-23189,-19723,31776,6945
C01111=13405,40533,-23661,-19999,31710,7041
C01112=13565,40003,-24131,-20278,31643,7138
C01113=13726,39474,-24599,-20559,31576,7237
C01114=13887,38946,-25063,-20843,31509,7336
C01115=14049,38418,-25526,-21130,31441,7436
C01116=14212,37892,-25986,-21419,31373,7537
C01117=14376,37366,-26443,-21711,31305,7640
C01118=14541,36842,-26898,-22006,31237,7743
C01119=14706,36318,-27351,-22304,31168,7848
C01120=14872,35795,-27801,-22604,31099,7953
C01121=15039,35274,-28249,-22907,31031,8060
C01122=15207,34753,-28694,-23213,30962,8168
C01123=15376,34233,-29137,-23522,30893,8277
C01124=15545,33714,-29578,-23834,30824,8387
C01125=15716,33195,-30016,-24149,30754,8498
C01126=15887,32678,-30452,-24467,30685,8610
C01127=16059,32161,-30886,-24788,30616,8724
C01128=16232,31646,-31317,-25112,30546,8838
C01129=16405,31131,-31746,-25439,30477,8954
C01130=16580,30617,-32172,-25769,30408,9071
C01131=16755,30104,-32597,-26103,30339,9190
C01132=16931,29592,-33019,-26439,30270,9309
C01133=17108,29081,-33438,-26779,30201,9430
C01134=17286,28570,-33856,-27121,30132,9552
C01135=17465,28061,-34271,-27468,30063,9676
C01136=17645,27552,-34683,-27817,29995,9800
C01137=17825,27045,-35094,-28170,29926,9927
C01138=18006,26537,-35502,-28526,29858,10054
C01139=18189,26031,-35908,-28885,29790,10182
C01140=18372,25526,-36312,-29248,29723,10312
C01141=18556,25022,-36714,-29614,29656,10444
C01142=18741,24518,-37113,-29983,29589,10576
C01143=18926,24016,-37510,-30356,29522,10710
C01144=19113,23514,-37905,-30733,29456,10845
C01145=19301,23013,-38298,-31112,29390,10982
C01146=19489,22513,-38688,-31496,29325,11120
C01147=19679,22013,-39077,-31883,29260,11260
C01148=19869,21515,-39463,-32273,29196,11401
C01149=20060,21018,-39847,-32667,29132,11543
C01150=20252,20521,-40228,-33064,29069,11687
C01151=20445,20025,-40608,-33465,29007,11832
C01152=20639,19530,-40985,-33870,28945,11978
C01153=20834,19036,-41360,-34278,28883,12126
C01154=21030,18543,-41733,-34690,28823,12276
C01155=21227,18051,-42104,-35106,28763,12427
C01156=21425,17560,-42473,-35525,28703,12579
C01157=21623,17069,-42839,-35947,28645,12733
C01158=21823,16580,-43204,-36374,28587,12888
C01159=22023,16092,-43566,-36804,28530,13045
C01160=22225,15604,-43926,-37238,28475,13203
C01161=22427,15117,-44284,-37675,28419,13362
C01162=22631,14631,-44639,-38116,28365,13523
C01163=22835,14147,-44993,-38560,28312,13686
C01164=23040,13663,-45344,-39009,28260,13850
C01165=23247,13180,-45694,-39460,28209,14015
C01166=23454,12698,-46041,-39916,28159,14182
C01167=23662,12217,-46386,-40375,28110,14350
C01168=23871,11737,-46729,-40838,28062,14520
C01169=24082,11258,-47070,-41304,28016,14691
C01170=24293,10780,-47408,-41774,27970,14863
C01171=24505,10303,-47745,-42247,27926,15037
C01172=24718,9826,-48079,-42724,27883,15212
C01173=24932,9351,-48411,-43204,27841,15389
C01174=25147,8877,-48742,-43688,27801,15567
C01175=25363,8404,-49070,-44175,27762,15746
C01176=25580,7932,-49395,-44666,27725,15927
C01177=25798,7462,-49719,-45160,27689,16109
C01178=26018,6992,-50041,-45657,27654,16292
C01179=26238,6523,-50360,-46158,27621,16477
C01180=26459,6056,-50678,-46662,27589,16663
C01181=26681,5589,-50993,-47169,27559,16850
C01182=26904,5123,-51306,-47679,27531,17038
C01183=27128,4659,-51617,-48192,27504,17227
C01184=27353,4196,-51926,-48709,27479,17418
C01185=27579,3734,-52233,-49228,27456,17610
C01186=27807,3273,-52538,-49750,27435,17803
C01187=28035,2813,-52840,-50276,27415,17997
C01188=28264,2355,-53141,-50804,27397,18192
C01189=28494,1898,-53439,-51334,27381,18388
C01190=28726,1442,-53736,-51868,27367,18585
C01191=28958,987,-54030,-52403,27354,18783
C01192=29191,533,-54322,-52942,27344,18982
C01193=29426,81,-54612,-53483,27336,19182
C01194=29661,-370,-54899,-54026,27329,19383
C01195=29898,-820,-55185,-54571,27325,19585
C01196=30135,-1268,-55469,-55119,27323,19787
C01197=30374,-1716,-55750,-55669,27323,19990
C01198=30613,-2162,-56029,-56221,27324,20194
C01199=30854,-2606,-56306,-56774,27329,20399
C01200=31096,-3049,-56581,-57330,27335,20604
C01201=31338,-3491,-56854,-57887,27343,20809
C01202=31582,-3931,-57125,-58446,27354,21016
C01203=31827,-4370,-57394,-59006,27367,21222
C01204=32073,-4808,-57660,-59568,27382,21429
C01205=32319,-5244,-57924,-60131,27400,21637
C01206=32567,-5678,-58187,-60695,27420,21845
C01207=32816,-6111,-58447,-61260,27442,22053
C01208=33066,-6543,-58705,-61826,27467,22261
C01209=33318,-6973,-58961,-62394,27494,22470
C01210=33570,-7402,-59214,-62961,27523,22678
C01211=33823,-7829,-59466,-63530,27555,22887
C01212=34077,-8254,-59715,-64099,27590,23096
C01213=34332,-8678,-59963,-64668,27626,23305
C01214=34589,-9100,-60208,-65238,27666,23513
C01215=34846,-9521,-60451,-65808,27708,23722
C01216=35105,-9940,-60692,-66378,27752,23930
C01217=35364,-10357,-60930,-66948,27799,24138
C01218=35625,-10772,-61167,-67517,27848,24346
C01219=35886,-11186,-61401,-68087,27900,24553
C01220=36149,-11598,-61633,-68656,27954,24760
C01221=36412,-12009,-61864,-69224,28011,24967
C01222=36677,-12417,-62092,-69792,28071,25173
C01223=36943,-12824,-62317,-70358,28133,25379
C01224=37210,-13229,-62541,-70924,28198,25584
C01225=37477,-13632,-62762,-71489,28265,25788
C01226=37746,-14033,-62982,-72053,28335,25991
C01227=38016,-14433,-63199,-72616,28408,26194
C01228=38287,-14830,-63414,-73177,28483,26396
C01229=38559,-15226,-63627,-73737,28560,26597
C01230=38832,-15620,-63837,-74296,28641,26797
C01231=39106,-16011,-64045,-74852,28724,26996
C01232=39381,-16401,-64252,-75407,28809,27195
C01233=39658,-16789,-64456,-75960,28897,27392
C01234=39935,-17174,-64658,-76511,28988,27588
C01235=40213,-17558,-64857,-77060,29081,27783
C01236=40492,-17940,-65055,-77607,29177,27976
C01237=40772,-18319,-65250,-78151,29275,28169
C01238=41053,-18696,-65444,-78693,29376,28360
C01239=41336,-19072,-65635,-79233,29479,28550
C01240=41619,-19445,-65823,-79770,29585,28738
C01241=41903,-19815,-66010,-80305,29693,28925
C01242=42188,-20184,-66194,-80837,29804,29111
C01243=42475,-20550,-66376,-81366,29917,29295
C01244=42762,-20915,-66556,-81892,30033,29477
C01245=43050,-21276,-66734,-82416,30151,29658
C01246=43339,-21636,-66910,-82936,30272,29838
C01247=43629,-21993,-67083,-83453,30395,30016
C01248=43921,-22348,-67254,-83967,30521,30192
C01249=44213,-22701,-67423,-84478,30648,30366
C01250=44506,-23051,-67590,-84986,30778,30539
C01251=44800,-23399,-67755,-85491,30911,30710
C01252=45095,-23744,-67917,-85992,31046,30880
C01253=45391,-24087,-68077,-86490,31183,31047
C01254=45688,-24427,-68235,-86984,31322,31213
C01255=45986,-24765,-68391,-87475,31464,31377
C01256=46284,-25100,-68545,-87962,31608,31539
C01257=46584,-25433,-68696,-88446,31754,31700
C01258=46885,-25763,-68845,-88926,31902,31858
C01259=47186,-26091,-68992,-89402,32052,32015
C01260=47489,-26416,-69137,-89875,32204,32169
C01261=47792,-26738,-69279,-90344,32359,32322
C01262=48096,-27058,-69419,-90810,32516,32473
C01263=48402,-27375,-69557,-91271,32674,32621
C01264=48708,-27689,-69693,-91729,32835,32768
C01265=49015,-28000,-69827,91932,-32997,-48943
C01266=49322,-28309,-69958,91481,-33162,-48800
C01267=49631,-28615,-70087,-93080,33328,33197
C01268=49396,-28788,-69981,-93052,33206,33260
C01269=49160,-28958,-69874,-93024,33084,33324
C01270=48924,-29125,-69764,-92995,32960,33386
C01271=48688,-29289,-69653,-92967,32836,33449
C01272=48452,-29450,-69540,-92939,32712,33511
C01273=48216,-29608,-69424,-92911,32587,33573
C01274=47980,-29763,-69307,-92883,32461,33634
C01275=47743,-29914,-69189,-92855,32335,33695
C01276=47506,-30063,-69068,-92827,32208,33756
C01277=47269,-30209,-68945,-92799,32080,33817
C01278=47032,-30351,-68821,-92771,31952,33877
C01279=46795,-30491,-68694,-92744,31823,33936
C01280=46558,-30628,-68566,-92716,31693,33996
C01281=46321,-30761,-68436,-92689,31563,34055
C01282=46083,-30892,-68304,-92661,31433,34113
C01283=45846,-31020,-68170,-92633,31301,34172
C01284=45608,-31144,-68034,-92606,31170,34230
C01285=45370,-31266,-67897,-92579,31037,34287
C01286=45133,-31384,-67758,-92551,30904,34345
C01287=44895,-31500,-67617,-92524,30771,34402
C01288=44657,-31612,-67474,-92497,30637,34458
C01289=44419,-31722,-67329,-92469,30503,34514
C01290=44181,-31828,-67182,-92442,30368,34570
C01291=43943,-31932,-67034,-92415,30232,34625
C01292=43704,-32032,-66884,-92387,30096,34680
C01293=43466,-32130,-66732,-92360,29960,34735
C01294=43228,-32224,-66578,-92333,29823,34789
C01295=42989,-32316,-66422,-92306,29685,34843
C01296=42751,-32405,-66265,-92279,29547,34896
C01297=42513,-32490,-66106,-92252,29409,34950
C01298=42274,-32573,-65945,-92224,29270,35002
C01299=42036,-32653,-65782,-92197,29130,35055
C01300=41797,-32729,-65618,-92170,28991,35106
C01301=41559,-32803,-65451,-92143,28850,35158
C01302=41320,-32874,-65283,-92115,28710,35209
C01303=41082,-32942,-65114,-92088,28568,35260
C01304=40843,-33007,-64942,-92061,28427,35310
C01305=40605,-33069,-64769,-92034,28285,35360
C01306=40367,-33128,-64594,-92006,28143,35410
C01307=40128,-33185,-64417,-91979,28000,35459
C01308=39890,-33238,-64239,-91951,27857,35507
C01309=39652,-33289,-64059,-91924,27713,35556
C01310=39414,-33337,-63877,-91896,27569,35604
C01311=39175,-33381,-63693,-91869,27425,35651
C01312=38937,-33423,-63508,-91841,27280,35698
C01313=38699,-33462,-63321,-91814,27135,35745
C01314=38461,-33499,-63132,-91786,26989,35791
C01315=38223,-33532,-62942,-91758,26844,35837
C01316=37985,-33562,-62750,-91730,26698,35882
C01317=37748,-33590,-62556,-91703,26551,35927
C01318=37510,-33615,-62360,-91675,26404,35972
C01319=37272,-33637,-62163,-91647,26257,36016
C01320=37035,-33657,-61964,-91619,26110,36059
C01321=36797,-33673,-61764,-91590,25962,36103
C01322=36560,-33687,-61561,-91562,25814,36146
C01323=36323,-33698,-61357,-91534,25666,36188
C01324=36086,-33706,-61152,-91505,25517,36230
C01325=35849,-33711,-60945,-91477,25369,36272
C01326=35612,-33714,-60736,-91448,25219,36313
C01327=35376,-33714,-60525,-91419,25070,36353
C01328=35139,-33711,-60313,-91391,24921,36394
C01329=34903,-33705,-60099,-91362,24771,36434
C01330=34667,-33697,-59884,-91333,24620,36473
C01331=34431,-33686,-59667,-91303,24470,36512
C01332=34195,-33673,-59448,-91274,24320,36550
C01333=33959,-33656,-59228,-91245,24169,36589
C01334=33724,-33637,-59006,-91215,24018,36626
C01335=33488,-33616,-58782,-91185,23867,36663
C01336=33253,-33591,-58557,-91156,23715,36700
C01337=33018,-33565,-58330,-91126,23564,36737
C01338=32784,-33535,-58102,-91095,23412,36772
C01339=32549,-33503,-57872,-91065,23260,36808
C01340=32315,-33468,-57640,-91035,23108,36843
C01341=32081,-33430,-57407,-91004,22955,36877
C01342=31847,-33390,-57172,-90974,22803,36912
C01343=31613,-33348,-56935,-90943,22650,36945
C01344=31380,-33303,-56697,-90912,22497,36978
C01345=31146,-33255,-56458,-90881,22344,37011
C01346=30913,-33205,-56216,-90849,22191,37044
C01347=30681,-33152,-55974,-90818,22038,37075
C01348=30448,-33096,-55729,-90786,21885,37107
C01349=30216,-33039,-55483,-90754,21732,37138
C01350=29984,-32978,-55236,-90722,21578,37168
C01351=29752,-32915,-54987,-90690,21424,37198
C01352=29521,-32850,-54736,-90657,21271,37228
C01353=29289,-32782,-54484,-90624,21117,37257
C01354=29058,-32711,-54230,-90592,20963,37286
C01355=28828,-32639,-53975,-90558,20809,37314
C01356=28597,-32563,-53718,-90525,20655,37342
C01357=28367,-32486,-53459,-90492,20501,37369
C01358=28138,-32405,-53199,-90458,20347,37396
C01359=27908,-32323,-52938,-90424,20192,37423
C01360=27679,-32238,-52674,-90390,20038,37449
C01361=27450,-32151,-52410,-90355,19884,37474
C01362=27222,-32061,-52144,-90321,19729,37499
C01363=26993,-31969,-51876,-90286,19575,37524
C01364=26765,-31874,-51607,-90251,19421,37548
C01365=26538,-31777,-51336,-90215,19266,37571
C01366=26310,-31678,-51063,-90180,19112,37594
C01367=26084,-31576,-50789,-90144,18957,37617
C01368=25857,-31472,-50514,-90108,18803,37639
C01369=25631,-31366,-50237,-90071,18649,37661
C01370=25405,-31257,-49958,-90034,18494,37683
C01371=25179,-31146,-49678,-89997,18340,37703
C01372=24954,-31033,-49397,-89960,18185,37724
C01373=24729,-30918,-49114,-89923,18031,37744
C01374=24505,-30800,-48829,-89885,17877,37763
C01375=24280,-30680,-48543,-89847,17722,37782
C01376=24057,-30558,-48255,-89808,17568,37800
C01377=23833,-30433,-47966,-89770,17414,37818
C01378=23610,-30306,-47675,-89730,17260,37836
C01379=23388,-30177,-47383,-89691,17106,37853
C01380=23165,-30046,-47089,-89652,16952,37870
C01381=22944,-29913,-46794,-89612,16798,37886
C01382=22722,-29777,-46497,-89571,16644,37901
C01383=22501,-29639,-46199,-89531,16490,37916
C01384=22280,-29499,-45899,-89490,16336,37931
C01385=22060,-29357,-45598,-89448,16183,37945
C01386=21840,-29213,-45295,-89407,16029,37959
C01387=21621,-29066,-44991,-89365,15876,37972
C01388=21402,-28917,-44685,-89322,15722,37985
C01389=21183,-28767,-44377,-89280,15569,37997
C01390=20965,-28614,-44068,-89237,15416,38009
C01391=20747,-28459,-43758,-89193,15263,38020
C01392=20530,-28301,-43446,-89149,15110,38031
C01393=20313,-28142,-43132,-89105,14957,38041
C01394=20096,-27981,-42817,-89061,14805,38051
C01395=19880,-27818,-42501,-89016,14652,38060
C01396=19664,-27652,-42183,-88970,14500,38069
C01397=19449,-27484,-41863,-88925,14348,38078
C01398=19235,-27315,-41542,-88878,14196,38085
C01399=19020,-27143,-41219,-88832,14044,38093
C01400=18806,-26969,-40895,-88785,13892,38100
C01401=18593,-26793,-40570,-88737,13740,38106
C01402=18380,-26615,-40242,-88690,13589,38112
C01403=18168,-26435,-39914,-88641,13438,38117
C01404=17956,-26254,-39583,-88593,13287,38122
C01405=17744,-26070,-39251,-88544,13136,38126
C01406=17533,-25884,-38918,-88494,12985,38130
C01407=17322,-25696,-38583,-88444,12834,38134
C01408=17112,-25506,-38247,-88394,12684,38136
C01409=16902,-25314,-37909,-88343,12534,38139
C01410=16693,-25120,-37570,-88291,12384,38140
C01411=16484,-24924,-37229,-88239,12234,38142
C01412=16276,-24726,-36886,-88187,12085,38142
C01413=16068,-24526,-36542,-88134,11935,38143
C01414=15861,-24325,-36196,-88081,11786,38142
C01415=15654,-24121,-35849,-88027,11637,38142
C01416=15448,-23915,-35500,-87972,11489,38140
C01417=15242,-23708,-35150,-87917,11340,38139
C01418=15037,-23498,-34798,-87862,11192,38136
C01419=14832,-23287,-34444,-87806,11044,38133
C01420=14628,-23074,-34089,-87750,10896,38130
C01421=14424,-22858,-33733,-87693,10749,38126
C01422=14221,-22641,-33374,-87635,10601,38122
C01423=14018,-22422,-33015,-87577,10454,38117
C01424=13815,-22201,-32653,-87518,10307,38111
C01425=13614,-21978,-32290,-87459,10161,38105
C01426=13412,-21753,-31926,-87399,10014,38098
C01427=13212,-21527,-31560,-87339,9868,38091
C01428=13011,-21298,-31192,-87278,9722,38084
C01429=12812,-21068,-30822,-87216,9577,38075
C01430=12612,-20836,-30451,-87154,9431,38067
C01431=12413,-20602,-30079,-87092,9286,38057
C01432=12215,-20366,-29705,-87028,9142,38047
C01433=12018,-20128,-29329,-86964,8997,38037
C01434=11820,-19888,-28951,-86899,8853,38026
C01435=11624,-19647,-28572,-86834,8709,38014
C01436=11428,-19403,-28191,-86768,8565,38002
C01437=11232,-19158,-27809,-86702,8422,37990
C01438=11037,-18911,-27425,-86634,8278,37976
C01439=10842,-18662,-27039,-86566,8135,37963
C01440=10648,-18411,-26652,-86498,7993,37948
C01441=10455,-18159,-26263,-86429,7851,37933
C01442=10262,-17904,-25872,-86359,7709,37918
C01443=10069,-17648,-25480,-86288,7567,37902
C01444=9878,-17390,-25086,-86217,7425,37885
C01445=9686,-17130,-24690,-86145,7284,37868
C01446=9495,-16868,-24292,-86072,7143,37850
C01447=9305,-16605,-23893,-85998,7003,37832
C01448=9115,-16339,-23492,-85924,6862,37812
C01449=8926,-16072,-23089,-85849,6722,37793
C01450=8737,-15803,-22685,-85773,6583,37773
C01451=8549,-15532,-22279,-85696,6443,37752
C01452=8362,-15260,-21871,-85619,6304,37730
C01453=8175,-14985,-21461,-85541,6166,37708
C01454=7988,-14709,-21050,-85462,6027,37686
C01455=7802,-14431,-20636,-85382,5889,37662
C01456=7617,-14151,-20221,-85302,5751,37639
C01457=7432,-13869,-19804,-85220,5614,37614
C01458=7247,-13586,-19386,-85138,5476,37589
C01459=7064,-13301,-18965,-85055,5339,37563
C01460=6880,-13013,-18543,-84971,5203,37537
C01461=6698,-12725,-18119,-84886,5067,37510
C01462=6516,-12434,-17693,-84800,4931,37482
C01463=6334,-12141,-17265,-84714,4795,37454
C01464=6153,-11847,-16835,-84626,4660,37425
C01465=5972,-11550,-16404,-84538,4525,37395
C01466=5792,-11252,-15970,-84448,4390,37365
C01467=5613,-10953,-15535,-84358,4256,37334
C01468=5434,-10651,-15097,-84267,4122,37302
C01469=5256,-10347,-14658,-84175,3988,37270
C01470=5078,-10042,-14217,-84081,3854,37237
C01471=4901,-9735,-13774,-83987,3721,37204
C01472=4724,-9425,-13329,-83892,3589,37169
C01473=4548,-9114,-12882,-83796,3456,37134
C01474=4372,-8802,-12432,-83699,3324,37099
C01475=4197,-8487,-11981,-83600,3192,37062
C01476=4023,-8171,-11528,-83501,3061,37025
C01477=3849,-7852,-11073,-83401,2930,36987
C01478=3676,-7532,-10616,-83300,2799,36949
C01479=3503,-7210,-10156,-83197,2668,36909
C01480=3331,-6886,-9695,-83093,2538,36870
C01481=3159,-6560,-9231,-82989,2408,36829
C01482=2988,-6232,-8766,-82883,2279,36787
C01483=2817,-5903,-8298,-82776,2149,36745
C01484=2647,-5571,-7828,-82668,2020,36702
C01485=2477,-5238,-7356,-82558,1892,36659
C01486=2309,-4902,-6881,-82448,1764,36614
C01487=2140,-4565,-6405,-82336,1636,36569
C01488=1972,-4226,-5926,-82223,1508,36523
C01489=1805,-3884,-5445,-82109,1381,36476
C01490=1638,-3541,-4962,-81994,1254,36429
C01491=1472,-3196,-4476,-81877,1127,36380
C01492=1306,-2849,-3989,-81759,1000,36331
C01493=1141,-2500,-3498,-81640,874,36281
C01494=976,-2149,-3006,-81519,749,36230
C01495=812,-1796,-2511,-81397,623,36179
C01496=649,-1441,-2014,-81274,498,36126
C01497=486,-1084,-1514,-81149,373,36073
C01498=323,-725,-1012,-81023,248,36019
C01499=161,-363,-507,-80896,124,35964
//INST
///DATE 2023/06/27 18:40
///ATTR SC,RW
///GROUP1 RB1
NOP
MOVJ C00000 VJ=5.0 PL=0
TIMER T=0.50
MOVJ C00001 VJ=5.0 PL=0
TIMER T=0.50
MOVJ C00002 VJ=5.0 PL=0
TIMER T=0.50
MOVJ C00003 VJ=5.0 PL=0
TIMER T=0.50
MOVJ C00004 VJ=5.0 PL=0
TIMER T=0.50
MOVJ C00005 VJ=5.0 PL=0
TIMER T=0.50
MOVJ C00006 VJ=5.0 PL=0
TIMER T=0.50
MOVJ C00007 VJ=5.0 PL=0
TIMER T=0.50
MOVJ C00008 VJ=5.0 PL=0
TIMER T=0.50
MOVJ C00009 VJ=5.0 PL=0
TIMER T=0.50
MOVJ C00010 VJ=5.0 PL=0
TIMER T=0.50
MOVJ C00011 VJ=5.0 PL=0
TIMER T=0.50
MOVJ C00012 VJ=5.0 PL=0
TIMER T=0.50
MOVJ C00013 VJ=5.0 PL=0
TIMER T=0.50
MOVJ C00014 VJ=5.0 PL=0
TIMER T=0.50
MOVJ C00015 VJ=5.0 PL=0
TIMER T=0.50
MOVJ C00016 VJ=5.0 PL=0
TIMER T=0.50
MOVJ C00017 VJ=5.0 PL=0
TIMER T=0.50
MOVJ C00018 VJ=5.0 PL=0
TIMER T=0.50
MOVJ C00019 VJ=5.0 PL=0
TIMER T=0.50
MOVJ C00020 VJ=5.0 PL=0
TIMER T=0.50
MOVJ C00021 VJ=5.0 PL=0
TIMER T=0.50
MOVJ C00022 VJ=5.0 PL=0
TIMER T=0.50
MOVJ C00023 VJ=5.0 PL=0
TIMER T=0.50
MOVJ C00024 VJ=5.0 PL=0
TIMER T=0.50
MOVJ C00025 VJ=5.0 PL=0
TIMER T=0.50
MOVJ C00026 VJ=5.0 PL=0
TIMER T=0.50
MOVJ C00027 VJ=5.0 PL=0
TIMER T=0.50
MOVJ C00028 VJ=5.0 PL=0
TIMER T=0.50
MOVJ C00029 VJ=5.0 PL=0
TIMER T=0.50
MOVJ C00030 VJ=5.0 PL=0
TIMER T=0.50
MOVJ C00031 VJ=5.0 PL=0
TIMER T=0.50
MOVJ C00032 VJ=5.0 PL=0
TIMER T=0.50
MOVJ C00033 VJ=5.0 PL=0
TIMER T=0.50
MOVJ C00034 VJ=5.0 PL=0
TIMER T=0.50
MOVJ C00035 VJ=5.0 PL=0
TIMER T=0.50
MOVJ C00036 VJ=5.0 PL=0
TIMER T=0.50
MOVJ C00037 VJ=5.0 PL=0
TIMER T=0.50
MOVJ C00038 VJ=5.0 PL=0
TIMER T=0.50
MOVJ C00039 VJ=5.0 PL=0
TIMER T=0.50
MOVJ C00040 VJ=5.0 PL=0
TIMER T=0.50
MOVJ C00041 VJ=5.0 PL=0
TIMER T=0.50
MOVJ C00042 VJ=5.0 PL=0
TIMER T=0.50
MOVJ C00043 VJ=5.0 PL=0
TIMER T=0.50
MOVJ C00044 VJ=5.0 PL=0
TIMER T=0.50
MOVJ C00045 VJ=5.0 PL=0
TIMER T=0.50
MOVJ C00046 VJ=5.0 PL=0
TIMER T=0.50
MOVJ C00047 VJ=5.0 PL=0
TIMER T=0.50
MOVJ C00048 VJ=5.0 PL=0
TIMER T=0.50
MOVJ C00049 VJ=5.0 PL=0
TIMER T=0.50
MOVJ C00050 VJ=5.0 PL=0
TIMER T=0.50
MOVJ C00051 VJ=5.0 PL=0
TIMER T=0.50
MOVJ C00052 VJ=5.0 PL=0
TIMER T=0.50
MOVJ C00053 VJ=5.0 PL=0
TIMER T=0.50
MOVJ C00054 VJ=5.0 PL=0
TIMER T=0.50
MOVJ C00055 VJ=5.0 PL=0
TIMER T=0.50
MOVJ C00056 VJ=5.0 PL=0
TIMER T=0.50
MOVJ C00057 VJ=5.0 PL=0
TIMER T=0.50
MOVJ C00058 VJ=5.0 PL=0
TIMER T=0.50
MOVJ C00059 VJ=5.0 PL=0
TIMER T=0.50
MOVJ C00060 VJ=5.0 PL=0
TIMER T=0.50
MOVJ C00061 VJ=5.0 PL=0
TIMER T=0.50
MOVJ C00062 VJ=5.0 PL=0
TIMER T=0.50
MOVJ C00063 VJ=5.0 PL=0
TIMER T=0.50
MOVJ C00064 VJ=5.0 PL=0
TIMER T=0.50
MOVJ C00065 VJ=5.0 PL=0
TIMER T=0.50
MOVJ C00066 VJ=5.0 PL=0
TIMER T=0.50
MOVJ C00067 VJ=5.0 PL=0
TIMER T=0.50
MOVJ C00068 VJ=5.0 PL=0
TIMER T=0.50
MOVJ C00069 VJ=5.0 PL=0
TIMER T=0.50
MOVJ C00070 VJ=5.0 PL=0
TIMER T=0.50
MOVJ C00071 VJ=5.0 PL=0
TIMER T=0.50
MOVJ C00072 VJ=5.0 PL=0
TIMER T=0.50
MOVJ C00073 VJ=5.0 PL=0
TIMER T=0.50
MOVJ C00074 VJ=5.0 PL=0
TIMER T=0.50
MOVJ C00075 VJ=5.0 PL=0
TIMER T=0.50
MOVJ C00076 VJ=5.0 PL=0
TIMER T=0.50
MOVJ C00077 VJ=5.0 PL=0
TIMER T=0.50
MOVJ C00078 VJ=5.0 PL=0
TIMER T=0.50
MOVJ C00079 VJ=5.0 PL=0
TIMER T=0.50
MOVJ C00080 VJ=5.0 PL=0
TIMER T=0.50
MOVJ C00081 VJ=5.0 PL=0
TIMER T=0.50
MOVJ C00082 VJ=5.0 PL=0
TIMER T=0.50
MOVJ C00083 VJ=5.0 PL=0
TIMER T=0.50
MOVJ C00084 VJ=5.0 PL=0
TIMER T=0.50
MOVJ C00085 VJ=5.0 PL=0
TIMER T=0.50
MOVJ C00086 VJ=5.0 PL=0
TIMER T=0.50
MOVJ C00087 VJ=5.0 PL=0
TIMER T=0.50
MOVJ C00088 VJ=5.0 PL=0
TIMER T=0.50
MOVJ C00089 VJ=5.0 PL=0
TIMER T=0.50
MOVJ C00090 VJ=5.0 PL=0
TIMER T=0.50
MOVJ C00091 VJ=5.0 PL=0
TIMER T=0.50
MOVJ C00092 VJ=5.0 PL=0
TIMER T=0.50
MOVJ C00093 VJ=5.0 PL=0
TIMER T=0.50
MOVJ C00094 VJ=5.0 PL=0
TIMER T=0.50
MOVJ C00095 VJ=5.0 PL=0
TIMER T=0.50
MOVJ C00096 VJ=5.0 PL=0
TIMER T=0.50
MOVJ C00097 VJ=5.0 PL=0
TIMER T=0.50
MOVJ C00098 VJ=5.0 PL=0
TIMER T=0.50
MOVJ C00099 VJ=5.0 PL=0
TIMER T=0.50
MOVJ C00100 VJ=5.0 PL=0
TIMER T=0.50
MOVJ C00101 VJ=5.0 PL=0
TIMER T=0.50
MOVJ C00102 VJ=5.0 PL=0
TIMER T=0.50
MOVJ C00103 VJ=5.0 PL=0
TIMER T=0.50
MOVJ C00104 VJ=5.0 PL=0
TIMER T=0.50
MOVJ C00105 VJ=5.0 PL=0
TIMER T=0.50
MOVJ C00106 VJ=5.0 PL=0
TIMER T=0.50
MOVJ C00107 VJ=5.0 PL=0
TIMER T=0.50
MOVJ C00108 VJ=5.0 PL=0
TIMER T=0.50
MOVJ C00109 VJ=5.0 PL=0
TIMER T=0.50
MOVJ C00110 VJ=5.0 PL=0
TIMER T=0.50
MOVJ C00111 VJ=5.0 PL=0
TIMER T=0.50
MOVJ C00112 VJ=5.0 PL=0
TIMER T=0.50
MOVJ C00113 VJ=5.0 PL=0
TIMER T=0.50
MOVJ C00114 VJ=5.0 PL=0
TIMER T=0.50
MOVJ C00115 VJ=5.0 PL=0
TIMER T=0.50
MOVJ C00116 VJ=5.0 PL=0
TIMER T=0.50
MOVJ C00117 VJ=5.0 PL=0
TIMER T=0.50
MOVJ C00118 VJ=5.0 PL=0
TIMER T=0.50
MOVJ C00119 VJ=5.0 PL=0
TIMER T=0.50
MOVJ C00120 VJ=5.0 PL=0
TIMER T=0.50
MOVJ C00121 VJ=5.0 PL=0
TIMER T=0.50
MOVJ C00122 VJ=5.0 PL=0
TIMER T=0.50
MOVJ C00123 VJ=5.0 PL=0
TIMER T=0.50
MOVJ C00124 VJ=5.0 PL=0
TIMER T=0.50
MOVJ C00125 VJ=5.0 PL=0
TIMER T=0.50
MOVJ C00126 VJ=5.0 PL=0
TIMER T=0.50
MOVJ C00127 VJ=5.0 PL=0
TIMER T=0.50
MOVJ C00128 VJ=5.0 PL=0
TIMER T=0.50
MOVJ C00129 VJ=5.0 PL=0
TIMER T=0.50
MOVJ C00130 VJ=5.0 PL=0
TIMER T=0.50
MOVJ C00131 VJ=5.0 PL=0
TIMER T=0.50
MOVJ C00132 VJ=5.0 PL=0
TIMER T=0.50
MOVJ C00133 VJ=5.0 PL=0
TIMER T=0.50
MOVJ C00134 VJ=5.0 PL=0
TIMER T=0.50
MOVJ C00135 VJ=5.0 PL=0
TIMER T=0.50
MOVJ C00136 VJ=5.0 PL=0
TIMER T=0.50
MOVJ C00137 VJ=5.0 PL=0
TIMER T=0.50
MOVJ C00138 VJ=5.0 PL=0
TIMER T=0.50
MOVJ C00139 VJ=5.0 PL=0
TIMER T=0.50
MOVJ C00140 VJ=5.0 PL=0
TIMER T=0.50
MOVJ C00141 VJ=5.0 PL=0
TIMER T=0.50
MOVJ C00142 VJ=5.0 PL=0
TIMER T=0.50
MOVJ C00143 VJ=5.0 PL=0
TIMER T=0.50
MOVJ C00144 VJ=5.0 PL=0
TIMER T=0.50
MOVJ C00145 VJ=5.0 PL=0
TIMER T=0.50
MOVJ C00146 VJ=5.0 PL=0
TIMER T=0.50
MOVJ C00147 VJ=5.0 PL=0
TIMER T=0.50
MOVJ C00148 VJ=5.0 PL=0
TIMER T=0.50
MOVJ C00149 VJ=5.0 PL=0
TIMER T=0.50
MOVJ C00150 VJ=5.0 PL=0
TIMER T=0.50
MOVJ C00151 VJ=5.0 PL=0
TIMER T=0.50
MOVJ C00152 VJ=5.0 PL=0
TIMER T=0.50
MOVJ C00153 VJ=5.0 PL=0
TIMER T=0.50
MOVJ C00154 VJ=5.0 PL=0
TIMER T=0.50
MOVJ C00155 VJ=5.0 PL=0
TIMER T=0.50
MOVJ C00156 VJ=5.0 PL=0
TIMER T=0.50
MOVJ C00157 VJ=5.0 PL=0
TIMER T=0.50
MOVJ C00158 VJ=5.0 PL=0
TIMER T=0.50
MOVJ C00159 VJ=5.0 PL=0
TIMER T=0.50
MOVJ C00160 VJ=5.0 PL=0
TIMER T=0.50
MOVJ C00161 VJ=5.0 PL=0
TIMER T=0.50
MOVJ C00162 VJ=5.0 PL=0
TIMER T=0.50
MOVJ C00163 VJ=5.0 PL=0
TIMER T=0.50
MOVJ C00164 VJ=5.0 PL=0
TIMER T=0.50
MOVJ C00165 VJ=5.0 PL=0
TIMER T=0.50
MOVJ C00166 VJ=5.0 PL=0
TIMER T=0.50
MOVJ C00167 VJ=5.0 PL=0
TIMER T=0.50
MOVJ C00168 VJ=5.0 PL=0
TIMER T=0.50
MOVJ C00169 VJ=5.0 PL=0
TIMER T=0.50
MOVJ C00170 VJ=5.0 PL=0
TIMER T=0.50
MOVJ C00171 VJ=5.0 PL=0
TIMER T=0.50
MOVJ C00172 VJ=5.0 PL=0
TIMER T=0.50
MOVJ C00173 VJ=5.0 PL=0
TIMER T=0.50
MOVJ C00174 VJ=5.0 PL=0
TIMER T=0.50
MOVJ C00175 VJ=5.0 PL=0
TIMER T=0.50
MOVJ C00176 VJ=5.0 PL=0
TIMER T=0.50
MOVJ C00177 VJ=5.0 PL=0
TIMER T=0.50
MOVJ C00178 VJ=5.0 PL=0
TIMER T=0.50
MOVJ C00179 VJ=5.0 PL=0
TIMER T=0.50
MOVJ C00180 VJ=5.0 PL=0
TIMER T=0.50
MOVJ C00181 VJ=5.0 PL=0
TIMER T=0.50
MOVJ C00182 VJ=5.0 PL=0
TIMER T=0.50
MOVJ C00183 VJ=5.0 PL=0
TIMER T=0.50
MOVJ C00184 VJ=5.0 PL=0
TIMER T=0.50
MOVJ C00185 VJ=5.0 PL=0
TIMER T=0.50
MOVJ C00186 VJ=5.0 PL=0
TIMER T=0.50
MOVJ C00187 VJ=5.0 PL=0
TIMER T=0.50
MOVJ C00188 VJ=5.0 PL=0
TIMER T=0.50
MOVJ C00189 VJ=5.0 PL=0
TIMER T=0.50
MOVJ C00190 VJ=5.0 PL=0
TIMER T=0.50
MOVJ C00191 VJ=5.0 PL=0
TIMER T=0.50
MOVJ C00192 VJ=5.0 PL=0
TIMER T=0.50
MOVJ C00193 VJ=5.0 PL=0
TIMER T=0.50
MOVJ C00194 VJ=5.0 PL=0
TIMER T=0.50
MOVJ C00195 VJ=5.0 PL=0
TIMER T=0.50
MOVJ C00196 VJ=5.0 PL=0
TIMER T=0.50
MOVJ C00197 VJ=5.0 PL=0
TIMER T=0.50
MOVJ C00198 VJ=5.0 PL=0
TIMER T=0.50
MOVJ C00199 VJ=5.0 PL=0
TIMER T=0.50
MOVJ C00200 VJ=5.0 PL=0
TIMER T=0.50
MOVJ C00201 VJ=5.0 PL=0
TIMER T=0.50
MOVJ C00202 VJ=5.0 PL=0
TIMER T=0.50
MOVJ C00203 VJ=5.0 PL=0
TIMER T=0.50
MOVJ C00204 VJ=5.0 PL=0
TIMER T=0.50
MOVJ C00205 VJ=5.0 PL=0
TIMER T=0.50
MOVJ C00206 VJ=5.0 PL=0
TIMER T=0.50
MOVJ C00207 VJ=5.0 PL=0
TIMER T=0.50
MOVJ C00208 VJ=5.0 PL=0
TIMER T=0.50
MOVJ C00209 VJ=5.0 PL=0
TIMER T=0.50
MOVJ C00210 VJ=5.0 PL=0
TIMER T=0.50
MOVJ C00211 VJ=5.0 PL=0
TIMER T=0.50
MOVJ C00212 VJ=5.0 PL=0
TIMER T=0.50
MOVJ C00213 VJ=5.0 PL=0
TIMER T=0.50
MOVJ C00214 VJ=5.0 PL=0
TIMER T=0.50
MOVJ C00215 VJ=5.0 PL=0
TIMER T=0.50
MOVJ C00216 VJ=5.0 PL=0
TIMER T=0.50
MOVJ C00217 VJ=5.0 PL=0
TIMER T=0.50
MOVJ C00218 VJ=5.0 PL=0
TIMER T=0.50
MOVJ C00219 VJ=5.0 PL=0
TIMER T=0.50
MOVJ C00220 VJ=5.0 PL=0
TIMER T=0.50
MOVJ C00221 VJ=5.0 PL=0
TIMER T=0.50
MOVJ C00222 VJ=5.0 PL=0
TIMER T=0.50
MOVJ C00223 VJ=5.0 PL=0
TIMER T=0.50
MOVJ C00224 VJ=5.0 PL=0
TIMER T=0.50
MOVJ C00225 VJ=5.0 PL=0
TIMER T=0.50
MOVJ C00226 VJ=5.0 PL=0
TIMER T=0.50
MOVJ C00227 VJ=5.0 PL=0
TIMER T=0.50
MOVJ C00228 VJ=5.0 PL=0
TIMER T=0.50
MOVJ C00229 VJ=5.0 PL=0
TIMER T=0.50
MOVJ C00230 VJ=5.0 PL=0
TIMER T=0.50
MOVJ C00231 VJ=5.0 PL=0
TIMER T=0.50
MOVJ C00232 VJ=5.0 PL=0
TIMER T=0.50
MOVJ C00233 VJ=5.0 PL=0
TIMER T=0.50
MOVJ C00234 VJ=5.0 PL=0
TIMER T=0.50
MOVJ C00235 VJ=5.0 PL=0
TIMER T=0.50
MOVJ C00236 VJ=5.0 PL=0
TIMER T=0.50
MOVJ C00237 VJ=5.0 PL=0
TIMER T=0.50
MOVJ C00238 VJ=5.0 PL=0
TIMER T=0.50
MOVJ C00239 VJ=5.0 PL=0
TIMER T=0.50
MOVJ C00240 VJ=5.0 PL=0
TIMER T=0.50
MOVJ C00241 VJ=5.0 PL=0
TIMER T=0.50
MOVJ C00242 VJ=5.0 PL=0
TIMER T=0.50
MOVJ C00243 VJ=5.0 PL=0
TIMER T=0.50
MOVJ C00244 VJ=5.0 PL=0
TIMER T=0.50
MOVJ C00245 VJ=5.0 PL=0
TIMER T=0.50
MOVJ C00246 VJ=5.0 PL=0
TIMER T=0.50
MOVJ C00247 VJ=5.0 PL=0
TIMER T=0.50
MOVJ C00248 VJ=5.0 PL=0
TIMER T=0.50
MOVJ C00249 VJ=5.0 PL=0
TIMER T=0.50
MOVJ C00250 VJ=5.0 PL=0
TIMER T=0.50
MOVJ C00251 VJ=5.0 PL=0
TIMER T=0.50
MOVJ C00252 VJ=5.0 PL=0
TIMER T=0.50
MOVJ C00253 VJ=5.0 PL=0
TIMER T=0.50
MOVJ C00254 VJ=5.0 PL=0
TIMER T=0.50
MOVJ C00255 VJ=5.0 PL=0
TIMER T=0.50
MOVJ C00256 VJ=5.0 PL=0
TIMER T=0.50
MOVJ C00257 VJ=5.0 PL=0
TIMER T=0.50
MOVJ C00258 VJ=5.0 PL=0
TIMER T=0.50
MOVJ C00259 VJ=5.0 PL=0
TIMER T=0.50
MOVJ C00260 VJ=5.0 PL=0
TIMER T=0.50
MOVJ C00261 VJ=5.0 PL=0
TIMER T=0.50
MOVJ C00262 VJ=5.0 PL=0
TIMER T=0.50
MOVJ C00263 VJ=5.0 PL=0
TIMER T=0.50
MOVJ C00264 VJ=5.0 PL=0
TIMER T=0.50
MOVJ C00265 VJ=5.0 PL=0
TIMER T=0.50
MOVJ C00266 VJ=5.0 PL=0
TIMER T=0.50
MOVJ C00267 VJ=5.0 PL=0
TIMER T=0.50
MOVJ C00268 VJ=5.0 PL=0
TIMER T=0.50
MOVJ C00269 VJ=5.0 PL=0
TIMER T=0.50
MOVJ C00270 VJ=5.0 PL=0
TIMER T=0.50
MOVJ C00271 VJ=5.0 PL=0
TIMER T=0.50
MOVJ C00272 VJ=5.0 PL=0
TIMER T=0.50
MOVJ C00273 VJ=5.0 PL=0
TIMER T=0.50
MOVJ C00274 VJ=5.0 PL=0
TIMER T=0.50
MOVJ C00275 VJ=5.0 PL=0
TIMER T=0.50
MOVJ C00276 VJ=5.0 PL=0
TIMER T=0.50
MOVJ C00277 VJ=5.0 PL=0
TIMER T=0.50
MOVJ C00278 VJ=5.0 PL=0
TIMER T=0.50
MOVJ C00279 VJ=5.0 PL=0
TIMER T=0.50
MOVJ C00280 VJ=5.0 PL=0
TIMER T=0.50
MOVJ C00281 VJ=5.0 PL=0
TIMER T=0.50
MOVJ C00282 VJ=5.0 PL=0
TIMER T=0.50
MOVJ C00283 VJ=5.0 PL=0
TIMER T=0.50
MOVJ C00284 VJ=5.0 PL=0
TIMER T=0.50
MOVJ C00285 VJ=5.0 PL=0
TIMER T=0.50
MOVJ C00286 VJ=5.0 PL=0
TIMER T=0.50
MOVJ C00287 VJ=5.0 PL=0
TIMER T=0.50
MOVJ C00288 VJ=5.0 PL=0
TIMER T=0.50
MOVJ C00289 VJ=5.0 PL=0
TIMER T=0.50
MOVJ C00290 VJ=5.0 PL=0
TIMER T=0.50
MOVJ C00291 VJ=5.0 PL=0
TIMER T=0.50
MOVJ C00292 VJ=5.0 PL=0
TIMER T=0.50
MOVJ C00293 VJ=5.0 PL=0
TIMER T=0.50
MOVJ C00294 VJ=5.0 PL=0
TIMER T=0.50
MOVJ C00295 VJ=5.0 PL=0
TIMER T=0.50
MOVJ C00296 VJ=5.0 PL=0
TIMER T=0.50
MOVJ C00297 VJ=5.0 PL=0
TIMER T=0.50
MOVJ C00298 VJ=5.0 PL=0
TIMER T=0.50
MOVJ C00299 VJ=5.0 PL=0
TIMER T=0.50
MOVJ C00300 VJ=5.0 PL=0
TIMER T=0.50
MOVJ C00301 VJ=5.0 PL=0
TIMER T=0.50
MOVJ C00302 VJ=5.0 PL=0
TIMER T=0.50
MOVJ C00303 VJ=5.0 PL=0
TIMER T=0.50
MOVJ C00304 VJ=5.0 PL=0
TIMER T=0.50
MOVJ C00305 VJ=5.0 PL=0
TIMER T=0.50
MOVJ C00306 VJ=5.0 PL=0
TIMER T=0.50
MOVJ C00307 VJ=5.0 PL=0
TIMER T=0.50
MOVJ C00308 VJ=5.0 PL=0
TIMER T=0.50
MOVJ C00309 VJ=5.0 PL=0
TIMER T=0.50
MOVJ C00310 VJ=5.0 PL=0
TIMER T=0.50
MOVJ C00311 VJ=5.0 PL=0
TIMER T=0.50
MOVJ C00312 VJ=5.0 PL=0
TIMER T=0.50
MOVJ C00313 VJ=5.0 PL=0
TIMER T=0.50
MOVJ C00314 VJ=5.0 PL=0
TIMER T=0.50
MOVJ C00315 VJ=5.0 PL=0
TIMER T=0.50
MOVJ C00316 VJ=5.0 PL=0
TIMER T=0.50
MOVJ C00317 VJ=5.0 PL=0
TIMER T=0.50
MOVJ C00318 VJ=5.0 PL=0
TIMER T=0.50
MOVJ C00319 VJ=5.0 PL=0
TIMER T=0.50
MOVJ C00320 VJ=5.0 PL=0
TIMER T=0.50
MOVJ C00321 VJ=5.0 PL=0
TIMER T=0.50
MOVJ C00322 VJ=5.0 PL=0
TIMER T=0.50
MOVJ C00323 VJ=5.0 PL=0
TIMER T=0.50
MOVJ C00324 VJ=5.0 PL=0
TIMER T=0.50
MOVJ C00325 VJ=5.0 PL=0
TIMER T=0.50
MOVJ C00326 VJ=5.0 PL=0
TIMER T=0.50
MOVJ C00327 VJ=5.0 PL=0
TIMER T=0.50
MOVJ C00328 VJ=5.0 PL=0
TIMER T=0.50
MOVJ C00329 VJ=5.0 PL=0
TIMER T=0.50
MOVJ C00330 VJ=5.0 PL=0
TIMER T=0.50
MOVJ C00331 VJ=5.0 PL=0
TIMER T=0.50
MOVJ C00332 VJ=5.0 PL=0
TIMER T=0.50
MOVJ C00333 VJ=5.0 PL=0
TIMER T=0.50
MOVJ C00334 VJ=5.0 PL=0
TIMER T=0.50
MOVJ C00335 VJ=5.0 PL=0
TIMER T=0.50
MOVJ C00336 VJ=5.0 PL=0
TIMER T=0.50
MOVJ C00337 VJ=5.0 PL=0
TIMER T=0.50
MOVJ C00338 VJ=5.0 PL=0
TIMER T=0.50
MOVJ C00339 VJ=5.0 PL=0
TIMER T=0.50
MOVJ C00340 VJ=5.0 PL=0
TIMER T=0.50
MOVJ C00341 VJ=5.0 PL=0
TIMER T=0.50
MOVJ C00342 VJ=5.0 PL=0
TIMER T=0.50
MOVJ C00343 VJ=5.0 PL=0
TIMER T=0.50
MOVJ C00344 VJ=5.0 PL=0
TIMER T=0.50
MOVJ C00345 VJ=5.0 PL=0
TIMER T=0.50
MOVJ C00346 VJ=5.0 PL=0
TIMER T=0.50
MOVJ C00347 VJ=5.0 PL=0
TIMER T=0.50
MOVJ C00348 VJ=5.0 PL=0
TIMER T=0.50
MOVJ C00349 VJ=5.0 PL=0
TIMER T=0.50
MOVJ C00350 VJ=5.0 PL=0
TIMER T=0.50
MOVJ C00351 VJ=5.0 PL=0
TIMER T=0.50
MOVJ C00352 VJ=5.0 PL=0
TIMER T=0.50
MOVJ C00353 VJ=5.0 PL=0
TIMER T=0.50
MOVJ C00354 VJ=5.0 PL=0
TIMER T=0.50
MOVJ C00355 VJ=5.0 PL=0
TIMER T=0.50
MOVJ C00356 VJ=5.0 PL=0
TIMER T=0.50
MOVJ C00357 VJ=5.0 PL=0
TIMER T=0.50
MOVJ C00358 VJ=5.0 PL=0
TIMER T=0.50
MOVJ C00359 VJ=5.0 PL=0
TIMER T=0.50
MOVJ C00360 VJ=5.0 PL=0
TIMER T=0.50
MOVJ C00361 VJ=5.0 PL=0
TIMER T=0.50
MOVJ C00362 VJ=5.0 PL=0
TIMER T=0.50
MOVJ C00363 VJ=5.0 PL=0
TIMER T=0.50
MOVJ C00364 VJ=5.0 PL=0
TIMER T=0.50
MOVJ C00365 VJ=5.0 PL=0
TIMER T=0.50
MOVJ C00366 VJ=5.0 PL=0
TIMER T=0.50
MOVJ C00367 VJ=5.0 PL=0
TIMER T=0.50
MOVJ C00368 VJ=5.0 PL=0
TIMER T=0.50
MOVJ C00369 VJ=5.0 PL=0
TIMER T=0.50
MOVJ C00370 VJ=5.0 PL=0
TIMER T=0.50
MOVJ C00371 VJ=5.0 PL=0
TIMER T=0.50
MOVJ C00372 VJ=5.0 PL=0
TIMER T=0.50
MOVJ C00373 VJ=5.0 PL=0
TIMER T=0.50
MOVJ C00374 VJ=5.0 PL=0
TIMER T=0.50
MOVJ C00375 VJ=5.0 PL=0
TIMER T=0.50
MOVJ C00376 VJ=5.0 PL=0
TIMER T=0.50
MOVJ C00377 VJ=5.0 PL=0
TIMER T=0.50
MOVJ C00378 VJ=5.0 PL=0
TIMER T=0.50
MOVJ C00379 VJ=5.0 PL=0
TIMER T=0.50
MOVJ C00380 VJ=5.0 PL=0
TIMER T=0.50
MOVJ C00381 VJ=5.0 PL=0
TIMER T=0.50
MOVJ C00382 VJ=5.0 PL=0
TIMER T=0.50
MOVJ C00383 VJ=5.0 PL=0
TIMER T=0.50
MOVJ C00384 VJ=5.0 PL=0
TIMER T=0.50
MOVJ C00385 VJ=5.0 PL=0
TIMER T=0.50
MOVJ C00386 VJ=5.0 PL=0
TIMER T=0.50
MOVJ C00387 VJ=5.0 PL=0
TIMER T=0.50
MOVJ C00388 VJ=5.0 PL=0
TIMER T=0.50
MOVJ C00389 VJ=5.0 PL=0
TIMER T=0.50
MOVJ C00390 VJ=5.0 PL=0
TIMER T=0.50
MOVJ C00391 VJ=5.0 PL=0
TIMER T=0.50
MOVJ C00392 VJ=5.0 PL=0
TIMER T=0.50
MOVJ C00393 VJ=5.0 PL=0
TIMER T=0.50
MOVJ C00394 VJ=5.0 PL=0
TIMER T=0.50
MOVJ C00395 VJ=5.0 PL=0
TIMER T=0.50
MOVJ C00396 VJ=5.0 PL=0
TIMER T=0.50
MOVJ C00397 VJ=5.0 PL=0
TIMER T=0.50
MOVJ C00398 VJ=5.0 PL=0
TIMER T=0.50
MOVJ C00399 VJ=5.0 PL=0
TIMER T=0.50
MOVJ C00400 VJ=5.0 PL=0
TIMER T=0.50
MOVJ C00401 VJ=5.0 PL=0
TIMER T=0.50
MOVJ C00402 VJ=5.0 PL=0
TIMER T=0.50
MOVJ C00403 VJ=5.0 PL=0
TIMER T=0.50
MOVJ C00404 VJ=5.0 PL=0
TIMER T=0.50
MOVJ C00405 VJ=5.0 PL=0
TIMER T=0.50
MOVJ C00406 VJ=5.0 PL=0
TIMER T=0.50
MOVJ C00407 VJ=5.0 PL=0
TIMER T=0.50
MOVJ C00408 VJ=5.0 PL=0
TIMER T=0.50
MOVJ C00409 VJ=5.0 PL=0
TIMER T=0.50
MOVJ C00410 VJ=5.0 PL=0
TIMER T=0.50
MOVJ C00411 VJ=5.0 PL=0
TIMER T=0.50
MOVJ C00412 VJ=5.0 PL=0
TIMER T=0.50
MOVJ C00413 VJ=5.0 PL=0
TIMER T=0.50
MOVJ C00414 VJ=5.0 PL=0
TIMER T=0.50
MOVJ C00415 VJ=5.0 PL=0
TIMER T=0.50
MOVJ C00416 VJ=5.0 PL=0
TIMER T=0.50
MOVJ C00417 VJ=5.0 PL=0
TIMER T=0.50
MOVJ C00418 VJ=5.0 PL=0
TIMER T=0.50
MOVJ C00419 VJ=5.0 PL=0
TIMER T=0.50
MOVJ C00420 VJ=5.0 PL=0
TIMER T=0.50
MOVJ C00421 VJ=5.0 PL=0
TIMER T=0.50
MOVJ C00422 VJ=5.0 PL=0
TIMER T=0.50
MOVJ C00423 VJ=5.0 PL=0
TIMER T=0.50
MOVJ C00424 VJ=5.0 PL=0
TIMER T=0.50
MOVJ C00425 VJ=5.0 PL=0
TIMER T=0.50
MOVJ C00426 VJ=5.0 PL=0
TIMER T=0.50
MOVJ C00427 VJ=5.0 PL=0
TIMER T=0.50
MOVJ C00428 VJ=5.0 PL=0
TIMER T=0.50
MOVJ C00429 VJ=5.0 PL=0
TIMER T=0.50
MOVJ C00430 VJ=5.0 PL=0
TIMER T=0.50
MOVJ C00431 VJ=5.0 PL=0
TIMER T=0.50
MOVJ C00432 VJ=5.0 PL=0
TIMER T=0.50
MOVJ C00433 VJ=5.0 PL=0
TIMER T=0.50
MOVJ C00434 VJ=5.0 PL=0
TIMER T=0.50
MOVJ C00435 VJ=5.0 PL=0
TIMER T=0.50
MOVJ C00436 VJ=5.0 PL=0
TIMER T=0.50
MOVJ C00437 VJ=5.0 PL=0
TIMER T=0.50
MOVJ C00438 VJ=5.0 PL=0
TIMER T=0.50
MOVJ C00439 VJ=5.0 PL=0
TIMER T=0.50
MOVJ C00440 VJ=5.0 PL=0
TIMER T=0.50
MOVJ C00441 VJ=5.0 PL=0
TIMER T=0.50
MOVJ C00442 VJ=5.0 PL=0
TIMER T=0.50
MOVJ C00443 VJ=5.0 PL=0
TIMER T=0.50
MOVJ C00444 VJ=5.0 PL=0
TIMER T=0.50
MOVJ C00445 VJ=5.0 PL=0
TIMER T=0.50
MOVJ C00446 VJ=5.0 PL=0
TIMER T=0.50
MOVJ C00447 VJ=5.0 PL=0
TIMER T=0.50
MOVJ C00448 VJ=5.0 PL=0
TIMER T=0.50
MOVJ C00449 VJ=5.0 PL=0
TIMER T=0.50
MOVJ C00450 VJ=5.0 PL=0
TIMER T=0.50
MOVJ C00451 VJ=5.0 PL=0
TIMER T=0.50
MOVJ C00452 VJ=5.0 PL=0
TIMER T=0.50
MOVJ C00453 VJ=5.0 PL=0
TIMER T=0.50
MOVJ C00454 VJ=5.0 PL=0
TIMER T=0.50
MOVJ C00455 VJ=5.0 PL=0
TIMER T=0.50
MOVJ C00456 VJ=5.0 PL=0
TIMER T=0.50
MOVJ C00457 VJ=5.0 PL=0
TIMER T=0.50
MOVJ C00458 VJ=5.0 PL=0
TIMER T=0.50
MOVJ C00459 VJ=5.0 PL=0
TIMER T=0.50
MOVJ C00460 VJ=5.0 PL=0
TIMER T=0.50
MOVJ C00461 VJ=5.0 PL=0
TIMER T=0.50
MOVJ C00462 VJ=5.0 PL=0
TIMER T=0.50
MOVJ C00463 VJ=5.0 PL=0
TIMER T=0.50
MOVJ C00464 VJ=5.0 PL=0
TIMER T=0.50
MOVJ C00465 VJ=5.0 PL=0
TIMER T=0.50
MOVJ C00466 VJ=5.0 PL=0
TIMER T=0.50
MOVJ C00467 VJ=5.0 PL=0
TIMER T=0.50
MOVJ C00468 VJ=5.0 PL=0
TIMER T=0.50
MOVJ C00469 VJ=5.0 PL=0
TIMER T=0.50
MOVJ C00470 VJ=5.0 PL=0
TIMER T=0.50
MOVJ C00471 VJ=5.0 PL=0
TIMER T=0.50
MOVJ C00472 VJ=5.0 PL=0
TIMER T=0.50
MOVJ C00473 VJ=5.0 PL=0
TIMER T=0.50
MOVJ C00474 VJ=5.0 PL=0
TIMER T=0.50
MOVJ C00475 VJ=5.0 PL=0
TIMER T=0.50
MOVJ C00476 VJ=5.0 PL=0
TIMER T=0.50
MOVJ C00477 VJ=5.0 PL=0
TIMER T=0.50
MOVJ C00478 VJ=5.0 PL=0
TIMER T=0.50
MOVJ C00479 VJ=5.0 PL=0
TIMER T=0.50
MOVJ C00480 VJ=5.0 PL=0
TIMER T=0.50
MOVJ C00481 VJ=5.0 PL=0
TIMER T=0.50
MOVJ C00482 VJ=5.0 PL=0
TIMER T=0.50
MOVJ C00483 VJ=5.0 PL=0
TIMER T=0.50
MOVJ C00484 VJ=5.0 PL=0
TIMER T=0.50
MOVJ C00485 VJ=5.0 PL=0
TIMER T=0.50
MOVJ C00486 VJ=5.0 PL=0
TIMER T=0.50
MOVJ C00487 VJ=5.0 PL=0
TIMER T=0.50
MOVJ C00488 VJ=5.0 PL=0
TIMER T=0.50
MOVJ C00489 VJ=5.0 PL=0
TIMER T=0.50
MOVJ C00490 VJ=5.0 PL=0
TIMER T=0.50
MOVJ C00491 VJ=5.0 PL=0
TIMER T=0.50
MOVJ C00492 VJ=5.0 PL=0
TIMER T=0.50
MOVJ C00493 VJ=5.0 PL=0
TIMER T=0.50
MOVJ C00494 VJ=5.0 PL=0
TIMER T=0.50
MOVJ C00495 VJ=5.0 PL=0
TIMER T=0.50
MOVJ C00496 VJ=5.0 PL=0
TIMER T=0.50
MOVJ C00497 VJ=5.0 PL=0
TIMER T=0.50
MOVJ C00498 VJ=5.0 PL=0
TIMER T=0.50
MOVJ C00499 VJ=5.0 PL=0
TIMER T=0.50
MOVJ C00500 VJ=5.0 PL=0
TIMER T=0.50
MOVJ C00501 VJ=5.0 PL=0
TIMER T=0.50
MOVJ C00502 VJ=5.0 PL=0
TIMER T=0.50
MOVJ C00503 VJ=5.0 PL=0
TIMER T=0.50
MOVJ C00504 VJ=5.0 PL=0
TIMER T=0.50
MOVJ C00505 VJ=5.0 PL=0
TIMER T=0.50
MOVJ C00506 VJ=5.0 PL=0
TIMER T=0.50
MOVJ C00507 VJ=5.0 PL=0
TIMER T=0.50
MOVJ C00508 VJ=5.0 PL=0
TIMER T=0.50
MOVJ C00509 VJ=5.0 PL=0
TIMER T=0.50
MOVJ C00510 VJ=5.0 PL=0
TIMER T=0.50
MOVJ C00511 VJ=5.0 PL=0
TIMER T=0.50
MOVJ C00512 VJ=5.0 PL=0
TIMER T=0.50
MOVJ C00513 VJ=5.0 PL=0
TIMER T=0.50
MOVJ C00514 VJ=5.0 PL=0
TIMER T=0.50
MOVJ C00515 VJ=5.0 PL=0
TIMER T=0.50
MOVJ C00516 VJ=5.0 PL=0
TIMER T=0.50
MOVJ C00517 VJ=5.0 PL=0
TIMER T=0.50
MOVJ C00518 VJ=5.0 PL=0
TIMER T=0.50
MOVJ C00519 VJ=5.0 PL=0
TIMER T=0.50
MOVJ C00520 VJ=5.0 PL=0
TIMER T=0.50
MOVJ C00521 VJ=5.0 PL=0
TIMER T=0.50
MOVJ C00522 VJ=5.0 PL=0
TIMER T=0.50
MOVJ C00523 VJ=5.0 PL=0
TIMER T=0.50
MOVJ C00524 VJ=5.0 PL=0
TIMER T=0.50
MOVJ C00525 VJ=5.0 PL=0
TIMER T=0.50
MOVJ C00526 VJ=5.0 PL=0
TIMER T=0.50
MOVJ C00527 VJ=5.0 PL=0
TIMER T=0.50
MOVJ C00528 VJ=5.0 PL=0
TIMER T=0.50
MOVJ C00529 VJ=5.0 PL=0
TIMER T=0.50
MOVJ C00530 VJ=5.0 PL=0
TIMER T=0.50
MOVJ C00531 VJ=5.0 PL=0
TIMER T=0.50
MOVJ C00532 VJ=5.0 PL=0
TIMER T=0.50
MOVJ C00533 VJ=5.0 PL=0
TIMER T=0.50
MOVJ C00534 VJ=5.0 PL=0
TIMER T=0.50
MOVJ C00535 VJ=5.0 PL=0
TIMER T=0.50
MOVJ C00536 VJ=5.0 PL=0
TIMER T=0.50
MOVJ C00537 VJ=5.0 PL=0
TIMER T=0.50
MOVJ C00538 VJ=5.0 PL=0
TIMER T=0.50
MOVJ C00539 VJ=5.0 PL=0
TIMER T=0.50
MOVJ C00540 VJ=5.0 PL=0
TIMER T=0.50
MOVJ C00541 VJ=5.0 PL=0
TIMER T=0.50
MOVJ C00542 VJ=5.0 PL=0
TIMER T=0.50
MOVJ C00543 VJ=5.0 PL=0
TIMER T=0.50
MOVJ C00544 VJ=5.0 PL=0
TIMER T=0.50
MOVJ C00545 VJ=5.0 PL=0
TIMER T=0.50
MOVJ C00546 VJ=5.0 PL=0
TIMER T=0.50
MOVJ C00547 VJ=5.0 PL=0
TIMER T=0.50
MOVJ C00548 VJ=5.0 PL=0
TIMER T=0.50
MOVJ C00549 VJ=5.0 PL=0
TIMER T=0.50
MOVJ C00550 VJ=5.0 PL=0
TIMER T=0.50
MOVJ C00551 VJ=5.0 PL=0
TIMER T=0.50
MOVJ C00552 VJ=5.0 PL=0
TIMER T=0.50
MOVJ C00553 VJ=5.0 PL=0
TIMER T=0.50
MOVJ C00554 VJ=5.0 PL=0
TIMER T=0.50
MOVJ C00555 VJ=5.0 PL=0
TIMER T=0.50
MOVJ C00556 VJ=5.0 PL=0
TIMER T=0.50
MOVJ C00557 VJ=5.0 PL=0
TIMER T=0.50
MOVJ C00558 VJ=5.0 PL=0
TIMER T=0.50
MOVJ C00559 VJ=5.0 PL=0
TIMER T=0.50
MOVJ C00560 VJ=5.0 PL=0
TIMER T=0.50
MOVJ C00561 VJ=5.0 PL=0
TIMER T=0.50
MOVJ C00562 VJ=5.0 PL=0
TIMER T=0.50
MOVJ C00563 VJ=5.0 PL=0
TIMER T=0.50
MOVJ C00564 VJ=5.0 PL=0
TIMER T=0.50
MOVJ C00565 VJ=5.0 PL=0
TIMER T=0.50
MOVJ C00566 VJ=5.0 PL=0
TIMER T=0.50
MOVJ C00567 VJ=5.0 PL=0
TIMER T=0.50
MOVJ C00568 VJ=5.0 PL=0
TIMER T=0.50
MOVJ C00569 VJ=5.0 PL=0
TIMER T=0.50
MOVJ C00570 VJ=5.0 PL=0
TIMER T=0.50
MOVJ C00571 VJ=5.0 PL=0
TIMER T=0.50
MOVJ C00572 VJ=5.0 PL=0
TIMER T=0.50
MOVJ C00573 VJ=5.0 PL=0
TIMER T=0.50
MOVJ C00574 VJ=5.0 PL=0
TIMER T=0.50
MOVJ C00575 VJ=5.0 PL=0
TIMER T=0.50
MOVJ C00576 VJ=5.0 PL=0
TIMER T=0.50
MOVJ C00577 VJ=5.0 PL=0
TIMER T=0.50
MOVJ C00578 VJ=5.0 PL=0
TIMER T=0.50
MOVJ C00579 VJ=5.0 PL=0
TIMER T=0.50
MOVJ C00580 VJ=5.0 PL=0
TIMER T=0.50
MOVJ C00581 VJ=5.0 PL=0
TIMER T=0.50
MOVJ C00582 VJ=5.0 PL=0
TIMER T=0.50
MOVJ C00583 VJ=5.0 PL=0
TIMER T=0.50
MOVJ C00584 VJ=5.0 PL=0
TIMER T=0.50
MOVJ C00585 VJ=5.0 PL=0
TIMER T=0.50
MOVJ C00586 VJ=5.0 PL=0
TIMER T=0.50
MOVJ C00587 VJ=5.0 PL=0
TIMER T=0.50
MOVJ C00588 VJ=5.0 PL=0
TIMER T=0.50
MOVJ C00589 VJ=5.0 PL=0
TIMER T=0.50
MOVJ C00590 VJ=5.0 PL=0
TIMER T=0.50
MOVJ C00591 VJ=5.0 PL=0
TIMER T=0.50
MOVJ C00592 VJ=5.0 PL=0
TIMER T=0.50
MOVJ C00593 VJ=5.0 PL=0
TIMER T=0.50
MOVJ C00594 VJ=5.0 PL=0
TIMER T=0.50
MOVJ C00595 VJ=5.0 PL=0
TIMER T=0.50
MOVJ C00596 VJ=5.0 PL=0
TIMER T=0.50
MOVJ C00597 VJ=5.0 PL=0
TIMER T=0.50
MOVJ C00598 VJ=5.0 PL=0
TIMER T=0.50
MOVJ C00599 VJ=5.0 PL=0
TIMER T=0.50
MOVJ C00600 VJ=5.0 PL=0
TIMER T=0.50
MOVJ C00601 VJ=5.0 PL=0
TIMER T=0.50
MOVJ C00602 VJ=5.0 PL=0
TIMER T=0.50
MOVJ C00603 VJ=5.0 PL=0
TIMER T=0.50
MOVJ C00604 VJ=5.0 PL=0
TIMER T=0.50
MOVJ C00605 VJ=5.0 PL=0
TIMER T=0.50
MOVJ C00606 VJ=5.0 PL=0
TIMER T=0.50
MOVJ C00607 VJ=5.0 PL=0
TIMER T=0.50
MOVJ C00608 VJ=5.0 PL=0
TIMER T=0.50
MOVJ C00609 VJ=5.0 PL=0
TIMER T=0.50
MOVJ C00610 VJ=5.0 PL=0
TIMER T=0.50
MOVJ C00611 VJ=5.0 PL=0
TIMER T=0.50
MOVJ C00612 VJ=5.0 PL=0
TIMER T=0.50
MOVJ C00613 VJ=5.0 PL=0
TIMER T=0.50
MOVJ C00614 VJ=5.0 PL=0
TIMER T=0.50
MOVJ C00615 VJ=5.0 PL=0
TIMER T=0.50
MOVJ C00616 VJ=5.0 PL=0
TIMER T=0.50
MOVJ C00617 VJ=5.0 PL=0
TIMER T=0.50
MOVJ C00618 VJ=5.0 PL=0
TIMER T=0.50
MOVJ C00619 VJ=5.0 PL=0
TIMER T=0.50
MOVJ C00620 VJ=5.0 PL=0
TIMER T=0.50
MOVJ C00621 VJ=5.0 PL=0
TIMER T=0.50
MOVJ C00622 VJ=5.0 PL=0
TIMER T=0.50
MOVJ C00623 VJ=5.0 PL=0
TIMER T=0.50
MOVJ C00624 VJ=5.0 PL=0
TIMER T=0.50
MOVJ C00625 VJ=5.0 PL=0
TIMER T=0.50
MOVJ C00626 VJ=5.0 PL=0
TIMER T=0.50
MOVJ C00627 VJ=5.0 PL=0
TIMER T=0.50
MOVJ C00628 VJ=5.0 PL=0
TIMER T=0.50
MOVJ C00629 VJ=5.0 PL=0
TIMER T=0.50
MOVJ C00630 VJ=5.0 PL=0
TIMER T=0.50
MOVJ C00631 VJ=5.0 PL=0
TIMER T=0.50
MOVJ C00632 VJ=5.0 PL=0
TIMER T=0.50
MOVJ C00633 VJ=5.0 PL=0
TIMER T=0.50
MOVJ C00634 VJ=5.0 PL=0
TIMER T=0.50
MOVJ C00635 VJ=5.0 PL=0
TIMER T=0.50
MOVJ C00636 VJ=5.0 PL=0
TIMER T=0.50
MOVJ C00637 VJ=5.0 PL=0
TIMER T=0.50
MOVJ C00638 VJ=5.0 PL=0
TIMER T=0.50
MOVJ C00639 VJ=5.0 PL=0
TIMER T=0.50
MOVJ C00640 VJ=5.0 PL=0
TIMER T=0.50
MOVJ C00641 VJ=5.0 PL=0
TIMER T=0.50
MOVJ C00642 VJ=5.0 PL=0
TIMER T=0.50
MOVJ C00643 VJ=5.0 PL=0
TIMER T=0.50
MOVJ C00644 VJ=5.0 PL=0
TIMER T=0.50
MOVJ C00645 VJ=5.0 PL=0
TIMER T=0.50
MOVJ C00646 VJ=5.0 PL=0
TIMER T=0.50
MOVJ C00647 VJ=5.0 PL=0
TIMER T=0.50
MOVJ C00648 VJ=5.0 PL=0
TIMER T=0.50
MOVJ C00649 VJ=5.0 PL=0
TIMER T=0.50
MOVJ C00650 VJ=5.0 PL=0
TIMER T=0.50
MOVJ C00651 VJ=5.0 PL=0
TIMER T=0.50
MOVJ C00652 VJ=5.0 PL=0
TIMER T=0.50
MOVJ C00653 VJ=5.0 PL=0
TIMER T=0.50
MOVJ C00654 VJ=5.0 PL=0
TIMER T=0.50
MOVJ C00655 VJ=5.0 PL=0
TIMER T=0.50
MOVJ C00656 VJ=5.0 PL=0
TIMER T=0.50
MOVJ C00657 VJ=5.0 PL=0
TIMER T=0.50
MOVJ C00658 VJ=5.0 PL=0
TIMER T=0.50
MOVJ C00659 VJ=5.0 PL=0
TIMER T=0.50
MOVJ C00660 VJ=5.0 PL=0
TIMER T=0.50
MOVJ C00661 VJ=5.0 PL=0
TIMER T=0.50
MOVJ C00662 VJ=5.0 PL=0
TIMER T=0.50
MOVJ C00663 VJ=5.0 PL=0
TIMER T=0.50
MOVJ C00664 VJ=5.0 PL=0
TIMER T=0.50
MOVJ C00665 VJ=5.0 PL=0
TIMER T=0.50
MOVJ C00666 VJ=5.0 PL=0
TIMER T=0.50
MOVJ C00667 VJ=5.0 PL=0
TIMER T=0.50
MOVJ C00668 VJ=5.0 PL=0
TIMER T=0.50
MOVJ C00669 VJ=5.0 PL=0
TIMER T=0.50
MOVJ C00670 VJ=5.0 PL=0
TIMER T=0.50
MOVJ C00671 VJ=5.0 PL=0
TIMER T=0.50
MOVJ C00672 VJ=5.0 PL=0
TIMER T=0.50
MOVJ C00673 VJ=5.0 PL=0
TIMER T=0.50
MOVJ C00674 VJ=5.0 PL=0
TIMER T=0.50
MOVJ C00675 VJ=5.0 PL=0
TIMER T=0.50
MOVJ C00676 VJ=5.0 PL=0
TIMER T=0.50
MOVJ C00677 VJ=5.0 PL=0
TIMER T=0.50
MOVJ C00678 VJ=5.0 PL=0
TIMER T=0.50
MOVJ C00679 VJ=5.0 PL=0
TIMER T=0.50
MOVJ C00680 VJ=5.0 PL=0
TIMER T=0.50
MOVJ C00681 VJ=5.0 PL=0
TIMER T=0.50
MOVJ C00682 VJ=5.0 PL=0
TIMER T=0.50
MOVJ C00683 VJ=5.0 PL=0
TIMER T=0.50
MOVJ C00684 VJ=5.0 PL=0
TIMER T=0.50
MOVJ C00685 VJ=5.0 PL=0
TIMER T=0.50
MOVJ C00686 VJ=5.0 PL=0
TIMER T=0.50
MOVJ C00687 VJ=5.0 PL=0
TIMER T=0.50
MOVJ C00688 VJ=5.0 PL=0
TIMER T=0.50
MOVJ C00689 VJ=5.0 PL=0
TIMER T=0.50
MOVJ C00690 VJ=5.0 PL=0
TIMER T=0.50
MOVJ C00691 VJ=5.0 PL=0
TIMER T=0.50
MOVJ C00692 VJ=5.0 PL=0
TIMER T=0.50
MOVJ C00693 VJ=5.0 PL=0
TIMER T=0.50
MOVJ C00694 VJ=5.0 PL=0
TIMER T=0.50
MOVJ C00695 VJ=5.0 PL=0
TIMER T=0.50
MOVJ C00696 VJ=5.0 PL=0
TIMER T=0.50
MOVJ C00697 VJ=5.0 PL=0
TIMER T=0.50
MOVJ C00698 VJ=5.0 PL=0
TIMER T=0.50
MOVJ C00699 VJ=5.0 PL=0
TIMER T=0.50
MOVJ C00700 VJ=5.0 PL=0
TIMER T=0.50
MOVJ C00701 VJ=5.0 PL=0
TIMER T=0.50
MOVJ C00702 VJ=5.0 PL=0
TIMER T=0.50
MOVJ C00703 VJ=5.0 PL=0
TIMER T=0.50
MOVJ C00704 VJ=5.0 PL=0
TIMER T=0.50
MOVJ C00705 VJ=5.0 PL=0
TIMER T=0.50
MOVJ C00706 VJ=5.0 PL=0
TIMER T=0.50
MOVJ C00707 VJ=5.0 PL=0
TIMER T=0.50
MOVJ C00708 VJ=5.0 PL=0
TIMER T=0.50
MOVJ C00709 VJ=5.0 PL=0
TIMER T=0.50
MOVJ C00710 VJ=5.0 PL=0
TIMER T=0.50
MOVJ C00711 VJ=5.0 PL=0
TIMER T=0.50
MOVJ C00712 VJ=5.0 PL=0
TIMER T=0.50
MOVJ C00713 VJ=5.0 PL=0
TIMER T=0.50
MOVJ C00714 VJ=5.0 PL=0
TIMER T=0.50
MOVJ C00715 VJ=5.0 PL=0
TIMER T=0.50
MOVJ C00716 VJ=5.0 PL=0
TIMER T=0.50
MOVJ C00717 VJ=5.0 PL=0
TIMER T=0.50
MOVJ C00718 VJ=5.0 PL=0
TIMER T=0.50
MOVJ C00719 VJ=5.0 PL=0
TIMER T=0.50
MOVJ C00720 VJ=5.0 PL=0
TIMER T=0.50
MOVJ C00721 VJ=5.0 PL=0
TIMER T=0.50
MOVJ C00722 VJ=5.0 PL=0
TIMER T=0.50
MOVJ C00723 VJ=5.0 PL=0
TIMER T=0.50
MOVJ C00724 VJ=5.0 PL=0
TIMER T=0.50
MOVJ C00725 VJ=5.0 PL=0
TIMER T=0.50
MOVJ C00726 VJ=5.0 PL=0
TIMER T=0.50
MOVJ C00727 VJ=5.0 PL=0
TIMER T=0.50
MOVJ C00728 VJ=5.0 PL=0
TIMER T=0.50
MOVJ C00729 VJ=5.0 PL=0
TIMER T=0.50
MOVJ C00730 VJ=5.0 PL=0
TIMER T=0.50
MOVJ C00731 VJ=5.0 PL=0
TIMER T=0.50
MOVJ C00732 VJ=5.0 PL=0
TIMER T=0.50
MOVJ C00733 VJ=5.0 PL=0
TIMER T=0.50
MOVJ C00734 VJ=5.0 PL=0
TIMER T=0.50
MOVJ C00735 VJ=5.0 PL=0
TIMER T=0.50
MOVJ C00736 VJ=5.0 PL=0
TIMER T=0.50
MOVJ C00737 VJ=5.0 PL=0
TIMER T=0.50
MOVJ C00738 VJ=5.0 PL=0
TIMER T=0.50
MOVJ C00739 VJ=5.0 PL=0
TIMER T=0.50
MOVJ C00740 VJ=5.0 PL=0
TIMER T=0.50
MOVJ C00741 VJ=5.0 PL=0
TIMER T=0.50
MOVJ C00742 VJ=5.0 PL=0
TIMER T=0.50
MOVJ C00743 VJ=5.0 PL=0
TIMER T=0.50
MOVJ C00744 VJ=5.0 PL=0
TIMER T=0.50
MOVJ C00745 VJ=5.0 PL=0
TIMER T=0.50
MOVJ C00746 VJ=5.0 PL=0
TIMER T=0.50
MOVJ C00747 VJ=5.0 PL=0
TIMER T=0.50
MOVJ C00748 VJ=5.0 PL=0
TIMER T=0.50
MOVJ C00749 VJ=5.0 PL=0
TIMER T=0.50
MOVJ C00750 VJ=5.0 PL=0
TIMER T=0.50
MOVJ C00751 VJ=5.0 PL=0
TIMER T=0.50
MOVJ C00752 VJ=5.0 PL=0
TIMER T=0.50
MOVJ C00753 VJ=5.0 PL=0
TIMER T=0.50
MOVJ C00754 VJ=5.0 PL=0
TIMER T=0.50
MOVJ C00755 VJ=5.0 PL=0
TIMER T=0.50
MOVJ C00756 VJ=5.0 PL=0
TIMER T=0.50
MOVJ C00757 VJ=5.0 PL=0
TIMER T=0.50
MOVJ C00758 VJ=5.0 PL=0
TIMER T=0.50
MOVJ C00759 VJ=5.0 PL=0
TIMER T=0.50
MOVJ C00760 VJ=5.0 PL=0
TIMER T=0.50
MOVJ C00761 VJ=5.0 PL=0
TIMER T=0.50
MOVJ C00762 VJ=5.0 PL=0
TIMER T=0.50
MOVJ C00763 VJ=5.0 PL=0
TIMER T=0.50
MOVJ C00764 VJ=5.0 PL=0
TIMER T=0.50
MOVJ C00765 VJ=5.0 PL=0
TIMER T=0.50
MOVJ C00766 VJ=5.0 PL=0
TIMER T=0.50
MOVJ C00767 VJ=5.0 PL=0
TIMER T=0.50
MOVJ C00768 VJ=5.0 PL=0
TIMER T=0.50
MOVJ C00769 VJ=5.0 PL=0
TIMER T=0.50
MOVJ C00770 VJ=5.0 PL=0
TIMER T=0.50
MOVJ C00771 VJ=5.0 PL=0
TIMER T=0.50
MOVJ C00772 VJ=5.0 PL=0
TIMER T=0.50
MOVJ C00773 VJ=5.0 PL=0
TIMER T=0.50
MOVJ C00774 VJ=5.0 PL=0
TIMER T=0.50
MOVJ C00775 VJ=5.0 PL=0
TIMER T=0.50
MOVJ C00776 VJ=5.0 PL=0
TIMER T=0.50
MOVJ C00777 VJ=5.0 PL=0
TIMER T=0.50
MOVJ C00778 VJ=5.0 PL=0
TIMER T=0.50
MOVJ C00779 VJ=5.0 PL=0
TIMER T=0.50
MOVJ C00780 VJ=5.0 PL=0
TIMER T=0.50
MOVJ C00781 VJ=5.0 PL=0
TIMER T=0.50
MOVJ C00782 VJ=5.0 PL=0
TIMER T=0.50
MOVJ C00783 VJ=5.0 PL=0
TIMER T=0.50
MOVJ C00784 VJ=5.0 PL=0
TIMER T=0.50
MOVJ C00785 VJ=5.0 PL=0
TIMER T=0.50
MOVJ C00786 VJ=5.0 PL=0
TIMER T=0.50
MOVJ C00787 VJ=5.0 PL=0
TIMER T=0.50
MOVJ C00788 VJ=5.0 PL=0
TIMER T=0.50
MOVJ C00789 VJ=5.0 PL=0
TIMER T=0.50
MOVJ C00790 VJ=5.0 PL=0
TIMER T=0.50
MOVJ C00791 VJ=5.0 PL=0
TIMER T=0.50
MOVJ C00792 VJ=5.0 PL=0
TIMER T=0.50
MOVJ C00793 VJ=5.0 PL=0
TIMER T=0.50
MOVJ C00794 VJ=5.0 PL=0
TIMER T=0.50
MOVJ C00795 VJ=5.0 PL=0
TIMER T=0.50
MOVJ C00796 VJ=5.0 PL=0
TIMER T=0.50
MOVJ C00797 VJ=5.0 PL=0
TIMER T=0.50
MOVJ C00798 VJ=5.0 PL=0
TIMER T=0.50
MOVJ C00799 VJ=5.0 PL=0
TIMER T=0.50
MOVJ C00800 VJ=5.0 PL=0
TIMER T=0.50
MOVJ C00801 VJ=5.0 PL=0
TIMER T=0.50
MOVJ C00802 VJ=5.0 PL=0
TIMER T=0.50
MOVJ C00803 VJ=5.0 PL=0
TIMER T=0.50
MOVJ C00804 VJ=5.0 PL=0
TIMER T=0.50
MOVJ C00805 VJ=5.0 PL=0
TIMER T=0.50
MOVJ C00806 VJ=5.0 PL=0
TIMER T=0.50
MOVJ C00807 VJ=5.0 PL=0
TIMER T=0.50
MOVJ C00808 VJ=5.0 PL=0
TIMER T=0.50
MOVJ C00809 VJ=5.0 PL=0
TIMER T=0.50
MOVJ C00810 VJ=5.0 PL=0
TIMER T=0.50
MOVJ C00811 VJ=5.0 PL=0
TIMER T=0.50
MOVJ C00812 VJ=5.0 PL=0
TIMER T=0.50
MOVJ C00813 VJ=5.0 PL=0
TIMER T=0.50
MOVJ C00814 VJ=5.0 PL=0
TIMER T=0.50
MOVJ C00815 VJ=5.0 PL=0
TIMER T=0.50
MOVJ C00816 VJ=5.0 PL=0
TIMER T=0.50
MOVJ C00817 VJ=5.0 PL=0
TIMER T=0.50
MOVJ C00818 VJ=5.0 PL=0
TIMER T=0.50
MOVJ C00819 VJ=5.0 PL=0
TIMER T=0.50
MOVJ C00820 VJ=5.0 PL=0
TIMER T=0.50
MOVJ C00821 VJ=5.0 PL=0
TIMER T=0.50
MOVJ C00822 VJ=5.0 PL=0
TIMER T=0.50
MOVJ C00823 VJ=5.0 PL=0
TIMER T=0.50
MOVJ C00824 VJ=5.0 PL=0
TIMER T=0.50
MOVJ C00825 VJ=5.0 PL=0
TIMER T=0.50
MOVJ C00826 VJ=5.0 PL=0
TIMER T=0.50
MOVJ C00827 VJ=5.0 PL=0
TIMER T=0.50
MOVJ C00828 VJ=5.0 PL=0
TIMER T=0.50
MOVJ C00829 VJ=5.0 PL=0
TIMER T=0.50
MOVJ C00830 VJ=5.0 PL=0
TIMER T=0.50
MOVJ C00831 VJ=5.0 PL=0
TIMER T=0.50
MOVJ C00832 VJ=5.0 PL=0
TIMER T=0.50
MOVJ C00833 VJ=5.0 PL=0
TIMER T=0.50
MOVJ C00834 VJ=5.0 PL=0
TIMER T=0.50
MOVJ C00835 VJ=5.0 PL=0
TIMER T=0.50
MOVJ C00836 VJ=5.0 PL=0
TIMER T=0.50
MOVJ C00837 VJ=5.0 PL=0
TIMER T=0.50
MOVJ C00838 VJ=5.0 PL=0
TIMER T=0.50
MOVJ C00839 VJ=5.0 PL=0
TIMER T=0.50
MOVJ C00840 VJ=5.0 PL=0
TIMER T=0.50
MOVJ C00841 VJ=5.0 PL=0
TIMER T=0.50
MOVJ C00842 VJ=5.0 PL=0
TIMER T=0.50
MOVJ C00843 VJ=5.0 PL=0
TIMER T=0.50
MOVJ C00844 VJ=5.0 PL=0
TIMER T=0.50
MOVJ C00845 VJ=5.0 PL=0
TIMER T=0.50
MOVJ C00846 VJ=5.0 PL=0
TIMER T=0.50
MOVJ C00847 VJ=5.0 PL=0
TIMER T=0.50
MOVJ C00848 VJ=5.0 PL=0
TIMER T=0.50
MOVJ C00849 VJ=5.0 PL=0
TIMER T=0.50
MOVJ C00850 VJ=5.0 PL=0
TIMER T=0.50
MOVJ C00851 VJ=5.0 PL=0
TIMER T=0.50
MOVJ C00852 VJ=5.0 PL=0
TIMER T=0.50
MOVJ C00853 VJ=5.0 PL=0
TIMER T=0.50
MOVJ C00854 VJ=5.0 PL=0
TIMER T=0.50
MOVJ C00855 VJ=5.0 PL=0
TIMER T=0.50
MOVJ C00856 VJ=5.0 PL=0
TIMER T=0.50
MOVJ C00857 VJ=5.0 PL=0
TIMER T=0.50
MOVJ C00858 VJ=5.0 PL=0
TIMER T=0.50
MOVJ C00859 VJ=5.0 PL=0
TIMER T=0.50
MOVJ C00860 VJ=5.0 PL=0
TIMER T=0.50
MOVJ C00861 VJ=5.0 PL=0
TIMER T=0.50
MOVJ C00862 VJ=5.0 PL=0
TIMER T=0.50
MOVJ C00863 VJ=5.0 PL=0
TIMER T=0.50
MOVJ C00864 VJ=5.0 PL=0
TIMER T=0.50
MOVJ C00865 VJ=5.0 PL=0
TIMER T=0.50
MOVJ C00866 VJ=5.0 PL=0
TIMER T=0.50
MOVJ C00867 VJ=5.0 PL=0
TIMER T=0.50
MOVJ C00868 VJ=5.0 PL=0
TIMER T=0.50
MOVJ C00869 VJ=5.0 PL=0
TIMER T=0.50
MOVJ C00870 VJ=5.0 PL=0
TIMER T=0.50
MOVJ C00871 VJ=5.0 PL=0
TIMER T=0.50
MOVJ C00872 VJ=5.0 PL=0
TIMER T=0.50
MOVJ C00873 VJ=5.0 PL=0
TIMER T=0.50
MOVJ C00874 VJ=5.0 PL=0
TIMER T=0.50
MOVJ C00875 VJ=5.0 PL=0
TIMER T=0.50
MOVJ C00876 VJ=5.0 PL=0
TIMER T=0.50
MOVJ C00877 VJ=5.0 PL=0
TIMER T=0.50
MOVJ C00878 VJ=5.0 PL=0
TIMER T=0.50
MOVJ C00879 VJ=5.0 PL=0
TIMER T=0.50
MOVJ C00880 VJ=5.0 PL=0
TIMER T=0.50
MOVJ C00881 VJ=5.0 PL=0
TIMER T=0.50
MOVJ C00882 VJ=5.0 PL=0
TIMER T=0.50
MOVJ C00883 VJ=5.0 PL=0
TIMER T=0.50
MOVJ C00884 VJ=5.0 PL=0
TIMER T=0.50
MOVJ C00885 VJ=5.0 PL=0
TIMER T=0.50
MOVJ C00886 VJ=5.0 PL=0
TIMER T=0.50
MOVJ C00887 VJ=5.0 PL=0
TIMER T=0.50
MOVJ C00888 VJ=5.0 PL=0
TIMER T=0.50
MOVJ C00889 VJ=5.0 PL=0
TIMER T=0.50
MOVJ C00890 VJ=5.0 PL=0
TIMER T=0.50
MOVJ C00891 VJ=5.0 PL=0
TIMER T=0.50
MOVJ C00892 VJ=5.0 PL=0
TIMER T=0.50
MOVJ C00893 VJ=5.0 PL=0
TIMER T=0.50
MOVJ C00894 VJ=5.0 PL=0
TIMER T=0.50
MOVJ C00895 VJ=5.0 PL=0
TIMER T=0.50
MOVJ C00896 VJ=5.0 PL=0
TIMER T=0.50
MOVJ C00897 VJ=5.0 PL=0
TIMER T=0.50
MOVJ C00898 VJ=5.0 PL=0
TIMER T=0.50
MOVJ C00899 VJ=5.0 PL=0
TIMER T=0.50
MOVJ C00900 VJ=5.0 PL=0
TIMER T=0.50
MOVJ C00901 VJ=5.0 PL=0
TIMER T=0.50
MOVJ C00902 VJ=5.0 PL=0
TIMER T=0.50
MOVJ C00903 VJ=5.0 PL=0
TIMER T=0.50
MOVJ C00904 VJ=5.0 PL=0
TIMER T=0.50
MOVJ C00905 VJ=5.0 PL=0
TIMER T=0.50
MOVJ C00906 VJ=5.0 PL=0
TIMER T=0.50
MOVJ C00907 VJ=5.0 PL=0
TIMER T=0.50
MOVJ C00908 VJ=5.0 PL=0
TIMER T=0.50
MOVJ C00909 VJ=5.0 PL=0
TIMER T=0.50
MOVJ C00910 VJ=5.0 PL=0
TIMER T=0.50
MOVJ C00911 VJ=5.0 PL=0
TIMER T=0.50
MOVJ C00912 VJ=5.0 PL=0
TIMER T=0.50
MOVJ C00913 VJ=5.0 PL=0
TIMER T=0.50
MOVJ C00914 VJ=5.0 PL=0
TIMER T=0.50
MOVJ C00915 VJ=5.0 PL=0
TIMER T=0.50
MOVJ C00916 VJ=5.0 PL=0
TIMER T=0.50
MOVJ C00917 VJ=5.0 PL=0
TIMER T=0.50
MOVJ C00918 VJ=5.0 PL=0
TIMER T=0.50
MOVJ C00919 VJ=5.0 PL=0
TIMER T=0.50
MOVJ C00920 VJ=5.0 PL=0
TIMER T=0.50
MOVJ C00921 VJ=5.0 PL=0
TIMER T=0.50
MOVJ C00922 VJ=5.0 PL=0
TIMER T=0.50
MOVJ C00923 VJ=5.0 PL=0
TIMER T=0.50
MOVJ C00924 VJ=5.0 PL=0
TIMER T=0.50
MOVJ C00925 VJ=5.0 PL=0
TIMER T=0.50
MOVJ C00926 VJ=5.0 PL=0
TIMER T=0.50
MOVJ C00927 VJ=5.0 PL=0
TIMER T=0.50
MOVJ C00928 VJ=5.0 PL=0
TIMER T=0.50
MOVJ C00929 VJ=5.0 PL=0
TIMER T=0.50
MOVJ C00930 VJ=5.0 PL=0
TIMER T=0.50
MOVJ C00931 VJ=5.0 PL=0
TIMER T=0.50
MOVJ C00932 VJ=5.0 PL=0
TIMER T=0.50
MOVJ C00933 VJ=5.0 PL=0
TIMER T=0.50
MOVJ C00934 VJ=5.0 PL=0
TIMER T=0.50
MOVJ C00935 VJ=5.0 PL=0
TIMER T=0.50
MOVJ C00936 VJ=5.0 PL=0
TIMER T=0.50
MOVJ C00937 VJ=5.0 PL=0
TIMER T=0.50
MOVJ C00938 VJ=5.0 PL=0
TIMER T=0.50
MOVJ C00939 VJ=5.0 PL=0
TIMER T=0.50
MOVJ C00940 VJ=5.0 PL=0
TIMER T=0.50
MOVJ C00941 VJ=5.0 PL=0
TIMER T=0.50
MOVJ C00942 VJ=5.0 PL=0
TIMER T=0.50
MOVJ C00943 VJ=5.0 PL=0
TIMER T=0.50
MOVJ C00944 VJ=5.0 PL=0
TIMER T=0.50
MOVJ C00945 VJ=5.0 PL=0
TIMER T=0.50
MOVJ C00946 VJ=5.0 PL=0
TIMER T=0.50
MOVJ C00947 VJ=5.0 PL=0
TIMER T=0.50
MOVJ C00948 VJ=5.0 PL=0
TIMER T=0.50
MOVJ C00949 VJ=5.0 PL=0
TIMER T=0.50
MOVJ C00950 VJ=5.0 PL=0
TIMER T=0.50
MOVJ C00951 VJ=5.0 PL=0
TIMER T=0.50
MOVJ C00952 VJ=5.0 PL=0
TIMER T=0.50
MOVJ C00953 VJ=5.0 PL=0
TIMER T=0.50
MOVJ C00954 VJ=5.0 PL=0
TIMER T=0.50
MOVJ C00955 VJ=5.0 PL=0
TIMER T=0.50
MOVJ C00956 VJ=5.0 PL=0
TIMER T=0.50
MOVJ C00957 VJ=5.0 PL=0
TIMER T=0.50
MOVJ C00958 VJ=5.0 PL=0
TIMER T=0.50
MOVJ C00959 VJ=5.0 PL=0
TIMER T=0.50
MOVJ C00960 VJ=5.0 PL=0
TIMER T=0.50
MOVJ C00961 VJ=5.0 PL=0
TIMER T=0.50
MOVJ C00962 VJ=5.0 PL=0
TIMER T=0.50
MOVJ C00963 VJ=5.0 PL=0
TIMER T=0.50
MOVJ C00964 VJ=5.0 PL=0
TIMER T=0.50
MOVJ C00965 VJ=5.0 PL=0
TIMER T=0.50
MOVJ C00966 VJ=5.0 PL=0
TIMER T=0.50
MOVJ C00967 VJ=5.0 PL=0
TIMER T=0.50
MOVJ C00968 VJ=5.0 PL=0
TIMER T=0.50
MOVJ C00969 VJ=5.0 PL=0
TIMER T=0.50
MOVJ C00970 VJ=5.0 PL=0
TIMER T=0.50
MOVJ C00971 VJ=5.0 PL=0
TIMER T=0.50
MOVJ C00972 VJ=5.0 PL=0
TIMER T=0.50
MOVJ C00973 VJ=5.0 PL=0
TIMER T=0.50
MOVJ C00974 VJ=5.0 PL=0
TIMER T=0.50
MOVJ C00975 VJ=5.0 PL=0
TIMER T=0.50
MOVJ C00976 VJ=5.0 PL=0
TIMER T=0.50
MOVJ C00977 VJ=5.0 PL=0
TIMER T=0.50
MOVJ C00978 VJ=5.0 PL=0
TIMER T=0.50
MOVJ C00979 VJ=5.0 PL=0
TIMER T=0.50
MOVJ C00980 VJ=5.0 PL=0
TIMER T=0.50
MOVJ C00981 VJ=5.0 PL=0
TIMER T=0.50
MOVJ C00982 VJ=5.0 PL=0
TIMER T=0.50
MOVJ C00983 VJ=5.0 PL=0
TIMER T=0.50
MOVJ C00984 VJ=5.0 PL=0
TIMER T=0.50
MOVJ C00985 VJ=5.0 PL=0
TIMER T=0.50
MOVJ C00986 VJ=5.0 PL=0
TIMER T=0.50
MOVJ C00987 VJ=5.0 PL=0
TIMER T=0.50
MOVJ C00988 VJ=5.0 PL=0
TIMER T=0.50
MOVJ C00989 VJ=5.0 PL=0
TIMER T=0.50
MOVJ C00990 VJ=5.0 PL=0
TIMER T=0.50
MOVJ C00991 VJ=5.0 PL=0
TIMER T=0.50
MOVJ C00992 VJ=5.0 PL=0
TIMER T=0.50
MOVJ C00993 VJ=5.0 PL=0
TIMER T=0.50
MOVJ C00994 VJ=5.0 PL=0
TIMER T=0.50
MOVJ C00995 VJ=5.0 PL=0
TIMER T=0.50
MOVJ C00996 VJ=5.0 PL=0
TIMER T=0.50
MOVJ C00997 VJ=5.0 PL=0
TIMER T=0.50
MOVJ C00998 VJ=5.0 PL=0
TIMER T=0.50
MOVJ C00999 VJ=5.0 PL=0
TIMER T=0.50
MOVJ C01000 VJ=5.0 PL=0
TIMER T=0.50
MOVJ C01001 VJ=5.0 PL=0
TIMER T=0.50
MOVJ C01002 VJ=5.0 PL=0
TIMER T=0.50
MOVJ C01003 VJ=5.0 PL=0
TIMER T=0.50
MOVJ C01004 VJ=5.0 PL=0
TIMER T=0.50
MOVJ C01005 VJ=5.0 PL=0
TIMER T=0.50
MOVJ C01006 VJ=5.0 PL=0
TIMER T=0.50
MOVJ C01007 VJ=5.0 PL=0
TIMER T=0.50
MOVJ C01008 VJ=5.0 PL=0
TIMER T=0.50
MOVJ C01009 VJ=5.0 PL=0
TIMER T=0.50
MOVJ C01010 VJ=5.0 PL=0
TIMER T=0.50
MOVJ C01011 VJ=5.0 PL=0
TIMER T=0.50
MOVJ C01012 VJ=5.0 PL=0
TIMER T=0.50
MOVJ C01013 VJ=5.0 PL=0
TIMER T=0.50
MOVJ C01014 VJ=5.0 PL=0
TIMER T=0.50
MOVJ C01015 VJ=5.0 PL=0
TIMER T=0.50
MOVJ C01016 VJ=5.0 PL=0
TIMER T=0.50
MOVJ C01017 VJ=5.0 PL=0
TIMER T=0.50
MOVJ C01018 VJ=5.0 PL=0
TIMER T=0.50
MOVJ C01019 VJ=5.0 PL=0
TIMER T=0.50
MOVJ C01020 VJ=5.0 PL=0
TIMER T=0.50
MOVJ C01021 VJ=5.0 PL=0
TIMER T=0.50
MOVJ C01022 VJ=5.0 PL=0
TIMER T=0.50
MOVJ C01023 VJ=5.0 PL=0
TIMER T=0.50
