/JOB
//NAME AAA
//POS
///NPOS 100,0,0,0,0,0
///TOOL 12
///POSTYPE PULSE
///PULSE
C00000=0,0,0,0,0,0
C00001=0,131630,90795,0,0,0
C00002=0,-129722,-108316,0,0,0
C00003=-49097,23678,-19314,-44349,-44532,30978
C00004=28270,-3587,-43567,13412,-24621,-11481
C00005=0,0,0,0,0,0
C00006=0,131630,90795,0,0,0
C00007=0,-129722,-108316,0,0,0
C00008=-49097,23678,-19314,-44349,-44532,30978
C00009=28270,-3587,-43567,13412,-24621,-11481
C00010=0,0,0,0,0,0
C00011=0,131630,90795,0,0,0
C00012=0,-129722,-108316,0,0,0
C00013=-49097,23678,-19314,-44349,-44532,30978
C00014=28270,-3587,-43567,13412,-24621,-11481
C00015=0,0,0,0,0,0
C00016=0,131630,90795,0,0,0
C00017=0,-129722,-108316,0,0,0
C00018=-49097,23678,-19314,-44349,-44532,30978
C00019=28270,-3587,-43567,13412,-24621,-11481
C00020=0,0,0,0,0,0
C00021=0,131630,90795,0,0,0
C00022=0,-129722,-108316,0,0,0
C00023=-49097,23678,-19314,-44349,-44532,30978
C00024=28270,-3587,-43567,13412,-24621,-11481
C00025=0,0,0,0,0,0
C00026=0,131630,90795,0,0,0
C00027=0,-129722,-108316,0,0,0
C00028=-49097,23678,-19314,-44349,-44532,30978
C00029=28270,-3587,-43567,13412,-24621,-11481
C00030=0,0,0,0,0,0
C00031=0,131630,90795,0,0,0
C00032=0,-129722,-108316,0,0,0
C00033=-49097,23678,-19314,-44349,-44532,30978
C00034=28270,-3587,-43567,13412,-24621,-11481
C00035=0,0,0,0,0,0
C00036=0,131630,90795,0,0,0
C00037=0,-129722,-108316,0,0,0
C00038=-49097,23678,-19314,-44349,-44532,30978
C00039=28270,-3587,-43567,13412,-24621,-11481
C00040=0,0,0,0,0,0
C00041=0,131630,90795,0,0,0
C00042=0,-129722,-108316,0,0,0
C00043=-49097,23678,-19314,-44349,-44532,30978
C00044=28270,-3587,-43567,13412,-24621,-11481
C00045=0,0,0,0,0,0
C00046=0,131630,90795,0,0,0
C00047=0,-129722,-108316,0,0,0
C00048=-49097,23678,-19314,-44349,-44532,30978
C00049=28270,-3587,-43567,13412,-24621,-11481
C00050=0,0,0,0,0,0
C00051=0,131630,90795,0,0,0
C00052=0,-129722,-108316,0,0,0
C00053=-49097,23678,-19314,-44349,-44532,30978
C00054=28270,-3587,-43567,13412,-24621,-11481
C00055=0,0,0,0,0,0
C00056=0,131630,90795,0,0,0
C00057=0,-129722,-108316,0,0,0
C00058=-49097,23678,-19314,-44349,-44532,30978
C00059=28270,-3587,-43567,13412,-24621,-11481
C00060=0,0,0,0,0,0
C00061=0,131630,90795,0,0,0
C00062=0,-129722,-108316,0,0,0
C00063=-49097,23678,-19314,-44349,-44532,30978
C00064=28270,-3587,-43567,13412,-24621,-11481
C00065=0,0,0,0,0,0
C00066=0,131630,90795,0,0,0
C00067=0,-129722,-108316,0,0,0
C00068=-49097,23678,-19314,-44349,-44532,30978
C00069=28270,-3587,-43567,13412,-24621,-11481
C00070=0,0,0,0,0,0
C00071=0,131630,90795,0,0,0
C00072=0,-129722,-108316,0,0,0
C00073=-49097,23678,-19314,-44349,-44532,30978
C00074=28270,-3587,-43567,13412,-24621,-11481
C00075=0,0,0,0,0,0
C00076=0,131630,90795,0,0,0
C00077=0,-129722,-108316,0,0,0
C00078=-49097,23678,-19314,-44349,-44532,30978
C00079=28270,-3587,-43567,13412,-24621,-11481
C00080=0,0,0,0,0,0
C00081=0,131630,90795,0,0,0
C00082=0,-129722,-108316,0,0,0
C00083=-49097,23678,-19314,-44349,-44532,30978
C00084=28270,-3587,-43567,13412,-24621,-11481
C00085=0,0,0,0,0,0
C00086=0,131630,90795,0,0,0
C00087=0,-129722,-108316,0,0,0
C00088=-49097,23678,-19314,-44349,-44532,30978
C00089=28270,-3587,-43567,13412,-24621,-11481
C00090=0,0,0,0,0,0
C00091=0,131630,90795,0,0,0
C00092=0,-129722,-108316,0,0,0
C00093=-49097,23678,-19314,-44349,-44532,30978
C00094=28270,-3587,-43567,13412,-24621,-11481
C00095=0,0,0,0,0,0
C00096=0,131630,90795,0,0,0
C00097=0,-129722,-108316,0,0,0
C00098=-49097,23678,-19314,-44349,-44532,30978
C00099=28270,-3587,-43567,13412,-24621,-11481
//INST
///DATE 2023/05/04 19:01
///ATTR SC,RW
///GROUP1 RB1
NOP
MOVJ C00000 VJ=15.0 PL=0
TIMER T=3.00
MOVJ C00001 VJ=15.0 PL=0
TIMER T=3.00
MOVJ C00002 VJ=15.0 PL=0
TIMER T=3.00
MOVJ C00003 VJ=15.0 PL=0
TIMER T=3.00
MOVJ C00004 VJ=15.0 PL=0
TIMER T=3.00
MOVJ C00005 VJ=15.0 PL=0
TIMER T=3.00
MOVJ C00006 VJ=15.0 PL=0
TIMER T=3.00
MOVJ C00007 VJ=15.0 PL=0
TIMER T=3.00
MOVJ C00008 VJ=15.0 PL=0
TIMER T=3.00
MOVJ C00009 VJ=15.0 PL=0
TIMER T=3.00
MOVJ C00010 VJ=15.0 PL=0
TIMER T=3.00
MOVJ C00011 VJ=15.0 PL=0
TIMER T=3.00
MOVJ C00012 VJ=15.0 PL=0
TIMER T=3.00
MOVJ C00013 VJ=15.0 PL=0
TIMER T=3.00
MOVJ C00014 VJ=15.0 PL=0
TIMER T=3.00
MOVJ C00015 VJ=15.0 PL=0
TIMER T=3.00
MOVJ C00016 VJ=15.0 PL=0
TIMER T=3.00
MOVJ C00017 VJ=15.0 PL=0
TIMER T=3.00
MOVJ C00018 VJ=15.0 PL=0
TIMER T=3.00
MOVJ C00019 VJ=15.0 PL=0
TIMER T=3.00
MOVJ C00020 VJ=15.0 PL=0
TIMER T=3.00
MOVJ C00021 VJ=15.0 PL=0
TIMER T=3.00
MOVJ C00022 VJ=15.0 PL=0
TIMER T=3.00
MOVJ C00023 VJ=15.0 PL=0
TIMER T=3.00
MOVJ C00024 VJ=15.0 PL=0
TIMER T=3.00
MOVJ C00025 VJ=15.0 PL=0
TIMER T=3.00
MOVJ C00026 VJ=15.0 PL=0
TIMER T=3.00
MOVJ C00027 VJ=15.0 PL=0
TIMER T=3.00
MOVJ C00028 VJ=15.0 PL=0
TIMER T=3.00
MOVJ C00029 VJ=15.0 PL=0
TIMER T=3.00
MOVJ C00030 VJ=15.0 PL=0
TIMER T=3.00
MOVJ C00031 VJ=15.0 PL=0
TIMER T=3.00
MOVJ C00032 VJ=15.0 PL=0
TIMER T=3.00
MOVJ C00033 VJ=15.0 PL=0
TIMER T=3.00
MOVJ C00034 VJ=15.0 PL=0
TIMER T=3.00
MOVJ C00035 VJ=15.0 PL=0
TIMER T=3.00
MOVJ C00036 VJ=15.0 PL=0
TIMER T=3.00
MOVJ C00037 VJ=15.0 PL=0
TIMER T=3.00
MOVJ C00038 VJ=15.0 PL=0
TIMER T=3.00
MOVJ C00039 VJ=15.0 PL=0
TIMER T=3.00
MOVJ C00040 VJ=15.0 PL=0
TIMER T=3.00
MOVJ C00041 VJ=15.0 PL=0
TIMER T=3.00
MOVJ C00042 VJ=15.0 PL=0
TIMER T=3.00
MOVJ C00043 VJ=15.0 PL=0
TIMER T=3.00
MOVJ C00044 VJ=15.0 PL=0
TIMER T=3.00
MOVJ C00045 VJ=15.0 PL=0
TIMER T=3.00
MOVJ C00046 VJ=15.0 PL=0
TIMER T=3.00
MOVJ C00047 VJ=15.0 PL=0
TIMER T=3.00
MOVJ C00048 VJ=15.0 PL=0
TIMER T=3.00
MOVJ C00049 VJ=15.0 PL=0
TIMER T=3.00
MOVJ C00050 VJ=15.0 PL=0
TIMER T=3.00
MOVJ C00051 VJ=15.0 PL=0
TIMER T=3.00
MOVJ C00052 VJ=15.0 PL=0
TIMER T=3.00
MOVJ C00053 VJ=15.0 PL=0
TIMER T=3.00
MOVJ C00054 VJ=15.0 PL=0
TIMER T=3.00
MOVJ C00055 VJ=15.0 PL=0
TIMER T=3.00
MOVJ C00056 VJ=15.0 PL=0
TIMER T=3.00
MOVJ C00057 VJ=15.0 PL=0
TIMER T=3.00
MOVJ C00058 VJ=15.0 PL=0
TIMER T=3.00
MOVJ C00059 VJ=15.0 PL=0
TIMER T=3.00
MOVJ C00060 VJ=15.0 PL=0
TIMER T=3.00
MOVJ C00061 VJ=15.0 PL=0
TIMER T=3.00
MOVJ C00062 VJ=15.0 PL=0
TIMER T=3.00
MOVJ C00063 VJ=15.0 PL=0
TIMER T=3.00
MOVJ C00064 VJ=15.0 PL=0
TIMER T=3.00
MOVJ C00065 VJ=15.0 PL=0
TIMER T=3.00
MOVJ C00066 VJ=15.0 PL=0
TIMER T=3.00
MOVJ C00067 VJ=15.0 PL=0
TIMER T=3.00
MOVJ C00068 VJ=15.0 PL=0
TIMER T=3.00
MOVJ C00069 VJ=15.0 PL=0
TIMER T=3.00
MOVJ C00070 VJ=15.0 PL=0
TIMER T=3.00
MOVJ C00071 VJ=15.0 PL=0
TIMER T=3.00
MOVJ C00072 VJ=15.0 PL=0
TIMER T=3.00
MOVJ C00073 VJ=15.0 PL=0
TIMER T=3.00
MOVJ C00074 VJ=15.0 PL=0
TIMER T=3.00
MOVJ C00075 VJ=15.0 PL=0
TIMER T=3.00
MOVJ C00076 VJ=15.0 PL=0
TIMER T=3.00
MOVJ C00077 VJ=15.0 PL=0
TIMER T=3.00
MOVJ C00078 VJ=15.0 PL=0
TIMER T=3.00
MOVJ C00079 VJ=15.0 PL=0
TIMER T=3.00
MOVJ C00080 VJ=15.0 PL=0
TIMER T=3.00
MOVJ C00081 VJ=15.0 PL=0
TIMER T=3.00
MOVJ C00082 VJ=15.0 PL=0
TIMER T=3.00
MOVJ C00083 VJ=15.0 PL=0
TIMER T=3.00
MOVJ C00084 VJ=15.0 PL=0
TIMER T=3.00
MOVJ C00085 VJ=15.0 PL=0
TIMER T=3.00
MOVJ C00086 VJ=15.0 PL=0
TIMER T=3.00
MOVJ C00087 VJ=15.0 PL=0
TIMER T=3.00
MOVJ C00088 VJ=15.0 PL=0
TIMER T=3.00
MOVJ C00089 VJ=15.0 PL=0
TIMER T=3.00
MOVJ C00090 VJ=15.0 PL=0
TIMER T=3.00
MOVJ C00091 VJ=15.0 PL=0
TIMER T=3.00
MOVJ C00092 VJ=15.0 PL=0
TIMER T=3.00
MOVJ C00093 VJ=15.0 PL=0
TIMER T=3.00
MOVJ C00094 VJ=15.0 PL=0
TIMER T=3.00
MOVJ C00095 VJ=15.0 PL=0
TIMER T=3.00
MOVJ C00096 VJ=15.0 PL=0
TIMER T=3.00
MOVJ C00097 VJ=15.0 PL=0
TIMER T=3.00
MOVJ C00098 VJ=15.0 PL=0
TIMER T=3.00
MOVJ C00099 VJ=15.0 PL=0
TIMER T=3.00
END
