/JOB
//NAME AAA
//POS
///NPOS 1500,0,0,0,0,0
///TOOL 12
///POSTYPE PULSE
///PULSE
C00000=53108,45511,-2844,18429,-51953,-910
C00001=52884,45282,-3248,18397,-51796,-903
C00002=52659,45054,-3649,18365,-51641,-896
C00003=52434,44828,-4047,18332,-51486,-888
C00004=52208,44603,-4442,18299,-51332,-880
C00005=51980,44380,-4835,18265,-51179,-871
C00006=51753,44158,-5224,18231,-51027,-862
C00007=51524,43938,-5611,18197,-50876,-852
C00008=51295,43718,-5995,18162,-50725,-842
C00009=51065,43501,-6376,18126,-50576,-831
C00010=50834,43284,-6755,18091,-50427,-820
C00011=50603,43069,-7130,18054,-50279,-808
C00012=50371,42855,-7504,18018,-50131,-795
C00013=50138,42643,-7874,17981,-49985,-782
C00014=49904,42432,-8242,17943,-49839,-768
C00015=49669,42223,-8607,17905,-49694,-754
C00016=49434,42014,-8969,17866,-49550,-739
C00017=49198,41807,-9329,17827,-49407,-724
C00018=48961,41602,-9686,17788,-49264,-708
C00019=48724,41397,-10041,17748,-49122,-691
C00020=48485,41194,-10393,17708,-48981,-674
C00021=48246,40993,-10743,17667,-48840,-657
C00022=48006,40792,-11090,17625,-48701,-638
C00023=47766,40593,-11434,17583,-48562,-620
C00024=47524,40396,-11776,17541,-48424,-600
C00025=47282,40199,-12115,17498,-48286,-580
C00026=47039,40004,-12452,17455,-48150,-560
C00027=46796,39810,-12787,17411,-48014,-539
C00028=46551,39618,-13119,17366,-47879,-517
C00029=46306,39427,-13448,17321,-47744,-495
C00030=46060,39237,-13775,17276,-47611,-473
C00031=45814,39048,-14100,17230,-47478,-449
C00032=45566,38861,-14422,17183,-47345,-425
C00033=45318,38674,-14742,17136,-47214,-401
C00034=45069,38490,-15059,17089,-47083,-376
C00035=44820,38306,-15374,17041,-46953,-351
C00036=44569,38124,-15687,16992,-46824,-324
C00037=44318,37943,-15997,16943,-46695,-298
C00038=44066,37763,-16305,16893,-46567,-271
C00039=43814,37585,-16610,16843,-46440,-243
C00040=43560,37408,-16913,16792,-46313,-214
C00041=43306,37232,-17214,16740,-46188,-185
C00042=43051,37057,-17513,16688,-46062,-156
C00043=42796,36884,-17809,16636,-45938,-126
C00044=42539,36712,-18102,16582,-45814,-95
C00045=42282,36541,-18394,16529,-45691,-64
C00046=42024,36372,-18683,16474,-45569,-32
C00047=41766,36204,-18970,16419,-45447,0
C00048=41506,36037,-19254,16364,-45326,33
C00049=41246,35871,-19537,16308,-45206,67
C00050=40985,35707,-19817,16251,-45087,101
C00051=40724,35544,-20094,16194,-44968,136
C00052=40462,35382,-20370,16136,-44850,171
C00053=40199,35221,-20643,16077,-44733,207
C00054=39935,35062,-20914,16018,-44616,243
C00055=39671,34904,-21182,15958,-44500,280
C00056=39405,34747,-21449,15898,-44384,318
C00057=39139,34592,-21713,15837,-44270,356
C00058=38873,34438,-21974,15775,-44156,395
C00059=38606,34285,-22234,15713,-44043,434
C00060=38337,34133,-22491,15650,-43930,474
C00061=38069,33983,-22747,15586,-43818,514
C00062=37799,33834,-23000,15522,-43707,555
C00063=37529,33686,-23250,15457,-43597,597
C00064=37258,33540,-23499,15392,-43487,639
C00065=36987,33394,-23745,15326,-43378,682
C00066=36715,33251,-23989,15259,-43269,725
C00067=36442,33108,-24231,15192,-43162,769
C00068=36168,32967,-24471,15123,-43055,813
C00069=35894,32827,-24708,15055,-42948,858
C00070=35619,32688,-24944,14985,-42843,904
C00071=35343,32550,-25177,14915,-42738,950
C00072=35066,32414,-25408,14845,-42634,997
C00073=34789,32279,-25636,14773,-42530,1044
C00074=34512,32146,-25863,14701,-42427,1092
C00075=34233,32014,-26087,14628,-42325,1140
C00076=33954,31883,-26309,14555,-42224,1189
C00077=33675,31753,-26529,14481,-42123,1239
C00078=33394,31625,-26747,14406,-42023,1289
C00079=33113,31498,-26963,14331,-41924,1340
C00080=32831,31372,-27177,14255,-41825,1391
C00081=32549,31248,-27388,14178,-41727,1443
C00082=32266,31125,-27597,14100,-41630,1495
C00083=31982,31003,-27804,14022,-41533,1548
C00084=31698,30883,-28009,13943,-41437,1602
C00085=31413,30763,-28212,13864,-41342,1656
C00086=31128,30646,-28412,13784,-41248,1710
C00087=30842,30529,-28611,13703,-41154,1765
C00088=30555,30414,-28807,13621,-41061,1821
C00089=30268,30300,-29001,13539,-40969,1877
C00090=29980,30188,-29193,13456,-40878,1934
C00091=29691,30077,-29383,13372,-40787,1992
C00092=29402,29967,-29571,13288,-40697,2050
C00093=29112,29859,-29756,13203,-40607,2108
C00094=28822,29752,-29940,13117,-40518,2167
C00095=28531,29646,-30121,13030,-40431,2227
C00096=28239,29542,-30300,12943,-40343,2287
C00097=27947,29439,-30477,12855,-40257,2347
C00098=27654,29337,-30652,12767,-40171,2408
C00099=27361,29237,-30825,12678,-40086,2470
C00100=27068,29138,-30995,12588,-40002,2532
C00101=26773,29040,-31164,12497,-39918,2595
C00102=26478,28944,-31330,12406,-39835,2658
C00103=26183,28849,-31494,12314,-39753,2722
C00104=25887,28756,-31656,12221,-39672,2787
C00105=25590,28664,-31816,12128,-39591,2851
C00106=25293,28573,-31974,12034,-39511,2917
C00107=24996,28483,-32130,11939,-39432,2983
C00108=24698,28396,-32283,11844,-39353,3049
C00109=24399,28309,-32435,11748,-39276,3116
C00110=24100,28224,-32584,11651,-39199,3183
C00111=23801,28140,-32731,11553,-39123,3251
C00112=23501,28058,-32877,11455,-39047,3319
C00113=23200,27977,-33019,11356,-38972,3388
C00114=22899,27897,-33160,11257,-38898,3458
C00115=22598,27819,-33299,11157,-38825,3527
C00116=22296,27742,-33436,11056,-38753,3598
C00117=21993,27666,-33570,10955,-38681,3669
C00118=21690,27592,-33702,10852,-38610,3740
C00119=21387,27520,-33833,10750,-38540,3812
C00120=21083,27449,-33961,10646,-38471,3884
C00121=20779,27379,-34087,10542,-38402,3956
C00122=20475,27311,-34210,10437,-38334,4030
C00123=20170,27244,-34332,10332,-38267,4103
C00124=19864,27178,-34452,10226,-38201,4177
C00125=19559,27114,-34569,10119,-38136,4252
C00126=19252,27051,-34685,10012,-38071,4327
C00127=18946,26990,-34798,9904,-38007,4402
C00128=18639,26930,-34909,9796,-37944,4478
C00129=18331,26872,-35018,9686,-37882,4554
C00130=18024,26815,-35125,9577,-37820,4631
C00131=17716,26759,-35230,9466,-37759,4708
C00132=17407,26705,-35332,9355,-37699,4785
C00133=17099,26653,-35433,9244,-37640,4863
C00134=16789,26601,-35531,9132,-37582,4941
C00135=16480,26552,-35628,9019,-37524,5020
C00136=16170,26503,-35722,8906,-37467,5099
C00137=15860,26456,-35814,8792,-37412,5178
C00138=15550,26411,-35904,8677,-37356,5258
C00139=15239,26367,-35992,8562,-37302,5338
C00140=14929,26324,-36078,8447,-37249,5419
C00141=14617,26283,-36161,8331,-37196,5500
C00142=14306,26244,-36243,8214,-37144,5581
C00143=13994,26205,-36322,8097,-37093,5663
C00144=13682,26168,-36399,7979,-37043,5745
C00145=13370,26133,-36474,7861,-36993,5827
C00146=13057,26099,-36547,7742,-36945,5910
C00147=12745,26067,-36618,7623,-36897,5993
C00148=12432,26036,-36687,7503,-36850,6076
C00149=12119,26007,-36754,7383,-36804,6160
C00150=11805,25979,-36818,7262,-36758,6244
C00151=11492,25952,-36881,7141,-36714,6328
C00152=11178,25927,-36941,7020,-36671,6413
C00153=10864,25903,-36999,6897,-36628,6497
C00154=10550,25881,-37055,6775,-36586,6582
C00155=10236,25860,-37109,6652,-36545,6668
C00156=9922,25841,-37161,6528,-36505,6753
C00157=9607,25823,-37211,6405,-36465,6839
C00158=9292,25807,-37258,6280,-36427,6925
C00159=8978,25792,-37304,6156,-36389,7012
C00160=8663,25779,-37347,6031,-36352,7099
C00161=8348,25767,-37389,5905,-36316,7185
C00162=8032,25757,-37428,5779,-36281,7272
C00163=7717,25748,-37465,5653,-36247,7360
C00164=7402,25740,-37500,5527,-36214,7447
C00165=7086,25734,-37532,5400,-36181,7535
C00166=6771,25730,-37563,5273,-36150,7623
C00167=6455,25726,-37592,5145,-36119,7711
C00168=6140,25725,-37618,5017,-36089,7799
C00169=5824,25725,-37642,4889,-36060,7888
C00170=5509,25726,-37665,4761,-36032,7976
C00171=5193,25729,-37685,4632,-36004,8065
C00172=4877,25733,-37703,4503,-35978,8154
C00173=4562,25738,-37719,4374,-35953,8243
C00174=4246,25746,-37732,4244,-35928,8332
C00175=3930,25754,-37744,4115,-35904,8422
C00176=3615,25764,-37753,3985,-35881,8511
C00177=3299,25776,-37761,3855,-35859,8601
C00178=2984,25789,-37766,3724,-35838,8690
C00179=2668,25803,-37770,3593,-35818,8780
C00180=2353,25819,-37771,3463,-35799,8870
C00181=2037,25837,-37770,3332,-35780,8960
C00182=1722,25855,-37766,3201,-35763,9050
C00183=1407,25876,-37761,3069,-35746,9140
C00184=1091,25897,-37754,2938,-35730,9230
C00185=776,25921,-37744,2807,-35716,9320
C00186=461,25945,-37733,2675,-35702,9410
C00187=147,25971,-37719,2543,-35689,9500
C00188=-168,25999,-37703,2411,-35676,9590
C00189=-483,26028,-37685,2279,-35665,9681
C00190=-797,26058,-37665,2148,-35655,9771
C00191=-1111,26090,-37643,2016,-35645,9861
C00192=-1426,26123,-37619,1883,-35637,9951
C00193=-1740,26158,-37593,1751,-35629,10041
C00194=-2053,26194,-37564,1619,-35622,10131
C00195=-2367,26232,-37534,1487,-35616,10222
C00196=-2680,26271,-37501,1355,-35612,10312
C00197=-2993,26311,-37466,1223,-35607,10402
C00198=-3306,26353,-37430,1091,-35604,10491
C00199=-3619,26397,-37391,959,-35602,10581
C00200=-3932,26441,-37350,827,-35601,10671
C00201=-4244,26488,-37306,695,-35600,10761
C00202=-4556,26535,-37261,563,-35601,10850
C00203=-4868,26584,-37214,431,-35602,10940
C00204=-5179,26635,-37164,300,-35605,11029
C00205=-5491,26687,-37113,168,-35608,11118
C00206=-5802,26740,-37059,37,-35612,11207
C00207=-6112,26794,-37003,-94,-35617,11296
C00208=-6423,26851,-36945,-226,-35623,11385
C00209=-6733,26908,-36886,-356,-35630,11474
C00210=-7043,26967,-36823,-487,-35638,11562
C00211=-7352,27027,-36759,-618,-35646,11651
C00212=-7661,27089,-36693,-748,-35656,11739
C00213=-7970,27152,-36625,-878,-35666,11827
C00214=-8279,27216,-36554,-1008,-35678,11914
C00215=-8587,27282,-36482,-1138,-35690,12002
C00216=-8894,27349,-36407,-1268,-35703,12089
C00217=-9202,27418,-36331,-1397,-35717,12176
C00218=-9509,27488,-36252,-1526,-35733,12263
C00219=-9816,27559,-36171,-1655,-35749,12350
C00220=-10122,27632,-36088,-1783,-35765,12436
C00221=-10428,27706,-36003,-1911,-35783,12522
C00222=-10733,27781,-35916,-2039,-35802,12608
C00223=-11038,27858,-35827,-2167,-35821,12694
C00224=-11343,27936,-35735,-2294,-35842,12779
C00225=-11647,28016,-35642,-2421,-35863,12864
C00226=-11951,28096,-35546,-2547,-35886,12949
C00227=-12254,28179,-35449,-2674,-35909,13034
C00228=-12557,28262,-35349,-2799,-35933,13118
C00229=-12860,28347,-35247,-2925,-35958,13202
C00230=-13162,28433,-35144,-3050,-35984,13285
C00231=-13463,28521,-35038,-3175,-36011,13368
C00232=-13765,28609,-34930,-3299,-36039,13451
C00233=-14065,28700,-34820,-3423,-36067,13534
C00234=-14365,28791,-34707,-3546,-36097,13616
C00235=-14665,28884,-34593,-3669,-36127,13698
C00236=-14964,28978,-34477,-3792,-36159,13780
C00237=-15263,29073,-34359,-3914,-36191,13861
C00238=-15561,29170,-34238,-4036,-36224,13941
C00239=-15859,29268,-34116,-4157,-36258,14022
C00240=-16156,29368,-33991,-4277,-36293,14102
C00241=-16452,29468,-33864,-4398,-36329,14182
C00242=-16748,29570,-33736,-4517,-36366,14261
C00243=-17044,29673,-33605,-4637,-36403,14340
C00244=-17339,29778,-33472,-4755,-36442,14418
C00245=-17633,29883,-33337,-4873,-36481,14496
C00246=-17927,29990,-33200,-4991,-36521,14574
C00247=-18220,30099,-33061,-5108,-36563,14651
C00248=-18513,30208,-32919,-5225,-36605,14728
C00249=-18805,30319,-32776,-5341,-36648,14804
C00250=-19097,30431,-32631,-5456,-36692,14880
C00251=-19388,30544,-32483,-5571,-36736,14956
C00252=-19679,30659,-32334,-5686,-36782,15031
C00253=-19968,30775,-32182,-5800,-36828,15105
C00254=-20258,30892,-32029,-5913,-36876,15179
C00255=-20546,31010,-31873,-6026,-36924,15253
C00256=-20834,31130,-31715,-6138,-36973,15326
C00257=-21122,31251,-31555,-6249,-37023,15399
C00258=-21409,31373,-31393,-6360,-37074,15471
C00259=-21695,31496,-31229,-6470,-37126,15543
C00260=-21980,31620,-31063,-6580,-37179,15614
C00261=-22265,31746,-30895,-6689,-37232,15685
C00262=-22549,31873,-30725,-6797,-37286,15755
C00263=-22833,32001,-30552,-6905,-37342,15825
C00264=-23116,32130,-30378,-7012,-37398,15894
C00265=-23399,32261,-30202,-7119,-37455,15963
C00266=-23680,32393,-30023,-7225,-37513,16031
C00267=-23961,32525,-29842,-7330,-37571,16099
C00268=-24242,32660,-29660,-7434,-37631,16166
C00269=-24522,32795,-29475,-7538,-37692,16233
C00270=-24801,32931,-29288,-7642,-37753,16299
C00271=-25079,33069,-29100,-7744,-37815,16365
C00272=-25357,33208,-28909,-7846,-37878,16430
C00273=-25634,33348,-28716,-7947,-37942,16495
C00274=-25910,33489,-28520,-8048,-38007,16559
C00275=-26186,33631,-28323,-8148,-38072,16622
C00276=-26461,33775,-28124,-8247,-38139,16685
C00277=-26735,33920,-27922,-8346,-38206,16748
C00278=-27009,34065,-27719,-8444,-38275,16810
C00279=-27282,34213,-27514,-8541,-38344,16871
C00280=-27554,34361,-27306,-8638,-38414,16932
C00281=-27826,34510,-27096,-8733,-38484,16992
C00282=-28097,34660,-26885,-8829,-38556,17052
C00283=-28367,34812,-26671,-8923,-38628,17111
C00284=-28636,34965,-26455,-9017,-38702,17169
C00285=-28905,35119,-26237,-9110,-38776,17227
C00286=-29173,35274,-26017,-9202,-38851,17285
C00287=-29440,35430,-25794,-9294,-38927,17342
C00288=-29707,35587,-25570,-9385,-39003,17398
C00289=-29973,35745,-25344,-9475,-39081,17454
C00290=-30238,35905,-25115,-9565,-39159,17509
C00291=-30502,36066,-24884,-9654,-39239,17563
C00292=-30766,36227,-24652,-9742,-39319,17617
C00293=-31029,36390,-24417,-9829,-39400,17671
C00294=-31291,36554,-24180,-9916,-39481,17724
C00295=-31552,36720,-23941,-10002,-39564,17776
C00296=-31813,36886,-23700,-10088,-39647,17828
C00297=-32073,37053,-23456,-10172,-39732,17879
C00298=-32332,37222,-23211,-10256,-39817,17929
C00299=-32590,37391,-22963,-10340,-39903,17979
C00300=-32848,37562,-22714,-10422,-39989,18028
C00301=-33105,37734,-22462,-10504,-40077,18077
C00302=-33362,37906,-22208,-10585,-40166,18125
C00303=-33617,38080,-21952,-10666,-40255,18173
C00304=-33872,38256,-21694,-10746,-40345,18220
C00305=-34126,38432,-21433,-10825,-40436,18266
C00306=-34379,38609,-21171,-10903,-40528,18312
C00307=-34632,38787,-20906,-10981,-40620,18357
C00308=-34883,38967,-20640,-11058,-40714,18402
C00309=-35134,39147,-20371,-11134,-40808,18446
C00310=-35384,39329,-20099,-11210,-40903,18489
C00311=-35634,39512,-19826,-11285,-40999,18532
C00312=-35883,39696,-19551,-11359,-41096,18574
C00313=-36130,39880,-19273,-11433,-41194,18616
C00314=-36378,40067,-18993,-11506,-41292,18657
C00315=-36624,40254,-18711,-11578,-41391,18697
C00316=-36870,40442,-18427,-11649,-41491,18737
C00317=-37115,40631,-18141,-11720,-41593,18777
C00318=-37359,40821,-17852,-11791,-41694,18815
C00319=-37602,41013,-17561,-11860,-41797,18853
C00320=-37845,41205,-17268,-11929,-41900,18891
C00321=-38087,41399,-16973,-11997,-42005,18928
C00322=-38328,41594,-16675,-12065,-42110,18964
C00323=-38568,41789,-16376,-12132,-42216,19000
C00324=-38808,41986,-16074,-12198,-42323,19035
C00325=-39046,42184,-15769,-12263,-42431,19069
C00326=-39285,42383,-15463,-12328,-42539,19103
C00327=-39522,42584,-15154,-12393,-42648,19137
C00328=-39758,42785,-14843,-12456,-42759,19169
C00329=-39994,42987,-14530,-12519,-42870,19201
C00330=-40229,43191,-14214,-12581,-42982,19233
C00331=-40463,43395,-13896,-12643,-43094,19264
C00332=-40697,43601,-13576,-12704,-43208,19294
C00333=-40929,43808,-13254,-12765,-43322,19324
C00334=-41161,44015,-12929,-12824,-43438,19353
C00335=-41392,44224,-12602,-12884,-43554,19382
C00336=-41623,44434,-12272,-12942,-43671,19410
C00337=-41852,44645,-11940,-13000,-43789,19437
C00338=-42081,44858,-11606,-13057,-43908,19464
C00339=-42309,45071,-11269,-13114,-44027,19490
C00340=-42537,45286,-10930,-13170,-44148,19516
C00341=-42763,45501,-10589,-13226,-44269,19541
C00342=-42989,45718,-10245,-13281,-44391,19566
C00343=-43214,45936,-9899,-13335,-44514,19589
C00344=-43438,46155,-9550,-13389,-44638,19613
C00345=-43662,46375,-9199,-13442,-44763,19636
C00346=-43885,46596,-8846,-13494,-44889,19658
C00347=-44107,46819,-8490,-13546,-45015,19679
C00348=-44328,47042,-8131,-13598,-45143,19700
C00349=-44549,47267,-7770,-13648,-45271,19721
C00350=-44768,47493,-7407,-13699,-45401,19741
C00351=-44987,47720,-7040,-13748,-45531,19760
C00352=-45206,47948,-6672,-13797,-45662,19779
C00353=-45423,48178,-6301,-13846,-45794,19797
C00354=-45640,48408,-5927,-13894,-45927,19814
C00355=-45856,48640,-5551,-13941,-46060,19831
C00356=-46071,48873,-5172,-13988,-46195,19848
C00357=-46286,49107,-4790,-14034,-46331,19863
C00358=-46499,49342,-4406,-14080,-46467,19879
C00359=-46712,49579,-4019,-14125,-46605,19893
C00360=-46925,49817,-3630,-14170,-46743,19908
C00361=-47136,50056,-3237,-14214,-46882,19921
C00362=-47347,50296,-2842,-14258,-47023,19934
C00363=-47557,50537,-2445,-14301,-47164,19947
C00364=-47766,50780,-2044,-14344,-47306,19958
C00365=-47975,51024,-1641,-14386,-47449,19970
C00366=-48183,51269,-1235,-14428,-47594,19980
C00367=-48390,51516,-826,-14469,-47739,19991
C00368=-48596,51764,-415,-14509,-47885,20000
C00369=-48802,52013,0,-14549,-48032,20009
C00370=-48764,51421,-761,-14764,-47753,20080
C00371=-48726,50831,-1515,-14980,-47477,20151
C00372=-48688,50244,-2262,-15198,-47205,20222
C00373=-48650,49658,-3004,-15416,-46936,20294
C00374=-48611,49074,-3738,-15636,-46670,20366
C00375=-48571,48492,-4467,-15857,-46407,20439
C00376=-48532,47912,-5190,-16079,-46147,20512
C00377=-48491,47333,-5907,-16302,-45891,20586
C00378=-48451,46756,-6618,-16526,-45637,20660
C00379=-48410,46181,-7323,-16751,-45387,20734
C00380=-48369,45607,-8022,-16978,-45140,20808
C00381=-48327,45034,-8716,-17205,-44895,20883
C00382=-48285,44463,-9405,-17434,-44654,20958
C00383=-48243,43893,-10088,-17663,-44415,21034
C00384=-48200,43325,-10766,-17894,-44179,21110
C00385=-48157,42757,-11438,-18125,-43946,21186
C00386=-48113,42191,-12105,-18357,-43717,21262
C00387=-48069,41627,-12768,-18591,-43489,21339
C00388=-48025,41063,-13425,-18825,-43265,21416
C00389=-47980,40501,-14077,-19060,-43044,21493
C00390=-47935,39939,-14724,-19296,-42825,21570
C00391=-47889,39379,-15367,-19533,-42609,21648
C00392=-47843,38820,-16004,-19771,-42396,21725
C00393=-47796,38261,-16637,-20009,-42185,21803
C00394=-47749,37704,-17265,-20248,-41977,21881
C00395=-47701,37147,-17889,-20488,-41772,21959
C00396=-47653,36592,-18508,-20729,-41569,22038
C00397=-47604,36037,-19122,-20970,-41370,22116
C00398=-47555,35483,-19732,-21212,-41172,22194
C00399=-47506,34930,-20338,-21455,-40977,22273
C00400=-47456,34377,-20939,-21698,-40785,22351
C00401=-47405,33825,-21536,-21942,-40596,22430
C00402=-47354,33274,-22129,-22186,-40408,22509
C00403=-47303,32724,-22717,-22431,-40224,22587
C00404=-47250,32174,-23301,-22676,-40042,22666
C00405=-47198,31625,-23881,-22921,-39862,22744
C00406=-47145,31077,-24457,-23167,-39685,22823
C00407=-47091,30529,-25029,-23413,-39510,22901
C00408=-47037,29982,-25597,-23660,-39338,22979
C00409=-46982,29435,-26160,-23906,-39168,23057
C00410=-46926,28889,-26720,-24153,-39000,23135
C00411=-46870,28343,-27276,-24400,-38835,23213
C00412=-46814,27797,-27827,-24648,-38672,23290
C00413=-46757,27253,-28375,-24895,-38512,23367
C00414=-46699,26708,-28919,-25142,-38353,23444
C00415=-46640,26164,-29459,-25390,-38197,23521
C00416=-46581,25621,-29996,-25637,-38044,23598
C00417=-46522,25077,-30528,-25884,-37892,23674
C00418=-46462,24534,-31057,-26131,-37743,23749
C00419=-46401,23992,-31582,-26378,-37596,23825
C00420=-46339,23450,-32103,-26625,-37451,23900
C00421=-46277,22908,-32621,-26871,-37309,23974
C00422=-46214,22366,-33135,-27117,-37168,24048
C00423=-46151,21825,-33645,-27363,-37030,24122
C00424=-46087,21284,-34152,-27608,-36894,24195
C00425=-46022,20743,-34655,-27853,-36760,24268
C00426=-45956,20202,-35154,-28097,-36628,24340
C00427=-45890,19662,-35650,-28341,-36497,24411
C00428=-45823,19122,-36142,-28584,-36370,24482
C00429=-45755,18582,-36631,-28826,-36243,24552
C00430=-45686,18042,-37116,-29068,-36119,24622
C00431=-45617,17502,-37597,-29309,-35997,24691
C00432=-45547,16963,-38075,-29549,-35877,24759
C00433=-45476,16424,-38550,-29788,-35759,24826
C00434=-45405,15884,-39021,-30026,-35643,24893
C00435=-45333,15345,-39489,-30263,-35528,24959
C00436=-45260,14807,-39953,-30500,-35416,25024
C00437=-45186,14268,-40414,-30735,-35305,25088
C00438=-45111,13729,-40871,-30969,-35196,25151
C00439=-45035,13191,-41325,-31201,-35089,25213
C00440=-44959,12652,-41776,-31433,-34983,25275
C00441=-44882,12114,-42223,-31663,-34880,25335
C00442=-44803,11576,-42667,-31892,-34778,25395
C00443=-44724,11037,-43107,-32119,-34677,25453
C00444=-44644,10499,-43544,-32345,-34579,25511
C00445=-44564,9961,-43977,-32569,-34481,25567
C00446=-44482,9423,-44408,-32792,-34386,25622
C00447=-44399,8885,-44835,-33013,-34292,25676
C00448=-44316,8347,-45258,-33233,-34200,25729
C00449=-44231,7810,-45678,-33450,-34109,25781
C00450=-44145,7272,-46095,-33666,-34020,25831
C00451=-44059,6734,-46509,-33880,-33932,25881
C00452=-43972,6196,-46919,-34092,-33845,25929
C00453=-43883,5659,-47326,-34303,-33760,25975
C00454=-43793,5121,-47730,-34511,-33677,26021
C00455=-43703,4584,-48130,-34717,-33594,26065
C00456=-43611,4046,-48527,-34921,-33513,26108
C00457=-43519,3509,-48921,-35123,-33434,26149
C00458=-43425,2971,-49311,-35322,-33355,26189
C00459=-43330,2434,-49699,-35520,-33278,26227
C00460=-43234,1897,-50083,-35715,-33202,26264
C00461=-43137,1359,-50463,-35907,-33127,26300
C00462=-43039,822,-50840,-36097,-33054,26334
C00463=-42939,285,-51215,-36285,-32981,26366
C00464=-42839,-252,-51585,-36470,-32910,26397
C00465=-42737,-789,-51953,-36653,-32839,26426
C00466=-42634,-1326,-52317,-36833,-32770,26454
C00467=-42530,-1863,-52678,-37010,-32701,26480
C00468=-42424,-2400,-53036,-37185,-32634,26504
C00469=-42318,-2937,-53390,-37357,-32567,26527
C00470=-42210,-3473,-53741,-37526,-32502,26548
C00471=-42100,-4010,-54089,-37692,-32437,26567
C00472=-41990,-4546,-54434,-37855,-32373,26584
C00473=-41878,-5082,-54775,-38015,-32310,26600
C00474=-41765,-5618,-55113,-38172,-32248,26614
C00475=-41650,-6154,-55448,-38326,-32186,26626
C00476=-41534,-6690,-55779,-38477,-32125,26636
C00477=-41417,-7226,-56107,-38625,-32065,26644
C00478=-41298,-7761,-56432,-38769,-32006,26651
C00479=-41177,-8297,-56754,-38911,-31947,26655
C00480=-41056,-8832,-57072,-39049,-31888,26658
C00481=-40932,-9367,-57388,-39183,-31831,26658
C00482=-40808,-9902,-57699,-39315,-31773,26657
C00483=-40681,-10436,-58008,-39443,-31716,26654
C00484=-40553,-10970,-58313,-39567,-31660,26648
C00485=-40424,-11504,-58615,-39688,-31604,26641
C00486=-40293,-12038,-58914,-39805,-31548,26631
C00487=-40160,-12571,-59209,-39919,-31493,26620
C00488=-40026,-13104,-59501,-40029,-31438,26606
C00489=-39890,-13637,-59790,-40135,-31384,26591
C00490=-39752,-14169,-60076,-40238,-31329,26573
C00491=-39613,-14701,-60358,-40336,-31275,26553
C00492=-39471,-15233,-60637,-40431,-31221,26531
C00493=-39328,-15764,-60912,-40522,-31167,26507
C00494=-39183,-16295,-61185,-40609,-31113,26481
C00495=-39037,-16825,-61454,-40692,-31059,26452
C00496=-38888,-17355,-61719,-40771,-31006,26421
C00497=-38738,-17884,-61982,-40847,-30952,26388
C00498=-38586,-18413,-62241,-40917,-30898,26353
C00499=-38431,-18941,-62497,-40984,-30845,26315
C00500=-38275,-19469,-62749,-41047,-30791,26275
C00501=-38117,-19996,-62998,-41105,-30737,26233
C00502=-37957,-20523,-63244,-41159,-30683,26188
C00503=-37794,-21048,-63486,-41209,-30628,26141
C00504=-37630,-21574,-63726,-41254,-30574,26092
C00505=-37463,-22098,-63961,-41295,-30519,26041
C00506=-37294,-22622,-64194,-41331,-30464,25987
C00507=-37123,-23145,-64423,-41363,-30408,25930
C00508=-36950,-23667,-64649,-41390,-30353,25871
C00509=-36775,-24189,-64871,-41412,-30296,25810
C00510=-36597,-24709,-65090,-41430,-30240,25746
C00511=-36417,-25229,-65306,-41443,-30183,25680
C00512=-36235,-25748,-65519,-41451,-30125,25611
C00513=-36050,-26266,-65728,-41454,-30067,25540
C00514=-35863,-26783,-65933,-41453,-30008,25466
C00515=-35673,-27299,-66136,-41446,-29949,25389
C00516=-35480,-27814,-66335,-41434,-29889,25310
C00517=-35286,-28328,-66530,-41417,-29829,25228
C00518=-35088,-28840,-66723,-41395,-29768,25144
C00519=-34888,-29352,-66912,-41368,-29706,25057
C00520=-34685,-29862,-67097,-41336,-29643,24968
C00521=-34480,-30372,-67280,-41298,-29580,24875
C00522=-34271,-30880,-67459,-41254,-29516,24780
C00523=-34060,-31387,-67634,-41205,-29451,24682
C00524=-33846,-31892,-67807,-41151,-29385,24582
C00525=-33630,-32396,-67976,-41091,-29318,24478
C00526=-33410,-32899,-68141,-41024,-29251,24372
C00527=-33187,-33400,-68303,-40953,-29182,24263
C00528=-32961,-33900,-68462,-40875,-29113,24151
C00529=-32732,-34399,-68618,-40791,-29042,24036
C00530=-32500,-34895,-68770,-40701,-28971,23918
C00531=-32265,-35391,-68919,-40605,-28898,23797
C00532=-32027,-35884,-69064,-40502,-28824,23674
C00533=-31785,-36376,-69206,-40393,-28750,23547
C00534=-31540,-36867,-69345,-40278,-28674,23417
C00535=-31291,-37355,-69481,-40156,-28597,23284
C00536=-31039,-37842,-69613,-40027,-28519,23147
C00537=-30784,-38327,-69742,-39891,-28439,23008
C00538=-30525,-38810,-69868,-39749,-28359,22865
C00539=-30262,-39291,-69990,-39599,-28277,22719
C00540=-29996,-39770,-70109,-39442,-28194,22569
C00541=-29726,-40248,-70224,-39278,-28110,22417
C00542=-29452,-40723,-70337,-39106,-28024,22260
C00543=-29175,-41196,-70446,-38926,-27938,22101
C00544=-28893,-41667,-70552,-38739,-27850,21937
C00545=-28608,-42136,-70654,-38544,-27760,21770
C00546=-28318,-42602,-70753,-38340,-27670,21600
C00547=-28025,-43067,-70849,-38129,-27578,21425
C00548=-27727,-43529,-70942,-37909,-27484,21247
C00549=-27425,-43988,-71031,-37680,-27390,21065
C00550=-27119,-44446,-71118,-37442,-27294,20879
C00551=-26808,-44900,-71201,-37196,-27197,20689
C00552=-26493,-45353,-71280,-36940,-27098,20495
C00553=-26173,-45802,-71357,-36675,-26998,20297
C00554=-25849,-46250,-71430,-36400,-26897,20094
C00555=-25520,-46694,-71501,-36116,-26794,19887
C00556=-25187,-47136,-71567,-35821,-26690,19676
C00557=-24848,-47575,-71631,-35516,-26585,19460
C00558=-24505,-48011,-71692,-35201,-26479,19240
C00559=-24157,-48445,-71749,-34874,-26371,19015
C00560=-23804,-48876,-71804,-34537,-26262,18785
C00561=-23446,-49303,-71855,-34188,-26152,18550
C00562=-23082,-49728,-71903,-33828,-26041,18310
C00563=-22714,-50150,-71948,-33456,-25928,18065
C00564=-22340,-50569,-71990,-33072,-25815,17815
C00565=-21960,-50985,-72028,-32675,-25700,17559
C00566=-21575,-51397,-72064,-32265,-25584,17298
C00567=-21185,-51806,-72097,-31843,-25468,17031
C00568=-20789,-52212,-72127,-31407,-25350,16758
C00569=-20387,-52615,-72153,-30957,-25232,16480
C00570=-19979,-53014,-72177,-30493,-25113,16195
C00571=-19565,-53411,-72197,-30014,-24993,15904
C00572=-19146,-53803,-72215,-29521,-24873,15607
C00573=-18720,-54192,-72230,-29012,-24752,15303
C00574=-18288,-54578,-72241,-28488,-24631,14993
C00575=-17850,-54960,-72250,-27948,-24509,14675
C00576=-17405,-55338,-72256,-27391,-24388,14351
C00577=-16954,-55713,-72259,-26817,-24266,14019
C00578=-16497,-56084,-72259,-26227,-24144,13680
C00579=-16033,-56451,-72257,-25618,-24022,13334
C00580=-15562,-56814,-72251,-24992,-23901,12980
C00581=-15084,-57174,-72243,-24347,-23780,12618
C00582=-14600,-57530,-72232,-23683,-23660,12248
C00583=-14108,-57881,-72218,-23000,-23540,11869
C00584=-13610,-58229,-72201,-22297,-23422,11483
C00585=-13104,-58573,-72182,-21574,-23304,11087
C00586=-12591,-58912,-72160,-20830,-23189,10683
C00587=-12071,-59247,-72135,-20066,-23074,10270
C00588=-11543,-59579,-72108,-19280,-22962,9848
C00589=-11008,-59906,-72077,-18472,-22851,9417
C00590=-10465,-60228,-72045,-17643,-22743,8977
C00591=-9914,-60547,-72009,-16790,-22638,8527
C00592=-9356,-60861,-71971,-15916,-22535,8067
C00593=-8790,-61170,-71931,-15018,-22436,7597
C00594=-8216,-61475,-71888,-14097,-22340,7118
C00595=-7634,-61776,-71843,-13153,-22247,6629
C00596=-7044,-62072,-71795,-12185,-22159,6130
C00597=-6446,-62363,-71744,-11193,-22075,5621
C00598=-5839,-62650,-71692,-10178,-21997,5102
C00599=-5224,-62932,-71636,-9139,-21923,4573
C00600=-4601,-63210,-71579,-8076,-21855,4035
C00601=-3969,-63483,-71519,-6990,-21792,3486
C00602=-3329,-63750,-71456,-5881,-21736,2928
C00603=-2681,-64013,-71392,-4749,-21687,2360
C00604=-2024,-64271,-71325,-3594,-21645,1784
C00605=-1358,-64524,-71256,-2417,-21610,1198
C00606=-683,-64773,-71185,-1219,-21584,603
C00607=0,-65016,-71111,0,-21565,0
C00608=0,-64649,-70857,0,-21352,0
C00609=0,-64283,-70601,0,-21141,0
C00610=0,-63917,-70345,0,-20930,0
C00611=0,-63552,-70088,0,-20721,0
C00612=0,-63188,-69829,0,-20513,0
C00613=0,-62825,-69569,0,-20306,0
C00614=0,-62462,-69309,0,-20100,0
C00615=0,-62100,-69047,0,-19896,0
C00616=0,-61738,-68784,0,-19692,0
C00617=0,-61377,-68521,0,-19490,0
C00618=0,-61017,-68256,0,-19290,0
C00619=0,-60657,-67990,0,-19090,0
C00620=0,-60298,-67723,0,-18892,0
C00621=0,-59940,-67455,0,-18694,0
C00622=0,-59582,-67186,0,-18498,0
C00623=0,-59225,-66916,0,-18303,0
C00624=0,-58868,-66645,0,-18110,0
C00625=0,-58512,-66373,0,-17917,0
C00626=0,-58157,-66100,0,-17726,0
C00627=0,-57802,-65825,0,-17536,0
C00628=0,-57448,-65550,0,-17347,0
C00629=0,-57094,-65274,0,-17159,0
C00630=0,-56741,-64997,0,-16972,0
C00631=0,-56389,-64718,0,-16786,0
C00632=0,-56037,-64439,0,-16602,0
C00633=0,-55686,-64158,0,-16419,0
C00634=0,-55335,-63877,0,-16236,0
C00635=0,-54985,-63595,0,-16055,0
C00636=0,-54635,-63311,0,-15875,0
C00637=0,-54286,-63026,0,-15697,0
C00638=0,-53937,-62741,0,-15519,0
C00639=0,-53589,-62454,0,-15342,0
C00640=0,-53242,-62167,0,-15167,0
C00641=0,-52895,-61878,0,-14993,0
C00642=0,-52548,-61588,0,-14819,0
C00643=0,-52202,-61297,0,-14647,0
C00644=0,-51857,-61006,0,-14476,0
C00645=0,-51512,-60713,0,-14306,0
C00646=0,-51168,-60419,0,-14138,0
C00647=0,-50824,-60124,0,-13970,0
C00648=0,-50480,-59828,0,-13803,0
C00649=0,-50137,-59531,0,-13638,0
C00650=0,-49795,-59233,0,-13473,0
C00651=0,-49453,-58934,0,-13310,0
C00652=0,-49111,-58634,0,-13147,0
C00653=0,-48770,-58332,0,-12986,0
C00654=0,-48429,-58030,0,-12826,0
C00655=0,-48089,-57727,0,-12667,0
C00656=0,-47749,-57423,0,-12508,0
C00657=0,-47410,-57117,0,-12351,0
C00658=0,-47071,-56811,0,-12195,0
C00659=0,-46732,-56503,0,-12040,0
C00660=0,-46395,-56195,0,-11886,0
C00661=0,-46057,-55885,0,-11734,0
C00662=0,-45720,-55574,0,-11582,0
C00663=0,-45383,-55263,0,-11431,0
C00664=0,-45046,-54950,0,-11281,0
C00665=0,-44710,-54636,0,-11132,0
C00666=0,-44375,-54321,0,-10985,0
C00667=0,-44039,-54005,0,-10838,0
C00668=0,-43704,-53688,0,-10692,0
C00669=0,-43370,-53370,0,-10548,0
C00670=0,-43036,-53050,0,-10404,0
C00671=0,-42702,-52730,0,-10261,0
C00672=0,-42368,-52409,0,-10120,0
C00673=0,-42035,-52086,0,-9979,0
C00674=0,-41702,-51763,0,-9840,0
C00675=0,-41370,-51438,0,-9701,0
C00676=0,-41037,-51112,0,-9563,0
C00677=0,-40706,-50785,0,-9427,0
C00678=0,-40374,-50457,0,-9291,0
C00679=0,-40043,-50128,0,-9156,0
C00680=0,-39712,-49798,0,-9023,0
C00681=0,-39381,-49467,0,-8890,0
C00682=0,-39051,-49134,0,-8758,0
C00683=0,-38721,-48801,0,-8628,0
C00684=0,-38391,-48466,0,-8498,0
C00685=0,-38062,-48131,0,-8369,0
C00686=0,-37732,-47794,0,-8242,0
C00687=0,-37403,-47456,0,-8115,0
C00688=0,-37075,-47116,0,-7989,0
C00689=0,-36746,-46776,0,-7864,0
C00690=0,-36418,-46435,0,-7740,0
C00691=0,-36090,-46092,0,-7617,0
C00692=0,-35762,-45748,0,-7495,0
C00693=0,-35434,-45403,0,-7374,0
C00694=0,-35107,-45057,0,-7254,0
C00695=0,-34780,-44710,0,-7135,0
C00696=0,-34453,-44362,0,-7017,0
C00697=0,-34126,-44012,0,-6900,0
C00698=0,-33799,-43661,0,-6784,0
C00699=0,-33473,-43309,0,-6669,0
C00700=0,-33147,-42956,0,-6554,0
C00701=0,-32820,-42602,0,-6441,0
C00702=0,-32495,-42246,0,-6329,0
C00703=0,-32169,-41890,0,-6217,0
C00704=0,-31843,-41532,0,-6107,0
C00705=0,-31517,-41172,0,-5997,0
C00706=0,-31192,-40812,0,-5888,0
C00707=0,-30867,-40450,0,-5781,0
C00708=0,-30542,-40087,0,-5674,0
C00709=0,-30217,-39723,0,-5568,0
C00710=0,-29892,-39358,0,-5463,0
C00711=0,-29567,-38991,0,-5360,0
C00712=0,-29242,-38623,0,-5257,0
C00713=0,-28918,-38254,0,-5155,0
C00714=0,-28593,-37884,0,-5054,0
C00715=0,-28269,-37512,0,-4953,0
C00716=0,-27944,-37139,0,-4854,0
C00717=0,-27620,-36765,0,-4756,0
C00718=0,-27295,-36389,0,-4659,0
C00719=0,-26971,-36012,0,-4562,0
C00720=0,-26647,-35634,0,-4467,0
C00721=0,-26322,-35254,0,-4372,0
C00722=0,-25998,-34873,0,-4279,0
C00723=0,-25674,-34491,0,-4186,0
C00724=0,-25350,-34107,0,-4094,0
C00725=0,-25026,-33722,0,-4003,0
C00726=0,-24701,-33336,0,-3914,0
C00727=0,-24377,-32948,0,-3825,0
C00728=0,-24053,-32559,0,-3737,0
C00729=0,-23728,-32168,0,-3650,0
C00730=0,-23404,-31776,0,-3564,0
C00731=0,-23079,-31383,0,-3478,0
C00732=0,-22755,-30988,0,-3394,0
C00733=0,-22430,-30592,0,-3311,0
C00734=0,-22106,-30194,0,-3229,0
C00735=0,-21781,-29795,0,-3147,0
C00736=0,-21456,-29394,0,-3067,0
C00737=0,-21131,-28992,0,-2987,0
C00738=0,-20806,-28588,0,-2909,0
C00739=0,-20481,-28183,0,-2831,0
C00740=0,-20156,-27776,0,-2754,0
C00741=0,-19830,-27368,0,-2679,0
C00742=0,-19505,-26959,0,-2604,0
C00743=0,-19179,-26547,0,-2530,0
C00744=0,-18853,-26134,0,-2457,0
C00745=0,-18527,-25720,0,-2385,0
C00746=0,-18201,-25304,0,-2314,0
C00747=0,-17874,-24886,0,-2244,0
C00748=0,-17548,-24467,0,-2175,0
C00749=0,-17221,-24046,0,-2107,0
C00750=0,-16894,-23624,0,-2040,0
C00751=0,-16566,-23200,0,-1974,0
C00752=0,-16239,-22774,0,-1908,0
C00753=0,-15911,-22346,0,-1844,0
C00754=0,-15583,-21917,0,-1781,0
C00755=0,-15254,-21486,0,-1719,0
C00756=0,-14926,-21054,0,-1657,0
C00757=0,-14597,-20619,0,-1597,0
C00758=0,-14268,-20183,0,-1538,0
C00759=0,-13938,-19745,0,-1479,0
C00760=0,-13608,-19306,0,-1422,0
C00761=0,-13278,-18864,0,-1366,0
C00762=0,-12948,-18421,0,-1310,0
C00763=0,-12617,-17975,0,-1256,0
C00764=0,-12285,-17528,0,-1203,0
C00765=0,-11954,-17079,0,-1150,0
C00766=0,-11622,-16629,0,-1099,0
C00767=0,-11289,-16176,0,-1049,0
C00768=0,-10956,-15721,0,-1000,0
C00769=0,-10623,-15264,0,-951,0
C00770=0,-10289,-14806,0,-904,0
C00771=0,-9955,-14345,0,-858,0
C00772=0,-9620,-13882,0,-813,0
C00773=0,-9285,-13418,0,-769,0
C00774=0,-8950,-12951,0,-726,0
C00775=0,-8613,-12482,0,-684,0
C00776=0,-8277,-12011,0,-643,0
C00777=0,-7940,-11538,0,-603,0
C00778=0,-7602,-11062,0,-564,0
C00779=0,-7264,-10585,0,-527,0
C00780=0,-6925,-10105,0,-490,0
C00781=0,-6585,-9623,0,-455,0
C00782=0,-6245,-9139,0,-420,0
C00783=0,-5904,-8652,0,-387,0
C00784=0,-5563,-8164,0,-355,0
C00785=0,-5221,-7672,0,-324,0
C00786=0,-4878,-7179,0,-294,0
C00787=0,-4535,-6683,0,-265,0
C00788=0,-4191,-6184,0,-238,0
C00789=0,-3846,-5683,0,-211,0
C00790=0,-3500,-5180,0,-186,0
C00791=0,-3154,-4674,0,-162,0
C00792=0,-2807,-4165,0,-139,0
C00793=0,-2459,-3654,0,-117,0
C00794=0,-2110,-3140,0,-97,0
C00795=0,-1761,-2624,0,-78,0
C00796=0,-1411,-2105,0,-60,0
C00797=0,-1059,-1583,0,-43,0
C00798=0,-707,-1058,0,-27,0
C00799=0,-354,-530,0,-13,0
C00800=0,0,0,0,0,0
C00801=0,187,-89,0,188,0
C00802=0,375,-176,0,375,0
C00803=0,564,-262,0,562,0
C00804=0,755,-344,0,749,0
C00805=0,947,-425,0,934,0
C00806=0,1140,-503,0,1120,0
C00807=0,1335,-579,0,1304,0
C00808=0,1530,-654,0,1488,0
C00809=0,1727,-725,0,1672,0
C00810=0,1925,-795,0,1854,0
C00811=0,2124,-863,0,2037,0
C00812=0,2325,-928,0,2218,0
C00813=0,2526,-991,0,2399,0
C00814=0,2729,-1052,0,2580,0
C00815=0,2933,-1111,0,2759,0
C00816=0,3138,-1167,0,2939,0
C00817=0,3345,-1222,0,3117,0
C00818=0,3552,-1274,0,3295,0
C00819=0,3761,-1324,0,3473,0
C00820=0,3971,-1372,0,3649,0
C00821=0,4182,-1418,0,3826,0
C00822=0,4394,-1461,0,4001,0
C00823=0,4608,-1503,0,4176,0
C00824=0,4822,-1542,0,4350,0
C00825=0,5038,-1579,0,4524,0
C00826=0,5254,-1614,0,4697,0
C00827=0,5472,-1647,0,4869,0
C00828=0,5691,-1678,0,5041,0
C00829=0,5911,-1706,0,5212,0
C00830=0,6133,-1733,0,5383,0
C00831=0,6355,-1757,0,5553,0
C00832=0,6578,-1779,0,5722,0
C00833=0,6803,-1799,0,5890,0
C00834=0,7029,-1816,0,6058,0
C00835=0,7255,-1832,0,6225,0
C00836=0,7483,-1845,0,6392,0
C00837=0,7712,-1857,0,6558,0
C00838=0,7942,-1866,0,6723,0
C00839=0,8173,-1873,0,6887,0
C00840=0,8405,-1878,0,7051,0
C00841=0,8638,-1880,0,7214,0
C00842=0,8873,-1881,0,7376,0
C00843=0,9108,-1879,0,7538,0
C00844=0,9344,-1875,0,7699,0
C00845=0,9582,-1869,0,7860,0
C00846=0,9820,-1861,0,8019,0
C00847=0,10060,-1851,0,8178,0
C00848=0,10300,-1838,0,8336,0
C00849=0,10542,-1824,0,8494,0
C00850=0,10784,-1807,0,8651,0
C00851=0,11028,-1788,0,8807,0
C00852=0,11272,-1767,0,8962,0
C00853=0,11518,-1744,0,9117,0
C00854=0,11764,-1718,0,9271,0
C00855=0,12012,-1691,0,9424,0
C00856=0,12260,-1661,0,9576,0
C00857=0,12510,-1629,0,9728,0
C00858=0,12760,-1595,0,9879,0
C00859=0,13012,-1559,0,10029,0
C00860=0,13264,-1521,0,10178,0
C00861=0,13518,-1480,0,10327,0
C00862=0,13772,-1438,0,10475,0
C00863=0,14028,-1393,0,10622,0
C00864=0,14284,-1346,0,10769,0
C00865=0,14541,-1297,0,10914,0
C00866=0,14800,-1245,0,11059,0
C00867=0,15059,-1192,0,11203,0
C00868=0,15319,-1136,0,11346,0
C00869=0,15580,-1078,0,11489,0
C00870=0,15842,-1018,0,11630,0
C00871=0,16105,-956,0,11771,0
C00872=0,16369,-892,0,11911,0
C00873=0,16634,-825,0,12051,0
C00874=0,16899,-757,0,12189,0
C00875=0,17166,-686,0,12327,0
C00876=0,17434,-613,0,12464,0
C00877=0,17702,-537,0,12600,0
C00878=0,17972,-460,0,12735,0
C00879=0,18242,-380,0,12869,0
C00880=0,18513,-299,0,13003,0
C00881=0,18785,-214,0,13136,0
C00882=0,19058,-128,0,13267,0
C00883=0,19332,-40,0,13398,0
C00884=0,19607,51,0,13529,0
C00885=0,19882,144,0,13658,0
C00886=0,20159,239,0,13786,0
C00887=0,20436,336,0,13914,0
C00888=0,20715,435,0,14041,0
C00889=0,20994,537,0,14167,0
C00890=0,21274,641,0,14292,0
C00891=0,21555,747,0,14416,0
C00892=0,21836,855,0,14539,0
C00893=0,22119,966,0,14661,0
C00894=0,22402,1078,0,14783,0
C00895=0,22687,1194,0,14903,0
C00896=0,22972,1311,0,15023,0
C00897=0,23258,1430,0,15142,0
C00898=0,23545,1552,0,15260,0
C00899=0,23832,1676,0,15377,0
C00900=0,24121,1802,0,15493,0
C00901=0,24410,1931,0,15608,0
C00902=0,24701,2061,0,15722,0
C00903=0,24992,2194,0,15835,0
C00904=0,25284,2329,0,15948,0
C00905=0,25576,2467,0,16059,0
C00906=0,25870,2607,0,16170,0
C00907=0,26164,2749,0,16279,0
C00908=0,26459,2893,0,16388,0
C00909=0,26755,3040,0,16495,0
C00910=0,27052,3189,0,16602,0
C00911=0,27350,3340,0,16708,0
C00912=0,27649,3494,0,16812,0
C00913=0,27948,3649,0,16916,0
C00914=0,28248,3807,0,17019,0
C00915=0,28549,3968,0,17121,0
C00916=0,28851,4131,0,17222,0
C00917=0,29154,4296,0,17322,0
C00918=0,29457,4463,0,17420,0
C00919=0,29761,4633,0,17518,0
C00920=0,30066,4805,0,17615,0
C00921=0,30372,4980,0,17711,0
C00922=0,30679,5157,0,17806,0
C00923=0,30986,5336,0,17899,0
C00924=0,31295,5518,0,17992,0
C00925=0,31604,5702,0,18084,0
C00926=0,31914,5888,0,18175,0
C00927=0,32225,6077,0,18264,0
C00928=0,32536,6268,0,18353,0
C00929=0,32849,6461,0,18441,0
C00930=0,33162,6657,0,18527,0
C00931=0,33476,6856,0,18613,0
C00932=0,33791,7057,0,18697,0
C00933=0,34106,7260,0,18780,0
C00934=0,34423,7466,0,18863,0
C00935=0,34740,7674,0,18944,0
C00936=0,35059,7885,0,19024,0
C00937=0,35377,8098,0,19103,0
C00938=0,35697,8314,0,19181,0
C00939=0,36018,8532,0,19258,0
C00940=0,36339,8753,0,19334,0
C00941=0,36662,8976,0,19408,0
C00942=0,36985,9202,0,19482,0
C00943=0,37309,9430,0,19554,0
C00944=0,37634,9661,0,19625,0
C00945=0,37959,9894,0,19695,0
C00946=0,38286,10130,0,19764,0
C00947=0,38613,10369,0,19832,0
C00948=0,38941,10610,0,19899,0
C00949=0,39270,10854,0,19965,0
C00950=0,39600,11100,0,20029,0
C00951=0,39931,11349,0,20092,0
C00952=0,40263,11601,0,20154,0
C00953=0,40596,11856,0,20215,0
C00954=0,40929,12113,0,20275,0
C00955=0,41263,12373,0,20333,0
C00956=0,41598,12635,0,20390,0
C00957=0,41934,12901,0,20446,0
C00958=0,42272,13168,0,20501,0
C00959=0,42609,13439,0,20555,0
C00960=0,42948,13713,0,20607,0
C00961=0,43288,13989,0,20658,0
C00962=0,43629,14268,0,20708,0
C00963=0,43970,14550,0,20757,0
C00964=0,44313,14835,0,20804,0
C00965=0,44656,15123,0,20850,0
C00966=0,45001,15414,0,20895,0
C00967=0,45346,15707,0,20939,0
C00968=0,45692,16004,0,20981,0
C00969=0,46040,16303,0,21022,0
C00970=0,46388,16606,0,21062,0
C00971=0,46737,16911,0,21100,0
C00972=0,47088,17220,0,21137,0
C00973=0,47439,17531,0,21173,0
C00974=0,47791,17846,0,21207,0
C00975=0,48145,18163,0,21240,0
C00976=0,48499,18484,0,21271,0
C00977=0,48854,18808,0,21302,0
C00978=0,49211,19135,0,21330,0
C00979=0,49569,19465,0,21358,0
C00980=0,49927,19799,0,21384,0
C00981=0,50287,20136,0,21409,0
C00982=0,50648,20476,0,21432,0
C00983=0,51010,20819,0,21454,0
C00984=0,51373,21166,0,21474,0
C00985=0,51738,21516,0,21493,0
C00986=0,52103,21870,0,21510,0
C00987=0,52470,22227,0,21526,0
C00988=0,52838,22588,0,21540,0
C00989=0,53207,22952,0,21553,0
C00990=0,53577,23319,0,21564,0
C00991=0,53949,23691,0,21574,0
C00992=0,54322,24066,0,21582,0
C00993=0,54696,24444,0,21589,0
C00994=0,55072,24827,0,21594,0
C00995=0,55449,25213,0,21597,0
C00996=0,55827,25603,0,21599,0
C00997=0,56206,25997,0,21599,0
C00998=0,56587,26395,0,21598,0
C00999=0,56970,26796,0,21595,0
C01000=0,57354,27202,0,21590,0
C01001=0,57739,27612,0,21583,0
C01002=0,58126,28026,0,21575,0
C01003=0,58514,28444,0,21565,0
C01004=114,58144,27810,18,21440,72
C01005=230,57777,27185,32,21311,145
C01006=346,57415,26569,43,21179,219
C01007=463,57056,25961,51,21044,295
C01008=580,56702,25361,54,20906,372
C01009=699,56351,24769,54,20765,451
C01010=818,56004,24185,50,20621,531
C01011=939,55660,23609,42,20475,612
C01012=1060,55320,23040,30,20325,696
C01013=1182,54983,22479,14,20173,780
C01014=1305,54650,21925,-7,20018,866
C01015=1428,54320,21378,-31,19861,954
C01016=1553,53994,20838,-60,19701,1044
C01017=1678,53671,20305,-93,19538,1135
C01018=1805,53351,19779,-131,19373,1229
C01019=1932,53034,19259,-174,19206,1324
C01020=2060,52720,18746,-221,19036,1420
C01021=2188,52409,18240,-274,18864,1519
C01022=2318,52102,17739,-331,18690,1620
C01023=2449,51797,17245,-394,18514,1723
C01024=2580,51495,16757,-461,18335,1828
C01025=2713,51196,16275,-535,18155,1935
C01026=2846,50901,15798,-614,17972,2045
C01027=2980,50607,15328,-699,17787,2157
C01028=3115,50317,14863,-790,17600,2271
C01029=3251,50030,14404,-888,17412,2388
C01030=3388,49745,13951,-991,17222,2508
C01031=3525,49463,13503,-1102,17029,2630
C01032=3664,49183,13060,-1220,16835,2755
C01033=3803,48907,12623,-1344,16639,2883
C01034=3943,48633,12191,-1477,16442,3015
C01035=4085,48361,11764,-1617,16243,3149
C01036=4227,48092,11342,-1765,16042,3287
C01037=4370,47826,10926,-1921,15839,3429
C01038=4514,47562,10514,-2086,15635,3574
C01039=4658,47301,10107,-2260,15430,3723
C01040=4804,47042,9705,-2444,15223,3876
C01041=4951,46786,9308,-2637,15015,4033
C01042=5098,46532,8916,-2841,14805,4195
C01043=5246,46281,8529,-3056,14595,4361
C01044=5396,46032,8146,-3282,14382,4532
C01045=5546,45786,7767,-3519,14169,4709
C01046=5697,45542,7394,-3769,13955,4891
C01047=5849,45300,7024,-4032,13739,5078
C01048=6001,45061,6660,-4309,13523,5271
C01049=6155,44824,6299,-4599,13305,5471
C01050=6310,44589,5943,-4905,13087,5677
C01051=6465,44357,5591,-5227,12867,5890
C01052=6622,44127,5244,-5565,12647,6111
C01053=6779,43900,4901,-5921,12426,6339
C01054=6937,43675,4562,-6295,12205,6576
C01055=7096,43452,4227,-6689,11983,6821
C01056=7256,43231,3896,-7103,11760,7076
C01057=7417,43013,3569,-7539,11537,7341
C01058=7579,42797,3247,-7999,11314,7615
C01059=7742,42583,2928,-8483,11091,7902
C01060=7905,42372,2613,-8993,10867,8199
C01061=8070,42162,2302,-9530,10643,8510
C01062=8235,41955,1995,-10097,10420,8834
C01063=8401,41751,1692,-10696,10196,9172
C01064=8568,41548,1393,-11328,9973,9525
C01065=8736,41348,1097,-11995,9751,9894
C01066=8905,41150,806,-12701,9529,10281
C01067=9075,40954,518,-13447,9307,10687
C01068=9245,40760,233,-14236,9087,11112
C01069=9417,40569,-47,-15072,8868,11559
C01070=9589,40380,-324,-15957,8651,12029
C01071=9762,40193,-598,-16896,8435,12523
C01072=9936,40008,-868,-17891,8221,13043
C01073=10111,39825,-1134,-18947,8009,13591
C01074=10287,39645,-1397,-20069,7799,14170
C01075=10464,39467,-1656,-21260,7592,14781
C01076=10641,39291,-1912,-22525,7389,15426
C01077=10820,39117,-2164,-23871,7189,16108
C01078=10999,38945,-2413,-25301,6993,16830
C01079=11179,38776,-2658,-26823,6802,17594
C01080=11360,38608,-2901,-28440,6615,18402
C01081=11542,38443,-3139,-30159,6434,19258
C01082=11724,38280,-3375,-31985,6260,20164
C01083=11908,38119,-3607,-33924,6092,21122
C01084=12092,37961,-3836,-35981,5932,22134
C01085=12277,37804,-4062,-38158,5780,23203
C01086=12463,37650,-4284,-40459,5637,24330
C01087=12650,37498,-4503,-42886,5505,25515
C01088=12837,37348,-4719,-45438,5384,26758
C01089=13026,37200,-4932,-48113,5274,28058
C01090=13215,37055,-5142,-50904,5177,29413
C01091=13405,36911,-5348,-53805,5094,30819
C01092=13596,36770,-5552,-56804,5026,32270
C01093=13787,36631,-5752,-59888,4972,33760
C01094=13980,36494,-5949,-63038,4935,35281
C01095=14173,36359,-6143,-66235,4913,36824
C01096=14367,36227,-6334,-69459,4909,38379
C01097=14562,36096,-6522,-72687,4921,39935
C01098=14757,35968,-6708,-75896,4951,41482
C01099=14953,35842,-6890,-79064,4997,43010
C01100=15151,35718,-7069,-82173,5059,44509
C01101=15348,35596,-7245,-85203,5137,45971
C01102=15547,35477,-7418,86451,-5231,-34467
C01103=15746,35360,-7589,83619,-5339,-33099
C01104=15946,35244,-7756,80900,-5461,-31784
C01105=16147,35131,-7921,78301,-5596,-30526
C01106=16349,35020,-8082,75825,-5743,-29326
C01107=16551,34912,-8241,73473,-5902,-28185
C01108=16754,34805,-8397,71243,-6071,-27101
C01109=16958,34701,-8550,69135,-6249,-26075
C01110=17162,34599,-8701,67143,-6437,-25104
C01111=17367,34499,-8848,65264,-6633,-24185
C01112=17573,34401,-8993,63491,-6837,-23318
C01113=17780,34305,-9135,61821,-7048,-22499
C01114=17987,34212,-9274,60246,-7265,-21725
C01115=18195,34121,-9410,58762,-7489,-20994
C01116=18403,34032,-9544,57364,-7718,-20303
C01117=18612,33945,-9675,56044,-7952,-19650
C01118=18822,33860,-9804,54799,-8190,-19032
C01119=19033,33778,-9929,53624,-8433,-18448
C01120=19244,33697,-10052,52513,-8680,-17894
C01121=19456,33619,-10172,51462,-8931,-17369
C01122=19668,33543,-10290,50468,-9185,-16870
C01123=19881,33470,-10405,49527,-9442,-16397
C01124=20095,33398,-10517,48634,-9702,-15947
C01125=20309,33329,-10627,47787,-9965,-15519
C01126=20524,33262,-10734,46983,-10231,-15111
C01127=20740,33197,-10839,46218,-10498,-14722
C01128=20956,33134,-10941,45490,-10769,-14351
C01129=21172,33074,-11040,44797,-11041,-13997
C01130=21390,33015,-11137,44136,-11315,-13658
C01131=21607,32959,-11231,43506,-11591,-13334
C01132=21826,32905,-11323,42904,-11868,-13023
C01133=22045,32854,-11412,42328,-12148,-12726
C01134=22264,32804,-11499,41777,-12428,-12440
C01135=22484,32757,-11583,41250,-12711,-12166
C01136=22705,32712,-11664,40744,-12994,-11902
C01137=22926,32669,-11744,40259,-13279,-11649
C01138=23147,32628,-11820,39793,-13565,-11405
C01139=23370,32590,-11895,39346,-13852,-11169
C01140=23592,32553,-11966,38916,-14140,-10943
C01141=23815,32519,-12036,38501,-14429,-10724
C01142=24039,32488,-12103,38102,-14719,-10513
C01143=24263,32458,-12167,37718,-15009,-10309
C01144=24487,32430,-12229,37347,-15301,-10112
C01145=24712,32405,-12288,36988,-15593,-9921
C01146=24938,32382,-12346,36642,-15887,-9736
C01147=25163,32362,-12400,36307,-16181,-9557
C01148=25390,32343,-12453,35983,-16475,-9383
C01149=25616,32327,-12503,35670,-16770,-9215
C01150=25843,32312,-12550,35365,-17066,-9051
C01151=26071,32301,-12596,35071,-17362,-8893
C01152=26299,32291,-12638,34785,-17659,-8738
C01153=26527,32284,-12679,34507,-17956,-8588
C01154=26756,32278,-12717,34237,-18254,-8443
C01155=26985,32275,-12753,33974,-18552,-8301
C01156=27214,32274,-12786,33719,-18850,-8162
C01157=27444,32276,-12818,33470,-19149,-8028
C01158=27674,32279,-12847,33228,-19449,-7896
C01159=27905,32285,-12873,32992,-19748,-7768
C01160=28136,32293,-12897,32762,-20048,-7643
C01161=28367,32303,-12919,32537,-20348,-7521
C01162=28598,32316,-12939,32318,-20649,-7402
C01163=28830,32330,-12956,32103,-20950,-7285
C01164=29062,32347,-12971,31893,-21251,-7172
C01165=29294,32366,-12984,31688,-21552,-7060
C01166=29527,32388,-12995,31488,-21853,-6952
C01167=29760,32411,-13003,31291,-22155,-6845
C01168=29993,32437,-13009,31098,-22456,-6741
C01169=30226,32465,-13013,30910,-22758,-6638
C01170=30460,32495,-13014,30724,-23060,-6538
C01171=30694,32527,-13014,30542,-23363,-6440
C01172=30928,32562,-13011,30364,-23665,-6344
C01173=31162,32598,-13006,30189,-23967,-6250
C01174=31397,32637,-12998,30016,-24270,-6157
C01175=31632,32678,-12989,29847,-24572,-6066
C01176=31867,32722,-12977,29680,-24875,-5977
C01177=32102,32767,-12963,29516,-25177,-5889
C01178=32337,32815,-12946,29354,-25480,-5803
C01179=32573,32865,-12928,29195,-25782,-5718
C01180=32808,32917,-12907,29038,-26085,-5635
C01181=33044,32971,-12884,28883,-26388,-5553
C01182=33280,33028,-12859,28730,-26690,-5472
C01183=33516,33086,-12832,28579,-26993,-5393
C01184=33753,33147,-12803,28430,-27295,-5315
C01185=33989,33210,-12771,28283,-27598,-5238
C01186=34225,33275,-12737,28138,-27901,-5162
C01187=34462,33342,-12701,27994,-28203,-5087
C01188=34699,33412,-12663,27852,-28505,-5014
C01189=34935,33484,-12623,27712,-28808,-4941
C01190=35172,33558,-12581,27573,-29110,-4870
C01191=35409,33634,-12536,27435,-29412,-4799
C01192=35646,33712,-12489,27299,-29714,-4730
C01193=35883,33792,-12440,27164,-30016,-4661
C01194=36120,33875,-12389,27030,-30318,-4593
C01195=36357,33959,-12336,26897,-30620,-4527
C01196=36594,34046,-12281,26765,-30922,-4460
C01197=36832,34135,-12223,26634,-31223,-4395
C01198=37069,34226,-12163,26505,-31525,-4331
C01199=37306,34320,-12102,26376,-31826,-4267
C01200=37543,34415,-12038,26248,-32127,-4204
C01201=37780,34513,-11972,26121,-32429,-4142
C01202=38017,34612,-11903,25995,-32730,-4080
C01203=38255,34714,-11833,25870,-33030,-4019
C01204=38492,34818,-11760,25745,-33331,-3959
C01205=38729,34924,-11686,25621,-33631,-3899
C01206=38966,35032,-11609,25498,-33932,-3840
C01207=39203,35143,-11530,25376,-34232,-3782
C01208=39440,35255,-11449,25254,-34532,-3724
C01209=39677,35370,-11366,25132,-34832,-3667
C01210=39913,35486,-11281,25011,-35132,-3610
C01211=40150,35605,-11193,24891,-35431,-3554
C01212=40387,35726,-11104,24771,-35731,-3498
C01213=40623,35849,-11012,24652,-36030,-3443
C01214=40860,35974,-10918,24533,-36329,-3388
C01215=41096,36101,-10822,24414,-36628,-3334
C01216=41332,36231,-10724,24296,-36926,-3280
C01217=41569,36362,-10624,24178,-37225,-3226
C01218=41805,36495,-10522,24060,-37523,-3173
C01219=42041,36631,-10417,23943,-37821,-3121
C01220=42276,36769,-10311,23826,-38119,-3069
C01221=42512,36908,-10202,23710,-38417,-3017
C01222=42747,37050,-10091,23593,-38715,-2966
C01223=42983,37194,-9978,23477,-39012,-2915
C01224=43218,37340,-9863,23361,-39309,-2864
C01225=43453,37488,-9746,23246,-39606,-2814
C01226=43688,37638,-9626,23130,-39903,-2764
C01227=43922,37790,-9505,23015,-40200,-2714
C01228=44157,37944,-9381,22900,-40497,-2665
C01229=44391,38100,-9255,22785,-40793,-2616
C01230=44625,38258,-9127,22670,-41089,-2567
C01231=44859,38419,-8997,22555,-41385,-2518
C01232=45093,38581,-8864,22440,-41681,-2470
C01233=45326,38745,-8730,22326,-41977,-2422
C01234=45559,38911,-8593,22211,-42272,-2375
C01235=45792,39080,-8455,22097,-42568,-2327
C01236=46025,39250,-8314,21983,-42863,-2280
C01237=46258,39422,-8170,21868,-43158,-2233
C01238=46490,39597,-8025,21754,-43453,-2187
C01239=46722,39773,-7878,21640,-43747,-2140
C01240=46954,39951,-7728,21526,-44042,-2094
C01241=47186,40132,-7576,21412,-44336,-2048
C01242=47417,40314,-7422,21297,-44631,-2002
C01243=47648,40499,-7266,21183,-44925,-1957
C01244=47879,40685,-7107,21069,-45219,-1911
C01245=48110,40873,-6947,20955,-45513,-1866
C01246=48340,41064,-6784,20841,-45806,-1821
C01247=48570,41256,-6619,20726,-46100,-1776
C01248=48800,41450,-6452,20612,-46393,-1732
C01249=49029,41646,-6282,20498,-46687,-1687
C01250=49258,41844,-6110,20384,-46980,-1643
C01251=49487,42045,-5936,20269,-47273,-1599
C01252=49716,42247,-5760,20155,-47566,-1555
C01253=49944,42451,-5582,20040,-47859,-1511
C01254=50172,42657,-5401,19926,-48152,-1467
C01255=50400,42865,-5218,19811,-48445,-1424
C01256=50627,43075,-5033,19696,-48737,-1380
C01257=50854,43286,-4846,19582,-49030,-1337
C01258=51081,43500,-4656,19467,-49322,-1294
C01259=51308,43716,-4464,19352,-49615,-1250
C01260=51534,43934,-4270,19237,-49907,-1207
C01261=51760,44153,-4073,19122,-50200,-1165
C01262=51985,44375,-3874,19006,-50492,-1122
C01263=52210,44598,-3673,18891,-50784,-1079
C01264=52435,44824,-3469,18776,-51076,-1037
C01265=52660,45051,-3263,18660,-51368,-994
C01266=52884,45280,-3055,18545,-51661,-952
C01267=53108,45511,-2844,18429,-51953,-910
C01268=52941,44966,-3296,18550,-51689,-972
C01269=52774,44424,-3742,18670,-51427,-1035
C01270=52607,43884,-4181,18791,-51167,-1097
C01271=52438,43347,-4614,18911,-50908,-1159
C01272=52269,42813,-5042,19030,-50652,-1221
C01273=52099,42282,-5463,19150,-50397,-1282
C01274=51929,41754,-5879,19269,-50143,-1343
C01275=51757,41228,-6289,19387,-49891,-1404
C01276=51585,40705,-6693,19506,-49641,-1464
C01277=51413,40185,-7092,19624,-49392,-1524
C01278=51239,39668,-7485,19741,-49145,-1583
C01279=51065,39154,-7872,19858,-48900,-1642
C01280=50890,38642,-8254,19975,-48655,-1701
C01281=50715,38133,-8631,20091,-48412,-1760
C01282=50539,37626,-9002,20207,-48171,-1818
C01283=50362,37123,-9367,20322,-47930,-1875
C01284=50184,36622,-9728,20437,-47691,-1933
C01285=50005,36124,-10083,20551,-47454,-1990
C01286=49826,35629,-10433,20665,-47217,-2046
C01287=49646,35136,-10777,20778,-46982,-2102
C01288=49465,34646,-11117,20890,-46748,-2158
C01289=49284,34159,-11451,21002,-46515,-2213
C01290=49102,33674,-11780,21113,-46283,-2268
C01291=48919,33193,-12104,21224,-46053,-2323
C01292=48735,32714,-12423,21333,-45823,-2377
C01293=48550,32237,-12738,21443,-45594,-2431
C01294=48365,31764,-13047,21551,-45366,-2484
C01295=48179,31293,-13351,21659,-45140,-2537
C01296=47992,30825,-13651,21766,-44914,-2589
C01297=47804,30360,-13945,21872,-44689,-2641
C01298=47616,29897,-14235,21977,-44465,-2693
C01299=47426,29437,-14520,22082,-44241,-2744
C01300=47236,28980,-14800,22186,-44019,-2795
C01301=47045,28526,-15076,22289,-43797,-2845
C01302=46854,28075,-15347,22391,-43576,-2895
C01303=46661,27626,-15613,22492,-43356,-2945
C01304=46468,27180,-15875,22592,-43137,-2994
C01305=46274,26737,-16132,22691,-42918,-3042
C01306=46079,26297,-16385,22790,-42700,-3091
C01307=45883,25859,-16633,22887,-42482,-3138
C01308=45687,25424,-16877,22984,-42265,-3186
C01309=45490,24992,-17116,23079,-42049,-3232
C01310=45291,24563,-17351,23174,-41833,-3279
C01311=45092,24137,-17581,23267,-41618,-3325
C01312=44893,23713,-17807,23360,-41403,-3370
C01313=44692,23293,-18029,23451,-41188,-3415
C01314=44491,22875,-18246,23542,-40974,-3460
C01315=44288,22460,-18459,23631,-40761,-3504
C01316=44085,22048,-18667,23719,-40548,-3548
C01317=43881,21639,-18872,23806,-40335,-3591
C01318=43676,21233,-19072,23892,-40123,-3634
C01319=43471,20829,-19268,23977,-39910,-3676
C01320=43264,20429,-19460,24060,-39699,-3718
C01321=43057,20031,-19648,24142,-39487,-3759
C01322=42849,19636,-19831,24224,-39276,-3800
C01323=42640,19245,-20011,24303,-39065,-3841
C01324=42430,18856,-20186,24382,-38854,-3881
C01325=42220,18470,-20358,24460,-38643,-3921
C01326=42008,18087,-20525,24536,-38433,-3960
C01327=41796,17707,-20689,24611,-38222,-3999
C01328=41583,17330,-20848,24684,-38012,-4037
C01329=41369,16956,-21004,24757,-37802,-4075
C01330=41154,16585,-21155,24827,-37592,-4112
C01331=40939,16217,-21303,24897,-37382,-4149
C01332=40722,15852,-21446,24965,-37172,-4185
C01333=40505,15490,-21586,25032,-36962,-4221
C01334=40287,15130,-21722,25098,-36752,-4257
C01335=40068,14774,-21854,25162,-36542,-4292
C01336=39848,14421,-21983,25224,-36332,-4326
C01337=39628,14072,-22107,25286,-36122,-4361
C01338=39406,13725,-22228,25345,-35912,-4394
C01339=39184,13381,-22345,25404,-35702,-4428
C01340=38961,13040,-22459,25461,-35492,-4460
C01341=38737,12702,-22568,25516,-35281,-4493
C01342=38512,12367,-22674,25570,-35071,-4525
C01343=38287,12036,-22777,25622,-34860,-4556
C01344=38061,11708,-22875,25673,-34649,-4587
C01345=37834,11382,-22970,25723,-34438,-4618
C01346=37606,11060,-23062,25770,-34227,-4648
C01347=37377,10741,-23150,25817,-34016,-4678
C01348=37148,10425,-23234,25861,-33804,-4707
C01349=36917,10112,-23315,25904,-33593,-4736
C01350=36686,9802,-23392,25946,-33381,-4765
C01351=36454,9496,-23466,25986,-33168,-4793
C01352=36222,9192,-23536,26024,-32956,-4820
C01353=35989,8892,-23602,26060,-32743,-4847
C01354=35755,8595,-23666,26095,-32530,-4874
C01355=35520,8301,-23726,26129,-32317,-4900
C01356=35284,8010,-23782,26160,-32103,-4926
C01357=35048,7723,-23835,26190,-31889,-4952
C01358=34811,7438,-23884,26219,-31675,-4977
C01359=34573,7157,-23931,26245,-31460,-5001
C01360=34334,6879,-23973,26270,-31245,-5026
C01361=34095,6605,-24013,26294,-31030,-5049
C01362=33855,6333,-24049,26315,-30814,-5073
C01363=33614,6065,-24082,26335,-30598,-5096
C01364=33373,5800,-24112,26353,-30382,-5118
C01365=33131,5538,-24138,26369,-30165,-5141
C01366=32888,5279,-24161,26384,-29948,-5162
C01367=32645,5024,-24181,26396,-29730,-5184
C01368=32401,4772,-24197,26407,-29513,-5205
C01369=32156,4523,-24210,26416,-29294,-5225
C01370=31911,4278,-24220,26424,-29076,-5246
C01371=31665,4035,-24227,26429,-28857,-5265
C01372=31418,3796,-24231,26433,-28637,-5285
C01373=31171,3561,-24232,26435,-28417,-5304
C01374=30923,3328,-24229,26435,-28197,-5323
C01375=30675,3099,-24223,26433,-27976,-5341
C01376=30426,2873,-24214,26430,-27755,-5359
C01377=30176,2651,-24202,26424,-27534,-5376
C01378=29926,2431,-24187,26417,-27312,-5394
C01379=29675,2215,-24169,26408,-27089,-5410
C01380=29424,2002,-24148,26397,-26867,-5427
C01381=29172,1793,-24124,26384,-26643,-5443
C01382=28920,1587,-24096,26369,-26420,-5458
C01383=28667,1384,-24066,26352,-26196,-5474
C01384=28414,1184,-24032,26334,-25972,-5489
C01385=28160,988,-23996,26313,-25747,-5503
C01386=27906,795,-23956,26291,-25522,-5518
C01387=27651,606,-23914,26266,-25296,-5531
C01388=27396,419,-23868,26240,-25070,-5545
C01389=27140,236,-23820,26212,-24844,-5558
C01390=26884,57,-23769,26182,-24617,-5571
C01391=26628,-120,-23714,26150,-24390,-5583
C01392=26371,-293,-23657,26116,-24162,-5596
C01393=26114,-463,-23597,26080,-23934,-5607
C01394=25856,-629,-23533,26042,-23706,-5619
C01395=25598,-792,-23467,26002,-23477,-5630
C01396=25340,-952,-23398,25960,-23248,-5641
C01397=25082,-1108,-23326,25916,-23019,-5651
C01398=24823,-1262,-23251,25870,-22789,-5661
C01399=24564,-1411,-23173,25823,-22559,-5671
C01400=24304,-1558,-23093,25773,-22329,-5680
C01401=24045,-1701,-23009,25721,-22098,-5690
C01402=23785,-1841,-22923,25667,-21867,-5698
C01403=23525,-1978,-22833,25611,-21636,-5707
C01404=23265,-2111,-22741,25554,-21404,-5715
C01405=23004,-2241,-22646,25494,-21172,-5723
C01406=22744,-2368,-22548,25432,-20940,-5730
C01407=22483,-2491,-22448,25368,-20708,-5737
C01408=22222,-2611,-22344,25302,-20475,-5744
C01409=21961,-2728,-22238,25234,-20242,-5750
C01410=21700,-2842,-22128,25165,-20009,-5757
C01411=21438,-2952,-22016,25093,-19775,-5762
C01412=21177,-3059,-21901,25019,-19542,-5768
C01413=20916,-3163,-21784,24943,-19308,-5773
C01414=20654,-3263,-21663,24865,-19074,-5778
C01415=20393,-3360,-21540,24785,-18840,-5782
C01416=20132,-3454,-21413,24702,-18606,-5787
C01417=19870,-3544,-21284,24618,-18371,-5791
C01418=19609,-3631,-21152,24532,-18136,-5794
C01419=19348,-3715,-21018,24444,-17902,-5797
C01420=19087,-3796,-20880,24354,-17667,-5800
C01421=18825,-3874,-20740,24261,-17432,-5803
C01422=18564,-3948,-20597,24167,-17197,-5805
C01423=18304,-4019,-20451,24070,-16962,-5807
C01424=18043,-4086,-20302,23972,-16727,-5809
C01425=17782,-4151,-20150,23871,-16491,-5810
C01426=17522,-4212,-19996,23769,-16256,-5811
C01427=17262,-4270,-19839,23664,-16021,-5812
C01428=17002,-4324,-19678,23557,-15786,-5812
C01429=16742,-4376,-19516,23448,-15550,-5813
C01430=16483,-4424,-19350,23337,-15315,-5812
C01431=16224,-4469,-19181,23224,-15080,-5812
C01432=15965,-4511,-19010,23109,-14845,-5811
C01433=15706,-4550,-18835,22992,-14610,-5810
C01434=15448,-4585,-18658,22873,-14375,-5808
C01435=15190,-4617,-18478,22752,-14140,-5806
C01436=14933,-4646,-18295,22628,-13906,-5804
C01437=14676,-4672,-18110,22503,-13671,-5801
C01438=14419,-4694,-17921,22375,-13437,-5799
C01439=14163,-4714,-17730,22246,-13203,-5795
C01440=13907,-4730,-17535,22114,-12969,-5792
C01441=13652,-4743,-17338,21980,-12735,-5788
C01442=13397,-4753,-17138,21844,-12502,-5784
C01443=13143,-4759,-16935,21706,-12268,-5779
C01444=12889,-4763,-16728,21566,-12036,-5774
C01445=12636,-4763,-16520,21424,-11803,-5769
C01446=12383,-4760,-16308,21280,-11570,-5764
C01447=12131,-4754,-16093,21133,-11338,-5758
C01448=11880,-4745,-15875,20985,-11107,-5751
C01449=11629,-4733,-15654,20834,-10875,-5745
C01450=11378,-4717,-15430,20681,-10644,-5738
C01451=11129,-4699,-15203,20527,-10414,-5730
C01452=10880,-4677,-14974,20370,-10184,-5723
C01453=10631,-4652,-14741,20211,-9954,-5715
C01454=10384,-4624,-14505,20050,-9725,-5706
C01455=10137,-4593,-14266,19887,-9496,-5697
C01456=9891,-4559,-14024,19721,-9268,-5688
C01457=9645,-4522,-13779,19554,-9040,-5679
C01458=9401,-4482,-13531,19384,-8812,-5669
C01459=9157,-4438,-13279,19212,-8586,-5658
C01460=8914,-4391,-13025,19039,-8360,-5647
C01461=8672,-4342,-12767,18863,-8134,-5636
C01462=8430,-4289,-12507,18685,-7909,-5625
C01463=8190,-4233,-12243,18504,-7685,-5613
C01464=7950,-4174,-11975,18322,-7461,-5600
C01465=7711,-4112,-11705,18138,-7238,-5587
C01466=7473,-4047,-11431,17951,-7015,-5574
C01467=7236,-3979,-11154,17762,-6794,-5560
C01468=7000,-3907,-10874,17571,-6573,-5546
C01469=6765,-3833,-10591,17378,-6353,-5532
C01470=6530,-3755,-10304,17183,-6133,-5517
C01471=6297,-3675,-10014,16985,-5914,-5501
C01472=6065,-3591,-9720,16785,-5697,-5485
C01473=5833,-3505,-9423,16584,-5479,-5469
C01474=5603,-3415,-9122,16379,-5263,-5452
C01475=5374,-3322,-8818,16173,-5048,-5435
C01476=5145,-3226,-8511,15965,-4833,-5417
C01477=4918,-3127,-8200,15754,-4620,-5398
C01478=4692,-3025,-7886,15541,-4407,-5380
C01479=4467,-2920,-7568,15326,-4195,-5360
C01480=4242,-2812,-7246,15108,-3984,-5340
C01481=4020,-2701,-6921,14889,-3775,-5320
C01482=3798,-2586,-6592,14667,-3566,-5299
C01483=3577,-2469,-6259,14442,-3358,-5277
C01484=3357,-2349,-5923,14216,-3151,-5255
C01485=3138,-2225,-5582,13987,-2945,-5232
C01486=2921,-2099,-5238,13756,-2741,-5209
C01487=2705,-1969,-4890,13522,-2537,-5185
C01488=2489,-1836,-4539,13286,-2335,-5160
C01489=2275,-1700,-4183,13048,-2133,-5135
C01490=2063,-1561,-3823,12807,-1933,-5109
C01491=1851,-1419,-3460,12564,-1734,-5083
C01492=1640,-1274,-3092,12319,-1536,-5056
C01493=1431,-1126,-2720,12071,-1340,-5028
C01494=1223,-974,-2345,11821,-1145,-4999
C01495=1016,-820,-1965,11568,-950,-4970
C01496=810,-662,-1580,11312,-758,-4940
C01497=606,-501,-1192,11054,-566,-4910
C01498=403,-337,-799,10794,-376,-4878
C01499=201,-170,-402,10531,-187,-4846
//INST
///DATE 2023/07/25 15:50
///ATTR SC,RW
///GROUP1 RB2
NOP
MOVJ C00000 VJ=1.0 PL=0
TIMER T=0.75
MOVJ C00001 VJ=1.0 PL=0
TIMER T=0.75
MOVJ C00002 VJ=1.0 PL=0
TIMER T=0.75
MOVJ C00003 VJ=1.0 PL=0
TIMER T=0.75
MOVJ C00004 VJ=1.0 PL=0
TIMER T=0.75
MOVJ C00005 VJ=1.0 PL=0
TIMER T=0.75
MOVJ C00006 VJ=1.0 PL=0
TIMER T=0.75
MOVJ C00007 VJ=1.0 PL=0
TIMER T=0.75
MOVJ C00008 VJ=1.0 PL=0
TIMER T=0.75
MOVJ C00009 VJ=1.0 PL=0
TIMER T=0.75
MOVJ C00010 VJ=1.0 PL=0
TIMER T=0.75
MOVJ C00011 VJ=1.0 PL=0
TIMER T=0.75
MOVJ C00012 VJ=1.0 PL=0
TIMER T=0.75
MOVJ C00013 VJ=1.0 PL=0
TIMER T=0.75
MOVJ C00014 VJ=1.0 PL=0
TIMER T=0.75
MOVJ C00015 VJ=1.0 PL=0
TIMER T=0.75
MOVJ C00016 VJ=1.0 PL=0
TIMER T=0.75
MOVJ C00017 VJ=1.0 PL=0
TIMER T=0.75
MOVJ C00018 VJ=1.0 PL=0
TIMER T=0.75
MOVJ C00019 VJ=1.0 PL=0
TIMER T=0.75
MOVJ C00020 VJ=1.0 PL=0
TIMER T=0.75
MOVJ C00021 VJ=1.0 PL=0
TIMER T=0.75
MOVJ C00022 VJ=1.0 PL=0
TIMER T=0.75
MOVJ C00023 VJ=1.0 PL=0
TIMER T=0.75
MOVJ C00024 VJ=1.0 PL=0
TIMER T=0.75
MOVJ C00025 VJ=1.0 PL=0
TIMER T=0.75
MOVJ C00026 VJ=1.0 PL=0
TIMER T=0.75
MOVJ C00027 VJ=1.0 PL=0
TIMER T=0.75
MOVJ C00028 VJ=1.0 PL=0
TIMER T=0.75
MOVJ C00029 VJ=1.0 PL=0
TIMER T=0.75
MOVJ C00030 VJ=1.0 PL=0
TIMER T=0.75
MOVJ C00031 VJ=1.0 PL=0
TIMER T=0.75
MOVJ C00032 VJ=1.0 PL=0
TIMER T=0.75
MOVJ C00033 VJ=1.0 PL=0
TIMER T=0.75
MOVJ C00034 VJ=1.0 PL=0
TIMER T=0.75
MOVJ C00035 VJ=1.0 PL=0
TIMER T=0.75
MOVJ C00036 VJ=1.0 PL=0
TIMER T=0.75
MOVJ C00037 VJ=1.0 PL=0
TIMER T=0.75
MOVJ C00038 VJ=1.0 PL=0
TIMER T=0.75
MOVJ C00039 VJ=1.0 PL=0
TIMER T=0.75
MOVJ C00040 VJ=1.0 PL=0
TIMER T=0.75
MOVJ C00041 VJ=1.0 PL=0
TIMER T=0.75
MOVJ C00042 VJ=1.0 PL=0
TIMER T=0.75
MOVJ C00043 VJ=1.0 PL=0
TIMER T=0.75
MOVJ C00044 VJ=1.0 PL=0
TIMER T=0.75
MOVJ C00045 VJ=1.0 PL=0
TIMER T=0.75
MOVJ C00046 VJ=1.0 PL=0
TIMER T=0.75
MOVJ C00047 VJ=1.0 PL=0
TIMER T=0.75
MOVJ C00048 VJ=1.0 PL=0
TIMER T=0.75
MOVJ C00049 VJ=1.0 PL=0
TIMER T=0.75
MOVJ C00050 VJ=1.0 PL=0
TIMER T=0.75
MOVJ C00051 VJ=1.0 PL=0
TIMER T=0.75
MOVJ C00052 VJ=1.0 PL=0
TIMER T=0.75
MOVJ C00053 VJ=1.0 PL=0
TIMER T=0.75
MOVJ C00054 VJ=1.0 PL=0
TIMER T=0.75
MOVJ C00055 VJ=1.0 PL=0
TIMER T=0.75
MOVJ C00056 VJ=1.0 PL=0
TIMER T=0.75
MOVJ C00057 VJ=1.0 PL=0
TIMER T=0.75
MOVJ C00058 VJ=1.0 PL=0
TIMER T=0.75
MOVJ C00059 VJ=1.0 PL=0
TIMER T=0.75
MOVJ C00060 VJ=1.0 PL=0
TIMER T=0.75
MOVJ C00061 VJ=1.0 PL=0
TIMER T=0.75
MOVJ C00062 VJ=1.0 PL=0
TIMER T=0.75
MOVJ C00063 VJ=1.0 PL=0
TIMER T=0.75
MOVJ C00064 VJ=1.0 PL=0
TIMER T=0.75
MOVJ C00065 VJ=1.0 PL=0
TIMER T=0.75
MOVJ C00066 VJ=1.0 PL=0
TIMER T=0.75
MOVJ C00067 VJ=1.0 PL=0
TIMER T=0.75
MOVJ C00068 VJ=1.0 PL=0
TIMER T=0.75
MOVJ C00069 VJ=1.0 PL=0
TIMER T=0.75
MOVJ C00070 VJ=1.0 PL=0
TIMER T=0.75
MOVJ C00071 VJ=1.0 PL=0
TIMER T=0.75
MOVJ C00072 VJ=1.0 PL=0
TIMER T=0.75
MOVJ C00073 VJ=1.0 PL=0
TIMER T=0.75
MOVJ C00074 VJ=1.0 PL=0
TIMER T=0.75
MOVJ C00075 VJ=1.0 PL=0
TIMER T=0.75
MOVJ C00076 VJ=1.0 PL=0
TIMER T=0.75
MOVJ C00077 VJ=1.0 PL=0
TIMER T=0.75
MOVJ C00078 VJ=1.0 PL=0
TIMER T=0.75
MOVJ C00079 VJ=1.0 PL=0
TIMER T=0.75
MOVJ C00080 VJ=1.0 PL=0
TIMER T=0.75
MOVJ C00081 VJ=1.0 PL=0
TIMER T=0.75
MOVJ C00082 VJ=1.0 PL=0
TIMER T=0.75
MOVJ C00083 VJ=1.0 PL=0
TIMER T=0.75
MOVJ C00084 VJ=1.0 PL=0
TIMER T=0.75
MOVJ C00085 VJ=1.0 PL=0
TIMER T=0.75
MOVJ C00086 VJ=1.0 PL=0
TIMER T=0.75
MOVJ C00087 VJ=1.0 PL=0
TIMER T=0.75
MOVJ C00088 VJ=1.0 PL=0
TIMER T=0.75
MOVJ C00089 VJ=1.0 PL=0
TIMER T=0.75
MOVJ C00090 VJ=1.0 PL=0
TIMER T=0.75
MOVJ C00091 VJ=1.0 PL=0
TIMER T=0.75
MOVJ C00092 VJ=1.0 PL=0
TIMER T=0.75
MOVJ C00093 VJ=1.0 PL=0
TIMER T=0.75
MOVJ C00094 VJ=1.0 PL=0
TIMER T=0.75
MOVJ C00095 VJ=1.0 PL=0
TIMER T=0.75
MOVJ C00096 VJ=1.0 PL=0
TIMER T=0.75
MOVJ C00097 VJ=1.0 PL=0
TIMER T=0.75
MOVJ C00098 VJ=1.0 PL=0
TIMER T=0.75
MOVJ C00099 VJ=1.0 PL=0
TIMER T=0.75
MOVJ C00100 VJ=1.0 PL=0
TIMER T=0.75
MOVJ C00101 VJ=1.0 PL=0
TIMER T=0.75
MOVJ C00102 VJ=1.0 PL=0
TIMER T=0.75
MOVJ C00103 VJ=1.0 PL=0
TIMER T=0.75
MOVJ C00104 VJ=1.0 PL=0
TIMER T=0.75
MOVJ C00105 VJ=1.0 PL=0
TIMER T=0.75
MOVJ C00106 VJ=1.0 PL=0
TIMER T=0.75
MOVJ C00107 VJ=1.0 PL=0
TIMER T=0.75
MOVJ C00108 VJ=1.0 PL=0
TIMER T=0.75
MOVJ C00109 VJ=1.0 PL=0
TIMER T=0.75
MOVJ C00110 VJ=1.0 PL=0
TIMER T=0.75
MOVJ C00111 VJ=1.0 PL=0
TIMER T=0.75
MOVJ C00112 VJ=1.0 PL=0
TIMER T=0.75
MOVJ C00113 VJ=1.0 PL=0
TIMER T=0.75
MOVJ C00114 VJ=1.0 PL=0
TIMER T=0.75
MOVJ C00115 VJ=1.0 PL=0
TIMER T=0.75
MOVJ C00116 VJ=1.0 PL=0
TIMER T=0.75
MOVJ C00117 VJ=1.0 PL=0
TIMER T=0.75
MOVJ C00118 VJ=1.0 PL=0
TIMER T=0.75
MOVJ C00119 VJ=1.0 PL=0
TIMER T=0.75
MOVJ C00120 VJ=1.0 PL=0
TIMER T=0.75
MOVJ C00121 VJ=1.0 PL=0
TIMER T=0.75
MOVJ C00122 VJ=1.0 PL=0
TIMER T=0.75
MOVJ C00123 VJ=1.0 PL=0
TIMER T=0.75
MOVJ C00124 VJ=1.0 PL=0
TIMER T=0.75
MOVJ C00125 VJ=1.0 PL=0
TIMER T=0.75
MOVJ C00126 VJ=1.0 PL=0
TIMER T=0.75
MOVJ C00127 VJ=1.0 PL=0
TIMER T=0.75
MOVJ C00128 VJ=1.0 PL=0
TIMER T=0.75
MOVJ C00129 VJ=1.0 PL=0
TIMER T=0.75
MOVJ C00130 VJ=1.0 PL=0
TIMER T=0.75
MOVJ C00131 VJ=1.0 PL=0
TIMER T=0.75
MOVJ C00132 VJ=1.0 PL=0
TIMER T=0.75
MOVJ C00133 VJ=1.0 PL=0
TIMER T=0.75
MOVJ C00134 VJ=1.0 PL=0
TIMER T=0.75
MOVJ C00135 VJ=1.0 PL=0
TIMER T=0.75
MOVJ C00136 VJ=1.0 PL=0
TIMER T=0.75
MOVJ C00137 VJ=1.0 PL=0
TIMER T=0.75
MOVJ C00138 VJ=1.0 PL=0
TIMER T=0.75
MOVJ C00139 VJ=1.0 PL=0
TIMER T=0.75
MOVJ C00140 VJ=1.0 PL=0
TIMER T=0.75
MOVJ C00141 VJ=1.0 PL=0
TIMER T=0.75
MOVJ C00142 VJ=1.0 PL=0
TIMER T=0.75
MOVJ C00143 VJ=1.0 PL=0
TIMER T=0.75
MOVJ C00144 VJ=1.0 PL=0
TIMER T=0.75
MOVJ C00145 VJ=1.0 PL=0
TIMER T=0.75
MOVJ C00146 VJ=1.0 PL=0
TIMER T=0.75
MOVJ C00147 VJ=1.0 PL=0
TIMER T=0.75
MOVJ C00148 VJ=1.0 PL=0
TIMER T=0.75
MOVJ C00149 VJ=1.0 PL=0
TIMER T=0.75
MOVJ C00150 VJ=1.0 PL=0
TIMER T=0.75
MOVJ C00151 VJ=1.0 PL=0
TIMER T=0.75
MOVJ C00152 VJ=1.0 PL=0
TIMER T=0.75
MOVJ C00153 VJ=1.0 PL=0
TIMER T=0.75
MOVJ C00154 VJ=1.0 PL=0
TIMER T=0.75
MOVJ C00155 VJ=1.0 PL=0
TIMER T=0.75
MOVJ C00156 VJ=1.0 PL=0
TIMER T=0.75
MOVJ C00157 VJ=1.0 PL=0
TIMER T=0.75
MOVJ C00158 VJ=1.0 PL=0
TIMER T=0.75
MOVJ C00159 VJ=1.0 PL=0
TIMER T=0.75
MOVJ C00160 VJ=1.0 PL=0
TIMER T=0.75
MOVJ C00161 VJ=1.0 PL=0
TIMER T=0.75
MOVJ C00162 VJ=1.0 PL=0
TIMER T=0.75
MOVJ C00163 VJ=1.0 PL=0
TIMER T=0.75
MOVJ C00164 VJ=1.0 PL=0
TIMER T=0.75
MOVJ C00165 VJ=1.0 PL=0
TIMER T=0.75
MOVJ C00166 VJ=1.0 PL=0
TIMER T=0.75
MOVJ C00167 VJ=1.0 PL=0
TIMER T=0.75
MOVJ C00168 VJ=1.0 PL=0
TIMER T=0.75
MOVJ C00169 VJ=1.0 PL=0
TIMER T=0.75
MOVJ C00170 VJ=1.0 PL=0
TIMER T=0.75
MOVJ C00171 VJ=1.0 PL=0
TIMER T=0.75
MOVJ C00172 VJ=1.0 PL=0
TIMER T=0.75
MOVJ C00173 VJ=1.0 PL=0
TIMER T=0.75
MOVJ C00174 VJ=1.0 PL=0
TIMER T=0.75
MOVJ C00175 VJ=1.0 PL=0
TIMER T=0.75
MOVJ C00176 VJ=1.0 PL=0
TIMER T=0.75
MOVJ C00177 VJ=1.0 PL=0
TIMER T=0.75
MOVJ C00178 VJ=1.0 PL=0
TIMER T=0.75
MOVJ C00179 VJ=1.0 PL=0
TIMER T=0.75
MOVJ C00180 VJ=1.0 PL=0
TIMER T=0.75
MOVJ C00181 VJ=1.0 PL=0
TIMER T=0.75
MOVJ C00182 VJ=1.0 PL=0
TIMER T=0.75
MOVJ C00183 VJ=1.0 PL=0
TIMER T=0.75
MOVJ C00184 VJ=1.0 PL=0
TIMER T=0.75
MOVJ C00185 VJ=1.0 PL=0
TIMER T=0.75
MOVJ C00186 VJ=1.0 PL=0
TIMER T=0.75
MOVJ C00187 VJ=1.0 PL=0
TIMER T=0.75
MOVJ C00188 VJ=1.0 PL=0
TIMER T=0.75
MOVJ C00189 VJ=1.0 PL=0
TIMER T=0.75
MOVJ C00190 VJ=1.0 PL=0
TIMER T=0.75
MOVJ C00191 VJ=1.0 PL=0
TIMER T=0.75
MOVJ C00192 VJ=1.0 PL=0
TIMER T=0.75
MOVJ C00193 VJ=1.0 PL=0
TIMER T=0.75
MOVJ C00194 VJ=1.0 PL=0
TIMER T=0.75
MOVJ C00195 VJ=1.0 PL=0
TIMER T=0.75
MOVJ C00196 VJ=1.0 PL=0
TIMER T=0.75
MOVJ C00197 VJ=1.0 PL=0
TIMER T=0.75
MOVJ C00198 VJ=1.0 PL=0
TIMER T=0.75
MOVJ C00199 VJ=1.0 PL=0
TIMER T=0.75
MOVJ C00200 VJ=1.0 PL=0
TIMER T=0.75
MOVJ C00201 VJ=1.0 PL=0
TIMER T=0.75
MOVJ C00202 VJ=1.0 PL=0
TIMER T=0.75
MOVJ C00203 VJ=1.0 PL=0
TIMER T=0.75
MOVJ C00204 VJ=1.0 PL=0
TIMER T=0.75
MOVJ C00205 VJ=1.0 PL=0
TIMER T=0.75
MOVJ C00206 VJ=1.0 PL=0
TIMER T=0.75
MOVJ C00207 VJ=1.0 PL=0
TIMER T=0.75
MOVJ C00208 VJ=1.0 PL=0
TIMER T=0.75
MOVJ C00209 VJ=1.0 PL=0
TIMER T=0.75
MOVJ C00210 VJ=1.0 PL=0
TIMER T=0.75
MOVJ C00211 VJ=1.0 PL=0
TIMER T=0.75
MOVJ C00212 VJ=1.0 PL=0
TIMER T=0.75
MOVJ C00213 VJ=1.0 PL=0
TIMER T=0.75
MOVJ C00214 VJ=1.0 PL=0
TIMER T=0.75
MOVJ C00215 VJ=1.0 PL=0
TIMER T=0.75
MOVJ C00216 VJ=1.0 PL=0
TIMER T=0.75
MOVJ C00217 VJ=1.0 PL=0
TIMER T=0.75
MOVJ C00218 VJ=1.0 PL=0
TIMER T=0.75
MOVJ C00219 VJ=1.0 PL=0
TIMER T=0.75
MOVJ C00220 VJ=1.0 PL=0
TIMER T=0.75
MOVJ C00221 VJ=1.0 PL=0
TIMER T=0.75
MOVJ C00222 VJ=1.0 PL=0
TIMER T=0.75
MOVJ C00223 VJ=1.0 PL=0
TIMER T=0.75
MOVJ C00224 VJ=1.0 PL=0
TIMER T=0.75
MOVJ C00225 VJ=1.0 PL=0
TIMER T=0.75
MOVJ C00226 VJ=1.0 PL=0
TIMER T=0.75
MOVJ C00227 VJ=1.0 PL=0
TIMER T=0.75
MOVJ C00228 VJ=1.0 PL=0
TIMER T=0.75
MOVJ C00229 VJ=1.0 PL=0
TIMER T=0.75
MOVJ C00230 VJ=1.0 PL=0
TIMER T=0.75
MOVJ C00231 VJ=1.0 PL=0
TIMER T=0.75
MOVJ C00232 VJ=1.0 PL=0
TIMER T=0.75
MOVJ C00233 VJ=1.0 PL=0
TIMER T=0.75
MOVJ C00234 VJ=1.0 PL=0
TIMER T=0.75
MOVJ C00235 VJ=1.0 PL=0
TIMER T=0.75
MOVJ C00236 VJ=1.0 PL=0
TIMER T=0.75
MOVJ C00237 VJ=1.0 PL=0
TIMER T=0.75
MOVJ C00238 VJ=1.0 PL=0
TIMER T=0.75
MOVJ C00239 VJ=1.0 PL=0
TIMER T=0.75
MOVJ C00240 VJ=1.0 PL=0
TIMER T=0.75
MOVJ C00241 VJ=1.0 PL=0
TIMER T=0.75
MOVJ C00242 VJ=1.0 PL=0
TIMER T=0.75
MOVJ C00243 VJ=1.0 PL=0
TIMER T=0.75
MOVJ C00244 VJ=1.0 PL=0
TIMER T=0.75
MOVJ C00245 VJ=1.0 PL=0
TIMER T=0.75
MOVJ C00246 VJ=1.0 PL=0
TIMER T=0.75
MOVJ C00247 VJ=1.0 PL=0
TIMER T=0.75
MOVJ C00248 VJ=1.0 PL=0
TIMER T=0.75
MOVJ C00249 VJ=1.0 PL=0
TIMER T=0.75
MOVJ C00250 VJ=1.0 PL=0
TIMER T=0.75
MOVJ C00251 VJ=1.0 PL=0
TIMER T=0.75
MOVJ C00252 VJ=1.0 PL=0
TIMER T=0.75
MOVJ C00253 VJ=1.0 PL=0
TIMER T=0.75
MOVJ C00254 VJ=1.0 PL=0
TIMER T=0.75
MOVJ C00255 VJ=1.0 PL=0
TIMER T=0.75
MOVJ C00256 VJ=1.0 PL=0
TIMER T=0.75
MOVJ C00257 VJ=1.0 PL=0
TIMER T=0.75
MOVJ C00258 VJ=1.0 PL=0
TIMER T=0.75
MOVJ C00259 VJ=1.0 PL=0
TIMER T=0.75
MOVJ C00260 VJ=1.0 PL=0
TIMER T=0.75
MOVJ C00261 VJ=1.0 PL=0
TIMER T=0.75
MOVJ C00262 VJ=1.0 PL=0
TIMER T=0.75
MOVJ C00263 VJ=1.0 PL=0
TIMER T=0.75
MOVJ C00264 VJ=1.0 PL=0
TIMER T=0.75
MOVJ C00265 VJ=1.0 PL=0
TIMER T=0.75
MOVJ C00266 VJ=1.0 PL=0
TIMER T=0.75
MOVJ C00267 VJ=1.0 PL=0
TIMER T=0.75
MOVJ C00268 VJ=1.0 PL=0
TIMER T=0.75
MOVJ C00269 VJ=1.0 PL=0
TIMER T=0.75
MOVJ C00270 VJ=1.0 PL=0
TIMER T=0.75
MOVJ C00271 VJ=1.0 PL=0
TIMER T=0.75
MOVJ C00272 VJ=1.0 PL=0
TIMER T=0.75
MOVJ C00273 VJ=1.0 PL=0
TIMER T=0.75
MOVJ C00274 VJ=1.0 PL=0
TIMER T=0.75
MOVJ C00275 VJ=1.0 PL=0
TIMER T=0.75
MOVJ C00276 VJ=1.0 PL=0
TIMER T=0.75
MOVJ C00277 VJ=1.0 PL=0
TIMER T=0.75
MOVJ C00278 VJ=1.0 PL=0
TIMER T=0.75
MOVJ C00279 VJ=1.0 PL=0
TIMER T=0.75
MOVJ C00280 VJ=1.0 PL=0
TIMER T=0.75
MOVJ C00281 VJ=1.0 PL=0
TIMER T=0.75
MOVJ C00282 VJ=1.0 PL=0
TIMER T=0.75
MOVJ C00283 VJ=1.0 PL=0
TIMER T=0.75
MOVJ C00284 VJ=1.0 PL=0
TIMER T=0.75
MOVJ C00285 VJ=1.0 PL=0
TIMER T=0.75
MOVJ C00286 VJ=1.0 PL=0
TIMER T=0.75
MOVJ C00287 VJ=1.0 PL=0
TIMER T=0.75
MOVJ C00288 VJ=1.0 PL=0
TIMER T=0.75
MOVJ C00289 VJ=1.0 PL=0
TIMER T=0.75
MOVJ C00290 VJ=1.0 PL=0
TIMER T=0.75
MOVJ C00291 VJ=1.0 PL=0
TIMER T=0.75
MOVJ C00292 VJ=1.0 PL=0
TIMER T=0.75
MOVJ C00293 VJ=1.0 PL=0
TIMER T=0.75
MOVJ C00294 VJ=1.0 PL=0
TIMER T=0.75
MOVJ C00295 VJ=1.0 PL=0
TIMER T=0.75
MOVJ C00296 VJ=1.0 PL=0
TIMER T=0.75
MOVJ C00297 VJ=1.0 PL=0
TIMER T=0.75
MOVJ C00298 VJ=1.0 PL=0
TIMER T=0.75
MOVJ C00299 VJ=1.0 PL=0
TIMER T=0.75
MOVJ C00300 VJ=1.0 PL=0
TIMER T=0.75
MOVJ C00301 VJ=1.0 PL=0
TIMER T=0.75
MOVJ C00302 VJ=1.0 PL=0
TIMER T=0.75
MOVJ C00303 VJ=1.0 PL=0
TIMER T=0.75
MOVJ C00304 VJ=1.0 PL=0
TIMER T=0.75
MOVJ C00305 VJ=1.0 PL=0
TIMER T=0.75
MOVJ C00306 VJ=1.0 PL=0
TIMER T=0.75
MOVJ C00307 VJ=1.0 PL=0
TIMER T=0.75
MOVJ C00308 VJ=1.0 PL=0
TIMER T=0.75
MOVJ C00309 VJ=1.0 PL=0
TIMER T=0.75
MOVJ C00310 VJ=1.0 PL=0
TIMER T=0.75
MOVJ C00311 VJ=1.0 PL=0
TIMER T=0.75
MOVJ C00312 VJ=1.0 PL=0
TIMER T=0.75
MOVJ C00313 VJ=1.0 PL=0
TIMER T=0.75
MOVJ C00314 VJ=1.0 PL=0
TIMER T=0.75
MOVJ C00315 VJ=1.0 PL=0
TIMER T=0.75
MOVJ C00316 VJ=1.0 PL=0
TIMER T=0.75
MOVJ C00317 VJ=1.0 PL=0
TIMER T=0.75
MOVJ C00318 VJ=1.0 PL=0
TIMER T=0.75
MOVJ C00319 VJ=1.0 PL=0
TIMER T=0.75
MOVJ C00320 VJ=1.0 PL=0
TIMER T=0.75
MOVJ C00321 VJ=1.0 PL=0
TIMER T=0.75
MOVJ C00322 VJ=1.0 PL=0
TIMER T=0.75
MOVJ C00323 VJ=1.0 PL=0
TIMER T=0.75
MOVJ C00324 VJ=1.0 PL=0
TIMER T=0.75
MOVJ C00325 VJ=1.0 PL=0
TIMER T=0.75
MOVJ C00326 VJ=1.0 PL=0
TIMER T=0.75
MOVJ C00327 VJ=1.0 PL=0
TIMER T=0.75
MOVJ C00328 VJ=1.0 PL=0
TIMER T=0.75
MOVJ C00329 VJ=1.0 PL=0
TIMER T=0.75
MOVJ C00330 VJ=1.0 PL=0
TIMER T=0.75
MOVJ C00331 VJ=1.0 PL=0
TIMER T=0.75
MOVJ C00332 VJ=1.0 PL=0
TIMER T=0.75
MOVJ C00333 VJ=1.0 PL=0
TIMER T=0.75
MOVJ C00334 VJ=1.0 PL=0
TIMER T=0.75
MOVJ C00335 VJ=1.0 PL=0
TIMER T=0.75
MOVJ C00336 VJ=1.0 PL=0
TIMER T=0.75
MOVJ C00337 VJ=1.0 PL=0
TIMER T=0.75
MOVJ C00338 VJ=1.0 PL=0
TIMER T=0.75
MOVJ C00339 VJ=1.0 PL=0
TIMER T=0.75
MOVJ C00340 VJ=1.0 PL=0
TIMER T=0.75
MOVJ C00341 VJ=1.0 PL=0
TIMER T=0.75
MOVJ C00342 VJ=1.0 PL=0
TIMER T=0.75
MOVJ C00343 VJ=1.0 PL=0
TIMER T=0.75
MOVJ C00344 VJ=1.0 PL=0
TIMER T=0.75
MOVJ C00345 VJ=1.0 PL=0
TIMER T=0.75
MOVJ C00346 VJ=1.0 PL=0
TIMER T=0.75
MOVJ C00347 VJ=1.0 PL=0
TIMER T=0.75
MOVJ C00348 VJ=1.0 PL=0
TIMER T=0.75
MOVJ C00349 VJ=1.0 PL=0
TIMER T=0.75
MOVJ C00350 VJ=1.0 PL=0
TIMER T=0.75
MOVJ C00351 VJ=1.0 PL=0
TIMER T=0.75
MOVJ C00352 VJ=1.0 PL=0
TIMER T=0.75
MOVJ C00353 VJ=1.0 PL=0
TIMER T=0.75
MOVJ C00354 VJ=1.0 PL=0
TIMER T=0.75
MOVJ C00355 VJ=1.0 PL=0
TIMER T=0.75
MOVJ C00356 VJ=1.0 PL=0
TIMER T=0.75
MOVJ C00357 VJ=1.0 PL=0
TIMER T=0.75
MOVJ C00358 VJ=1.0 PL=0
TIMER T=0.75
MOVJ C00359 VJ=1.0 PL=0
TIMER T=0.75
MOVJ C00360 VJ=1.0 PL=0
TIMER T=0.75
MOVJ C00361 VJ=1.0 PL=0
TIMER T=0.75
MOVJ C00362 VJ=1.0 PL=0
TIMER T=0.75
MOVJ C00363 VJ=1.0 PL=0
TIMER T=0.75
MOVJ C00364 VJ=1.0 PL=0
TIMER T=0.75
MOVJ C00365 VJ=1.0 PL=0
TIMER T=0.75
MOVJ C00366 VJ=1.0 PL=0
TIMER T=0.75
MOVJ C00367 VJ=1.0 PL=0
TIMER T=0.75
MOVJ C00368 VJ=1.0 PL=0
TIMER T=0.75
MOVJ C00369 VJ=1.0 PL=0
TIMER T=0.75
MOVJ C00370 VJ=1.0 PL=0
TIMER T=0.75
MOVJ C00371 VJ=1.0 PL=0
TIMER T=0.75
MOVJ C00372 VJ=1.0 PL=0
TIMER T=0.75
MOVJ C00373 VJ=1.0 PL=0
TIMER T=0.75
MOVJ C00374 VJ=1.0 PL=0
TIMER T=0.75
MOVJ C00375 VJ=1.0 PL=0
TIMER T=0.75
MOVJ C00376 VJ=1.0 PL=0
TIMER T=0.75
MOVJ C00377 VJ=1.0 PL=0
TIMER T=0.75
MOVJ C00378 VJ=1.0 PL=0
TIMER T=0.75
MOVJ C00379 VJ=1.0 PL=0
TIMER T=0.75
MOVJ C00380 VJ=1.0 PL=0
TIMER T=0.75
MOVJ C00381 VJ=1.0 PL=0
TIMER T=0.75
MOVJ C00382 VJ=1.0 PL=0
TIMER T=0.75
MOVJ C00383 VJ=1.0 PL=0
TIMER T=0.75
MOVJ C00384 VJ=1.0 PL=0
TIMER T=0.75
MOVJ C00385 VJ=1.0 PL=0
TIMER T=0.75
MOVJ C00386 VJ=1.0 PL=0
TIMER T=0.75
MOVJ C00387 VJ=1.0 PL=0
TIMER T=0.75
MOVJ C00388 VJ=1.0 PL=0
TIMER T=0.75
MOVJ C00389 VJ=1.0 PL=0
TIMER T=0.75
MOVJ C00390 VJ=1.0 PL=0
TIMER T=0.75
MOVJ C00391 VJ=1.0 PL=0
TIMER T=0.75
MOVJ C00392 VJ=1.0 PL=0
TIMER T=0.75
MOVJ C00393 VJ=1.0 PL=0
TIMER T=0.75
MOVJ C00394 VJ=1.0 PL=0
TIMER T=0.75
MOVJ C00395 VJ=1.0 PL=0
TIMER T=0.75
MOVJ C00396 VJ=1.0 PL=0
TIMER T=0.75
MOVJ C00397 VJ=1.0 PL=0
TIMER T=0.75
MOVJ C00398 VJ=1.0 PL=0
TIMER T=0.75
MOVJ C00399 VJ=1.0 PL=0
TIMER T=0.75
MOVJ C00400 VJ=1.0 PL=0
TIMER T=0.75
MOVJ C00401 VJ=1.0 PL=0
TIMER T=0.75
MOVJ C00402 VJ=1.0 PL=0
TIMER T=0.75
MOVJ C00403 VJ=1.0 PL=0
TIMER T=0.75
MOVJ C00404 VJ=1.0 PL=0
TIMER T=0.75
MOVJ C00405 VJ=1.0 PL=0
TIMER T=0.75
MOVJ C00406 VJ=1.0 PL=0
TIMER T=0.75
MOVJ C00407 VJ=1.0 PL=0
TIMER T=0.75
MOVJ C00408 VJ=1.0 PL=0
TIMER T=0.75
MOVJ C00409 VJ=1.0 PL=0
TIMER T=0.75
MOVJ C00410 VJ=1.0 PL=0
TIMER T=0.75
MOVJ C00411 VJ=1.0 PL=0
TIMER T=0.75
MOVJ C00412 VJ=1.0 PL=0
TIMER T=0.75
MOVJ C00413 VJ=1.0 PL=0
TIMER T=0.75
MOVJ C00414 VJ=1.0 PL=0
TIMER T=0.75
MOVJ C00415 VJ=1.0 PL=0
TIMER T=0.75
MOVJ C00416 VJ=1.0 PL=0
TIMER T=0.75
MOVJ C00417 VJ=1.0 PL=0
TIMER T=0.75
MOVJ C00418 VJ=1.0 PL=0
TIMER T=0.75
MOVJ C00419 VJ=1.0 PL=0
TIMER T=0.75
MOVJ C00420 VJ=1.0 PL=0
TIMER T=0.75
MOVJ C00421 VJ=1.0 PL=0
TIMER T=0.75
MOVJ C00422 VJ=1.0 PL=0
TIMER T=0.75
MOVJ C00423 VJ=1.0 PL=0
TIMER T=0.75
MOVJ C00424 VJ=1.0 PL=0
TIMER T=0.75
MOVJ C00425 VJ=1.0 PL=0
TIMER T=0.75
MOVJ C00426 VJ=1.0 PL=0
TIMER T=0.75
MOVJ C00427 VJ=1.0 PL=0
TIMER T=0.75
MOVJ C00428 VJ=1.0 PL=0
TIMER T=0.75
MOVJ C00429 VJ=1.0 PL=0
TIMER T=0.75
MOVJ C00430 VJ=1.0 PL=0
TIMER T=0.75
MOVJ C00431 VJ=1.0 PL=0
TIMER T=0.75
MOVJ C00432 VJ=1.0 PL=0
TIMER T=0.75
MOVJ C00433 VJ=1.0 PL=0
TIMER T=0.75
MOVJ C00434 VJ=1.0 PL=0
TIMER T=0.75
MOVJ C00435 VJ=1.0 PL=0
TIMER T=0.75
MOVJ C00436 VJ=1.0 PL=0
TIMER T=0.75
MOVJ C00437 VJ=1.0 PL=0
TIMER T=0.75
MOVJ C00438 VJ=1.0 PL=0
TIMER T=0.75
MOVJ C00439 VJ=1.0 PL=0
TIMER T=0.75
MOVJ C00440 VJ=1.0 PL=0
TIMER T=0.75
MOVJ C00441 VJ=1.0 PL=0
TIMER T=0.75
MOVJ C00442 VJ=1.0 PL=0
TIMER T=0.75
MOVJ C00443 VJ=1.0 PL=0
TIMER T=0.75
MOVJ C00444 VJ=1.0 PL=0
TIMER T=0.75
MOVJ C00445 VJ=1.0 PL=0
TIMER T=0.75
MOVJ C00446 VJ=1.0 PL=0
TIMER T=0.75
MOVJ C00447 VJ=1.0 PL=0
TIMER T=0.75
MOVJ C00448 VJ=1.0 PL=0
TIMER T=0.75
MOVJ C00449 VJ=1.0 PL=0
TIMER T=0.75
MOVJ C00450 VJ=1.0 PL=0
TIMER T=0.75
MOVJ C00451 VJ=1.0 PL=0
TIMER T=0.75
MOVJ C00452 VJ=1.0 PL=0
TIMER T=0.75
MOVJ C00453 VJ=1.0 PL=0
TIMER T=0.75
MOVJ C00454 VJ=1.0 PL=0
TIMER T=0.75
MOVJ C00455 VJ=1.0 PL=0
TIMER T=0.75
MOVJ C00456 VJ=1.0 PL=0
TIMER T=0.75
MOVJ C00457 VJ=1.0 PL=0
TIMER T=0.75
MOVJ C00458 VJ=1.0 PL=0
TIMER T=0.75
MOVJ C00459 VJ=1.0 PL=0
TIMER T=0.75
MOVJ C00460 VJ=1.0 PL=0
TIMER T=0.75
MOVJ C00461 VJ=1.0 PL=0
TIMER T=0.75
MOVJ C00462 VJ=1.0 PL=0
TIMER T=0.75
MOVJ C00463 VJ=1.0 PL=0
TIMER T=0.75
MOVJ C00464 VJ=1.0 PL=0
TIMER T=0.75
MOVJ C00465 VJ=1.0 PL=0
TIMER T=0.75
MOVJ C00466 VJ=1.0 PL=0
TIMER T=0.75
MOVJ C00467 VJ=1.0 PL=0
TIMER T=0.75
MOVJ C00468 VJ=1.0 PL=0
TIMER T=0.75
MOVJ C00469 VJ=1.0 PL=0
TIMER T=0.75
MOVJ C00470 VJ=1.0 PL=0
TIMER T=0.75
MOVJ C00471 VJ=1.0 PL=0
TIMER T=0.75
MOVJ C00472 VJ=1.0 PL=0
TIMER T=0.75
MOVJ C00473 VJ=1.0 PL=0
TIMER T=0.75
MOVJ C00474 VJ=1.0 PL=0
TIMER T=0.75
MOVJ C00475 VJ=1.0 PL=0
TIMER T=0.75
MOVJ C00476 VJ=1.0 PL=0
TIMER T=0.75
MOVJ C00477 VJ=1.0 PL=0
TIMER T=0.75
MOVJ C00478 VJ=1.0 PL=0
TIMER T=0.75
MOVJ C00479 VJ=1.0 PL=0
TIMER T=0.75
MOVJ C00480 VJ=1.0 PL=0
TIMER T=0.75
MOVJ C00481 VJ=1.0 PL=0
TIMER T=0.75
MOVJ C00482 VJ=1.0 PL=0
TIMER T=0.75
MOVJ C00483 VJ=1.0 PL=0
TIMER T=0.75
MOVJ C00484 VJ=1.0 PL=0
TIMER T=0.75
MOVJ C00485 VJ=1.0 PL=0
TIMER T=0.75
MOVJ C00486 VJ=1.0 PL=0
TIMER T=0.75
MOVJ C00487 VJ=1.0 PL=0
TIMER T=0.75
MOVJ C00488 VJ=1.0 PL=0
TIMER T=0.75
MOVJ C00489 VJ=1.0 PL=0
TIMER T=0.75
MOVJ C00490 VJ=1.0 PL=0
TIMER T=0.75
MOVJ C00491 VJ=1.0 PL=0
TIMER T=0.75
MOVJ C00492 VJ=1.0 PL=0
TIMER T=0.75
MOVJ C00493 VJ=1.0 PL=0
TIMER T=0.75
MOVJ C00494 VJ=1.0 PL=0
TIMER T=0.75
MOVJ C00495 VJ=1.0 PL=0
TIMER T=0.75
MOVJ C00496 VJ=1.0 PL=0
TIMER T=0.75
MOVJ C00497 VJ=1.0 PL=0
TIMER T=0.75
MOVJ C00498 VJ=1.0 PL=0
TIMER T=0.75
MOVJ C00499 VJ=1.0 PL=0
TIMER T=0.75
MOVJ C00500 VJ=1.0 PL=0
TIMER T=0.75
MOVJ C00501 VJ=1.0 PL=0
TIMER T=0.75
MOVJ C00502 VJ=1.0 PL=0
TIMER T=0.75
MOVJ C00503 VJ=1.0 PL=0
TIMER T=0.75
MOVJ C00504 VJ=1.0 PL=0
TIMER T=0.75
MOVJ C00505 VJ=1.0 PL=0
TIMER T=0.75
MOVJ C00506 VJ=1.0 PL=0
TIMER T=0.75
MOVJ C00507 VJ=1.0 PL=0
TIMER T=0.75
MOVJ C00508 VJ=1.0 PL=0
TIMER T=0.75
MOVJ C00509 VJ=1.0 PL=0
TIMER T=0.75
MOVJ C00510 VJ=1.0 PL=0
TIMER T=0.75
MOVJ C00511 VJ=1.0 PL=0
TIMER T=0.75
MOVJ C00512 VJ=1.0 PL=0
TIMER T=0.75
MOVJ C00513 VJ=1.0 PL=0
TIMER T=0.75
MOVJ C00514 VJ=1.0 PL=0
TIMER T=0.75
MOVJ C00515 VJ=1.0 PL=0
TIMER T=0.75
MOVJ C00516 VJ=1.0 PL=0
TIMER T=0.75
MOVJ C00517 VJ=1.0 PL=0
TIMER T=0.75
MOVJ C00518 VJ=1.0 PL=0
TIMER T=0.75
MOVJ C00519 VJ=1.0 PL=0
TIMER T=0.75
MOVJ C00520 VJ=1.0 PL=0
TIMER T=0.75
MOVJ C00521 VJ=1.0 PL=0
TIMER T=0.75
MOVJ C00522 VJ=1.0 PL=0
TIMER T=0.75
MOVJ C00523 VJ=1.0 PL=0
TIMER T=0.75
MOVJ C00524 VJ=1.0 PL=0
TIMER T=0.75
MOVJ C00525 VJ=1.0 PL=0
TIMER T=0.75
MOVJ C00526 VJ=1.0 PL=0
TIMER T=0.75
MOVJ C00527 VJ=1.0 PL=0
TIMER T=0.75
MOVJ C00528 VJ=1.0 PL=0
TIMER T=0.75
MOVJ C00529 VJ=1.0 PL=0
TIMER T=0.75
MOVJ C00530 VJ=1.0 PL=0
TIMER T=0.75
MOVJ C00531 VJ=1.0 PL=0
TIMER T=0.75
MOVJ C00532 VJ=1.0 PL=0
TIMER T=0.75
MOVJ C00533 VJ=1.0 PL=0
TIMER T=0.75
MOVJ C00534 VJ=1.0 PL=0
TIMER T=0.75
MOVJ C00535 VJ=1.0 PL=0
TIMER T=0.75
MOVJ C00536 VJ=1.0 PL=0
TIMER T=0.75
MOVJ C00537 VJ=1.0 PL=0
TIMER T=0.75
MOVJ C00538 VJ=1.0 PL=0
TIMER T=0.75
MOVJ C00539 VJ=1.0 PL=0
TIMER T=0.75
MOVJ C00540 VJ=1.0 PL=0
TIMER T=0.75
MOVJ C00541 VJ=1.0 PL=0
TIMER T=0.75
MOVJ C00542 VJ=1.0 PL=0
TIMER T=0.75
MOVJ C00543 VJ=1.0 PL=0
TIMER T=0.75
MOVJ C00544 VJ=1.0 PL=0
TIMER T=0.75
MOVJ C00545 VJ=1.0 PL=0
TIMER T=0.75
MOVJ C00546 VJ=1.0 PL=0
TIMER T=0.75
MOVJ C00547 VJ=1.0 PL=0
TIMER T=0.75
MOVJ C00548 VJ=1.0 PL=0
TIMER T=0.75
MOVJ C00549 VJ=1.0 PL=0
TIMER T=0.75
MOVJ C00550 VJ=1.0 PL=0
TIMER T=0.75
MOVJ C00551 VJ=1.0 PL=0
TIMER T=0.75
MOVJ C00552 VJ=1.0 PL=0
TIMER T=0.75
MOVJ C00553 VJ=1.0 PL=0
TIMER T=0.75
MOVJ C00554 VJ=1.0 PL=0
TIMER T=0.75
MOVJ C00555 VJ=1.0 PL=0
TIMER T=0.75
MOVJ C00556 VJ=1.0 PL=0
TIMER T=0.75
MOVJ C00557 VJ=1.0 PL=0
TIMER T=0.75
MOVJ C00558 VJ=1.0 PL=0
TIMER T=0.75
MOVJ C00559 VJ=1.0 PL=0
TIMER T=0.75
MOVJ C00560 VJ=1.0 PL=0
TIMER T=0.75
MOVJ C00561 VJ=1.0 PL=0
TIMER T=0.75
MOVJ C00562 VJ=1.0 PL=0
TIMER T=0.75
MOVJ C00563 VJ=1.0 PL=0
TIMER T=0.75
MOVJ C00564 VJ=1.0 PL=0
TIMER T=0.75
MOVJ C00565 VJ=1.0 PL=0
TIMER T=0.75
MOVJ C00566 VJ=1.0 PL=0
TIMER T=0.75
MOVJ C00567 VJ=1.0 PL=0
TIMER T=0.75
MOVJ C00568 VJ=1.0 PL=0
TIMER T=0.75
MOVJ C00569 VJ=1.0 PL=0
TIMER T=0.75
MOVJ C00570 VJ=1.0 PL=0
TIMER T=0.75
MOVJ C00571 VJ=1.0 PL=0
TIMER T=0.75
MOVJ C00572 VJ=1.0 PL=0
TIMER T=0.75
MOVJ C00573 VJ=1.0 PL=0
TIMER T=0.75
MOVJ C00574 VJ=1.0 PL=0
TIMER T=0.75
MOVJ C00575 VJ=1.0 PL=0
TIMER T=0.75
MOVJ C00576 VJ=1.0 PL=0
TIMER T=0.75
MOVJ C00577 VJ=1.0 PL=0
TIMER T=0.75
MOVJ C00578 VJ=1.0 PL=0
TIMER T=0.75
MOVJ C00579 VJ=1.0 PL=0
TIMER T=0.75
MOVJ C00580 VJ=1.0 PL=0
TIMER T=0.75
MOVJ C00581 VJ=1.0 PL=0
TIMER T=0.75
MOVJ C00582 VJ=1.0 PL=0
TIMER T=0.75
MOVJ C00583 VJ=1.0 PL=0
TIMER T=0.75
MOVJ C00584 VJ=1.0 PL=0
TIMER T=0.75
MOVJ C00585 VJ=1.0 PL=0
TIMER T=0.75
MOVJ C00586 VJ=1.0 PL=0
TIMER T=0.75
MOVJ C00587 VJ=1.0 PL=0
TIMER T=0.75
MOVJ C00588 VJ=1.0 PL=0
TIMER T=0.75
MOVJ C00589 VJ=1.0 PL=0
TIMER T=0.75
MOVJ C00590 VJ=1.0 PL=0
TIMER T=0.75
MOVJ C00591 VJ=1.0 PL=0
TIMER T=0.75
MOVJ C00592 VJ=1.0 PL=0
TIMER T=0.75
MOVJ C00593 VJ=1.0 PL=0
TIMER T=0.75
MOVJ C00594 VJ=1.0 PL=0
TIMER T=0.75
MOVJ C00595 VJ=1.0 PL=0
TIMER T=0.75
MOVJ C00596 VJ=1.0 PL=0
TIMER T=0.75
MOVJ C00597 VJ=1.0 PL=0
TIMER T=0.75
MOVJ C00598 VJ=1.0 PL=0
TIMER T=0.75
MOVJ C00599 VJ=1.0 PL=0
TIMER T=0.75
MOVJ C00600 VJ=1.0 PL=0
TIMER T=0.75
MOVJ C00601 VJ=1.0 PL=0
TIMER T=0.75
MOVJ C00602 VJ=1.0 PL=0
TIMER T=0.75
MOVJ C00603 VJ=1.0 PL=0
TIMER T=0.75
MOVJ C00604 VJ=1.0 PL=0
TIMER T=0.75
MOVJ C00605 VJ=1.0 PL=0
TIMER T=0.75
MOVJ C00606 VJ=1.0 PL=0
TIMER T=0.75
MOVJ C00607 VJ=1.0 PL=0
TIMER T=0.75
MOVJ C00608 VJ=1.0 PL=0
TIMER T=0.75
MOVJ C00609 VJ=1.0 PL=0
TIMER T=0.75
MOVJ C00610 VJ=1.0 PL=0
TIMER T=0.75
MOVJ C00611 VJ=1.0 PL=0
TIMER T=0.75
MOVJ C00612 VJ=1.0 PL=0
TIMER T=0.75
MOVJ C00613 VJ=1.0 PL=0
TIMER T=0.75
MOVJ C00614 VJ=1.0 PL=0
TIMER T=0.75
MOVJ C00615 VJ=1.0 PL=0
TIMER T=0.75
MOVJ C00616 VJ=1.0 PL=0
TIMER T=0.75
MOVJ C00617 VJ=1.0 PL=0
TIMER T=0.75
MOVJ C00618 VJ=1.0 PL=0
TIMER T=0.75
MOVJ C00619 VJ=1.0 PL=0
TIMER T=0.75
MOVJ C00620 VJ=1.0 PL=0
TIMER T=0.75
MOVJ C00621 VJ=1.0 PL=0
TIMER T=0.75
MOVJ C00622 VJ=1.0 PL=0
TIMER T=0.75
MOVJ C00623 VJ=1.0 PL=0
TIMER T=0.75
MOVJ C00624 VJ=1.0 PL=0
TIMER T=0.75
MOVJ C00625 VJ=1.0 PL=0
TIMER T=0.75
MOVJ C00626 VJ=1.0 PL=0
TIMER T=0.75
MOVJ C00627 VJ=1.0 PL=0
TIMER T=0.75
MOVJ C00628 VJ=1.0 PL=0
TIMER T=0.75
MOVJ C00629 VJ=1.0 PL=0
TIMER T=0.75
MOVJ C00630 VJ=1.0 PL=0
TIMER T=0.75
MOVJ C00631 VJ=1.0 PL=0
TIMER T=0.75
MOVJ C00632 VJ=1.0 PL=0
TIMER T=0.75
MOVJ C00633 VJ=1.0 PL=0
TIMER T=0.75
MOVJ C00634 VJ=1.0 PL=0
TIMER T=0.75
MOVJ C00635 VJ=1.0 PL=0
TIMER T=0.75
MOVJ C00636 VJ=1.0 PL=0
TIMER T=0.75
MOVJ C00637 VJ=1.0 PL=0
TIMER T=0.75
MOVJ C00638 VJ=1.0 PL=0
TIMER T=0.75
MOVJ C00639 VJ=1.0 PL=0
TIMER T=0.75
MOVJ C00640 VJ=1.0 PL=0
TIMER T=0.75
MOVJ C00641 VJ=1.0 PL=0
TIMER T=0.75
MOVJ C00642 VJ=1.0 PL=0
TIMER T=0.75
MOVJ C00643 VJ=1.0 PL=0
TIMER T=0.75
MOVJ C00644 VJ=1.0 PL=0
TIMER T=0.75
MOVJ C00645 VJ=1.0 PL=0
TIMER T=0.75
MOVJ C00646 VJ=1.0 PL=0
TIMER T=0.75
MOVJ C00647 VJ=1.0 PL=0
TIMER T=0.75
MOVJ C00648 VJ=1.0 PL=0
TIMER T=0.75
MOVJ C00649 VJ=1.0 PL=0
TIMER T=0.75
MOVJ C00650 VJ=1.0 PL=0
TIMER T=0.75
MOVJ C00651 VJ=1.0 PL=0
TIMER T=0.75
MOVJ C00652 VJ=1.0 PL=0
TIMER T=0.75
MOVJ C00653 VJ=1.0 PL=0
TIMER T=0.75
MOVJ C00654 VJ=1.0 PL=0
TIMER T=0.75
MOVJ C00655 VJ=1.0 PL=0
TIMER T=0.75
MOVJ C00656 VJ=1.0 PL=0
TIMER T=0.75
MOVJ C00657 VJ=1.0 PL=0
TIMER T=0.75
MOVJ C00658 VJ=1.0 PL=0
TIMER T=0.75
MOVJ C00659 VJ=1.0 PL=0
TIMER T=0.75
MOVJ C00660 VJ=1.0 PL=0
TIMER T=0.75
MOVJ C00661 VJ=1.0 PL=0
TIMER T=0.75
MOVJ C00662 VJ=1.0 PL=0
TIMER T=0.75
MOVJ C00663 VJ=1.0 PL=0
TIMER T=0.75
MOVJ C00664 VJ=1.0 PL=0
TIMER T=0.75
MOVJ C00665 VJ=1.0 PL=0
TIMER T=0.75
MOVJ C00666 VJ=1.0 PL=0
TIMER T=0.75
MOVJ C00667 VJ=1.0 PL=0
TIMER T=0.75
MOVJ C00668 VJ=1.0 PL=0
TIMER T=0.75
MOVJ C00669 VJ=1.0 PL=0
TIMER T=0.75
MOVJ C00670 VJ=1.0 PL=0
TIMER T=0.75
MOVJ C00671 VJ=1.0 PL=0
TIMER T=0.75
MOVJ C00672 VJ=1.0 PL=0
TIMER T=0.75
MOVJ C00673 VJ=1.0 PL=0
TIMER T=0.75
MOVJ C00674 VJ=1.0 PL=0
TIMER T=0.75
MOVJ C00675 VJ=1.0 PL=0
TIMER T=0.75
MOVJ C00676 VJ=1.0 PL=0
TIMER T=0.75
MOVJ C00677 VJ=1.0 PL=0
TIMER T=0.75
MOVJ C00678 VJ=1.0 PL=0
TIMER T=0.75
MOVJ C00679 VJ=1.0 PL=0
TIMER T=0.75
MOVJ C00680 VJ=1.0 PL=0
TIMER T=0.75
MOVJ C00681 VJ=1.0 PL=0
TIMER T=0.75
MOVJ C00682 VJ=1.0 PL=0
TIMER T=0.75
MOVJ C00683 VJ=1.0 PL=0
TIMER T=0.75
MOVJ C00684 VJ=1.0 PL=0
TIMER T=0.75
MOVJ C00685 VJ=1.0 PL=0
TIMER T=0.75
MOVJ C00686 VJ=1.0 PL=0
TIMER T=0.75
MOVJ C00687 VJ=1.0 PL=0
TIMER T=0.75
MOVJ C00688 VJ=1.0 PL=0
TIMER T=0.75
MOVJ C00689 VJ=1.0 PL=0
TIMER T=0.75
MOVJ C00690 VJ=1.0 PL=0
TIMER T=0.75
MOVJ C00691 VJ=1.0 PL=0
TIMER T=0.75
MOVJ C00692 VJ=1.0 PL=0
TIMER T=0.75
MOVJ C00693 VJ=1.0 PL=0
TIMER T=0.75
MOVJ C00694 VJ=1.0 PL=0
TIMER T=0.75
MOVJ C00695 VJ=1.0 PL=0
TIMER T=0.75
MOVJ C00696 VJ=1.0 PL=0
TIMER T=0.75
MOVJ C00697 VJ=1.0 PL=0
TIMER T=0.75
MOVJ C00698 VJ=1.0 PL=0
TIMER T=0.75
MOVJ C00699 VJ=1.0 PL=0
TIMER T=0.75
MOVJ C00700 VJ=1.0 PL=0
TIMER T=0.75
MOVJ C00701 VJ=1.0 PL=0
TIMER T=0.75
MOVJ C00702 VJ=1.0 PL=0
TIMER T=0.75
MOVJ C00703 VJ=1.0 PL=0
TIMER T=0.75
MOVJ C00704 VJ=1.0 PL=0
TIMER T=0.75
MOVJ C00705 VJ=1.0 PL=0
TIMER T=0.75
MOVJ C00706 VJ=1.0 PL=0
TIMER T=0.75
MOVJ C00707 VJ=1.0 PL=0
TIMER T=0.75
MOVJ C00708 VJ=1.0 PL=0
TIMER T=0.75
MOVJ C00709 VJ=1.0 PL=0
TIMER T=0.75
MOVJ C00710 VJ=1.0 PL=0
TIMER T=0.75
MOVJ C00711 VJ=1.0 PL=0
TIMER T=0.75
MOVJ C00712 VJ=1.0 PL=0
TIMER T=0.75
MOVJ C00713 VJ=1.0 PL=0
TIMER T=0.75
MOVJ C00714 VJ=1.0 PL=0
TIMER T=0.75
MOVJ C00715 VJ=1.0 PL=0
TIMER T=0.75
MOVJ C00716 VJ=1.0 PL=0
TIMER T=0.75
MOVJ C00717 VJ=1.0 PL=0
TIMER T=0.75
MOVJ C00718 VJ=1.0 PL=0
TIMER T=0.75
MOVJ C00719 VJ=1.0 PL=0
TIMER T=0.75
MOVJ C00720 VJ=1.0 PL=0
TIMER T=0.75
MOVJ C00721 VJ=1.0 PL=0
TIMER T=0.75
MOVJ C00722 VJ=1.0 PL=0
TIMER T=0.75
MOVJ C00723 VJ=1.0 PL=0
TIMER T=0.75
MOVJ C00724 VJ=1.0 PL=0
TIMER T=0.75
MOVJ C00725 VJ=1.0 PL=0
TIMER T=0.75
MOVJ C00726 VJ=1.0 PL=0
TIMER T=0.75
MOVJ C00727 VJ=1.0 PL=0
TIMER T=0.75
MOVJ C00728 VJ=1.0 PL=0
TIMER T=0.75
MOVJ C00729 VJ=1.0 PL=0
TIMER T=0.75
MOVJ C00730 VJ=1.0 PL=0
TIMER T=0.75
MOVJ C00731 VJ=1.0 PL=0
TIMER T=0.75
MOVJ C00732 VJ=1.0 PL=0
TIMER T=0.75
MOVJ C00733 VJ=1.0 PL=0
TIMER T=0.75
MOVJ C00734 VJ=1.0 PL=0
TIMER T=0.75
MOVJ C00735 VJ=1.0 PL=0
TIMER T=0.75
MOVJ C00736 VJ=1.0 PL=0
TIMER T=0.75
MOVJ C00737 VJ=1.0 PL=0
TIMER T=0.75
MOVJ C00738 VJ=1.0 PL=0
TIMER T=0.75
MOVJ C00739 VJ=1.0 PL=0
TIMER T=0.75
MOVJ C00740 VJ=1.0 PL=0
TIMER T=0.75
MOVJ C00741 VJ=1.0 PL=0
TIMER T=0.75
MOVJ C00742 VJ=1.0 PL=0
TIMER T=0.75
MOVJ C00743 VJ=1.0 PL=0
TIMER T=0.75
MOVJ C00744 VJ=1.0 PL=0
TIMER T=0.75
MOVJ C00745 VJ=1.0 PL=0
TIMER T=0.75
MOVJ C00746 VJ=1.0 PL=0
TIMER T=0.75
MOVJ C00747 VJ=1.0 PL=0
TIMER T=0.75
MOVJ C00748 VJ=1.0 PL=0
TIMER T=0.75
MOVJ C00749 VJ=1.0 PL=0
TIMER T=0.75
MOVJ C00750 VJ=1.0 PL=0
TIMER T=0.75
MOVJ C00751 VJ=1.0 PL=0
TIMER T=0.75
MOVJ C00752 VJ=1.0 PL=0
TIMER T=0.75
MOVJ C00753 VJ=1.0 PL=0
TIMER T=0.75
MOVJ C00754 VJ=1.0 PL=0
TIMER T=0.75
MOVJ C00755 VJ=1.0 PL=0
TIMER T=0.75
MOVJ C00756 VJ=1.0 PL=0
TIMER T=0.75
MOVJ C00757 VJ=1.0 PL=0
TIMER T=0.75
MOVJ C00758 VJ=1.0 PL=0
TIMER T=0.75
MOVJ C00759 VJ=1.0 PL=0
TIMER T=0.75
MOVJ C00760 VJ=1.0 PL=0
TIMER T=0.75
MOVJ C00761 VJ=1.0 PL=0
TIMER T=0.75
MOVJ C00762 VJ=1.0 PL=0
TIMER T=0.75
MOVJ C00763 VJ=1.0 PL=0
TIMER T=0.75
MOVJ C00764 VJ=1.0 PL=0
TIMER T=0.75
MOVJ C00765 VJ=1.0 PL=0
TIMER T=0.75
MOVJ C00766 VJ=1.0 PL=0
TIMER T=0.75
MOVJ C00767 VJ=1.0 PL=0
TIMER T=0.75
MOVJ C00768 VJ=1.0 PL=0
TIMER T=0.75
MOVJ C00769 VJ=1.0 PL=0
TIMER T=0.75
MOVJ C00770 VJ=1.0 PL=0
TIMER T=0.75
MOVJ C00771 VJ=1.0 PL=0
TIMER T=0.75
MOVJ C00772 VJ=1.0 PL=0
TIMER T=0.75
MOVJ C00773 VJ=1.0 PL=0
TIMER T=0.75
MOVJ C00774 VJ=1.0 PL=0
TIMER T=0.75
MOVJ C00775 VJ=1.0 PL=0
TIMER T=0.75
MOVJ C00776 VJ=1.0 PL=0
TIMER T=0.75
MOVJ C00777 VJ=1.0 PL=0
TIMER T=0.75
MOVJ C00778 VJ=1.0 PL=0
TIMER T=0.75
MOVJ C00779 VJ=1.0 PL=0
TIMER T=0.75
MOVJ C00780 VJ=1.0 PL=0
TIMER T=0.75
MOVJ C00781 VJ=1.0 PL=0
TIMER T=0.75
MOVJ C00782 VJ=1.0 PL=0
TIMER T=0.75
MOVJ C00783 VJ=1.0 PL=0
TIMER T=0.75
MOVJ C00784 VJ=1.0 PL=0
TIMER T=0.75
MOVJ C00785 VJ=1.0 PL=0
TIMER T=0.75
MOVJ C00786 VJ=1.0 PL=0
TIMER T=0.75
MOVJ C00787 VJ=1.0 PL=0
TIMER T=0.75
MOVJ C00788 VJ=1.0 PL=0
TIMER T=0.75
MOVJ C00789 VJ=1.0 PL=0
TIMER T=0.75
MOVJ C00790 VJ=1.0 PL=0
TIMER T=0.75
MOVJ C00791 VJ=1.0 PL=0
TIMER T=0.75
MOVJ C00792 VJ=1.0 PL=0
TIMER T=0.75
MOVJ C00793 VJ=1.0 PL=0
TIMER T=0.75
MOVJ C00794 VJ=1.0 PL=0
TIMER T=0.75
MOVJ C00795 VJ=1.0 PL=0
TIMER T=0.75
MOVJ C00796 VJ=1.0 PL=0
TIMER T=0.75
MOVJ C00797 VJ=1.0 PL=0
TIMER T=0.75
MOVJ C00798 VJ=1.0 PL=0
TIMER T=0.75
MOVJ C00799 VJ=1.0 PL=0
TIMER T=0.75
MOVJ C00800 VJ=1.0 PL=0
TIMER T=0.75
MOVJ C00801 VJ=1.0 PL=0
TIMER T=0.75
MOVJ C00802 VJ=1.0 PL=0
TIMER T=0.75
MOVJ C00803 VJ=1.0 PL=0
TIMER T=0.75
MOVJ C00804 VJ=1.0 PL=0
TIMER T=0.75
MOVJ C00805 VJ=1.0 PL=0
TIMER T=0.75
MOVJ C00806 VJ=1.0 PL=0
TIMER T=0.75
MOVJ C00807 VJ=1.0 PL=0
TIMER T=0.75
MOVJ C00808 VJ=1.0 PL=0
TIMER T=0.75
MOVJ C00809 VJ=1.0 PL=0
TIMER T=0.75
MOVJ C00810 VJ=1.0 PL=0
TIMER T=0.75
MOVJ C00811 VJ=1.0 PL=0
TIMER T=0.75
MOVJ C00812 VJ=1.0 PL=0
TIMER T=0.75
MOVJ C00813 VJ=1.0 PL=0
TIMER T=0.75
MOVJ C00814 VJ=1.0 PL=0
TIMER T=0.75
MOVJ C00815 VJ=1.0 PL=0
TIMER T=0.75
MOVJ C00816 VJ=1.0 PL=0
TIMER T=0.75
MOVJ C00817 VJ=1.0 PL=0
TIMER T=0.75
MOVJ C00818 VJ=1.0 PL=0
TIMER T=0.75
MOVJ C00819 VJ=1.0 PL=0
TIMER T=0.75
MOVJ C00820 VJ=1.0 PL=0
TIMER T=0.75
MOVJ C00821 VJ=1.0 PL=0
TIMER T=0.75
MOVJ C00822 VJ=1.0 PL=0
TIMER T=0.75
MOVJ C00823 VJ=1.0 PL=0
TIMER T=0.75
MOVJ C00824 VJ=1.0 PL=0
TIMER T=0.75
MOVJ C00825 VJ=1.0 PL=0
TIMER T=0.75
MOVJ C00826 VJ=1.0 PL=0
TIMER T=0.75
MOVJ C00827 VJ=1.0 PL=0
TIMER T=0.75
MOVJ C00828 VJ=1.0 PL=0
TIMER T=0.75
MOVJ C00829 VJ=1.0 PL=0
TIMER T=0.75
MOVJ C00830 VJ=1.0 PL=0
TIMER T=0.75
MOVJ C00831 VJ=1.0 PL=0
TIMER T=0.75
MOVJ C00832 VJ=1.0 PL=0
TIMER T=0.75
MOVJ C00833 VJ=1.0 PL=0
TIMER T=0.75
MOVJ C00834 VJ=1.0 PL=0
TIMER T=0.75
MOVJ C00835 VJ=1.0 PL=0
TIMER T=0.75
MOVJ C00836 VJ=1.0 PL=0
TIMER T=0.75
MOVJ C00837 VJ=1.0 PL=0
TIMER T=0.75
MOVJ C00838 VJ=1.0 PL=0
TIMER T=0.75
MOVJ C00839 VJ=1.0 PL=0
TIMER T=0.75
MOVJ C00840 VJ=1.0 PL=0
TIMER T=0.75
MOVJ C00841 VJ=1.0 PL=0
TIMER T=0.75
MOVJ C00842 VJ=1.0 PL=0
TIMER T=0.75
MOVJ C00843 VJ=1.0 PL=0
TIMER T=0.75
MOVJ C00844 VJ=1.0 PL=0
TIMER T=0.75
MOVJ C00845 VJ=1.0 PL=0
TIMER T=0.75
MOVJ C00846 VJ=1.0 PL=0
TIMER T=0.75
MOVJ C00847 VJ=1.0 PL=0
TIMER T=0.75
MOVJ C00848 VJ=1.0 PL=0
TIMER T=0.75
MOVJ C00849 VJ=1.0 PL=0
TIMER T=0.75
MOVJ C00850 VJ=1.0 PL=0
TIMER T=0.75
MOVJ C00851 VJ=1.0 PL=0
TIMER T=0.75
MOVJ C00852 VJ=1.0 PL=0
TIMER T=0.75
MOVJ C00853 VJ=1.0 PL=0
TIMER T=0.75
MOVJ C00854 VJ=1.0 PL=0
TIMER T=0.75
MOVJ C00855 VJ=1.0 PL=0
TIMER T=0.75
MOVJ C00856 VJ=1.0 PL=0
TIMER T=0.75
MOVJ C00857 VJ=1.0 PL=0
TIMER T=0.75
MOVJ C00858 VJ=1.0 PL=0
TIMER T=0.75
MOVJ C00859 VJ=1.0 PL=0
TIMER T=0.75
MOVJ C00860 VJ=1.0 PL=0
TIMER T=0.75
MOVJ C00861 VJ=1.0 PL=0
TIMER T=0.75
MOVJ C00862 VJ=1.0 PL=0
TIMER T=0.75
MOVJ C00863 VJ=1.0 PL=0
TIMER T=0.75
MOVJ C00864 VJ=1.0 PL=0
TIMER T=0.75
MOVJ C00865 VJ=1.0 PL=0
TIMER T=0.75
MOVJ C00866 VJ=1.0 PL=0
TIMER T=0.75
MOVJ C00867 VJ=1.0 PL=0
TIMER T=0.75
MOVJ C00868 VJ=1.0 PL=0
TIMER T=0.75
MOVJ C00869 VJ=1.0 PL=0
TIMER T=0.75
MOVJ C00870 VJ=1.0 PL=0
TIMER T=0.75
MOVJ C00871 VJ=1.0 PL=0
TIMER T=0.75
MOVJ C00872 VJ=1.0 PL=0
TIMER T=0.75
MOVJ C00873 VJ=1.0 PL=0
TIMER T=0.75
MOVJ C00874 VJ=1.0 PL=0
TIMER T=0.75
MOVJ C00875 VJ=1.0 PL=0
TIMER T=0.75
MOVJ C00876 VJ=1.0 PL=0
TIMER T=0.75
MOVJ C00877 VJ=1.0 PL=0
TIMER T=0.75
MOVJ C00878 VJ=1.0 PL=0
TIMER T=0.75
MOVJ C00879 VJ=1.0 PL=0
TIMER T=0.75
MOVJ C00880 VJ=1.0 PL=0
TIMER T=0.75
MOVJ C00881 VJ=1.0 PL=0
TIMER T=0.75
MOVJ C00882 VJ=1.0 PL=0
TIMER T=0.75
MOVJ C00883 VJ=1.0 PL=0
TIMER T=0.75
MOVJ C00884 VJ=1.0 PL=0
TIMER T=0.75
MOVJ C00885 VJ=1.0 PL=0
TIMER T=0.75
MOVJ C00886 VJ=1.0 PL=0
TIMER T=0.75
MOVJ C00887 VJ=1.0 PL=0
TIMER T=0.75
MOVJ C00888 VJ=1.0 PL=0
TIMER T=0.75
MOVJ C00889 VJ=1.0 PL=0
TIMER T=0.75
MOVJ C00890 VJ=1.0 PL=0
TIMER T=0.75
MOVJ C00891 VJ=1.0 PL=0
TIMER T=0.75
MOVJ C00892 VJ=1.0 PL=0
TIMER T=0.75
MOVJ C00893 VJ=1.0 PL=0
TIMER T=0.75
MOVJ C00894 VJ=1.0 PL=0
TIMER T=0.75
MOVJ C00895 VJ=1.0 PL=0
TIMER T=0.75
MOVJ C00896 VJ=1.0 PL=0
TIMER T=0.75
MOVJ C00897 VJ=1.0 PL=0
TIMER T=0.75
MOVJ C00898 VJ=1.0 PL=0
TIMER T=0.75
MOVJ C00899 VJ=1.0 PL=0
TIMER T=0.75
MOVJ C00900 VJ=1.0 PL=0
TIMER T=0.75
MOVJ C00901 VJ=1.0 PL=0
TIMER T=0.75
MOVJ C00902 VJ=1.0 PL=0
TIMER T=0.75
MOVJ C00903 VJ=1.0 PL=0
TIMER T=0.75
MOVJ C00904 VJ=1.0 PL=0
TIMER T=0.75
MOVJ C00905 VJ=1.0 PL=0
TIMER T=0.75
MOVJ C00906 VJ=1.0 PL=0
TIMER T=0.75
MOVJ C00907 VJ=1.0 PL=0
TIMER T=0.75
MOVJ C00908 VJ=1.0 PL=0
TIMER T=0.75
MOVJ C00909 VJ=1.0 PL=0
TIMER T=0.75
MOVJ C00910 VJ=1.0 PL=0
TIMER T=0.75
MOVJ C00911 VJ=1.0 PL=0
TIMER T=0.75
MOVJ C00912 VJ=1.0 PL=0
TIMER T=0.75
MOVJ C00913 VJ=1.0 PL=0
TIMER T=0.75
MOVJ C00914 VJ=1.0 PL=0
TIMER T=0.75
MOVJ C00915 VJ=1.0 PL=0
TIMER T=0.75
MOVJ C00916 VJ=1.0 PL=0
TIMER T=0.75
MOVJ C00917 VJ=1.0 PL=0
TIMER T=0.75
MOVJ C00918 VJ=1.0 PL=0
TIMER T=0.75
MOVJ C00919 VJ=1.0 PL=0
TIMER T=0.75
MOVJ C00920 VJ=1.0 PL=0
TIMER T=0.75
MOVJ C00921 VJ=1.0 PL=0
TIMER T=0.75
MOVJ C00922 VJ=1.0 PL=0
TIMER T=0.75
MOVJ C00923 VJ=1.0 PL=0
TIMER T=0.75
MOVJ C00924 VJ=1.0 PL=0
TIMER T=0.75
MOVJ C00925 VJ=1.0 PL=0
TIMER T=0.75
MOVJ C00926 VJ=1.0 PL=0
TIMER T=0.75
MOVJ C00927 VJ=1.0 PL=0
TIMER T=0.75
MOVJ C00928 VJ=1.0 PL=0
TIMER T=0.75
MOVJ C00929 VJ=1.0 PL=0
TIMER T=0.75
MOVJ C00930 VJ=1.0 PL=0
TIMER T=0.75
MOVJ C00931 VJ=1.0 PL=0
TIMER T=0.75
MOVJ C00932 VJ=1.0 PL=0
TIMER T=0.75
MOVJ C00933 VJ=1.0 PL=0
TIMER T=0.75
MOVJ C00934 VJ=1.0 PL=0
TIMER T=0.75
MOVJ C00935 VJ=1.0 PL=0
TIMER T=0.75
MOVJ C00936 VJ=1.0 PL=0
TIMER T=0.75
MOVJ C00937 VJ=1.0 PL=0
TIMER T=0.75
MOVJ C00938 VJ=1.0 PL=0
TIMER T=0.75
MOVJ C00939 VJ=1.0 PL=0
TIMER T=0.75
MOVJ C00940 VJ=1.0 PL=0
TIMER T=0.75
MOVJ C00941 VJ=1.0 PL=0
TIMER T=0.75
MOVJ C00942 VJ=1.0 PL=0
TIMER T=0.75
MOVJ C00943 VJ=1.0 PL=0
TIMER T=0.75
MOVJ C00944 VJ=1.0 PL=0
TIMER T=0.75
MOVJ C00945 VJ=1.0 PL=0
TIMER T=0.75
MOVJ C00946 VJ=1.0 PL=0
TIMER T=0.75
MOVJ C00947 VJ=1.0 PL=0
TIMER T=0.75
MOVJ C00948 VJ=1.0 PL=0
TIMER T=0.75
MOVJ C00949 VJ=1.0 PL=0
TIMER T=0.75
MOVJ C00950 VJ=1.0 PL=0
TIMER T=0.75
MOVJ C00951 VJ=1.0 PL=0
TIMER T=0.75
MOVJ C00952 VJ=1.0 PL=0
TIMER T=0.75
MOVJ C00953 VJ=1.0 PL=0
TIMER T=0.75
MOVJ C00954 VJ=1.0 PL=0
TIMER T=0.75
MOVJ C00955 VJ=1.0 PL=0
TIMER T=0.75
MOVJ C00956 VJ=1.0 PL=0
TIMER T=0.75
MOVJ C00957 VJ=1.0 PL=0
TIMER T=0.75
MOVJ C00958 VJ=1.0 PL=0
TIMER T=0.75
MOVJ C00959 VJ=1.0 PL=0
TIMER T=0.75
MOVJ C00960 VJ=1.0 PL=0
TIMER T=0.75
MOVJ C00961 VJ=1.0 PL=0
TIMER T=0.75
MOVJ C00962 VJ=1.0 PL=0
TIMER T=0.75
MOVJ C00963 VJ=1.0 PL=0
TIMER T=0.75
MOVJ C00964 VJ=1.0 PL=0
TIMER T=0.75
MOVJ C00965 VJ=1.0 PL=0
TIMER T=0.75
MOVJ C00966 VJ=1.0 PL=0
TIMER T=0.75
MOVJ C00967 VJ=1.0 PL=0
TIMER T=0.75
MOVJ C00968 VJ=1.0 PL=0
TIMER T=0.75
MOVJ C00969 VJ=1.0 PL=0
TIMER T=0.75
MOVJ C00970 VJ=1.0 PL=0
TIMER T=0.75
MOVJ C00971 VJ=1.0 PL=0
TIMER T=0.75
MOVJ C00972 VJ=1.0 PL=0
TIMER T=0.75
MOVJ C00973 VJ=1.0 PL=0
TIMER T=0.75
MOVJ C00974 VJ=1.0 PL=0
TIMER T=0.75
MOVJ C00975 VJ=1.0 PL=0
TIMER T=0.75
MOVJ C00976 VJ=1.0 PL=0
TIMER T=0.75
MOVJ C00977 VJ=1.0 PL=0
TIMER T=0.75
MOVJ C00978 VJ=1.0 PL=0
TIMER T=0.75
MOVJ C00979 VJ=1.0 PL=0
TIMER T=0.75
MOVJ C00980 VJ=1.0 PL=0
TIMER T=0.75
MOVJ C00981 VJ=1.0 PL=0
TIMER T=0.75
MOVJ C00982 VJ=1.0 PL=0
TIMER T=0.75
MOVJ C00983 VJ=1.0 PL=0
TIMER T=0.75
MOVJ C00984 VJ=1.0 PL=0
TIMER T=0.75
MOVJ C00985 VJ=1.0 PL=0
TIMER T=0.75
MOVJ C00986 VJ=1.0 PL=0
TIMER T=0.75
MOVJ C00987 VJ=1.0 PL=0
TIMER T=0.75
MOVJ C00988 VJ=1.0 PL=0
TIMER T=0.75
MOVJ C00989 VJ=1.0 PL=0
TIMER T=0.75
MOVJ C00990 VJ=1.0 PL=0
TIMER T=0.75
MOVJ C00991 VJ=1.0 PL=0
TIMER T=0.75
MOVJ C00992 VJ=1.0 PL=0
TIMER T=0.75
MOVJ C00993 VJ=1.0 PL=0
TIMER T=0.75
MOVJ C00994 VJ=1.0 PL=0
TIMER T=0.75
MOVJ C00995 VJ=1.0 PL=0
TIMER T=0.75
MOVJ C00996 VJ=1.0 PL=0
TIMER T=0.75
MOVJ C00997 VJ=1.0 PL=0
TIMER T=0.75
MOVJ C00998 VJ=1.0 PL=0
TIMER T=0.75
MOVJ C00999 VJ=1.0 PL=0
TIMER T=0.75
MOVJ C01000 VJ=1.0 PL=0
TIMER T=0.75
MOVJ C01001 VJ=1.0 PL=0
TIMER T=0.75
MOVJ C01002 VJ=1.0 PL=0
TIMER T=0.75
MOVJ C01003 VJ=1.0 PL=0
TIMER T=0.75
MOVJ C01004 VJ=1.0 PL=0
TIMER T=0.75
MOVJ C01005 VJ=1.0 PL=0
TIMER T=0.75
MOVJ C01006 VJ=1.0 PL=0
TIMER T=0.75
MOVJ C01007 VJ=1.0 PL=0
TIMER T=0.75
MOVJ C01008 VJ=1.0 PL=0
TIMER T=0.75
MOVJ C01009 VJ=1.0 PL=0
TIMER T=0.75
MOVJ C01010 VJ=1.0 PL=0
TIMER T=0.75
MOVJ C01011 VJ=1.0 PL=0
TIMER T=0.75
MOVJ C01012 VJ=1.0 PL=0
TIMER T=0.75
MOVJ C01013 VJ=1.0 PL=0
TIMER T=0.75
MOVJ C01014 VJ=1.0 PL=0
TIMER T=0.75
MOVJ C01015 VJ=1.0 PL=0
TIMER T=0.75
MOVJ C01016 VJ=1.0 PL=0
TIMER T=0.75
MOVJ C01017 VJ=1.0 PL=0
TIMER T=0.75
MOVJ C01018 VJ=1.0 PL=0
TIMER T=0.75
MOVJ C01019 VJ=1.0 PL=0
TIMER T=0.75
MOVJ C01020 VJ=1.0 PL=0
TIMER T=0.75
MOVJ C01021 VJ=1.0 PL=0
TIMER T=0.75
MOVJ C01022 VJ=1.0 PL=0
TIMER T=0.75
MOVJ C01023 VJ=1.0 PL=0
TIMER T=0.75
MOVJ C01024 VJ=1.0 PL=0
TIMER T=0.75
MOVJ C01025 VJ=1.0 PL=0
TIMER T=0.75
MOVJ C01026 VJ=1.0 PL=0
TIMER T=0.75
MOVJ C01027 VJ=1.0 PL=0
TIMER T=0.75
MOVJ C01028 VJ=1.0 PL=0
TIMER T=0.75
MOVJ C01029 VJ=1.0 PL=0
TIMER T=0.75
MOVJ C01030 VJ=1.0 PL=0
