/JOB
//NAME AAA
//POS
///NPOS 12,0,0,0,0,0
///TOOL 12
///POSTYPE PULSE
///PULSE
C00000=53108,45511,-2844,18429,-51953,-910
C00001=934,25909,-37749,2872,-35723,9275
C00002=-48802,52013,0,-14549,-48032,20009
C00003=-40026,-13104,-59501,-40029,-31438,26606
C00004=0,-65016,-71111,0,-21565,0
C00005=0,-32006,-41711,0,-6162,0
C00006=0,0,0,0,0,0
C00007=0,24555,1996,0,15665,0
C00008=0,58514,28444,0,21565,0
C00009=22484,32757,-11583,41250,-12711,-12166
C00010=53108,45511,-2844,18429,-51953,-910
C00011=28540,1284,-24049,26343,-26084,-5481
//INST
///DATE 2023/07/21 16:32
///ATTR SC,RW
///GROUP1 RB2
NOP
MOVJ C00000 VJ=1.0 PL=0
TIMER T=0.50
MOVJ C00001 VJ=1.0 PL=0
TIMER T=0.50
MOVJ C00002 VJ=1.0 PL=0
TIMER T=0.50
MOVJ C00003 VJ=1.0 PL=0
TIMER T=0.50
MOVJ C00004 VJ=1.0 PL=0
TIMER T=0.50
MOVJ C00005 VJ=1.0 PL=0
TIMER T=0.50
MOVJ C00006 VJ=1.0 PL=0
TIMER T=0.50
MOVJ C00007 VJ=1.0 PL=0
TIMER T=0.50
MOVJ C00008 VJ=1.0 PL=0
TIMER T=0.50
MOVJ C00009 VJ=1.0 PL=0
TIMER T=0.50
MOVJ C00010 VJ=1.0 PL=0
TIMER T=0.50
MOVJ C00011 VJ=1.0 PL=0
TIMER T=0.50
END
