/PROG  TMP
/ATTR
DEFAULT_GROUP	= 1,*,*,*,*;
/MN
   1:  R[81]=1 ;
   2:DO[10]=OFF ;
   3:J P[1] 10% FINE ;
   4:DO[10]=ON ;
   5:WAIT DO[10]=OFF ;
   6:J P[2] 10% FINE ;
   7:DO[10]=ON ;
   8:WAIT DO[10]=OFF ;
   9:J P[3] 10% FINE ;
   10:DO[10]=ON ;
   11:WAIT DO[10]=OFF ;
   12:J P[4] 10% FINE ;
   13:DO[10]=ON ;
   14:WAIT DO[10]=OFF ;
   15:J P[5] 10% FINE ;
   16:DO[10]=ON ;
   17:WAIT DO[10]=OFF ;
   18:J P[6] 10% FINE ;
   19:DO[10]=ON ;
   20:WAIT DO[10]=OFF ;
   21:J P[7] 10% FINE ;
   22:DO[10]=ON ;
   23:WAIT DO[10]=OFF ;
   24:J P[8] 10% FINE ;
   25:DO[10]=ON ;
   26:WAIT DO[10]=OFF ;
   27:J P[9] 10% FINE ;
   28:DO[10]=ON ;
   29:WAIT DO[10]=OFF ;
   30:J P[10] 10% FINE ;
   31:DO[10]=ON ;
   32:WAIT DO[10]=OFF ;
   33:J P[11] 10% FINE ;
   34:DO[10]=ON ;
   35:WAIT DO[10]=OFF ;
   36:J P[12] 10% FINE ;
   37:DO[10]=ON ;
   38:WAIT DO[10]=OFF ;
   39:J P[13] 10% FINE ;
   40:DO[10]=ON ;
   41:WAIT DO[10]=OFF ;
   42:J P[14] 10% FINE ;
   43:DO[10]=ON ;
   44:WAIT DO[10]=OFF ;
   45:J P[15] 10% FINE ;
   46:DO[10]=ON ;
   47:WAIT DO[10]=OFF ;
   48:J P[16] 10% FINE ;
   49:DO[10]=ON ;
   50:WAIT DO[10]=OFF ;
   51:J P[17] 10% FINE ;
   52:DO[10]=ON ;
   53:WAIT DO[10]=OFF ;
   54:J P[18] 10% FINE ;
   55:DO[10]=ON ;
   56:WAIT DO[10]=OFF ;
   57:J P[19] 10% FINE ;
   58:DO[10]=ON ;
   59:WAIT DO[10]=OFF ;
   60:J P[20] 10% FINE ;
   61:DO[10]=ON ;
   62:WAIT DO[10]=OFF ;
   63:J P[21] 10% FINE ;
   64:DO[10]=ON ;
   65:WAIT DO[10]=OFF ;
   66:J P[22] 10% FINE ;
   67:DO[10]=ON ;
   68:WAIT DO[10]=OFF ;
   69:J P[23] 10% FINE ;
   70:DO[10]=ON ;
   71:WAIT DO[10]=OFF ;
   72:J P[24] 10% FINE ;
   73:DO[10]=ON ;
   74:WAIT DO[10]=OFF ;
   75:J P[25] 10% FINE ;
   76:DO[10]=ON ;
   77:WAIT DO[10]=OFF ;
   78:J P[26] 10% FINE ;
   79:DO[10]=ON ;
   80:WAIT DO[10]=OFF ;
   81:J P[27] 10% FINE ;
   82:DO[10]=ON ;
   83:WAIT DO[10]=OFF ;
   84:J P[28] 10% FINE ;
   85:DO[10]=ON ;
   86:WAIT DO[10]=OFF ;
   87:J P[29] 10% FINE ;
   88:DO[10]=ON ;
   89:WAIT DO[10]=OFF ;
   90:J P[30] 10% FINE ;
   91:DO[10]=ON ;
   92:WAIT DO[10]=OFF ;
   93:J P[31] 10% FINE ;
   94:DO[10]=ON ;
   95:WAIT DO[10]=OFF ;
   96:J P[32] 10% FINE ;
   97:DO[10]=ON ;
   98:WAIT DO[10]=OFF ;
   99:J P[33] 10% FINE ;
   100:DO[10]=ON ;
   101:WAIT DO[10]=OFF ;
   102:J P[34] 10% FINE ;
   103:DO[10]=ON ;
   104:WAIT DO[10]=OFF ;
   105:J P[35] 10% FINE ;
   106:DO[10]=ON ;
   107:WAIT DO[10]=OFF ;
   108:J P[36] 10% FINE ;
   109:DO[10]=ON ;
   110:WAIT DO[10]=OFF ;
   111:J P[37] 10% FINE ;
   112:DO[10]=ON ;
   113:WAIT DO[10]=OFF ;
   114:J P[38] 10% FINE ;
   115:DO[10]=ON ;
   116:WAIT DO[10]=OFF ;
   117:J P[39] 10% FINE ;
   118:DO[10]=ON ;
   119:WAIT DO[10]=OFF ;
   120:J P[40] 10% FINE ;
   121:DO[10]=ON ;
   122:WAIT DO[10]=OFF ;
   123:J P[41] 10% FINE ;
   124:DO[10]=ON ;
   125:WAIT DO[10]=OFF ;
   126:J P[42] 10% FINE ;
   127:DO[10]=ON ;
   128:WAIT DO[10]=OFF ;
   129:J P[43] 10% FINE ;
   130:DO[10]=ON ;
   131:WAIT DO[10]=OFF ;
   132:J P[44] 10% FINE ;
   133:DO[10]=ON ;
   134:WAIT DO[10]=OFF ;
   135:J P[45] 10% FINE ;
   136:DO[10]=ON ;
   137:WAIT DO[10]=OFF ;
   138:J P[46] 10% FINE ;
   139:DO[10]=ON ;
   140:WAIT DO[10]=OFF ;
   141:J P[47] 10% FINE ;
   142:DO[10]=ON ;
   143:WAIT DO[10]=OFF ;
   144:J P[48] 10% FINE ;
   145:DO[10]=ON ;
   146:WAIT DO[10]=OFF ;
   147:J P[49] 10% FINE ;
   148:DO[10]=ON ;
   149:WAIT DO[10]=OFF ;
   150:J P[50] 10% FINE ;
   151:DO[10]=ON ;
   152:WAIT DO[10]=OFF ;
   153:J P[51] 10% FINE ;
   154:DO[10]=ON ;
   155:WAIT DO[10]=OFF ;
   156:J P[52] 10% FINE ;
   157:DO[10]=ON ;
   158:WAIT DO[10]=OFF ;
   159:J P[53] 10% FINE ;
   160:DO[10]=ON ;
   161:WAIT DO[10]=OFF ;
   162:J P[54] 10% FINE ;
   163:DO[10]=ON ;
   164:WAIT DO[10]=OFF ;
   165:J P[55] 10% FINE ;
   166:DO[10]=ON ;
   167:WAIT DO[10]=OFF ;
   168:J P[56] 10% FINE ;
   169:DO[10]=ON ;
   170:WAIT DO[10]=OFF ;
   171:J P[57] 10% FINE ;
   172:DO[10]=ON ;
   173:WAIT DO[10]=OFF ;
   174:J P[58] 10% FINE ;
   175:DO[10]=ON ;
   176:WAIT DO[10]=OFF ;
   177:J P[59] 10% FINE ;
   178:DO[10]=ON ;
   179:WAIT DO[10]=OFF ;
   180:J P[60] 10% FINE ;
   181:DO[10]=ON ;
   182:WAIT DO[10]=OFF ;
   183:J P[61] 10% FINE ;
   184:DO[10]=ON ;
   185:WAIT DO[10]=OFF ;
   186:J P[62] 10% FINE ;
   187:DO[10]=ON ;
   188:WAIT DO[10]=OFF ;
   189:J P[63] 10% FINE ;
   190:DO[10]=ON ;
   191:WAIT DO[10]=OFF ;
   192:J P[64] 10% FINE ;
   193:DO[10]=ON ;
   194:WAIT DO[10]=OFF ;
   195:J P[65] 10% FINE ;
   196:DO[10]=ON ;
   197:WAIT DO[10]=OFF ;
   198:J P[66] 10% FINE ;
   199:DO[10]=ON ;
   200:WAIT DO[10]=OFF ;
   201:J P[67] 10% FINE ;
   202:DO[10]=ON ;
   203:WAIT DO[10]=OFF ;
   204:J P[68] 10% FINE ;
   205:DO[10]=ON ;
   206:WAIT DO[10]=OFF ;
   207:J P[69] 10% FINE ;
   208:DO[10]=ON ;
   209:WAIT DO[10]=OFF ;
   210:J P[70] 10% FINE ;
   211:DO[10]=ON ;
   212:WAIT DO[10]=OFF ;
   213:J P[71] 10% FINE ;
   214:DO[10]=ON ;
   215:WAIT DO[10]=OFF ;
   216:J P[72] 10% FINE ;
   217:DO[10]=ON ;
   218:WAIT DO[10]=OFF ;
   219:J P[73] 10% FINE ;
   220:DO[10]=ON ;
   221:WAIT DO[10]=OFF ;
   222:J P[74] 10% FINE ;
   223:DO[10]=ON ;
   224:WAIT DO[10]=OFF ;
   225:J P[75] 10% FINE ;
   226:DO[10]=ON ;
   227:WAIT DO[10]=OFF ;
   228:J P[76] 10% FINE ;
   229:DO[10]=ON ;
   230:WAIT DO[10]=OFF ;
   231:J P[77] 10% FINE ;
   232:DO[10]=ON ;
   233:WAIT DO[10]=OFF ;
   234:J P[78] 10% FINE ;
   235:DO[10]=ON ;
   236:WAIT DO[10]=OFF ;
   237:J P[79] 10% FINE ;
   238:DO[10]=ON ;
   239:WAIT DO[10]=OFF ;
   240:J P[80] 10% FINE ;
   241:DO[10]=ON ;
   242:WAIT DO[10]=OFF ;
   243:J P[81] 10% FINE ;
   244:DO[10]=ON ;
   245:WAIT DO[10]=OFF ;
   246:J P[82] 10% FINE ;
   247:DO[10]=ON ;
   248:WAIT DO[10]=OFF ;
   249:J P[83] 10% FINE ;
   250:DO[10]=ON ;
   251:WAIT DO[10]=OFF ;
   252:J P[84] 10% FINE ;
   253:DO[10]=ON ;
   254:WAIT DO[10]=OFF ;
   255:J P[85] 10% FINE ;
   256:DO[10]=ON ;
   257:WAIT DO[10]=OFF ;
   258:J P[86] 10% FINE ;
   259:DO[10]=ON ;
   260:WAIT DO[10]=OFF ;
   261:J P[87] 10% FINE ;
   262:DO[10]=ON ;
   263:WAIT DO[10]=OFF ;
   264:J P[88] 10% FINE ;
   265:DO[10]=ON ;
   266:WAIT DO[10]=OFF ;
   267:J P[89] 10% FINE ;
   268:DO[10]=ON ;
   269:WAIT DO[10]=OFF ;
   270:J P[90] 10% FINE ;
   271:DO[10]=ON ;
   272:WAIT DO[10]=OFF ;
   273:J P[91] 10% FINE ;
   274:DO[10]=ON ;
   275:WAIT DO[10]=OFF ;
   276:J P[92] 10% FINE ;
   277:DO[10]=ON ;
   278:WAIT DO[10]=OFF ;
   279:J P[93] 10% FINE ;
   280:DO[10]=ON ;
   281:WAIT DO[10]=OFF ;
   282:J P[94] 10% FINE ;
   283:DO[10]=ON ;
   284:WAIT DO[10]=OFF ;
   285:J P[95] 10% FINE ;
   286:DO[10]=ON ;
   287:WAIT DO[10]=OFF ;
   288:J P[96] 10% FINE ;
   289:DO[10]=ON ;
   290:WAIT DO[10]=OFF ;
   291:J P[97] 10% FINE ;
   292:DO[10]=ON ;
   293:WAIT DO[10]=OFF ;
   294:J P[98] 10% FINE ;
   295:DO[10]=ON ;
   296:WAIT DO[10]=OFF ;
   297:J P[99] 10% FINE ;
   298:DO[10]=ON ;
   299:WAIT DO[10]=OFF ;
   300:J P[100] 10% FINE ;
   301:DO[10]=ON ;
   302:WAIT DO[10]=OFF ;
   303:J P[101] 10% FINE ;
   304:DO[10]=ON ;
   305:WAIT DO[10]=OFF ;
   306:J P[102] 10% FINE ;
   307:DO[10]=ON ;
   308:WAIT DO[10]=OFF ;
   309:J P[103] 10% FINE ;
   310:DO[10]=ON ;
   311:WAIT DO[10]=OFF ;
   312:J P[104] 10% FINE ;
   313:DO[10]=ON ;
   314:WAIT DO[10]=OFF ;
   315:J P[105] 10% FINE ;
   316:DO[10]=ON ;
   317:WAIT DO[10]=OFF ;
   318:J P[106] 10% FINE ;
   319:DO[10]=ON ;
   320:WAIT DO[10]=OFF ;
   321:J P[107] 10% FINE ;
   322:DO[10]=ON ;
   323:WAIT DO[10]=OFF ;
   324:J P[108] 10% FINE ;
   325:DO[10]=ON ;
   326:WAIT DO[10]=OFF ;
   327:J P[109] 10% FINE ;
   328:DO[10]=ON ;
   329:WAIT DO[10]=OFF ;
   330:J P[110] 10% FINE ;
   331:DO[10]=ON ;
   332:WAIT DO[10]=OFF ;
   333:J P[111] 10% FINE ;
   334:DO[10]=ON ;
   335:WAIT DO[10]=OFF ;
   336:J P[112] 10% FINE ;
   337:DO[10]=ON ;
   338:WAIT DO[10]=OFF ;
   339:J P[113] 10% FINE ;
   340:DO[10]=ON ;
   341:WAIT DO[10]=OFF ;
   342:J P[114] 10% FINE ;
   343:DO[10]=ON ;
   344:WAIT DO[10]=OFF ;
   345:J P[115] 10% FINE ;
   346:DO[10]=ON ;
   347:WAIT DO[10]=OFF ;
   348:J P[116] 10% FINE ;
   349:DO[10]=ON ;
   350:WAIT DO[10]=OFF ;
   351:J P[117] 10% FINE ;
   352:DO[10]=ON ;
   353:WAIT DO[10]=OFF ;
   354:J P[118] 10% FINE ;
   355:DO[10]=ON ;
   356:WAIT DO[10]=OFF ;
   357:J P[119] 10% FINE ;
   358:DO[10]=ON ;
   359:WAIT DO[10]=OFF ;
   360:J P[120] 10% FINE ;
   361:DO[10]=ON ;
   362:WAIT DO[10]=OFF ;
   363:J P[121] 10% FINE ;
   364:DO[10]=ON ;
   365:WAIT DO[10]=OFF ;
   366:J P[122] 10% FINE ;
   367:DO[10]=ON ;
   368:WAIT DO[10]=OFF ;
   369:J P[123] 10% FINE ;
   370:DO[10]=ON ;
   371:WAIT DO[10]=OFF ;
   372:J P[124] 10% FINE ;
   373:DO[10]=ON ;
   374:WAIT DO[10]=OFF ;
   375:J P[125] 10% FINE ;
   376:DO[10]=ON ;
   377:WAIT DO[10]=OFF ;
   378:J P[126] 10% FINE ;
   379:DO[10]=ON ;
   380:WAIT DO[10]=OFF ;
   381:J P[127] 10% FINE ;
   382:DO[10]=ON ;
   383:WAIT DO[10]=OFF ;
   384:J P[128] 10% FINE ;
   385:DO[10]=ON ;
   386:WAIT DO[10]=OFF ;
   387:J P[129] 10% FINE ;
   388:DO[10]=ON ;
   389:WAIT DO[10]=OFF ;
   390:J P[130] 10% FINE ;
   391:DO[10]=ON ;
   392:WAIT DO[10]=OFF ;
   393:J P[131] 10% FINE ;
   394:DO[10]=ON ;
   395:WAIT DO[10]=OFF ;
   396:J P[132] 10% FINE ;
   397:DO[10]=ON ;
   398:WAIT DO[10]=OFF ;
   399:J P[133] 10% FINE ;
   400:DO[10]=ON ;
   401:WAIT DO[10]=OFF ;
   402:J P[134] 10% FINE ;
   403:DO[10]=ON ;
   404:WAIT DO[10]=OFF ;
   405:J P[135] 10% FINE ;
   406:DO[10]=ON ;
   407:WAIT DO[10]=OFF ;
   408:J P[136] 10% FINE ;
   409:DO[10]=ON ;
   410:WAIT DO[10]=OFF ;
   411:J P[137] 10% FINE ;
   412:DO[10]=ON ;
   413:WAIT DO[10]=OFF ;
   414:J P[138] 10% FINE ;
   415:DO[10]=ON ;
   416:WAIT DO[10]=OFF ;
   417:J P[139] 10% FINE ;
   418:DO[10]=ON ;
   419:WAIT DO[10]=OFF ;
   420:J P[140] 10% FINE ;
   421:DO[10]=ON ;
   422:WAIT DO[10]=OFF ;
   423:J P[141] 10% FINE ;
   424:DO[10]=ON ;
   425:WAIT DO[10]=OFF ;
   426:J P[142] 10% FINE ;
   427:DO[10]=ON ;
   428:WAIT DO[10]=OFF ;
   429:J P[143] 10% FINE ;
   430:DO[10]=ON ;
   431:WAIT DO[10]=OFF ;
   432:J P[144] 10% FINE ;
   433:DO[10]=ON ;
   434:WAIT DO[10]=OFF ;
   435:J P[145] 10% FINE ;
   436:DO[10]=ON ;
   437:WAIT DO[10]=OFF ;
   438:J P[146] 10% FINE ;
   439:DO[10]=ON ;
   440:WAIT DO[10]=OFF ;
   441:J P[147] 10% FINE ;
   442:DO[10]=ON ;
   443:WAIT DO[10]=OFF ;
   444:J P[148] 10% FINE ;
   445:DO[10]=ON ;
   446:WAIT DO[10]=OFF ;
   447:J P[149] 10% FINE ;
   448:DO[10]=ON ;
   449:WAIT DO[10]=OFF ;
   450:J P[150] 10% FINE ;
   451:DO[10]=ON ;
   452:WAIT DO[10]=OFF ;
   453:J P[151] 10% FINE ;
   454:DO[10]=ON ;
   455:WAIT DO[10]=OFF ;
   456:J P[152] 10% FINE ;
   457:DO[10]=ON ;
   458:WAIT DO[10]=OFF ;
   459:J P[153] 10% FINE ;
   460:DO[10]=ON ;
   461:WAIT DO[10]=OFF ;
   462:J P[154] 10% FINE ;
   463:DO[10]=ON ;
   464:WAIT DO[10]=OFF ;
   465:J P[155] 10% FINE ;
   466:DO[10]=ON ;
   467:WAIT DO[10]=OFF ;
   468:J P[156] 10% FINE ;
   469:DO[10]=ON ;
   470:WAIT DO[10]=OFF ;
   471:J P[157] 10% FINE ;
   472:DO[10]=ON ;
   473:WAIT DO[10]=OFF ;
   474:J P[158] 10% FINE ;
   475:DO[10]=ON ;
   476:WAIT DO[10]=OFF ;
   477:J P[159] 10% FINE ;
   478:DO[10]=ON ;
   479:WAIT DO[10]=OFF ;
   480:J P[160] 10% FINE ;
   481:DO[10]=ON ;
   482:WAIT DO[10]=OFF ;
   483:J P[161] 10% FINE ;
   484:DO[10]=ON ;
   485:WAIT DO[10]=OFF ;
   486:J P[162] 10% FINE ;
   487:DO[10]=ON ;
   488:WAIT DO[10]=OFF ;
   489:J P[163] 10% FINE ;
   490:DO[10]=ON ;
   491:WAIT DO[10]=OFF ;
   492:J P[164] 10% FINE ;
   493:DO[10]=ON ;
   494:WAIT DO[10]=OFF ;
   495:J P[165] 10% FINE ;
   496:DO[10]=ON ;
   497:WAIT DO[10]=OFF ;
   498:J P[166] 10% FINE ;
   499:DO[10]=ON ;
   500:WAIT DO[10]=OFF ;
   501:J P[167] 10% FINE ;
   502:DO[10]=ON ;
   503:WAIT DO[10]=OFF ;
   504:J P[168] 10% FINE ;
   505:DO[10]=ON ;
   506:WAIT DO[10]=OFF ;
   507:J P[169] 10% FINE ;
   508:DO[10]=ON ;
   509:WAIT DO[10]=OFF ;
   510:J P[170] 10% FINE ;
   511:DO[10]=ON ;
   512:WAIT DO[10]=OFF ;
   513:J P[171] 10% FINE ;
   514:DO[10]=ON ;
   515:WAIT DO[10]=OFF ;
   516:J P[172] 10% FINE ;
   517:DO[10]=ON ;
   518:WAIT DO[10]=OFF ;
   519:J P[173] 10% FINE ;
   520:DO[10]=ON ;
   521:WAIT DO[10]=OFF ;
   522:J P[174] 10% FINE ;
   523:DO[10]=ON ;
   524:WAIT DO[10]=OFF ;
   525:J P[175] 10% FINE ;
   526:DO[10]=ON ;
   527:WAIT DO[10]=OFF ;
   528:J P[176] 10% FINE ;
   529:DO[10]=ON ;
   530:WAIT DO[10]=OFF ;
   531:J P[177] 10% FINE ;
   532:DO[10]=ON ;
   533:WAIT DO[10]=OFF ;
   534:J P[178] 10% FINE ;
   535:DO[10]=ON ;
   536:WAIT DO[10]=OFF ;
   537:J P[179] 10% FINE ;
   538:DO[10]=ON ;
   539:WAIT DO[10]=OFF ;
   540:J P[180] 10% FINE ;
   541:DO[10]=ON ;
   542:WAIT DO[10]=OFF ;
   543:J P[181] 10% FINE ;
   544:DO[10]=ON ;
   545:WAIT DO[10]=OFF ;
   546:J P[182] 10% FINE ;
   547:DO[10]=ON ;
   548:WAIT DO[10]=OFF ;
   549:J P[183] 10% FINE ;
   550:DO[10]=ON ;
   551:WAIT DO[10]=OFF ;
   552:J P[184] 10% FINE ;
   553:DO[10]=ON ;
   554:WAIT DO[10]=OFF ;
   555:J P[185] 10% FINE ;
   556:DO[10]=ON ;
   557:WAIT DO[10]=OFF ;
   558:J P[186] 10% FINE ;
   559:DO[10]=ON ;
   560:WAIT DO[10]=OFF ;
   561:J P[187] 10% FINE ;
   562:DO[10]=ON ;
   563:WAIT DO[10]=OFF ;
   564:J P[188] 10% FINE ;
   565:DO[10]=ON ;
   566:WAIT DO[10]=OFF ;
   567:J P[189] 10% FINE ;
   568:DO[10]=ON ;
   569:WAIT DO[10]=OFF ;
   570:J P[190] 10% FINE ;
   571:DO[10]=ON ;
   572:WAIT DO[10]=OFF ;
   573:J P[191] 10% FINE ;
   574:DO[10]=ON ;
   575:WAIT DO[10]=OFF ;
   576:J P[192] 10% FINE ;
   577:DO[10]=ON ;
   578:WAIT DO[10]=OFF ;
   579:J P[193] 10% FINE ;
   580:DO[10]=ON ;
   581:WAIT DO[10]=OFF ;
   582:J P[194] 10% FINE ;
   583:DO[10]=ON ;
   584:WAIT DO[10]=OFF ;
   585:J P[195] 10% FINE ;
   586:DO[10]=ON ;
   587:WAIT DO[10]=OFF ;
   588:J P[196] 10% FINE ;
   589:DO[10]=ON ;
   590:WAIT DO[10]=OFF ;
   591:J P[197] 10% FINE ;
   592:DO[10]=ON ;
   593:WAIT DO[10]=OFF ;
   594:J P[198] 10% FINE ;
   595:DO[10]=ON ;
   596:WAIT DO[10]=OFF ;
   597:J P[199] 10% FINE ;
   598:DO[10]=ON ;
   599:WAIT DO[10]=OFF ;
   600:J P[200] 10% FINE ;
   601:DO[10]=ON ;
   602:WAIT DO[10]=OFF ;
   603:J P[201] 10% FINE ;
   604:DO[10]=ON ;
   605:WAIT DO[10]=OFF ;
   606:J P[202] 10% FINE ;
   607:DO[10]=ON ;
   608:WAIT DO[10]=OFF ;
   609:J P[203] 10% FINE ;
   610:DO[10]=ON ;
   611:WAIT DO[10]=OFF ;
   612:J P[204] 10% FINE ;
   613:DO[10]=ON ;
   614:WAIT DO[10]=OFF ;
   615:J P[205] 10% FINE ;
   616:DO[10]=ON ;
   617:WAIT DO[10]=OFF ;
   618:J P[206] 10% FINE ;
   619:DO[10]=ON ;
   620:WAIT DO[10]=OFF ;
   621:J P[207] 10% FINE ;
   622:DO[10]=ON ;
   623:WAIT DO[10]=OFF ;
   624:J P[208] 10% FINE ;
   625:DO[10]=ON ;
   626:WAIT DO[10]=OFF ;
   627:J P[209] 10% FINE ;
   628:DO[10]=ON ;
   629:WAIT DO[10]=OFF ;
   630:J P[210] 10% FINE ;
   631:DO[10]=ON ;
   632:WAIT DO[10]=OFF ;
   633:J P[211] 10% FINE ;
   634:DO[10]=ON ;
   635:WAIT DO[10]=OFF ;
   636:J P[212] 10% FINE ;
   637:DO[10]=ON ;
   638:WAIT DO[10]=OFF ;
   639:J P[213] 10% FINE ;
   640:DO[10]=ON ;
   641:WAIT DO[10]=OFF ;
   642:J P[214] 10% FINE ;
   643:DO[10]=ON ;
   644:WAIT DO[10]=OFF ;
   645:J P[215] 10% FINE ;
   646:DO[10]=ON ;
   647:WAIT DO[10]=OFF ;
   648:J P[216] 10% FINE ;
   649:DO[10]=ON ;
   650:WAIT DO[10]=OFF ;
   651:J P[217] 10% FINE ;
   652:DO[10]=ON ;
   653:WAIT DO[10]=OFF ;
   654:J P[218] 10% FINE ;
   655:DO[10]=ON ;
   656:WAIT DO[10]=OFF ;
   657:J P[219] 10% FINE ;
   658:DO[10]=ON ;
   659:WAIT DO[10]=OFF ;
   660:J P[220] 10% FINE ;
   661:DO[10]=ON ;
   662:WAIT DO[10]=OFF ;
   663:J P[221] 10% FINE ;
   664:DO[10]=ON ;
   665:WAIT DO[10]=OFF ;
   666:J P[222] 10% FINE ;
   667:DO[10]=ON ;
   668:WAIT DO[10]=OFF ;
   669:J P[223] 10% FINE ;
   670:DO[10]=ON ;
   671:WAIT DO[10]=OFF ;
   672:J P[224] 10% FINE ;
   673:DO[10]=ON ;
   674:WAIT DO[10]=OFF ;
   675:J P[225] 10% FINE ;
   676:DO[10]=ON ;
   677:WAIT DO[10]=OFF ;
   678:J P[226] 10% FINE ;
   679:DO[10]=ON ;
   680:WAIT DO[10]=OFF ;
   681:J P[227] 10% FINE ;
   682:DO[10]=ON ;
   683:WAIT DO[10]=OFF ;
   684:J P[228] 10% FINE ;
   685:DO[10]=ON ;
   686:WAIT DO[10]=OFF ;
   687:J P[229] 10% FINE ;
   688:DO[10]=ON ;
   689:WAIT DO[10]=OFF ;
   690:J P[230] 10% FINE ;
   691:DO[10]=ON ;
   692:WAIT DO[10]=OFF ;
   693:J P[231] 10% FINE ;
   694:DO[10]=ON ;
   695:WAIT DO[10]=OFF ;
   696:J P[232] 10% FINE ;
   697:DO[10]=ON ;
   698:WAIT DO[10]=OFF ;
   699:J P[233] 10% FINE ;
   700:DO[10]=ON ;
   701:WAIT DO[10]=OFF ;
   702:J P[234] 10% FINE ;
   703:DO[10]=ON ;
   704:WAIT DO[10]=OFF ;
   705:J P[235] 10% FINE ;
   706:DO[10]=ON ;
   707:WAIT DO[10]=OFF ;
   708:J P[236] 10% FINE ;
   709:DO[10]=ON ;
   710:WAIT DO[10]=OFF ;
   711:J P[237] 10% FINE ;
   712:DO[10]=ON ;
   713:WAIT DO[10]=OFF ;
   714:J P[238] 10% FINE ;
   715:DO[10]=ON ;
   716:WAIT DO[10]=OFF ;
   717:J P[239] 10% FINE ;
   718:DO[10]=ON ;
   719:WAIT DO[10]=OFF ;
   720:J P[240] 10% FINE ;
   721:DO[10]=ON ;
   722:WAIT DO[10]=OFF ;
   723:J P[241] 10% FINE ;
   724:DO[10]=ON ;
   725:WAIT DO[10]=OFF ;
   726:J P[242] 10% FINE ;
   727:DO[10]=ON ;
   728:WAIT DO[10]=OFF ;
   729:J P[243] 10% FINE ;
   730:DO[10]=ON ;
   731:WAIT DO[10]=OFF ;
   732:J P[244] 10% FINE ;
   733:DO[10]=ON ;
   734:WAIT DO[10]=OFF ;
   735:J P[245] 10% FINE ;
   736:DO[10]=ON ;
   737:WAIT DO[10]=OFF ;
   738:J P[246] 10% FINE ;
   739:DO[10]=ON ;
   740:WAIT DO[10]=OFF ;
   741:J P[247] 10% FINE ;
   742:DO[10]=ON ;
   743:WAIT DO[10]=OFF ;
   744:J P[248] 10% FINE ;
   745:DO[10]=ON ;
   746:WAIT DO[10]=OFF ;
   747:J P[249] 10% FINE ;
   748:DO[10]=ON ;
   749:WAIT DO[10]=OFF ;
   750:J P[250] 10% FINE ;
   751:DO[10]=ON ;
   752:WAIT DO[10]=OFF ;
   753:J P[251] 10% FINE ;
   754:DO[10]=ON ;
   755:WAIT DO[10]=OFF ;
   756:J P[252] 10% FINE ;
   757:DO[10]=ON ;
   758:WAIT DO[10]=OFF ;
   759:J P[253] 10% FINE ;
   760:DO[10]=ON ;
   761:WAIT DO[10]=OFF ;
   762:J P[254] 10% FINE ;
   763:DO[10]=ON ;
   764:WAIT DO[10]=OFF ;
   765:J P[255] 10% FINE ;
   766:DO[10]=ON ;
   767:WAIT DO[10]=OFF ;
   768:J P[256] 10% FINE ;
   769:DO[10]=ON ;
   770:WAIT DO[10]=OFF ;
   771:J P[257] 10% FINE ;
   772:DO[10]=ON ;
   773:WAIT DO[10]=OFF ;
   774:J P[258] 10% FINE ;
   775:DO[10]=ON ;
   776:WAIT DO[10]=OFF ;
   777:J P[259] 10% FINE ;
   778:DO[10]=ON ;
   779:WAIT DO[10]=OFF ;
   780:J P[260] 10% FINE ;
   781:DO[10]=ON ;
   782:WAIT DO[10]=OFF ;
   783:J P[261] 10% FINE ;
   784:DO[10]=ON ;
   785:WAIT DO[10]=OFF ;
   786:J P[262] 10% FINE ;
   787:DO[10]=ON ;
   788:WAIT DO[10]=OFF ;
   789:J P[263] 10% FINE ;
   790:DO[10]=ON ;
   791:WAIT DO[10]=OFF ;
   792:J P[264] 10% FINE ;
   793:DO[10]=ON ;
   794:WAIT DO[10]=OFF ;
   795:J P[265] 10% FINE ;
   796:DO[10]=ON ;
   797:WAIT DO[10]=OFF ;
   798:J P[266] 10% FINE ;
   799:DO[10]=ON ;
   800:WAIT DO[10]=OFF ;
   801:J P[267] 10% FINE ;
   802:DO[10]=ON ;
   803:WAIT DO[10]=OFF ;
   804:J P[268] 10% FINE ;
   805:DO[10]=ON ;
   806:WAIT DO[10]=OFF ;
   807:J P[269] 10% FINE ;
   808:DO[10]=ON ;
   809:WAIT DO[10]=OFF ;
   810:J P[270] 10% FINE ;
   811:DO[10]=ON ;
   812:WAIT DO[10]=OFF ;
   813:J P[271] 10% FINE ;
   814:DO[10]=ON ;
   815:WAIT DO[10]=OFF ;
   816:J P[272] 10% FINE ;
   817:DO[10]=ON ;
   818:WAIT DO[10]=OFF ;
   819:J P[273] 10% FINE ;
   820:DO[10]=ON ;
   821:WAIT DO[10]=OFF ;
   822:J P[274] 10% FINE ;
   823:DO[10]=ON ;
   824:WAIT DO[10]=OFF ;
   825:J P[275] 10% FINE ;
   826:DO[10]=ON ;
   827:WAIT DO[10]=OFF ;
   828:J P[276] 10% FINE ;
   829:DO[10]=ON ;
   830:WAIT DO[10]=OFF ;
   831:J P[277] 10% FINE ;
   832:DO[10]=ON ;
   833:WAIT DO[10]=OFF ;
   834:J P[278] 10% FINE ;
   835:DO[10]=ON ;
   836:WAIT DO[10]=OFF ;
   837:J P[279] 10% FINE ;
   838:DO[10]=ON ;
   839:WAIT DO[10]=OFF ;
   840:J P[280] 10% FINE ;
   841:DO[10]=ON ;
   842:WAIT DO[10]=OFF ;
   843:J P[281] 10% FINE ;
   844:DO[10]=ON ;
   845:WAIT DO[10]=OFF ;
   846:J P[282] 10% FINE ;
   847:DO[10]=ON ;
   848:WAIT DO[10]=OFF ;
   849:J P[283] 10% FINE ;
   850:DO[10]=ON ;
   851:WAIT DO[10]=OFF ;
   852:J P[284] 10% FINE ;
   853:DO[10]=ON ;
   854:WAIT DO[10]=OFF ;
   855:J P[285] 10% FINE ;
   856:DO[10]=ON ;
   857:WAIT DO[10]=OFF ;
   858:J P[286] 10% FINE ;
   859:DO[10]=ON ;
   860:WAIT DO[10]=OFF ;
   861:J P[287] 10% FINE ;
   862:DO[10]=ON ;
   863:WAIT DO[10]=OFF ;
   864:J P[288] 10% FINE ;
   865:DO[10]=ON ;
   866:WAIT DO[10]=OFF ;
   867:J P[289] 10% FINE ;
   868:DO[10]=ON ;
   869:WAIT DO[10]=OFF ;
   870:J P[290] 10% FINE ;
   871:DO[10]=ON ;
   872:WAIT DO[10]=OFF ;
   873:J P[291] 10% FINE ;
   874:DO[10]=ON ;
   875:WAIT DO[10]=OFF ;
   876:J P[292] 10% FINE ;
   877:DO[10]=ON ;
   878:WAIT DO[10]=OFF ;
   879:J P[293] 10% FINE ;
   880:DO[10]=ON ;
   881:WAIT DO[10]=OFF ;
   882:J P[294] 10% FINE ;
   883:DO[10]=ON ;
   884:WAIT DO[10]=OFF ;
   885:J P[295] 10% FINE ;
   886:DO[10]=ON ;
   887:WAIT DO[10]=OFF ;
   888:J P[296] 10% FINE ;
   889:DO[10]=ON ;
   890:WAIT DO[10]=OFF ;
   891:J P[297] 10% FINE ;
   892:DO[10]=ON ;
   893:WAIT DO[10]=OFF ;
   894:J P[298] 10% FINE ;
   895:DO[10]=ON ;
   896:WAIT DO[10]=OFF ;
   897:J P[299] 10% FINE ;
   898:DO[10]=ON ;
   899:WAIT DO[10]=OFF ;
   900:J P[300] 10% FINE ;
   901:DO[10]=ON ;
   902:WAIT DO[10]=OFF ;
   903:J P[301] 10% FINE ;
   904:DO[10]=ON ;
   905:WAIT DO[10]=OFF ;
   906:J P[302] 10% FINE ;
   907:DO[10]=ON ;
   908:WAIT DO[10]=OFF ;
   909:J P[303] 10% FINE ;
   910:DO[10]=ON ;
   911:WAIT DO[10]=OFF ;
   912:J P[304] 10% FINE ;
   913:DO[10]=ON ;
   914:WAIT DO[10]=OFF ;
   915:J P[305] 10% FINE ;
   916:DO[10]=ON ;
   917:WAIT DO[10]=OFF ;
   918:J P[306] 10% FINE ;
   919:DO[10]=ON ;
   920:WAIT DO[10]=OFF ;
   921:J P[307] 10% FINE ;
   922:DO[10]=ON ;
   923:WAIT DO[10]=OFF ;
   924:J P[308] 10% FINE ;
   925:DO[10]=ON ;
   926:WAIT DO[10]=OFF ;
   927:J P[309] 10% FINE ;
   928:DO[10]=ON ;
   929:WAIT DO[10]=OFF ;
   930:J P[310] 10% FINE ;
   931:DO[10]=ON ;
   932:WAIT DO[10]=OFF ;
   933:J P[311] 10% FINE ;
   934:DO[10]=ON ;
   935:WAIT DO[10]=OFF ;
   936:J P[312] 10% FINE ;
   937:DO[10]=ON ;
   938:WAIT DO[10]=OFF ;
   939:J P[313] 10% FINE ;
   940:DO[10]=ON ;
   941:WAIT DO[10]=OFF ;
   942:J P[314] 10% FINE ;
   943:DO[10]=ON ;
   944:WAIT DO[10]=OFF ;
   945:J P[315] 10% FINE ;
   946:DO[10]=ON ;
   947:WAIT DO[10]=OFF ;
   948:J P[316] 10% FINE ;
   949:DO[10]=ON ;
   950:WAIT DO[10]=OFF ;
   951:J P[317] 10% FINE ;
   952:DO[10]=ON ;
   953:WAIT DO[10]=OFF ;
   954:J P[318] 10% FINE ;
   955:DO[10]=ON ;
   956:WAIT DO[10]=OFF ;
   957:J P[319] 10% FINE ;
   958:DO[10]=ON ;
   959:WAIT DO[10]=OFF ;
   960:J P[320] 10% FINE ;
   961:DO[10]=ON ;
   962:WAIT DO[10]=OFF ;
   963:J P[321] 10% FINE ;
   964:DO[10]=ON ;
   965:WAIT DO[10]=OFF ;
   966:J P[322] 10% FINE ;
   967:DO[10]=ON ;
   968:WAIT DO[10]=OFF ;
   969:  R[81]=0 ;
/POS
P[1]{
   GP1:
   UF : 4, UT : 1,
   J1 = -35.000 deg,  J2 = -40.000 deg,  J3 = -1.667 deg,
   J4 = 1.600 deg,  J5 = -56.000 deg,  J6 = -33.000 deg
};
P[2]{
   GP1:
   UF : 4, UT : 1,
   J1 = -34.000 deg,  J2 = -40.000 deg,  J3 = -1.667 deg,
   J4 = 1.600 deg,  J5 = -56.000 deg,  J6 = -33.000 deg
};
P[3]{
   GP1:
   UF : 4, UT : 1,
   J1 = -35.000 deg,  J2 = -39.000 deg,  J3 = -2.667 deg,
   J4 = 1.600 deg,  J5 = -56.000 deg,  J6 = -33.000 deg
};
P[4]{
   GP1:
   UF : 4, UT : 1,
   J1 = -35.000 deg,  J2 = -40.000 deg,  J3 = -0.667 deg,
   J4 = 1.600 deg,  J5 = -56.000 deg,  J6 = -33.000 deg
};
P[5]{
   GP1:
   UF : 4, UT : 1,
   J1 = -35.000 deg,  J2 = -40.000 deg,  J3 = -1.667 deg,
   J4 = 2.600 deg,  J5 = -56.000 deg,  J6 = -33.000 deg
};
P[6]{
   GP1:
   UF : 4, UT : 1,
   J1 = -35.000 deg,  J2 = -40.000 deg,  J3 = -1.667 deg,
   J4 = 1.600 deg,  J5 = -55.000 deg,  J6 = -33.000 deg
};
P[7]{
   GP1:
   UF : 4, UT : 1,
   J1 = -35.000 deg,  J2 = -40.000 deg,  J3 = -1.667 deg,
   J4 = 1.600 deg,  J5 = -56.000 deg,  J6 = -32.000 deg
};
P[8]{
   GP1:
   UF : 4, UT : 1,
   J1 = -35.000 deg,  J2 = -40.000 deg,  J3 = 3.333 deg,
   J4 = 1.600 deg,  J5 = -56.000 deg,  J6 = -33.000 deg
};
P[9]{
   GP1:
   UF : 4, UT : 1,
   J1 = -34.000 deg,  J2 = -40.000 deg,  J3 = 3.333 deg,
   J4 = 1.600 deg,  J5 = -56.000 deg,  J6 = -33.000 deg
};
P[10]{
   GP1:
   UF : 4, UT : 1,
   J1 = -35.000 deg,  J2 = -39.000 deg,  J3 = 2.333 deg,
   J4 = 1.600 deg,  J5 = -56.000 deg,  J6 = -33.000 deg
};
P[11]{
   GP1:
   UF : 4, UT : 1,
   J1 = -35.000 deg,  J2 = -40.000 deg,  J3 = 4.333 deg,
   J4 = 1.600 deg,  J5 = -56.000 deg,  J6 = -33.000 deg
};
P[12]{
   GP1:
   UF : 4, UT : 1,
   J1 = -35.000 deg,  J2 = -40.000 deg,  J3 = 3.333 deg,
   J4 = 2.600 deg,  J5 = -56.000 deg,  J6 = -33.000 deg
};
P[13]{
   GP1:
   UF : 4, UT : 1,
   J1 = -35.000 deg,  J2 = -40.000 deg,  J3 = 3.333 deg,
   J4 = 1.600 deg,  J5 = -55.000 deg,  J6 = -33.000 deg
};
P[14]{
   GP1:
   UF : 4, UT : 1,
   J1 = -35.000 deg,  J2 = -40.000 deg,  J3 = 3.333 deg,
   J4 = 1.600 deg,  J5 = -56.000 deg,  J6 = -32.000 deg
};
P[15]{
   GP1:
   UF : 4, UT : 1,
   J1 = -35.000 deg,  J2 = -40.000 deg,  J3 = 5.000 deg,
   J4 = 1.600 deg,  J5 = -56.000 deg,  J6 = -33.000 deg
};
P[16]{
   GP1:
   UF : 4, UT : 1,
   J1 = -34.000 deg,  J2 = -40.000 deg,  J3 = 5.000 deg,
   J4 = 1.600 deg,  J5 = -56.000 deg,  J6 = -33.000 deg
};
P[17]{
   GP1:
   UF : 4, UT : 1,
   J1 = -35.000 deg,  J2 = -39.000 deg,  J3 = 4.000 deg,
   J4 = 1.600 deg,  J5 = -56.000 deg,  J6 = -33.000 deg
};
P[18]{
   GP1:
   UF : 4, UT : 1,
   J1 = -35.000 deg,  J2 = -40.000 deg,  J3 = 6.000 deg,
   J4 = 1.600 deg,  J5 = -56.000 deg,  J6 = -33.000 deg
};
P[19]{
   GP1:
   UF : 4, UT : 1,
   J1 = -35.000 deg,  J2 = -40.000 deg,  J3 = 5.000 deg,
   J4 = 2.600 deg,  J5 = -56.000 deg,  J6 = -33.000 deg
};
P[20]{
   GP1:
   UF : 4, UT : 1,
   J1 = -35.000 deg,  J2 = -40.000 deg,  J3 = 5.000 deg,
   J4 = 1.600 deg,  J5 = -55.000 deg,  J6 = -33.000 deg
};
P[21]{
   GP1:
   UF : 4, UT : 1,
   J1 = -35.000 deg,  J2 = -40.000 deg,  J3 = 5.000 deg,
   J4 = 1.600 deg,  J5 = -56.000 deg,  J6 = -32.000 deg
};
P[22]{
   GP1:
   UF : 4, UT : 1,
   J1 = -35.000 deg,  J2 = -35.000 deg,  J3 = 5.000 deg,
   J4 = 1.600 deg,  J5 = -56.000 deg,  J6 = -33.000 deg
};
P[23]{
   GP1:
   UF : 4, UT : 1,
   J1 = -34.000 deg,  J2 = -35.000 deg,  J3 = 5.000 deg,
   J4 = 1.600 deg,  J5 = -56.000 deg,  J6 = -33.000 deg
};
P[24]{
   GP1:
   UF : 4, UT : 1,
   J1 = -35.000 deg,  J2 = -34.000 deg,  J3 = 4.000 deg,
   J4 = 1.600 deg,  J5 = -56.000 deg,  J6 = -33.000 deg
};
P[25]{
   GP1:
   UF : 4, UT : 1,
   J1 = -35.000 deg,  J2 = -35.000 deg,  J3 = 6.000 deg,
   J4 = 1.600 deg,  J5 = -56.000 deg,  J6 = -33.000 deg
};
P[26]{
   GP1:
   UF : 4, UT : 1,
   J1 = -35.000 deg,  J2 = -35.000 deg,  J3 = 5.000 deg,
   J4 = 2.600 deg,  J5 = -56.000 deg,  J6 = -33.000 deg
};
P[27]{
   GP1:
   UF : 4, UT : 1,
   J1 = -35.000 deg,  J2 = -35.000 deg,  J3 = 5.000 deg,
   J4 = 1.600 deg,  J5 = -55.000 deg,  J6 = -33.000 deg
};
P[28]{
   GP1:
   UF : 4, UT : 1,
   J1 = -35.000 deg,  J2 = -35.000 deg,  J3 = 5.000 deg,
   J4 = 1.600 deg,  J5 = -56.000 deg,  J6 = -32.000 deg
};
P[29]{
   GP1:
   UF : 4, UT : 1,
   J1 = -35.000 deg,  J2 = -35.000 deg,  J3 = 0.000 deg,
   J4 = 1.600 deg,  J5 = -56.000 deg,  J6 = -33.000 deg
};
P[30]{
   GP1:
   UF : 4, UT : 1,
   J1 = -34.000 deg,  J2 = -35.000 deg,  J3 = 0.000 deg,
   J4 = 1.600 deg,  J5 = -56.000 deg,  J6 = -33.000 deg
};
P[31]{
   GP1:
   UF : 4, UT : 1,
   J1 = -35.000 deg,  J2 = -34.000 deg,  J3 = -1.000 deg,
   J4 = 1.600 deg,  J5 = -56.000 deg,  J6 = -33.000 deg
};
P[32]{
   GP1:
   UF : 4, UT : 1,
   J1 = -35.000 deg,  J2 = -35.000 deg,  J3 = 1.000 deg,
   J4 = 1.600 deg,  J5 = -56.000 deg,  J6 = -33.000 deg
};
P[33]{
   GP1:
   UF : 4, UT : 1,
   J1 = -35.000 deg,  J2 = -35.000 deg,  J3 = 0.000 deg,
   J4 = 2.600 deg,  J5 = -56.000 deg,  J6 = -33.000 deg
};
P[34]{
   GP1:
   UF : 4, UT : 1,
   J1 = -35.000 deg,  J2 = -35.000 deg,  J3 = 0.000 deg,
   J4 = 1.600 deg,  J5 = -55.000 deg,  J6 = -33.000 deg
};
P[35]{
   GP1:
   UF : 4, UT : 1,
   J1 = -35.000 deg,  J2 = -35.000 deg,  J3 = 0.000 deg,
   J4 = 1.600 deg,  J5 = -56.000 deg,  J6 = -32.000 deg
};
P[36]{
   GP1:
   UF : 4, UT : 1,
   J1 = -35.000 deg,  J2 = -35.000 deg,  J3 = -5.000 deg,
   J4 = 1.600 deg,  J5 = -56.000 deg,  J6 = -33.000 deg
};
P[37]{
   GP1:
   UF : 4, UT : 1,
   J1 = -34.000 deg,  J2 = -35.000 deg,  J3 = -5.000 deg,
   J4 = 1.600 deg,  J5 = -56.000 deg,  J6 = -33.000 deg
};
P[38]{
   GP1:
   UF : 4, UT : 1,
   J1 = -35.000 deg,  J2 = -34.000 deg,  J3 = -6.000 deg,
   J4 = 1.600 deg,  J5 = -56.000 deg,  J6 = -33.000 deg
};
P[39]{
   GP1:
   UF : 4, UT : 1,
   J1 = -35.000 deg,  J2 = -35.000 deg,  J3 = -4.000 deg,
   J4 = 1.600 deg,  J5 = -56.000 deg,  J6 = -33.000 deg
};
P[40]{
   GP1:
   UF : 4, UT : 1,
   J1 = -35.000 deg,  J2 = -35.000 deg,  J3 = -5.000 deg,
   J4 = 2.600 deg,  J5 = -56.000 deg,  J6 = -33.000 deg
};
P[41]{
   GP1:
   UF : 4, UT : 1,
   J1 = -35.000 deg,  J2 = -35.000 deg,  J3 = -5.000 deg,
   J4 = 1.600 deg,  J5 = -55.000 deg,  J6 = -33.000 deg
};
P[42]{
   GP1:
   UF : 4, UT : 1,
   J1 = -35.000 deg,  J2 = -35.000 deg,  J3 = -5.000 deg,
   J4 = 1.600 deg,  J5 = -56.000 deg,  J6 = -32.000 deg
};
P[43]{
   GP1:
   UF : 4, UT : 1,
   J1 = -35.000 deg,  J2 = -35.000 deg,  J3 = -10.000 deg,
   J4 = 1.600 deg,  J5 = -56.000 deg,  J6 = -33.000 deg
};
P[44]{
   GP1:
   UF : 4, UT : 1,
   J1 = -34.000 deg,  J2 = -35.000 deg,  J3 = -10.000 deg,
   J4 = 1.600 deg,  J5 = -56.000 deg,  J6 = -33.000 deg
};
P[45]{
   GP1:
   UF : 4, UT : 1,
   J1 = -35.000 deg,  J2 = -34.000 deg,  J3 = -11.000 deg,
   J4 = 1.600 deg,  J5 = -56.000 deg,  J6 = -33.000 deg
};
P[46]{
   GP1:
   UF : 4, UT : 1,
   J1 = -35.000 deg,  J2 = -35.000 deg,  J3 = -9.000 deg,
   J4 = 1.600 deg,  J5 = -56.000 deg,  J6 = -33.000 deg
};
P[47]{
   GP1:
   UF : 4, UT : 1,
   J1 = -35.000 deg,  J2 = -35.000 deg,  J3 = -10.000 deg,
   J4 = 2.600 deg,  J5 = -56.000 deg,  J6 = -33.000 deg
};
P[48]{
   GP1:
   UF : 4, UT : 1,
   J1 = -35.000 deg,  J2 = -35.000 deg,  J3 = -10.000 deg,
   J4 = 1.600 deg,  J5 = -55.000 deg,  J6 = -33.000 deg
};
P[49]{
   GP1:
   UF : 4, UT : 1,
   J1 = -35.000 deg,  J2 = -35.000 deg,  J3 = -10.000 deg,
   J4 = 1.600 deg,  J5 = -56.000 deg,  J6 = -32.000 deg
};
P[50]{
   GP1:
   UF : 4, UT : 1,
   J1 = -35.000 deg,  J2 = -35.000 deg,  J3 = -15.000 deg,
   J4 = 1.600 deg,  J5 = -56.000 deg,  J6 = -33.000 deg
};
P[51]{
   GP1:
   UF : 4, UT : 1,
   J1 = -34.000 deg,  J2 = -35.000 deg,  J3 = -15.000 deg,
   J4 = 1.600 deg,  J5 = -56.000 deg,  J6 = -33.000 deg
};
P[52]{
   GP1:
   UF : 4, UT : 1,
   J1 = -35.000 deg,  J2 = -34.000 deg,  J3 = -16.000 deg,
   J4 = 1.600 deg,  J5 = -56.000 deg,  J6 = -33.000 deg
};
P[53]{
   GP1:
   UF : 4, UT : 1,
   J1 = -35.000 deg,  J2 = -35.000 deg,  J3 = -14.000 deg,
   J4 = 1.600 deg,  J5 = -56.000 deg,  J6 = -33.000 deg
};
P[54]{
   GP1:
   UF : 4, UT : 1,
   J1 = -35.000 deg,  J2 = -35.000 deg,  J3 = -15.000 deg,
   J4 = 2.600 deg,  J5 = -56.000 deg,  J6 = -33.000 deg
};
P[55]{
   GP1:
   UF : 4, UT : 1,
   J1 = -35.000 deg,  J2 = -35.000 deg,  J3 = -15.000 deg,
   J4 = 1.600 deg,  J5 = -55.000 deg,  J6 = -33.000 deg
};
P[56]{
   GP1:
   UF : 4, UT : 1,
   J1 = -35.000 deg,  J2 = -35.000 deg,  J3 = -15.000 deg,
   J4 = 1.600 deg,  J5 = -56.000 deg,  J6 = -32.000 deg
};
P[57]{
   GP1:
   UF : 4, UT : 1,
   J1 = -35.000 deg,  J2 = -35.000 deg,  J3 = -20.000 deg,
   J4 = 1.600 deg,  J5 = -56.000 deg,  J6 = -33.000 deg
};
P[58]{
   GP1:
   UF : 4, UT : 1,
   J1 = -34.000 deg,  J2 = -35.000 deg,  J3 = -20.000 deg,
   J4 = 1.600 deg,  J5 = -56.000 deg,  J6 = -33.000 deg
};
P[59]{
   GP1:
   UF : 4, UT : 1,
   J1 = -35.000 deg,  J2 = -34.000 deg,  J3 = -21.000 deg,
   J4 = 1.600 deg,  J5 = -56.000 deg,  J6 = -33.000 deg
};
P[60]{
   GP1:
   UF : 4, UT : 1,
   J1 = -35.000 deg,  J2 = -35.000 deg,  J3 = -19.000 deg,
   J4 = 1.600 deg,  J5 = -56.000 deg,  J6 = -33.000 deg
};
P[61]{
   GP1:
   UF : 4, UT : 1,
   J1 = -35.000 deg,  J2 = -35.000 deg,  J3 = -20.000 deg,
   J4 = 2.600 deg,  J5 = -56.000 deg,  J6 = -33.000 deg
};
P[62]{
   GP1:
   UF : 4, UT : 1,
   J1 = -35.000 deg,  J2 = -35.000 deg,  J3 = -20.000 deg,
   J4 = 1.600 deg,  J5 = -55.000 deg,  J6 = -33.000 deg
};
P[63]{
   GP1:
   UF : 4, UT : 1,
   J1 = -35.000 deg,  J2 = -35.000 deg,  J3 = -20.000 deg,
   J4 = 1.600 deg,  J5 = -56.000 deg,  J6 = -32.000 deg
};
P[64]{
   GP1:
   UF : 4, UT : 1,
   J1 = -35.000 deg,  J2 = -35.000 deg,  J3 = -25.000 deg,
   J4 = 1.600 deg,  J5 = -56.000 deg,  J6 = -33.000 deg
};
P[65]{
   GP1:
   UF : 4, UT : 1,
   J1 = -34.000 deg,  J2 = -35.000 deg,  J3 = -25.000 deg,
   J4 = 1.600 deg,  J5 = -56.000 deg,  J6 = -33.000 deg
};
P[66]{
   GP1:
   UF : 4, UT : 1,
   J1 = -35.000 deg,  J2 = -34.000 deg,  J3 = -26.000 deg,
   J4 = 1.600 deg,  J5 = -56.000 deg,  J6 = -33.000 deg
};
P[67]{
   GP1:
   UF : 4, UT : 1,
   J1 = -35.000 deg,  J2 = -35.000 deg,  J3 = -24.000 deg,
   J4 = 1.600 deg,  J5 = -56.000 deg,  J6 = -33.000 deg
};
P[68]{
   GP1:
   UF : 4, UT : 1,
   J1 = -35.000 deg,  J2 = -35.000 deg,  J3 = -25.000 deg,
   J4 = 2.600 deg,  J5 = -56.000 deg,  J6 = -33.000 deg
};
P[69]{
   GP1:
   UF : 4, UT : 1,
   J1 = -35.000 deg,  J2 = -35.000 deg,  J3 = -25.000 deg,
   J4 = 1.600 deg,  J5 = -55.000 deg,  J6 = -33.000 deg
};
P[70]{
   GP1:
   UF : 4, UT : 1,
   J1 = -35.000 deg,  J2 = -35.000 deg,  J3 = -25.000 deg,
   J4 = 1.600 deg,  J5 = -56.000 deg,  J6 = -32.000 deg
};
P[71]{
   GP1:
   UF : 4, UT : 1,
   J1 = -35.000 deg,  J2 = -35.000 deg,  J3 = -30.000 deg,
   J4 = 1.600 deg,  J5 = -56.000 deg,  J6 = -33.000 deg
};
P[72]{
   GP1:
   UF : 4, UT : 1,
   J1 = -34.000 deg,  J2 = -35.000 deg,  J3 = -30.000 deg,
   J4 = 1.600 deg,  J5 = -56.000 deg,  J6 = -33.000 deg
};
P[73]{
   GP1:
   UF : 4, UT : 1,
   J1 = -35.000 deg,  J2 = -34.000 deg,  J3 = -31.000 deg,
   J4 = 1.600 deg,  J5 = -56.000 deg,  J6 = -33.000 deg
};
P[74]{
   GP1:
   UF : 4, UT : 1,
   J1 = -35.000 deg,  J2 = -35.000 deg,  J3 = -29.000 deg,
   J4 = 1.600 deg,  J5 = -56.000 deg,  J6 = -33.000 deg
};
P[75]{
   GP1:
   UF : 4, UT : 1,
   J1 = -35.000 deg,  J2 = -35.000 deg,  J3 = -30.000 deg,
   J4 = 2.600 deg,  J5 = -56.000 deg,  J6 = -33.000 deg
};
P[76]{
   GP1:
   UF : 4, UT : 1,
   J1 = -35.000 deg,  J2 = -35.000 deg,  J3 = -30.000 deg,
   J4 = 1.600 deg,  J5 = -55.000 deg,  J6 = -33.000 deg
};
P[77]{
   GP1:
   UF : 4, UT : 1,
   J1 = -35.000 deg,  J2 = -35.000 deg,  J3 = -30.000 deg,
   J4 = 1.600 deg,  J5 = -56.000 deg,  J6 = -32.000 deg
};
P[78]{
   GP1:
   UF : 4, UT : 1,
   J1 = -35.000 deg,  J2 = -35.000 deg,  J3 = -35.000 deg,
   J4 = 1.600 deg,  J5 = -56.000 deg,  J6 = -33.000 deg
};
P[79]{
   GP1:
   UF : 4, UT : 1,
   J1 = -34.000 deg,  J2 = -35.000 deg,  J3 = -35.000 deg,
   J4 = 1.600 deg,  J5 = -56.000 deg,  J6 = -33.000 deg
};
P[80]{
   GP1:
   UF : 4, UT : 1,
   J1 = -35.000 deg,  J2 = -34.000 deg,  J3 = -36.000 deg,
   J4 = 1.600 deg,  J5 = -56.000 deg,  J6 = -33.000 deg
};
P[81]{
   GP1:
   UF : 4, UT : 1,
   J1 = -35.000 deg,  J2 = -35.000 deg,  J3 = -34.000 deg,
   J4 = 1.600 deg,  J5 = -56.000 deg,  J6 = -33.000 deg
};
P[82]{
   GP1:
   UF : 4, UT : 1,
   J1 = -35.000 deg,  J2 = -35.000 deg,  J3 = -35.000 deg,
   J4 = 2.600 deg,  J5 = -56.000 deg,  J6 = -33.000 deg
};
P[83]{
   GP1:
   UF : 4, UT : 1,
   J1 = -35.000 deg,  J2 = -35.000 deg,  J3 = -35.000 deg,
   J4 = 1.600 deg,  J5 = -55.000 deg,  J6 = -33.000 deg
};
P[84]{
   GP1:
   UF : 4, UT : 1,
   J1 = -35.000 deg,  J2 = -35.000 deg,  J3 = -35.000 deg,
   J4 = 1.600 deg,  J5 = -56.000 deg,  J6 = -32.000 deg
};
P[85]{
   GP1:
   UF : 4, UT : 1,
   J1 = -35.000 deg,  J2 = -35.000 deg,  J3 = -40.000 deg,
   J4 = 1.600 deg,  J5 = -56.000 deg,  J6 = -33.000 deg
};
P[86]{
   GP1:
   UF : 4, UT : 1,
   J1 = -34.000 deg,  J2 = -35.000 deg,  J3 = -40.000 deg,
   J4 = 1.600 deg,  J5 = -56.000 deg,  J6 = -33.000 deg
};
P[87]{
   GP1:
   UF : 4, UT : 1,
   J1 = -35.000 deg,  J2 = -34.000 deg,  J3 = -41.000 deg,
   J4 = 1.600 deg,  J5 = -56.000 deg,  J6 = -33.000 deg
};
P[88]{
   GP1:
   UF : 4, UT : 1,
   J1 = -35.000 deg,  J2 = -35.000 deg,  J3 = -39.000 deg,
   J4 = 1.600 deg,  J5 = -56.000 deg,  J6 = -33.000 deg
};
P[89]{
   GP1:
   UF : 4, UT : 1,
   J1 = -35.000 deg,  J2 = -35.000 deg,  J3 = -40.000 deg,
   J4 = 2.600 deg,  J5 = -56.000 deg,  J6 = -33.000 deg
};
P[90]{
   GP1:
   UF : 4, UT : 1,
   J1 = -35.000 deg,  J2 = -35.000 deg,  J3 = -40.000 deg,
   J4 = 1.600 deg,  J5 = -55.000 deg,  J6 = -33.000 deg
};
P[91]{
   GP1:
   UF : 4, UT : 1,
   J1 = -35.000 deg,  J2 = -35.000 deg,  J3 = -40.000 deg,
   J4 = 1.600 deg,  J5 = -56.000 deg,  J6 = -32.000 deg
};
P[92]{
   GP1:
   UF : 4, UT : 1,
   J1 = -35.000 deg,  J2 = -30.000 deg,  J3 = -43.333 deg,
   J4 = 1.600 deg,  J5 = -56.000 deg,  J6 = -33.000 deg
};
P[93]{
   GP1:
   UF : 4, UT : 1,
   J1 = -34.000 deg,  J2 = -30.000 deg,  J3 = -43.333 deg,
   J4 = 1.600 deg,  J5 = -56.000 deg,  J6 = -33.000 deg
};
P[94]{
   GP1:
   UF : 4, UT : 1,
   J1 = -35.000 deg,  J2 = -29.000 deg,  J3 = -44.333 deg,
   J4 = 1.600 deg,  J5 = -56.000 deg,  J6 = -33.000 deg
};
P[95]{
   GP1:
   UF : 4, UT : 1,
   J1 = -35.000 deg,  J2 = -30.000 deg,  J3 = -42.333 deg,
   J4 = 1.600 deg,  J5 = -56.000 deg,  J6 = -33.000 deg
};
P[96]{
   GP1:
   UF : 4, UT : 1,
   J1 = -35.000 deg,  J2 = -30.000 deg,  J3 = -43.333 deg,
   J4 = 2.600 deg,  J5 = -56.000 deg,  J6 = -33.000 deg
};
P[97]{
   GP1:
   UF : 4, UT : 1,
   J1 = -35.000 deg,  J2 = -30.000 deg,  J3 = -43.333 deg,
   J4 = 1.600 deg,  J5 = -55.000 deg,  J6 = -33.000 deg
};
P[98]{
   GP1:
   UF : 4, UT : 1,
   J1 = -35.000 deg,  J2 = -30.000 deg,  J3 = -43.333 deg,
   J4 = 1.600 deg,  J5 = -56.000 deg,  J6 = -32.000 deg
};
P[99]{
   GP1:
   UF : 4, UT : 1,
   J1 = -35.000 deg,  J2 = -30.000 deg,  J3 = -38.333 deg,
   J4 = 1.600 deg,  J5 = -56.000 deg,  J6 = -33.000 deg
};
P[100]{
   GP1:
   UF : 4, UT : 1,
   J1 = -34.000 deg,  J2 = -30.000 deg,  J3 = -38.333 deg,
   J4 = 1.600 deg,  J5 = -56.000 deg,  J6 = -33.000 deg
};
P[101]{
   GP1:
   UF : 4, UT : 1,
   J1 = -35.000 deg,  J2 = -29.000 deg,  J3 = -39.333 deg,
   J4 = 1.600 deg,  J5 = -56.000 deg,  J6 = -33.000 deg
};
P[102]{
   GP1:
   UF : 4, UT : 1,
   J1 = -35.000 deg,  J2 = -30.000 deg,  J3 = -37.333 deg,
   J4 = 1.600 deg,  J5 = -56.000 deg,  J6 = -33.000 deg
};
P[103]{
   GP1:
   UF : 4, UT : 1,
   J1 = -35.000 deg,  J2 = -30.000 deg,  J3 = -38.333 deg,
   J4 = 2.600 deg,  J5 = -56.000 deg,  J6 = -33.000 deg
};
P[104]{
   GP1:
   UF : 4, UT : 1,
   J1 = -35.000 deg,  J2 = -30.000 deg,  J3 = -38.333 deg,
   J4 = 1.600 deg,  J5 = -55.000 deg,  J6 = -33.000 deg
};
P[105]{
   GP1:
   UF : 4, UT : 1,
   J1 = -35.000 deg,  J2 = -30.000 deg,  J3 = -38.333 deg,
   J4 = 1.600 deg,  J5 = -56.000 deg,  J6 = -32.000 deg
};
P[106]{
   GP1:
   UF : 4, UT : 1,
   J1 = -35.000 deg,  J2 = -30.000 deg,  J3 = -33.333 deg,
   J4 = 1.600 deg,  J5 = -56.000 deg,  J6 = -33.000 deg
};
P[107]{
   GP1:
   UF : 4, UT : 1,
   J1 = -34.000 deg,  J2 = -30.000 deg,  J3 = -33.333 deg,
   J4 = 1.600 deg,  J5 = -56.000 deg,  J6 = -33.000 deg
};
P[108]{
   GP1:
   UF : 4, UT : 1,
   J1 = -35.000 deg,  J2 = -29.000 deg,  J3 = -34.333 deg,
   J4 = 1.600 deg,  J5 = -56.000 deg,  J6 = -33.000 deg
};
P[109]{
   GP1:
   UF : 4, UT : 1,
   J1 = -35.000 deg,  J2 = -30.000 deg,  J3 = -32.333 deg,
   J4 = 1.600 deg,  J5 = -56.000 deg,  J6 = -33.000 deg
};
P[110]{
   GP1:
   UF : 4, UT : 1,
   J1 = -35.000 deg,  J2 = -30.000 deg,  J3 = -33.333 deg,
   J4 = 2.600 deg,  J5 = -56.000 deg,  J6 = -33.000 deg
};
P[111]{
   GP1:
   UF : 4, UT : 1,
   J1 = -35.000 deg,  J2 = -30.000 deg,  J3 = -33.333 deg,
   J4 = 1.600 deg,  J5 = -55.000 deg,  J6 = -33.000 deg
};
P[112]{
   GP1:
   UF : 4, UT : 1,
   J1 = -35.000 deg,  J2 = -30.000 deg,  J3 = -33.333 deg,
   J4 = 1.600 deg,  J5 = -56.000 deg,  J6 = -32.000 deg
};
P[113]{
   GP1:
   UF : 4, UT : 1,
   J1 = -35.000 deg,  J2 = -30.000 deg,  J3 = -28.333 deg,
   J4 = 1.600 deg,  J5 = -56.000 deg,  J6 = -33.000 deg
};
P[114]{
   GP1:
   UF : 4, UT : 1,
   J1 = -34.000 deg,  J2 = -30.000 deg,  J3 = -28.333 deg,
   J4 = 1.600 deg,  J5 = -56.000 deg,  J6 = -33.000 deg
};
P[115]{
   GP1:
   UF : 4, UT : 1,
   J1 = -35.000 deg,  J2 = -29.000 deg,  J3 = -29.333 deg,
   J4 = 1.600 deg,  J5 = -56.000 deg,  J6 = -33.000 deg
};
P[116]{
   GP1:
   UF : 4, UT : 1,
   J1 = -35.000 deg,  J2 = -30.000 deg,  J3 = -27.333 deg,
   J4 = 1.600 deg,  J5 = -56.000 deg,  J6 = -33.000 deg
};
P[117]{
   GP1:
   UF : 4, UT : 1,
   J1 = -35.000 deg,  J2 = -30.000 deg,  J3 = -28.333 deg,
   J4 = 2.600 deg,  J5 = -56.000 deg,  J6 = -33.000 deg
};
P[118]{
   GP1:
   UF : 4, UT : 1,
   J1 = -35.000 deg,  J2 = -30.000 deg,  J3 = -28.333 deg,
   J4 = 1.600 deg,  J5 = -55.000 deg,  J6 = -33.000 deg
};
P[119]{
   GP1:
   UF : 4, UT : 1,
   J1 = -35.000 deg,  J2 = -30.000 deg,  J3 = -28.333 deg,
   J4 = 1.600 deg,  J5 = -56.000 deg,  J6 = -32.000 deg
};
P[120]{
   GP1:
   UF : 4, UT : 1,
   J1 = -35.000 deg,  J2 = -30.000 deg,  J3 = -23.333 deg,
   J4 = 1.600 deg,  J5 = -56.000 deg,  J6 = -33.000 deg
};
P[121]{
   GP1:
   UF : 4, UT : 1,
   J1 = -34.000 deg,  J2 = -30.000 deg,  J3 = -23.333 deg,
   J4 = 1.600 deg,  J5 = -56.000 deg,  J6 = -33.000 deg
};
P[122]{
   GP1:
   UF : 4, UT : 1,
   J1 = -35.000 deg,  J2 = -29.000 deg,  J3 = -24.333 deg,
   J4 = 1.600 deg,  J5 = -56.000 deg,  J6 = -33.000 deg
};
P[123]{
   GP1:
   UF : 4, UT : 1,
   J1 = -35.000 deg,  J2 = -30.000 deg,  J3 = -22.333 deg,
   J4 = 1.600 deg,  J5 = -56.000 deg,  J6 = -33.000 deg
};
P[124]{
   GP1:
   UF : 4, UT : 1,
   J1 = -35.000 deg,  J2 = -30.000 deg,  J3 = -23.333 deg,
   J4 = 2.600 deg,  J5 = -56.000 deg,  J6 = -33.000 deg
};
P[125]{
   GP1:
   UF : 4, UT : 1,
   J1 = -35.000 deg,  J2 = -30.000 deg,  J3 = -23.333 deg,
   J4 = 1.600 deg,  J5 = -55.000 deg,  J6 = -33.000 deg
};
P[126]{
   GP1:
   UF : 4, UT : 1,
   J1 = -35.000 deg,  J2 = -30.000 deg,  J3 = -23.333 deg,
   J4 = 1.600 deg,  J5 = -56.000 deg,  J6 = -32.000 deg
};
P[127]{
   GP1:
   UF : 4, UT : 1,
   J1 = -35.000 deg,  J2 = -30.000 deg,  J3 = -18.333 deg,
   J4 = 1.600 deg,  J5 = -56.000 deg,  J6 = -33.000 deg
};
P[128]{
   GP1:
   UF : 4, UT : 1,
   J1 = -34.000 deg,  J2 = -30.000 deg,  J3 = -18.333 deg,
   J4 = 1.600 deg,  J5 = -56.000 deg,  J6 = -33.000 deg
};
P[129]{
   GP1:
   UF : 4, UT : 1,
   J1 = -35.000 deg,  J2 = -29.000 deg,  J3 = -19.333 deg,
   J4 = 1.600 deg,  J5 = -56.000 deg,  J6 = -33.000 deg
};
P[130]{
   GP1:
   UF : 4, UT : 1,
   J1 = -35.000 deg,  J2 = -30.000 deg,  J3 = -17.333 deg,
   J4 = 1.600 deg,  J5 = -56.000 deg,  J6 = -33.000 deg
};
P[131]{
   GP1:
   UF : 4, UT : 1,
   J1 = -35.000 deg,  J2 = -30.000 deg,  J3 = -18.333 deg,
   J4 = 2.600 deg,  J5 = -56.000 deg,  J6 = -33.000 deg
};
P[132]{
   GP1:
   UF : 4, UT : 1,
   J1 = -35.000 deg,  J2 = -30.000 deg,  J3 = -18.333 deg,
   J4 = 1.600 deg,  J5 = -55.000 deg,  J6 = -33.000 deg
};
P[133]{
   GP1:
   UF : 4, UT : 1,
   J1 = -35.000 deg,  J2 = -30.000 deg,  J3 = -18.333 deg,
   J4 = 1.600 deg,  J5 = -56.000 deg,  J6 = -32.000 deg
};
P[134]{
   GP1:
   UF : 4, UT : 1,
   J1 = -35.000 deg,  J2 = -30.000 deg,  J3 = -13.333 deg,
   J4 = 1.600 deg,  J5 = -56.000 deg,  J6 = -33.000 deg
};
P[135]{
   GP1:
   UF : 4, UT : 1,
   J1 = -34.000 deg,  J2 = -30.000 deg,  J3 = -13.333 deg,
   J4 = 1.600 deg,  J5 = -56.000 deg,  J6 = -33.000 deg
};
P[136]{
   GP1:
   UF : 4, UT : 1,
   J1 = -35.000 deg,  J2 = -29.000 deg,  J3 = -14.333 deg,
   J4 = 1.600 deg,  J5 = -56.000 deg,  J6 = -33.000 deg
};
P[137]{
   GP1:
   UF : 4, UT : 1,
   J1 = -35.000 deg,  J2 = -30.000 deg,  J3 = -12.333 deg,
   J4 = 1.600 deg,  J5 = -56.000 deg,  J6 = -33.000 deg
};
P[138]{
   GP1:
   UF : 4, UT : 1,
   J1 = -35.000 deg,  J2 = -30.000 deg,  J3 = -13.333 deg,
   J4 = 2.600 deg,  J5 = -56.000 deg,  J6 = -33.000 deg
};
P[139]{
   GP1:
   UF : 4, UT : 1,
   J1 = -35.000 deg,  J2 = -30.000 deg,  J3 = -13.333 deg,
   J4 = 1.600 deg,  J5 = -55.000 deg,  J6 = -33.000 deg
};
P[140]{
   GP1:
   UF : 4, UT : 1,
   J1 = -35.000 deg,  J2 = -30.000 deg,  J3 = -13.333 deg,
   J4 = 1.600 deg,  J5 = -56.000 deg,  J6 = -32.000 deg
};
P[141]{
   GP1:
   UF : 4, UT : 1,
   J1 = -35.000 deg,  J2 = -30.000 deg,  J3 = -8.333 deg,
   J4 = 1.600 deg,  J5 = -56.000 deg,  J6 = -33.000 deg
};
P[142]{
   GP1:
   UF : 4, UT : 1,
   J1 = -34.000 deg,  J2 = -30.000 deg,  J3 = -8.333 deg,
   J4 = 1.600 deg,  J5 = -56.000 deg,  J6 = -33.000 deg
};
P[143]{
   GP1:
   UF : 4, UT : 1,
   J1 = -35.000 deg,  J2 = -29.000 deg,  J3 = -9.333 deg,
   J4 = 1.600 deg,  J5 = -56.000 deg,  J6 = -33.000 deg
};
P[144]{
   GP1:
   UF : 4, UT : 1,
   J1 = -35.000 deg,  J2 = -30.000 deg,  J3 = -7.333 deg,
   J4 = 1.600 deg,  J5 = -56.000 deg,  J6 = -33.000 deg
};
P[145]{
   GP1:
   UF : 4, UT : 1,
   J1 = -35.000 deg,  J2 = -30.000 deg,  J3 = -8.333 deg,
   J4 = 2.600 deg,  J5 = -56.000 deg,  J6 = -33.000 deg
};
P[146]{
   GP1:
   UF : 4, UT : 1,
   J1 = -35.000 deg,  J2 = -30.000 deg,  J3 = -8.333 deg,
   J4 = 1.600 deg,  J5 = -55.000 deg,  J6 = -33.000 deg
};
P[147]{
   GP1:
   UF : 4, UT : 1,
   J1 = -35.000 deg,  J2 = -30.000 deg,  J3 = -8.333 deg,
   J4 = 1.600 deg,  J5 = -56.000 deg,  J6 = -32.000 deg
};
P[148]{
   GP1:
   UF : 4, UT : 1,
   J1 = -35.000 deg,  J2 = -30.000 deg,  J3 = -3.333 deg,
   J4 = 1.600 deg,  J5 = -56.000 deg,  J6 = -33.000 deg
};
P[149]{
   GP1:
   UF : 4, UT : 1,
   J1 = -34.000 deg,  J2 = -30.000 deg,  J3 = -3.333 deg,
   J4 = 1.600 deg,  J5 = -56.000 deg,  J6 = -33.000 deg
};
P[150]{
   GP1:
   UF : 4, UT : 1,
   J1 = -35.000 deg,  J2 = -29.000 deg,  J3 = -4.333 deg,
   J4 = 1.600 deg,  J5 = -56.000 deg,  J6 = -33.000 deg
};
P[151]{
   GP1:
   UF : 4, UT : 1,
   J1 = -35.000 deg,  J2 = -30.000 deg,  J3 = -2.333 deg,
   J4 = 1.600 deg,  J5 = -56.000 deg,  J6 = -33.000 deg
};
P[152]{
   GP1:
   UF : 4, UT : 1,
   J1 = -35.000 deg,  J2 = -30.000 deg,  J3 = -3.333 deg,
   J4 = 2.600 deg,  J5 = -56.000 deg,  J6 = -33.000 deg
};
P[153]{
   GP1:
   UF : 4, UT : 1,
   J1 = -35.000 deg,  J2 = -30.000 deg,  J3 = -3.333 deg,
   J4 = 1.600 deg,  J5 = -55.000 deg,  J6 = -33.000 deg
};
P[154]{
   GP1:
   UF : 4, UT : 1,
   J1 = -35.000 deg,  J2 = -30.000 deg,  J3 = -3.333 deg,
   J4 = 1.600 deg,  J5 = -56.000 deg,  J6 = -32.000 deg
};
P[155]{
   GP1:
   UF : 4, UT : 1,
   J1 = -35.000 deg,  J2 = -30.000 deg,  J3 = 1.667 deg,
   J4 = 1.600 deg,  J5 = -56.000 deg,  J6 = -33.000 deg
};
P[156]{
   GP1:
   UF : 4, UT : 1,
   J1 = -34.000 deg,  J2 = -30.000 deg,  J3 = 1.667 deg,
   J4 = 1.600 deg,  J5 = -56.000 deg,  J6 = -33.000 deg
};
P[157]{
   GP1:
   UF : 4, UT : 1,
   J1 = -35.000 deg,  J2 = -29.000 deg,  J3 = 0.667 deg,
   J4 = 1.600 deg,  J5 = -56.000 deg,  J6 = -33.000 deg
};
P[158]{
   GP1:
   UF : 4, UT : 1,
   J1 = -35.000 deg,  J2 = -30.000 deg,  J3 = 2.667 deg,
   J4 = 1.600 deg,  J5 = -56.000 deg,  J6 = -33.000 deg
};
P[159]{
   GP1:
   UF : 4, UT : 1,
   J1 = -35.000 deg,  J2 = -30.000 deg,  J3 = 1.667 deg,
   J4 = 2.600 deg,  J5 = -56.000 deg,  J6 = -33.000 deg
};
P[160]{
   GP1:
   UF : 4, UT : 1,
   J1 = -35.000 deg,  J2 = -30.000 deg,  J3 = 1.667 deg,
   J4 = 1.600 deg,  J5 = -55.000 deg,  J6 = -33.000 deg
};
P[161]{
   GP1:
   UF : 4, UT : 1,
   J1 = -35.000 deg,  J2 = -30.000 deg,  J3 = 1.667 deg,
   J4 = 1.600 deg,  J5 = -56.000 deg,  J6 = -32.000 deg
};
P[162]{
   GP1:
   UF : 4, UT : 1,
   J1 = -35.000 deg,  J2 = -30.000 deg,  J3 = 3.333 deg,
   J4 = 1.600 deg,  J5 = -56.000 deg,  J6 = -33.000 deg
};
P[163]{
   GP1:
   UF : 4, UT : 1,
   J1 = -34.000 deg,  J2 = -30.000 deg,  J3 = 3.333 deg,
   J4 = 1.600 deg,  J5 = -56.000 deg,  J6 = -33.000 deg
};
P[164]{
   GP1:
   UF : 4, UT : 1,
   J1 = -35.000 deg,  J2 = -29.000 deg,  J3 = 2.333 deg,
   J4 = 1.600 deg,  J5 = -56.000 deg,  J6 = -33.000 deg
};
P[165]{
   GP1:
   UF : 4, UT : 1,
   J1 = -35.000 deg,  J2 = -30.000 deg,  J3 = 4.333 deg,
   J4 = 1.600 deg,  J5 = -56.000 deg,  J6 = -33.000 deg
};
P[166]{
   GP1:
   UF : 4, UT : 1,
   J1 = -35.000 deg,  J2 = -30.000 deg,  J3 = 3.333 deg,
   J4 = 2.600 deg,  J5 = -56.000 deg,  J6 = -33.000 deg
};
P[167]{
   GP1:
   UF : 4, UT : 1,
   J1 = -35.000 deg,  J2 = -30.000 deg,  J3 = 3.333 deg,
   J4 = 1.600 deg,  J5 = -55.000 deg,  J6 = -33.000 deg
};
P[168]{
   GP1:
   UF : 4, UT : 1,
   J1 = -35.000 deg,  J2 = -30.000 deg,  J3 = 3.333 deg,
   J4 = 1.600 deg,  J5 = -56.000 deg,  J6 = -32.000 deg
};
P[169]{
   GP1:
   UF : 4, UT : 1,
   J1 = -35.000 deg,  J2 = -25.000 deg,  J3 = 1.667 deg,
   J4 = 1.600 deg,  J5 = -56.000 deg,  J6 = -33.000 deg
};
P[170]{
   GP1:
   UF : 4, UT : 1,
   J1 = -34.000 deg,  J2 = -25.000 deg,  J3 = 1.667 deg,
   J4 = 1.600 deg,  J5 = -56.000 deg,  J6 = -33.000 deg
};
P[171]{
   GP1:
   UF : 4, UT : 1,
   J1 = -35.000 deg,  J2 = -24.000 deg,  J3 = 0.667 deg,
   J4 = 1.600 deg,  J5 = -56.000 deg,  J6 = -33.000 deg
};
P[172]{
   GP1:
   UF : 4, UT : 1,
   J1 = -35.000 deg,  J2 = -25.000 deg,  J3 = 2.667 deg,
   J4 = 1.600 deg,  J5 = -56.000 deg,  J6 = -33.000 deg
};
P[173]{
   GP1:
   UF : 4, UT : 1,
   J1 = -35.000 deg,  J2 = -25.000 deg,  J3 = 1.667 deg,
   J4 = 2.600 deg,  J5 = -56.000 deg,  J6 = -33.000 deg
};
P[174]{
   GP1:
   UF : 4, UT : 1,
   J1 = -35.000 deg,  J2 = -25.000 deg,  J3 = 1.667 deg,
   J4 = 1.600 deg,  J5 = -55.000 deg,  J6 = -33.000 deg
};
P[175]{
   GP1:
   UF : 4, UT : 1,
   J1 = -35.000 deg,  J2 = -25.000 deg,  J3 = 1.667 deg,
   J4 = 1.600 deg,  J5 = -56.000 deg,  J6 = -32.000 deg
};
P[176]{
   GP1:
   UF : 4, UT : 1,
   J1 = -35.000 deg,  J2 = -25.000 deg,  J3 = -1.667 deg,
   J4 = 1.600 deg,  J5 = -56.000 deg,  J6 = -33.000 deg
};
P[177]{
   GP1:
   UF : 4, UT : 1,
   J1 = -34.000 deg,  J2 = -25.000 deg,  J3 = -1.667 deg,
   J4 = 1.600 deg,  J5 = -56.000 deg,  J6 = -33.000 deg
};
P[178]{
   GP1:
   UF : 4, UT : 1,
   J1 = -35.000 deg,  J2 = -24.000 deg,  J3 = -2.667 deg,
   J4 = 1.600 deg,  J5 = -56.000 deg,  J6 = -33.000 deg
};
P[179]{
   GP1:
   UF : 4, UT : 1,
   J1 = -35.000 deg,  J2 = -25.000 deg,  J3 = -0.667 deg,
   J4 = 1.600 deg,  J5 = -56.000 deg,  J6 = -33.000 deg
};
P[180]{
   GP1:
   UF : 4, UT : 1,
   J1 = -35.000 deg,  J2 = -25.000 deg,  J3 = -1.667 deg,
   J4 = 2.600 deg,  J5 = -56.000 deg,  J6 = -33.000 deg
};
P[181]{
   GP1:
   UF : 4, UT : 1,
   J1 = -35.000 deg,  J2 = -25.000 deg,  J3 = -1.667 deg,
   J4 = 1.600 deg,  J5 = -55.000 deg,  J6 = -33.000 deg
};
P[182]{
   GP1:
   UF : 4, UT : 1,
   J1 = -35.000 deg,  J2 = -25.000 deg,  J3 = -1.667 deg,
   J4 = 1.600 deg,  J5 = -56.000 deg,  J6 = -32.000 deg
};
P[183]{
   GP1:
   UF : 4, UT : 1,
   J1 = -35.000 deg,  J2 = -25.000 deg,  J3 = -6.667 deg,
   J4 = 1.600 deg,  J5 = -56.000 deg,  J6 = -33.000 deg
};
P[184]{
   GP1:
   UF : 4, UT : 1,
   J1 = -34.000 deg,  J2 = -25.000 deg,  J3 = -6.667 deg,
   J4 = 1.600 deg,  J5 = -56.000 deg,  J6 = -33.000 deg
};
P[185]{
   GP1:
   UF : 4, UT : 1,
   J1 = -35.000 deg,  J2 = -24.000 deg,  J3 = -7.667 deg,
   J4 = 1.600 deg,  J5 = -56.000 deg,  J6 = -33.000 deg
};
P[186]{
   GP1:
   UF : 4, UT : 1,
   J1 = -35.000 deg,  J2 = -25.000 deg,  J3 = -5.667 deg,
   J4 = 1.600 deg,  J5 = -56.000 deg,  J6 = -33.000 deg
};
P[187]{
   GP1:
   UF : 4, UT : 1,
   J1 = -35.000 deg,  J2 = -25.000 deg,  J3 = -6.667 deg,
   J4 = 2.600 deg,  J5 = -56.000 deg,  J6 = -33.000 deg
};
P[188]{
   GP1:
   UF : 4, UT : 1,
   J1 = -35.000 deg,  J2 = -25.000 deg,  J3 = -6.667 deg,
   J4 = 1.600 deg,  J5 = -55.000 deg,  J6 = -33.000 deg
};
P[189]{
   GP1:
   UF : 4, UT : 1,
   J1 = -35.000 deg,  J2 = -25.000 deg,  J3 = -6.667 deg,
   J4 = 1.600 deg,  J5 = -56.000 deg,  J6 = -32.000 deg
};
P[190]{
   GP1:
   UF : 4, UT : 1,
   J1 = -35.000 deg,  J2 = -25.000 deg,  J3 = -11.667 deg,
   J4 = 1.600 deg,  J5 = -56.000 deg,  J6 = -33.000 deg
};
P[191]{
   GP1:
   UF : 4, UT : 1,
   J1 = -34.000 deg,  J2 = -25.000 deg,  J3 = -11.667 deg,
   J4 = 1.600 deg,  J5 = -56.000 deg,  J6 = -33.000 deg
};
P[192]{
   GP1:
   UF : 4, UT : 1,
   J1 = -35.000 deg,  J2 = -24.000 deg,  J3 = -12.667 deg,
   J4 = 1.600 deg,  J5 = -56.000 deg,  J6 = -33.000 deg
};
P[193]{
   GP1:
   UF : 4, UT : 1,
   J1 = -35.000 deg,  J2 = -25.000 deg,  J3 = -10.667 deg,
   J4 = 1.600 deg,  J5 = -56.000 deg,  J6 = -33.000 deg
};
P[194]{
   GP1:
   UF : 4, UT : 1,
   J1 = -35.000 deg,  J2 = -25.000 deg,  J3 = -11.667 deg,
   J4 = 2.600 deg,  J5 = -56.000 deg,  J6 = -33.000 deg
};
P[195]{
   GP1:
   UF : 4, UT : 1,
   J1 = -35.000 deg,  J2 = -25.000 deg,  J3 = -11.667 deg,
   J4 = 1.600 deg,  J5 = -55.000 deg,  J6 = -33.000 deg
};
P[196]{
   GP1:
   UF : 4, UT : 1,
   J1 = -35.000 deg,  J2 = -25.000 deg,  J3 = -11.667 deg,
   J4 = 1.600 deg,  J5 = -56.000 deg,  J6 = -32.000 deg
};
P[197]{
   GP1:
   UF : 4, UT : 1,
   J1 = -35.000 deg,  J2 = -25.000 deg,  J3 = -16.667 deg,
   J4 = 1.600 deg,  J5 = -56.000 deg,  J6 = -33.000 deg
};
P[198]{
   GP1:
   UF : 4, UT : 1,
   J1 = -34.000 deg,  J2 = -25.000 deg,  J3 = -16.667 deg,
   J4 = 1.600 deg,  J5 = -56.000 deg,  J6 = -33.000 deg
};
P[199]{
   GP1:
   UF : 4, UT : 1,
   J1 = -35.000 deg,  J2 = -24.000 deg,  J3 = -17.667 deg,
   J4 = 1.600 deg,  J5 = -56.000 deg,  J6 = -33.000 deg
};
P[200]{
   GP1:
   UF : 4, UT : 1,
   J1 = -35.000 deg,  J2 = -25.000 deg,  J3 = -15.667 deg,
   J4 = 1.600 deg,  J5 = -56.000 deg,  J6 = -33.000 deg
};
P[201]{
   GP1:
   UF : 4, UT : 1,
   J1 = -35.000 deg,  J2 = -25.000 deg,  J3 = -16.667 deg,
   J4 = 2.600 deg,  J5 = -56.000 deg,  J6 = -33.000 deg
};
P[202]{
   GP1:
   UF : 4, UT : 1,
   J1 = -35.000 deg,  J2 = -25.000 deg,  J3 = -16.667 deg,
   J4 = 1.600 deg,  J5 = -55.000 deg,  J6 = -33.000 deg
};
P[203]{
   GP1:
   UF : 4, UT : 1,
   J1 = -35.000 deg,  J2 = -25.000 deg,  J3 = -16.667 deg,
   J4 = 1.600 deg,  J5 = -56.000 deg,  J6 = -32.000 deg
};
P[204]{
   GP1:
   UF : 4, UT : 1,
   J1 = -35.000 deg,  J2 = -25.000 deg,  J3 = -21.667 deg,
   J4 = 1.600 deg,  J5 = -56.000 deg,  J6 = -33.000 deg
};
P[205]{
   GP1:
   UF : 4, UT : 1,
   J1 = -34.000 deg,  J2 = -25.000 deg,  J3 = -21.667 deg,
   J4 = 1.600 deg,  J5 = -56.000 deg,  J6 = -33.000 deg
};
P[206]{
   GP1:
   UF : 4, UT : 1,
   J1 = -35.000 deg,  J2 = -24.000 deg,  J3 = -22.667 deg,
   J4 = 1.600 deg,  J5 = -56.000 deg,  J6 = -33.000 deg
};
P[207]{
   GP1:
   UF : 4, UT : 1,
   J1 = -35.000 deg,  J2 = -25.000 deg,  J3 = -20.667 deg,
   J4 = 1.600 deg,  J5 = -56.000 deg,  J6 = -33.000 deg
};
P[208]{
   GP1:
   UF : 4, UT : 1,
   J1 = -35.000 deg,  J2 = -25.000 deg,  J3 = -21.667 deg,
   J4 = 2.600 deg,  J5 = -56.000 deg,  J6 = -33.000 deg
};
P[209]{
   GP1:
   UF : 4, UT : 1,
   J1 = -35.000 deg,  J2 = -25.000 deg,  J3 = -21.667 deg,
   J4 = 1.600 deg,  J5 = -55.000 deg,  J6 = -33.000 deg
};
P[210]{
   GP1:
   UF : 4, UT : 1,
   J1 = -35.000 deg,  J2 = -25.000 deg,  J3 = -21.667 deg,
   J4 = 1.600 deg,  J5 = -56.000 deg,  J6 = -32.000 deg
};
P[211]{
   GP1:
   UF : 4, UT : 1,
   J1 = -35.000 deg,  J2 = -25.000 deg,  J3 = -26.667 deg,
   J4 = 1.600 deg,  J5 = -56.000 deg,  J6 = -33.000 deg
};
P[212]{
   GP1:
   UF : 4, UT : 1,
   J1 = -34.000 deg,  J2 = -25.000 deg,  J3 = -26.667 deg,
   J4 = 1.600 deg,  J5 = -56.000 deg,  J6 = -33.000 deg
};
P[213]{
   GP1:
   UF : 4, UT : 1,
   J1 = -35.000 deg,  J2 = -24.000 deg,  J3 = -27.667 deg,
   J4 = 1.600 deg,  J5 = -56.000 deg,  J6 = -33.000 deg
};
P[214]{
   GP1:
   UF : 4, UT : 1,
   J1 = -35.000 deg,  J2 = -25.000 deg,  J3 = -25.667 deg,
   J4 = 1.600 deg,  J5 = -56.000 deg,  J6 = -33.000 deg
};
P[215]{
   GP1:
   UF : 4, UT : 1,
   J1 = -35.000 deg,  J2 = -25.000 deg,  J3 = -26.667 deg,
   J4 = 2.600 deg,  J5 = -56.000 deg,  J6 = -33.000 deg
};
P[216]{
   GP1:
   UF : 4, UT : 1,
   J1 = -35.000 deg,  J2 = -25.000 deg,  J3 = -26.667 deg,
   J4 = 1.600 deg,  J5 = -55.000 deg,  J6 = -33.000 deg
};
P[217]{
   GP1:
   UF : 4, UT : 1,
   J1 = -35.000 deg,  J2 = -25.000 deg,  J3 = -26.667 deg,
   J4 = 1.600 deg,  J5 = -56.000 deg,  J6 = -32.000 deg
};
P[218]{
   GP1:
   UF : 4, UT : 1,
   J1 = -35.000 deg,  J2 = -25.000 deg,  J3 = -31.667 deg,
   J4 = 1.600 deg,  J5 = -56.000 deg,  J6 = -33.000 deg
};
P[219]{
   GP1:
   UF : 4, UT : 1,
   J1 = -34.000 deg,  J2 = -25.000 deg,  J3 = -31.667 deg,
   J4 = 1.600 deg,  J5 = -56.000 deg,  J6 = -33.000 deg
};
P[220]{
   GP1:
   UF : 4, UT : 1,
   J1 = -35.000 deg,  J2 = -24.000 deg,  J3 = -32.667 deg,
   J4 = 1.600 deg,  J5 = -56.000 deg,  J6 = -33.000 deg
};
P[221]{
   GP1:
   UF : 4, UT : 1,
   J1 = -35.000 deg,  J2 = -25.000 deg,  J3 = -30.667 deg,
   J4 = 1.600 deg,  J5 = -56.000 deg,  J6 = -33.000 deg
};
P[222]{
   GP1:
   UF : 4, UT : 1,
   J1 = -35.000 deg,  J2 = -25.000 deg,  J3 = -31.667 deg,
   J4 = 2.600 deg,  J5 = -56.000 deg,  J6 = -33.000 deg
};
P[223]{
   GP1:
   UF : 4, UT : 1,
   J1 = -35.000 deg,  J2 = -25.000 deg,  J3 = -31.667 deg,
   J4 = 1.600 deg,  J5 = -55.000 deg,  J6 = -33.000 deg
};
P[224]{
   GP1:
   UF : 4, UT : 1,
   J1 = -35.000 deg,  J2 = -25.000 deg,  J3 = -31.667 deg,
   J4 = 1.600 deg,  J5 = -56.000 deg,  J6 = -32.000 deg
};
P[225]{
   GP1:
   UF : 4, UT : 1,
   J1 = -35.000 deg,  J2 = -25.000 deg,  J3 = -36.667 deg,
   J4 = 1.600 deg,  J5 = -56.000 deg,  J6 = -33.000 deg
};
P[226]{
   GP1:
   UF : 4, UT : 1,
   J1 = -34.000 deg,  J2 = -25.000 deg,  J3 = -36.667 deg,
   J4 = 1.600 deg,  J5 = -56.000 deg,  J6 = -33.000 deg
};
P[227]{
   GP1:
   UF : 4, UT : 1,
   J1 = -35.000 deg,  J2 = -24.000 deg,  J3 = -37.667 deg,
   J4 = 1.600 deg,  J5 = -56.000 deg,  J6 = -33.000 deg
};
P[228]{
   GP1:
   UF : 4, UT : 1,
   J1 = -35.000 deg,  J2 = -25.000 deg,  J3 = -35.667 deg,
   J4 = 1.600 deg,  J5 = -56.000 deg,  J6 = -33.000 deg
};
P[229]{
   GP1:
   UF : 4, UT : 1,
   J1 = -35.000 deg,  J2 = -25.000 deg,  J3 = -36.667 deg,
   J4 = 2.600 deg,  J5 = -56.000 deg,  J6 = -33.000 deg
};
P[230]{
   GP1:
   UF : 4, UT : 1,
   J1 = -35.000 deg,  J2 = -25.000 deg,  J3 = -36.667 deg,
   J4 = 1.600 deg,  J5 = -55.000 deg,  J6 = -33.000 deg
};
P[231]{
   GP1:
   UF : 4, UT : 1,
   J1 = -35.000 deg,  J2 = -25.000 deg,  J3 = -36.667 deg,
   J4 = 1.600 deg,  J5 = -56.000 deg,  J6 = -32.000 deg
};
P[232]{
   GP1:
   UF : 4, UT : 1,
   J1 = -35.000 deg,  J2 = -25.000 deg,  J3 = -41.667 deg,
   J4 = 1.600 deg,  J5 = -56.000 deg,  J6 = -33.000 deg
};
P[233]{
   GP1:
   UF : 4, UT : 1,
   J1 = -34.000 deg,  J2 = -25.000 deg,  J3 = -41.667 deg,
   J4 = 1.600 deg,  J5 = -56.000 deg,  J6 = -33.000 deg
};
P[234]{
   GP1:
   UF : 4, UT : 1,
   J1 = -35.000 deg,  J2 = -24.000 deg,  J3 = -42.667 deg,
   J4 = 1.600 deg,  J5 = -56.000 deg,  J6 = -33.000 deg
};
P[235]{
   GP1:
   UF : 4, UT : 1,
   J1 = -35.000 deg,  J2 = -25.000 deg,  J3 = -40.667 deg,
   J4 = 1.600 deg,  J5 = -56.000 deg,  J6 = -33.000 deg
};
P[236]{
   GP1:
   UF : 4, UT : 1,
   J1 = -35.000 deg,  J2 = -25.000 deg,  J3 = -41.667 deg,
   J4 = 2.600 deg,  J5 = -56.000 deg,  J6 = -33.000 deg
};
P[237]{
   GP1:
   UF : 4, UT : 1,
   J1 = -35.000 deg,  J2 = -25.000 deg,  J3 = -41.667 deg,
   J4 = 1.600 deg,  J5 = -55.000 deg,  J6 = -33.000 deg
};
P[238]{
   GP1:
   UF : 4, UT : 1,
   J1 = -35.000 deg,  J2 = -25.000 deg,  J3 = -41.667 deg,
   J4 = 1.600 deg,  J5 = -56.000 deg,  J6 = -32.000 deg
};
P[239]{
   GP1:
   UF : 4, UT : 1,
   J1 = -35.000 deg,  J2 = -25.000 deg,  J3 = -46.667 deg,
   J4 = 1.600 deg,  J5 = -56.000 deg,  J6 = -33.000 deg
};
P[240]{
   GP1:
   UF : 4, UT : 1,
   J1 = -34.000 deg,  J2 = -25.000 deg,  J3 = -46.667 deg,
   J4 = 1.600 deg,  J5 = -56.000 deg,  J6 = -33.000 deg
};
P[241]{
   GP1:
   UF : 4, UT : 1,
   J1 = -35.000 deg,  J2 = -24.000 deg,  J3 = -47.667 deg,
   J4 = 1.600 deg,  J5 = -56.000 deg,  J6 = -33.000 deg
};
P[242]{
   GP1:
   UF : 4, UT : 1,
   J1 = -35.000 deg,  J2 = -25.000 deg,  J3 = -45.667 deg,
   J4 = 1.600 deg,  J5 = -56.000 deg,  J6 = -33.000 deg
};
P[243]{
   GP1:
   UF : 4, UT : 1,
   J1 = -35.000 deg,  J2 = -25.000 deg,  J3 = -46.667 deg,
   J4 = 2.600 deg,  J5 = -56.000 deg,  J6 = -33.000 deg
};
P[244]{
   GP1:
   UF : 4, UT : 1,
   J1 = -35.000 deg,  J2 = -25.000 deg,  J3 = -46.667 deg,
   J4 = 1.600 deg,  J5 = -55.000 deg,  J6 = -33.000 deg
};
P[245]{
   GP1:
   UF : 4, UT : 1,
   J1 = -35.000 deg,  J2 = -25.000 deg,  J3 = -46.667 deg,
   J4 = 1.600 deg,  J5 = -56.000 deg,  J6 = -32.000 deg
};
P[246]{
   GP1:
   UF : 4, UT : 1,
   J1 = -35.000 deg,  J2 = -20.000 deg,  J3 = -50.000 deg,
   J4 = 1.600 deg,  J5 = -56.000 deg,  J6 = -33.000 deg
};
P[247]{
   GP1:
   UF : 4, UT : 1,
   J1 = -34.000 deg,  J2 = -20.000 deg,  J3 = -50.000 deg,
   J4 = 1.600 deg,  J5 = -56.000 deg,  J6 = -33.000 deg
};
P[248]{
   GP1:
   UF : 4, UT : 1,
   J1 = -35.000 deg,  J2 = -19.000 deg,  J3 = -51.000 deg,
   J4 = 1.600 deg,  J5 = -56.000 deg,  J6 = -33.000 deg
};
P[249]{
   GP1:
   UF : 4, UT : 1,
   J1 = -35.000 deg,  J2 = -20.000 deg,  J3 = -49.000 deg,
   J4 = 1.600 deg,  J5 = -56.000 deg,  J6 = -33.000 deg
};
P[250]{
   GP1:
   UF : 4, UT : 1,
   J1 = -35.000 deg,  J2 = -20.000 deg,  J3 = -50.000 deg,
   J4 = 2.600 deg,  J5 = -56.000 deg,  J6 = -33.000 deg
};
P[251]{
   GP1:
   UF : 4, UT : 1,
   J1 = -35.000 deg,  J2 = -20.000 deg,  J3 = -50.000 deg,
   J4 = 1.600 deg,  J5 = -55.000 deg,  J6 = -33.000 deg
};
P[252]{
   GP1:
   UF : 4, UT : 1,
   J1 = -35.000 deg,  J2 = -20.000 deg,  J3 = -50.000 deg,
   J4 = 1.600 deg,  J5 = -56.000 deg,  J6 = -32.000 deg
};
P[253]{
   GP1:
   UF : 4, UT : 1,
   J1 = -35.000 deg,  J2 = -20.000 deg,  J3 = -45.000 deg,
   J4 = 1.600 deg,  J5 = -56.000 deg,  J6 = -33.000 deg
};
P[254]{
   GP1:
   UF : 4, UT : 1,
   J1 = -34.000 deg,  J2 = -20.000 deg,  J3 = -45.000 deg,
   J4 = 1.600 deg,  J5 = -56.000 deg,  J6 = -33.000 deg
};
P[255]{
   GP1:
   UF : 4, UT : 1,
   J1 = -35.000 deg,  J2 = -19.000 deg,  J3 = -46.000 deg,
   J4 = 1.600 deg,  J5 = -56.000 deg,  J6 = -33.000 deg
};
P[256]{
   GP1:
   UF : 4, UT : 1,
   J1 = -35.000 deg,  J2 = -20.000 deg,  J3 = -44.000 deg,
   J4 = 1.600 deg,  J5 = -56.000 deg,  J6 = -33.000 deg
};
P[257]{
   GP1:
   UF : 4, UT : 1,
   J1 = -35.000 deg,  J2 = -20.000 deg,  J3 = -45.000 deg,
   J4 = 2.600 deg,  J5 = -56.000 deg,  J6 = -33.000 deg
};
P[258]{
   GP1:
   UF : 4, UT : 1,
   J1 = -35.000 deg,  J2 = -20.000 deg,  J3 = -45.000 deg,
   J4 = 1.600 deg,  J5 = -55.000 deg,  J6 = -33.000 deg
};
P[259]{
   GP1:
   UF : 4, UT : 1,
   J1 = -35.000 deg,  J2 = -20.000 deg,  J3 = -45.000 deg,
   J4 = 1.600 deg,  J5 = -56.000 deg,  J6 = -32.000 deg
};
P[260]{
   GP1:
   UF : 4, UT : 1,
   J1 = -35.000 deg,  J2 = -20.000 deg,  J3 = -40.000 deg,
   J4 = 1.600 deg,  J5 = -56.000 deg,  J6 = -33.000 deg
};
P[261]{
   GP1:
   UF : 4, UT : 1,
   J1 = -34.000 deg,  J2 = -20.000 deg,  J3 = -40.000 deg,
   J4 = 1.600 deg,  J5 = -56.000 deg,  J6 = -33.000 deg
};
P[262]{
   GP1:
   UF : 4, UT : 1,
   J1 = -35.000 deg,  J2 = -19.000 deg,  J3 = -41.000 deg,
   J4 = 1.600 deg,  J5 = -56.000 deg,  J6 = -33.000 deg
};
P[263]{
   GP1:
   UF : 4, UT : 1,
   J1 = -35.000 deg,  J2 = -20.000 deg,  J3 = -39.000 deg,
   J4 = 1.600 deg,  J5 = -56.000 deg,  J6 = -33.000 deg
};
P[264]{
   GP1:
   UF : 4, UT : 1,
   J1 = -35.000 deg,  J2 = -20.000 deg,  J3 = -40.000 deg,
   J4 = 2.600 deg,  J5 = -56.000 deg,  J6 = -33.000 deg
};
P[265]{
   GP1:
   UF : 4, UT : 1,
   J1 = -35.000 deg,  J2 = -20.000 deg,  J3 = -40.000 deg,
   J4 = 1.600 deg,  J5 = -55.000 deg,  J6 = -33.000 deg
};
P[266]{
   GP1:
   UF : 4, UT : 1,
   J1 = -35.000 deg,  J2 = -20.000 deg,  J3 = -40.000 deg,
   J4 = 1.600 deg,  J5 = -56.000 deg,  J6 = -32.000 deg
};
P[267]{
   GP1:
   UF : 4, UT : 1,
   J1 = -35.000 deg,  J2 = -20.000 deg,  J3 = -35.000 deg,
   J4 = 1.600 deg,  J5 = -56.000 deg,  J6 = -33.000 deg
};
P[268]{
   GP1:
   UF : 4, UT : 1,
   J1 = -34.000 deg,  J2 = -20.000 deg,  J3 = -35.000 deg,
   J4 = 1.600 deg,  J5 = -56.000 deg,  J6 = -33.000 deg
};
P[269]{
   GP1:
   UF : 4, UT : 1,
   J1 = -35.000 deg,  J2 = -19.000 deg,  J3 = -36.000 deg,
   J4 = 1.600 deg,  J5 = -56.000 deg,  J6 = -33.000 deg
};
P[270]{
   GP1:
   UF : 4, UT : 1,
   J1 = -35.000 deg,  J2 = -20.000 deg,  J3 = -34.000 deg,
   J4 = 1.600 deg,  J5 = -56.000 deg,  J6 = -33.000 deg
};
P[271]{
   GP1:
   UF : 4, UT : 1,
   J1 = -35.000 deg,  J2 = -20.000 deg,  J3 = -35.000 deg,
   J4 = 2.600 deg,  J5 = -56.000 deg,  J6 = -33.000 deg
};
P[272]{
   GP1:
   UF : 4, UT : 1,
   J1 = -35.000 deg,  J2 = -20.000 deg,  J3 = -35.000 deg,
   J4 = 1.600 deg,  J5 = -55.000 deg,  J6 = -33.000 deg
};
P[273]{
   GP1:
   UF : 4, UT : 1,
   J1 = -35.000 deg,  J2 = -20.000 deg,  J3 = -35.000 deg,
   J4 = 1.600 deg,  J5 = -56.000 deg,  J6 = -32.000 deg
};
P[274]{
   GP1:
   UF : 4, UT : 1,
   J1 = -35.000 deg,  J2 = -20.000 deg,  J3 = -30.000 deg,
   J4 = 1.600 deg,  J5 = -56.000 deg,  J6 = -33.000 deg
};
P[275]{
   GP1:
   UF : 4, UT : 1,
   J1 = -34.000 deg,  J2 = -20.000 deg,  J3 = -30.000 deg,
   J4 = 1.600 deg,  J5 = -56.000 deg,  J6 = -33.000 deg
};
P[276]{
   GP1:
   UF : 4, UT : 1,
   J1 = -35.000 deg,  J2 = -19.000 deg,  J3 = -31.000 deg,
   J4 = 1.600 deg,  J5 = -56.000 deg,  J6 = -33.000 deg
};
P[277]{
   GP1:
   UF : 4, UT : 1,
   J1 = -35.000 deg,  J2 = -20.000 deg,  J3 = -29.000 deg,
   J4 = 1.600 deg,  J5 = -56.000 deg,  J6 = -33.000 deg
};
P[278]{
   GP1:
   UF : 4, UT : 1,
   J1 = -35.000 deg,  J2 = -20.000 deg,  J3 = -30.000 deg,
   J4 = 2.600 deg,  J5 = -56.000 deg,  J6 = -33.000 deg
};
P[279]{
   GP1:
   UF : 4, UT : 1,
   J1 = -35.000 deg,  J2 = -20.000 deg,  J3 = -30.000 deg,
   J4 = 1.600 deg,  J5 = -55.000 deg,  J6 = -33.000 deg
};
P[280]{
   GP1:
   UF : 4, UT : 1,
   J1 = -35.000 deg,  J2 = -20.000 deg,  J3 = -30.000 deg,
   J4 = 1.600 deg,  J5 = -56.000 deg,  J6 = -32.000 deg
};
P[281]{
   GP1:
   UF : 4, UT : 1,
   J1 = -35.000 deg,  J2 = -20.000 deg,  J3 = -25.000 deg,
   J4 = 1.600 deg,  J5 = -56.000 deg,  J6 = -33.000 deg
};
P[282]{
   GP1:
   UF : 4, UT : 1,
   J1 = -34.000 deg,  J2 = -20.000 deg,  J3 = -25.000 deg,
   J4 = 1.600 deg,  J5 = -56.000 deg,  J6 = -33.000 deg
};
P[283]{
   GP1:
   UF : 4, UT : 1,
   J1 = -35.000 deg,  J2 = -19.000 deg,  J3 = -26.000 deg,
   J4 = 1.600 deg,  J5 = -56.000 deg,  J6 = -33.000 deg
};
P[284]{
   GP1:
   UF : 4, UT : 1,
   J1 = -35.000 deg,  J2 = -20.000 deg,  J3 = -24.000 deg,
   J4 = 1.600 deg,  J5 = -56.000 deg,  J6 = -33.000 deg
};
P[285]{
   GP1:
   UF : 4, UT : 1,
   J1 = -35.000 deg,  J2 = -20.000 deg,  J3 = -25.000 deg,
   J4 = 2.600 deg,  J5 = -56.000 deg,  J6 = -33.000 deg
};
P[286]{
   GP1:
   UF : 4, UT : 1,
   J1 = -35.000 deg,  J2 = -20.000 deg,  J3 = -25.000 deg,
   J4 = 1.600 deg,  J5 = -55.000 deg,  J6 = -33.000 deg
};
P[287]{
   GP1:
   UF : 4, UT : 1,
   J1 = -35.000 deg,  J2 = -20.000 deg,  J3 = -25.000 deg,
   J4 = 1.600 deg,  J5 = -56.000 deg,  J6 = -32.000 deg
};
P[288]{
   GP1:
   UF : 4, UT : 1,
   J1 = -35.000 deg,  J2 = -20.000 deg,  J3 = -20.000 deg,
   J4 = 1.600 deg,  J5 = -56.000 deg,  J6 = -33.000 deg
};
P[289]{
   GP1:
   UF : 4, UT : 1,
   J1 = -34.000 deg,  J2 = -20.000 deg,  J3 = -20.000 deg,
   J4 = 1.600 deg,  J5 = -56.000 deg,  J6 = -33.000 deg
};
P[290]{
   GP1:
   UF : 4, UT : 1,
   J1 = -35.000 deg,  J2 = -19.000 deg,  J3 = -21.000 deg,
   J4 = 1.600 deg,  J5 = -56.000 deg,  J6 = -33.000 deg
};
P[291]{
   GP1:
   UF : 4, UT : 1,
   J1 = -35.000 deg,  J2 = -20.000 deg,  J3 = -19.000 deg,
   J4 = 1.600 deg,  J5 = -56.000 deg,  J6 = -33.000 deg
};
P[292]{
   GP1:
   UF : 4, UT : 1,
   J1 = -35.000 deg,  J2 = -20.000 deg,  J3 = -20.000 deg,
   J4 = 2.600 deg,  J5 = -56.000 deg,  J6 = -33.000 deg
};
P[293]{
   GP1:
   UF : 4, UT : 1,
   J1 = -35.000 deg,  J2 = -20.000 deg,  J3 = -20.000 deg,
   J4 = 1.600 deg,  J5 = -55.000 deg,  J6 = -33.000 deg
};
P[294]{
   GP1:
   UF : 4, UT : 1,
   J1 = -35.000 deg,  J2 = -20.000 deg,  J3 = -20.000 deg,
   J4 = 1.600 deg,  J5 = -56.000 deg,  J6 = -32.000 deg
};
P[295]{
   GP1:
   UF : 4, UT : 1,
   J1 = -35.000 deg,  J2 = -20.000 deg,  J3 = -15.000 deg,
   J4 = 1.600 deg,  J5 = -56.000 deg,  J6 = -33.000 deg
};
P[296]{
   GP1:
   UF : 4, UT : 1,
   J1 = -34.000 deg,  J2 = -20.000 deg,  J3 = -15.000 deg,
   J4 = 1.600 deg,  J5 = -56.000 deg,  J6 = -33.000 deg
};
P[297]{
   GP1:
   UF : 4, UT : 1,
   J1 = -35.000 deg,  J2 = -19.000 deg,  J3 = -16.000 deg,
   J4 = 1.600 deg,  J5 = -56.000 deg,  J6 = -33.000 deg
};
P[298]{
   GP1:
   UF : 4, UT : 1,
   J1 = -35.000 deg,  J2 = -20.000 deg,  J3 = -14.000 deg,
   J4 = 1.600 deg,  J5 = -56.000 deg,  J6 = -33.000 deg
};
P[299]{
   GP1:
   UF : 4, UT : 1,
   J1 = -35.000 deg,  J2 = -20.000 deg,  J3 = -15.000 deg,
   J4 = 2.600 deg,  J5 = -56.000 deg,  J6 = -33.000 deg
};
P[300]{
   GP1:
   UF : 4, UT : 1,
   J1 = -35.000 deg,  J2 = -20.000 deg,  J3 = -15.000 deg,
   J4 = 1.600 deg,  J5 = -55.000 deg,  J6 = -33.000 deg
};
P[301]{
   GP1:
   UF : 4, UT : 1,
   J1 = -35.000 deg,  J2 = -20.000 deg,  J3 = -15.000 deg,
   J4 = 1.600 deg,  J5 = -56.000 deg,  J6 = -32.000 deg
};
P[302]{
   GP1:
   UF : 4, UT : 1,
   J1 = -35.000 deg,  J2 = -20.000 deg,  J3 = -10.000 deg,
   J4 = 1.600 deg,  J5 = -56.000 deg,  J6 = -33.000 deg
};
P[303]{
   GP1:
   UF : 4, UT : 1,
   J1 = -34.000 deg,  J2 = -20.000 deg,  J3 = -10.000 deg,
   J4 = 1.600 deg,  J5 = -56.000 deg,  J6 = -33.000 deg
};
P[304]{
   GP1:
   UF : 4, UT : 1,
   J1 = -35.000 deg,  J2 = -19.000 deg,  J3 = -11.000 deg,
   J4 = 1.600 deg,  J5 = -56.000 deg,  J6 = -33.000 deg
};
P[305]{
   GP1:
   UF : 4, UT : 1,
   J1 = -35.000 deg,  J2 = -20.000 deg,  J3 = -9.000 deg,
   J4 = 1.600 deg,  J5 = -56.000 deg,  J6 = -33.000 deg
};
P[306]{
   GP1:
   UF : 4, UT : 1,
   J1 = -35.000 deg,  J2 = -20.000 deg,  J3 = -10.000 deg,
   J4 = 2.600 deg,  J5 = -56.000 deg,  J6 = -33.000 deg
};
P[307]{
   GP1:
   UF : 4, UT : 1,
   J1 = -35.000 deg,  J2 = -20.000 deg,  J3 = -10.000 deg,
   J4 = 1.600 deg,  J5 = -55.000 deg,  J6 = -33.000 deg
};
P[308]{
   GP1:
   UF : 4, UT : 1,
   J1 = -35.000 deg,  J2 = -20.000 deg,  J3 = -10.000 deg,
   J4 = 1.600 deg,  J5 = -56.000 deg,  J6 = -32.000 deg
};
P[309]{
   GP1:
   UF : 4, UT : 1,
   J1 = -35.000 deg,  J2 = -20.000 deg,  J3 = -5.000 deg,
   J4 = 1.600 deg,  J5 = -56.000 deg,  J6 = -33.000 deg
};
P[310]{
   GP1:
   UF : 4, UT : 1,
   J1 = -34.000 deg,  J2 = -20.000 deg,  J3 = -5.000 deg,
   J4 = 1.600 deg,  J5 = -56.000 deg,  J6 = -33.000 deg
};
P[311]{
   GP1:
   UF : 4, UT : 1,
   J1 = -35.000 deg,  J2 = -19.000 deg,  J3 = -6.000 deg,
   J4 = 1.600 deg,  J5 = -56.000 deg,  J6 = -33.000 deg
};
P[312]{
   GP1:
   UF : 4, UT : 1,
   J1 = -35.000 deg,  J2 = -20.000 deg,  J3 = -4.000 deg,
   J4 = 1.600 deg,  J5 = -56.000 deg,  J6 = -33.000 deg
};
P[313]{
   GP1:
   UF : 4, UT : 1,
   J1 = -35.000 deg,  J2 = -20.000 deg,  J3 = -5.000 deg,
   J4 = 2.600 deg,  J5 = -56.000 deg,  J6 = -33.000 deg
};
P[314]{
   GP1:
   UF : 4, UT : 1,
   J1 = -35.000 deg,  J2 = -20.000 deg,  J3 = -5.000 deg,
   J4 = 1.600 deg,  J5 = -55.000 deg,  J6 = -33.000 deg
};
P[315]{
   GP1:
   UF : 4, UT : 1,
   J1 = -35.000 deg,  J2 = -20.000 deg,  J3 = -5.000 deg,
   J4 = 1.600 deg,  J5 = -56.000 deg,  J6 = -32.000 deg
};
P[316]{
   GP1:
   UF : 4, UT : 1,
   J1 = -35.000 deg,  J2 = -20.000 deg,  J3 = 0.000 deg,
   J4 = 1.600 deg,  J5 = -56.000 deg,  J6 = -33.000 deg
};
P[317]{
   GP1:
   UF : 4, UT : 1,
   J1 = -34.000 deg,  J2 = -20.000 deg,  J3 = 0.000 deg,
   J4 = 1.600 deg,  J5 = -56.000 deg,  J6 = -33.000 deg
};
P[318]{
   GP1:
   UF : 4, UT : 1,
   J1 = -35.000 deg,  J2 = -19.000 deg,  J3 = -1.000 deg,
   J4 = 1.600 deg,  J5 = -56.000 deg,  J6 = -33.000 deg
};
P[319]{
   GP1:
   UF : 4, UT : 1,
   J1 = -35.000 deg,  J2 = -20.000 deg,  J3 = 1.000 deg,
   J4 = 1.600 deg,  J5 = -56.000 deg,  J6 = -33.000 deg
};
P[320]{
   GP1:
   UF : 4, UT : 1,
   J1 = -35.000 deg,  J2 = -20.000 deg,  J3 = 0.000 deg,
   J4 = 2.600 deg,  J5 = -56.000 deg,  J6 = -33.000 deg
};
P[321]{
   GP1:
   UF : 4, UT : 1,
   J1 = -35.000 deg,  J2 = -20.000 deg,  J3 = 0.000 deg,
   J4 = 1.600 deg,  J5 = -55.000 deg,  J6 = -33.000 deg
};
P[322]{
   GP1:
   UF : 4, UT : 1,
   J1 = -35.000 deg,  J2 = -20.000 deg,  J3 = 0.000 deg,
   J4 = 1.600 deg,  J5 = -56.000 deg,  J6 = -32.000 deg
};
/END
