/PROG  TMP
/ATTR
DEFAULT_GROUP	= 1,*,*,*,*;
/MN
   1:  R[81]=1 ;
   2:DO[10]=OFF ;
   3:J P[1] 10% FINE ;
   4:DO[10]=ON ;
   5:WAIT DO[10]=OFF ;
   6:J P[2] 10% FINE ;
   7:DO[10]=ON ;
   8:WAIT DO[10]=OFF ;
   9:J P[3] 10% FINE ;
   10:DO[10]=ON ;
   11:WAIT DO[10]=OFF ;
   12:J P[4] 10% FINE ;
   13:DO[10]=ON ;
   14:WAIT DO[10]=OFF ;
   15:J P[5] 10% FINE ;
   16:DO[10]=ON ;
   17:WAIT DO[10]=OFF ;
   18:J P[6] 10% FINE ;
   19:DO[10]=ON ;
   20:WAIT DO[10]=OFF ;
   21:J P[7] 10% FINE ;
   22:DO[10]=ON ;
   23:WAIT DO[10]=OFF ;
   24:J P[8] 10% FINE ;
   25:DO[10]=ON ;
   26:WAIT DO[10]=OFF ;
   27:J P[9] 10% FINE ;
   28:DO[10]=ON ;
   29:WAIT DO[10]=OFF ;
   30:J P[10] 10% FINE ;
   31:DO[10]=ON ;
   32:WAIT DO[10]=OFF ;
   33:J P[11] 10% FINE ;
   34:DO[10]=ON ;
   35:WAIT DO[10]=OFF ;
   36:J P[12] 10% FINE ;
   37:DO[10]=ON ;
   38:WAIT DO[10]=OFF ;
   39:J P[13] 10% FINE ;
   40:DO[10]=ON ;
   41:WAIT DO[10]=OFF ;
   42:J P[14] 10% FINE ;
   43:DO[10]=ON ;
   44:WAIT DO[10]=OFF ;
   45:J P[15] 10% FINE ;
   46:DO[10]=ON ;
   47:WAIT DO[10]=OFF ;
   48:J P[16] 10% FINE ;
   49:DO[10]=ON ;
   50:WAIT DO[10]=OFF ;
   51:J P[17] 10% FINE ;
   52:DO[10]=ON ;
   53:WAIT DO[10]=OFF ;
   54:J P[18] 10% FINE ;
   55:DO[10]=ON ;
   56:WAIT DO[10]=OFF ;
   57:J P[19] 10% FINE ;
   58:DO[10]=ON ;
   59:WAIT DO[10]=OFF ;
   60:J P[20] 10% FINE ;
   61:DO[10]=ON ;
   62:WAIT DO[10]=OFF ;
   63:J P[21] 10% FINE ;
   64:DO[10]=ON ;
   65:WAIT DO[10]=OFF ;
   66:J P[22] 10% FINE ;
   67:DO[10]=ON ;
   68:WAIT DO[10]=OFF ;
   69:J P[23] 10% FINE ;
   70:DO[10]=ON ;
   71:WAIT DO[10]=OFF ;
   72:J P[24] 10% FINE ;
   73:DO[10]=ON ;
   74:WAIT DO[10]=OFF ;
   75:J P[25] 10% FINE ;
   76:DO[10]=ON ;
   77:WAIT DO[10]=OFF ;
   78:J P[26] 10% FINE ;
   79:DO[10]=ON ;
   80:WAIT DO[10]=OFF ;
   81:J P[27] 10% FINE ;
   82:DO[10]=ON ;
   83:WAIT DO[10]=OFF ;
   84:J P[28] 10% FINE ;
   85:DO[10]=ON ;
   86:WAIT DO[10]=OFF ;
   87:J P[29] 10% FINE ;
   88:DO[10]=ON ;
   89:WAIT DO[10]=OFF ;
   90:J P[30] 10% FINE ;
   91:DO[10]=ON ;
   92:WAIT DO[10]=OFF ;
   93:J P[31] 10% FINE ;
   94:DO[10]=ON ;
   95:WAIT DO[10]=OFF ;
   96:J P[32] 10% FINE ;
   97:DO[10]=ON ;
   98:WAIT DO[10]=OFF ;
   99:J P[33] 10% FINE ;
   100:DO[10]=ON ;
   101:WAIT DO[10]=OFF ;
   102:J P[34] 10% FINE ;
   103:DO[10]=ON ;
   104:WAIT DO[10]=OFF ;
   105:J P[35] 10% FINE ;
   106:DO[10]=ON ;
   107:WAIT DO[10]=OFF ;
   108:J P[36] 10% FINE ;
   109:DO[10]=ON ;
   110:WAIT DO[10]=OFF ;
   111:J P[37] 10% FINE ;
   112:DO[10]=ON ;
   113:WAIT DO[10]=OFF ;
   114:J P[38] 10% FINE ;
   115:DO[10]=ON ;
   116:WAIT DO[10]=OFF ;
   117:J P[39] 10% FINE ;
   118:DO[10]=ON ;
   119:WAIT DO[10]=OFF ;
   120:J P[40] 10% FINE ;
   121:DO[10]=ON ;
   122:WAIT DO[10]=OFF ;
   123:J P[41] 10% FINE ;
   124:DO[10]=ON ;
   125:WAIT DO[10]=OFF ;
   126:J P[42] 10% FINE ;
   127:DO[10]=ON ;
   128:WAIT DO[10]=OFF ;
   129:J P[43] 10% FINE ;
   130:DO[10]=ON ;
   131:WAIT DO[10]=OFF ;
   132:J P[44] 10% FINE ;
   133:DO[10]=ON ;
   134:WAIT DO[10]=OFF ;
   135:J P[45] 10% FINE ;
   136:DO[10]=ON ;
   137:WAIT DO[10]=OFF ;
   138:J P[46] 10% FINE ;
   139:DO[10]=ON ;
   140:WAIT DO[10]=OFF ;
   141:J P[47] 10% FINE ;
   142:DO[10]=ON ;
   143:WAIT DO[10]=OFF ;
   144:J P[48] 10% FINE ;
   145:DO[10]=ON ;
   146:WAIT DO[10]=OFF ;
   147:J P[49] 10% FINE ;
   148:DO[10]=ON ;
   149:WAIT DO[10]=OFF ;
   150:J P[50] 10% FINE ;
   151:DO[10]=ON ;
   152:WAIT DO[10]=OFF ;
   153:J P[51] 10% FINE ;
   154:DO[10]=ON ;
   155:WAIT DO[10]=OFF ;
   156:J P[52] 10% FINE ;
   157:DO[10]=ON ;
   158:WAIT DO[10]=OFF ;
   159:J P[53] 10% FINE ;
   160:DO[10]=ON ;
   161:WAIT DO[10]=OFF ;
   162:J P[54] 10% FINE ;
   163:DO[10]=ON ;
   164:WAIT DO[10]=OFF ;
   165:J P[55] 10% FINE ;
   166:DO[10]=ON ;
   167:WAIT DO[10]=OFF ;
   168:J P[56] 10% FINE ;
   169:DO[10]=ON ;
   170:WAIT DO[10]=OFF ;
   171:J P[57] 10% FINE ;
   172:DO[10]=ON ;
   173:WAIT DO[10]=OFF ;
   174:J P[58] 10% FINE ;
   175:DO[10]=ON ;
   176:WAIT DO[10]=OFF ;
   177:J P[59] 10% FINE ;
   178:DO[10]=ON ;
   179:WAIT DO[10]=OFF ;
   180:J P[60] 10% FINE ;
   181:DO[10]=ON ;
   182:WAIT DO[10]=OFF ;
   183:J P[61] 10% FINE ;
   184:DO[10]=ON ;
   185:WAIT DO[10]=OFF ;
   186:J P[62] 10% FINE ;
   187:DO[10]=ON ;
   188:WAIT DO[10]=OFF ;
   189:J P[63] 10% FINE ;
   190:DO[10]=ON ;
   191:WAIT DO[10]=OFF ;
   192:J P[64] 10% FINE ;
   193:DO[10]=ON ;
   194:WAIT DO[10]=OFF ;
   195:J P[65] 10% FINE ;
   196:DO[10]=ON ;
   197:WAIT DO[10]=OFF ;
   198:J P[66] 10% FINE ;
   199:DO[10]=ON ;
   200:WAIT DO[10]=OFF ;
   201:J P[67] 10% FINE ;
   202:DO[10]=ON ;
   203:WAIT DO[10]=OFF ;
   204:J P[68] 10% FINE ;
   205:DO[10]=ON ;
   206:WAIT DO[10]=OFF ;
   207:J P[69] 10% FINE ;
   208:DO[10]=ON ;
   209:WAIT DO[10]=OFF ;
   210:J P[70] 10% FINE ;
   211:DO[10]=ON ;
   212:WAIT DO[10]=OFF ;
   213:J P[71] 10% FINE ;
   214:DO[10]=ON ;
   215:WAIT DO[10]=OFF ;
   216:J P[72] 10% FINE ;
   217:DO[10]=ON ;
   218:WAIT DO[10]=OFF ;
   219:J P[73] 10% FINE ;
   220:DO[10]=ON ;
   221:WAIT DO[10]=OFF ;
   222:J P[74] 10% FINE ;
   223:DO[10]=ON ;
   224:WAIT DO[10]=OFF ;
   225:J P[75] 10% FINE ;
   226:DO[10]=ON ;
   227:WAIT DO[10]=OFF ;
   228:J P[76] 10% FINE ;
   229:DO[10]=ON ;
   230:WAIT DO[10]=OFF ;
   231:J P[77] 10% FINE ;
   232:DO[10]=ON ;
   233:WAIT DO[10]=OFF ;
   234:J P[78] 10% FINE ;
   235:DO[10]=ON ;
   236:WAIT DO[10]=OFF ;
   237:J P[79] 10% FINE ;
   238:DO[10]=ON ;
   239:WAIT DO[10]=OFF ;
   240:J P[80] 10% FINE ;
   241:DO[10]=ON ;
   242:WAIT DO[10]=OFF ;
   243:J P[81] 10% FINE ;
   244:DO[10]=ON ;
   245:WAIT DO[10]=OFF ;
   246:J P[82] 10% FINE ;
   247:DO[10]=ON ;
   248:WAIT DO[10]=OFF ;
   249:J P[83] 10% FINE ;
   250:DO[10]=ON ;
   251:WAIT DO[10]=OFF ;
   252:J P[84] 10% FINE ;
   253:DO[10]=ON ;
   254:WAIT DO[10]=OFF ;
   255:J P[85] 10% FINE ;
   256:DO[10]=ON ;
   257:WAIT DO[10]=OFF ;
   258:J P[86] 10% FINE ;
   259:DO[10]=ON ;
   260:WAIT DO[10]=OFF ;
   261:J P[87] 10% FINE ;
   262:DO[10]=ON ;
   263:WAIT DO[10]=OFF ;
   264:J P[88] 10% FINE ;
   265:DO[10]=ON ;
   266:WAIT DO[10]=OFF ;
   267:J P[89] 10% FINE ;
   268:DO[10]=ON ;
   269:WAIT DO[10]=OFF ;
   270:J P[90] 10% FINE ;
   271:DO[10]=ON ;
   272:WAIT DO[10]=OFF ;
   273:J P[91] 10% FINE ;
   274:DO[10]=ON ;
   275:WAIT DO[10]=OFF ;
   276:J P[92] 10% FINE ;
   277:DO[10]=ON ;
   278:WAIT DO[10]=OFF ;
   279:J P[93] 10% FINE ;
   280:DO[10]=ON ;
   281:WAIT DO[10]=OFF ;
   282:J P[94] 10% FINE ;
   283:DO[10]=ON ;
   284:WAIT DO[10]=OFF ;
   285:J P[95] 10% FINE ;
   286:DO[10]=ON ;
   287:WAIT DO[10]=OFF ;
   288:J P[96] 10% FINE ;
   289:DO[10]=ON ;
   290:WAIT DO[10]=OFF ;
   291:J P[97] 10% FINE ;
   292:DO[10]=ON ;
   293:WAIT DO[10]=OFF ;
   294:J P[98] 10% FINE ;
   295:DO[10]=ON ;
   296:WAIT DO[10]=OFF ;
   297:J P[99] 10% FINE ;
   298:DO[10]=ON ;
   299:WAIT DO[10]=OFF ;
   300:J P[100] 10% FINE ;
   301:DO[10]=ON ;
   302:WAIT DO[10]=OFF ;
   303:J P[101] 10% FINE ;
   304:DO[10]=ON ;
   305:WAIT DO[10]=OFF ;
   306:J P[102] 10% FINE ;
   307:DO[10]=ON ;
   308:WAIT DO[10]=OFF ;
   309:J P[103] 10% FINE ;
   310:DO[10]=ON ;
   311:WAIT DO[10]=OFF ;
   312:J P[104] 10% FINE ;
   313:DO[10]=ON ;
   314:WAIT DO[10]=OFF ;
   315:J P[105] 10% FINE ;
   316:DO[10]=ON ;
   317:WAIT DO[10]=OFF ;
   318:J P[106] 10% FINE ;
   319:DO[10]=ON ;
   320:WAIT DO[10]=OFF ;
   321:J P[107] 10% FINE ;
   322:DO[10]=ON ;
   323:WAIT DO[10]=OFF ;
   324:J P[108] 10% FINE ;
   325:DO[10]=ON ;
   326:WAIT DO[10]=OFF ;
   327:J P[109] 10% FINE ;
   328:DO[10]=ON ;
   329:WAIT DO[10]=OFF ;
   330:J P[110] 10% FINE ;
   331:DO[10]=ON ;
   332:WAIT DO[10]=OFF ;
   333:J P[111] 10% FINE ;
   334:DO[10]=ON ;
   335:WAIT DO[10]=OFF ;
   336:J P[112] 10% FINE ;
   337:DO[10]=ON ;
   338:WAIT DO[10]=OFF ;
   339:J P[113] 10% FINE ;
   340:DO[10]=ON ;
   341:WAIT DO[10]=OFF ;
   342:J P[114] 10% FINE ;
   343:DO[10]=ON ;
   344:WAIT DO[10]=OFF ;
   345:J P[115] 10% FINE ;
   346:DO[10]=ON ;
   347:WAIT DO[10]=OFF ;
   348:J P[116] 10% FINE ;
   349:DO[10]=ON ;
   350:WAIT DO[10]=OFF ;
   351:J P[117] 10% FINE ;
   352:DO[10]=ON ;
   353:WAIT DO[10]=OFF ;
   354:J P[118] 10% FINE ;
   355:DO[10]=ON ;
   356:WAIT DO[10]=OFF ;
   357:J P[119] 10% FINE ;
   358:DO[10]=ON ;
   359:WAIT DO[10]=OFF ;
   360:J P[120] 10% FINE ;
   361:DO[10]=ON ;
   362:WAIT DO[10]=OFF ;
   363:J P[121] 10% FINE ;
   364:DO[10]=ON ;
   365:WAIT DO[10]=OFF ;
   366:J P[122] 10% FINE ;
   367:DO[10]=ON ;
   368:WAIT DO[10]=OFF ;
   369:J P[123] 10% FINE ;
   370:DO[10]=ON ;
   371:WAIT DO[10]=OFF ;
   372:J P[124] 10% FINE ;
   373:DO[10]=ON ;
   374:WAIT DO[10]=OFF ;
   375:J P[125] 10% FINE ;
   376:DO[10]=ON ;
   377:WAIT DO[10]=OFF ;
   378:J P[126] 10% FINE ;
   379:DO[10]=ON ;
   380:WAIT DO[10]=OFF ;
   381:J P[127] 10% FINE ;
   382:DO[10]=ON ;
   383:WAIT DO[10]=OFF ;
   384:J P[128] 10% FINE ;
   385:DO[10]=ON ;
   386:WAIT DO[10]=OFF ;
   387:J P[129] 10% FINE ;
   388:DO[10]=ON ;
   389:WAIT DO[10]=OFF ;
   390:J P[130] 10% FINE ;
   391:DO[10]=ON ;
   392:WAIT DO[10]=OFF ;
   393:J P[131] 10% FINE ;
   394:DO[10]=ON ;
   395:WAIT DO[10]=OFF ;
   396:J P[132] 10% FINE ;
   397:DO[10]=ON ;
   398:WAIT DO[10]=OFF ;
   399:J P[133] 10% FINE ;
   400:DO[10]=ON ;
   401:WAIT DO[10]=OFF ;
   402:J P[134] 10% FINE ;
   403:DO[10]=ON ;
   404:WAIT DO[10]=OFF ;
   405:J P[135] 10% FINE ;
   406:DO[10]=ON ;
   407:WAIT DO[10]=OFF ;
   408:J P[136] 10% FINE ;
   409:DO[10]=ON ;
   410:WAIT DO[10]=OFF ;
   411:J P[137] 10% FINE ;
   412:DO[10]=ON ;
   413:WAIT DO[10]=OFF ;
   414:J P[138] 10% FINE ;
   415:DO[10]=ON ;
   416:WAIT DO[10]=OFF ;
   417:J P[139] 10% FINE ;
   418:DO[10]=ON ;
   419:WAIT DO[10]=OFF ;
   420:J P[140] 10% FINE ;
   421:DO[10]=ON ;
   422:WAIT DO[10]=OFF ;
   423:J P[141] 10% FINE ;
   424:DO[10]=ON ;
   425:WAIT DO[10]=OFF ;
   426:J P[142] 10% FINE ;
   427:DO[10]=ON ;
   428:WAIT DO[10]=OFF ;
   429:J P[143] 10% FINE ;
   430:DO[10]=ON ;
   431:WAIT DO[10]=OFF ;
   432:J P[144] 10% FINE ;
   433:DO[10]=ON ;
   434:WAIT DO[10]=OFF ;
   435:J P[145] 10% FINE ;
   436:DO[10]=ON ;
   437:WAIT DO[10]=OFF ;
   438:J P[146] 10% FINE ;
   439:DO[10]=ON ;
   440:WAIT DO[10]=OFF ;
   441:J P[147] 10% FINE ;
   442:DO[10]=ON ;
   443:WAIT DO[10]=OFF ;
   444:J P[148] 10% FINE ;
   445:DO[10]=ON ;
   446:WAIT DO[10]=OFF ;
   447:J P[149] 10% FINE ;
   448:DO[10]=ON ;
   449:WAIT DO[10]=OFF ;
   450:J P[150] 10% FINE ;
   451:DO[10]=ON ;
   452:WAIT DO[10]=OFF ;
   453:J P[151] 10% FINE ;
   454:DO[10]=ON ;
   455:WAIT DO[10]=OFF ;
   456:J P[152] 10% FINE ;
   457:DO[10]=ON ;
   458:WAIT DO[10]=OFF ;
   459:J P[153] 10% FINE ;
   460:DO[10]=ON ;
   461:WAIT DO[10]=OFF ;
   462:J P[154] 10% FINE ;
   463:DO[10]=ON ;
   464:WAIT DO[10]=OFF ;
   465:J P[155] 10% FINE ;
   466:DO[10]=ON ;
   467:WAIT DO[10]=OFF ;
   468:J P[156] 10% FINE ;
   469:DO[10]=ON ;
   470:WAIT DO[10]=OFF ;
   471:J P[157] 10% FINE ;
   472:DO[10]=ON ;
   473:WAIT DO[10]=OFF ;
   474:J P[158] 10% FINE ;
   475:DO[10]=ON ;
   476:WAIT DO[10]=OFF ;
   477:J P[159] 10% FINE ;
   478:DO[10]=ON ;
   479:WAIT DO[10]=OFF ;
   480:J P[160] 10% FINE ;
   481:DO[10]=ON ;
   482:WAIT DO[10]=OFF ;
   483:J P[161] 10% FINE ;
   484:DO[10]=ON ;
   485:WAIT DO[10]=OFF ;
   486:J P[162] 10% FINE ;
   487:DO[10]=ON ;
   488:WAIT DO[10]=OFF ;
   489:J P[163] 10% FINE ;
   490:DO[10]=ON ;
   491:WAIT DO[10]=OFF ;
   492:J P[164] 10% FINE ;
   493:DO[10]=ON ;
   494:WAIT DO[10]=OFF ;
   495:J P[165] 10% FINE ;
   496:DO[10]=ON ;
   497:WAIT DO[10]=OFF ;
   498:J P[166] 10% FINE ;
   499:DO[10]=ON ;
   500:WAIT DO[10]=OFF ;
   501:J P[167] 10% FINE ;
   502:DO[10]=ON ;
   503:WAIT DO[10]=OFF ;
   504:J P[168] 10% FINE ;
   505:DO[10]=ON ;
   506:WAIT DO[10]=OFF ;
   507:J P[169] 10% FINE ;
   508:DO[10]=ON ;
   509:WAIT DO[10]=OFF ;
   510:J P[170] 10% FINE ;
   511:DO[10]=ON ;
   512:WAIT DO[10]=OFF ;
   513:J P[171] 10% FINE ;
   514:DO[10]=ON ;
   515:WAIT DO[10]=OFF ;
   516:J P[172] 10% FINE ;
   517:DO[10]=ON ;
   518:WAIT DO[10]=OFF ;
   519:J P[173] 10% FINE ;
   520:DO[10]=ON ;
   521:WAIT DO[10]=OFF ;
   522:J P[174] 10% FINE ;
   523:DO[10]=ON ;
   524:WAIT DO[10]=OFF ;
   525:J P[175] 10% FINE ;
   526:DO[10]=ON ;
   527:WAIT DO[10]=OFF ;
   528:J P[176] 10% FINE ;
   529:DO[10]=ON ;
   530:WAIT DO[10]=OFF ;
   531:J P[177] 10% FINE ;
   532:DO[10]=ON ;
   533:WAIT DO[10]=OFF ;
   534:J P[178] 10% FINE ;
   535:DO[10]=ON ;
   536:WAIT DO[10]=OFF ;
   537:J P[179] 10% FINE ;
   538:DO[10]=ON ;
   539:WAIT DO[10]=OFF ;
   540:J P[180] 10% FINE ;
   541:DO[10]=ON ;
   542:WAIT DO[10]=OFF ;
   543:J P[181] 10% FINE ;
   544:DO[10]=ON ;
   545:WAIT DO[10]=OFF ;
   546:J P[182] 10% FINE ;
   547:DO[10]=ON ;
   548:WAIT DO[10]=OFF ;
   549:J P[183] 10% FINE ;
   550:DO[10]=ON ;
   551:WAIT DO[10]=OFF ;
   552:J P[184] 10% FINE ;
   553:DO[10]=ON ;
   554:WAIT DO[10]=OFF ;
   555:J P[185] 10% FINE ;
   556:DO[10]=ON ;
   557:WAIT DO[10]=OFF ;
   558:J P[186] 10% FINE ;
   559:DO[10]=ON ;
   560:WAIT DO[10]=OFF ;
   561:J P[187] 10% FINE ;
   562:DO[10]=ON ;
   563:WAIT DO[10]=OFF ;
   564:J P[188] 10% FINE ;
   565:DO[10]=ON ;
   566:WAIT DO[10]=OFF ;
   567:J P[189] 10% FINE ;
   568:DO[10]=ON ;
   569:WAIT DO[10]=OFF ;
   570:J P[190] 10% FINE ;
   571:DO[10]=ON ;
   572:WAIT DO[10]=OFF ;
   573:J P[191] 10% FINE ;
   574:DO[10]=ON ;
   575:WAIT DO[10]=OFF ;
   576:J P[192] 10% FINE ;
   577:DO[10]=ON ;
   578:WAIT DO[10]=OFF ;
   579:J P[193] 10% FINE ;
   580:DO[10]=ON ;
   581:WAIT DO[10]=OFF ;
   582:J P[194] 10% FINE ;
   583:DO[10]=ON ;
   584:WAIT DO[10]=OFF ;
   585:J P[195] 10% FINE ;
   586:DO[10]=ON ;
   587:WAIT DO[10]=OFF ;
   588:J P[196] 10% FINE ;
   589:DO[10]=ON ;
   590:WAIT DO[10]=OFF ;
   591:J P[197] 10% FINE ;
   592:DO[10]=ON ;
   593:WAIT DO[10]=OFF ;
   594:J P[198] 10% FINE ;
   595:DO[10]=ON ;
   596:WAIT DO[10]=OFF ;
   597:J P[199] 10% FINE ;
   598:DO[10]=ON ;
   599:WAIT DO[10]=OFF ;
   600:J P[200] 10% FINE ;
   601:DO[10]=ON ;
   602:WAIT DO[10]=OFF ;
   603:J P[201] 10% FINE ;
   604:DO[10]=ON ;
   605:WAIT DO[10]=OFF ;
   606:J P[202] 10% FINE ;
   607:DO[10]=ON ;
   608:WAIT DO[10]=OFF ;
   609:J P[203] 10% FINE ;
   610:DO[10]=ON ;
   611:WAIT DO[10]=OFF ;
   612:J P[204] 10% FINE ;
   613:DO[10]=ON ;
   614:WAIT DO[10]=OFF ;
   615:J P[205] 10% FINE ;
   616:DO[10]=ON ;
   617:WAIT DO[10]=OFF ;
   618:J P[206] 10% FINE ;
   619:DO[10]=ON ;
   620:WAIT DO[10]=OFF ;
   621:J P[207] 10% FINE ;
   622:DO[10]=ON ;
   623:WAIT DO[10]=OFF ;
   624:J P[208] 10% FINE ;
   625:DO[10]=ON ;
   626:WAIT DO[10]=OFF ;
   627:J P[209] 10% FINE ;
   628:DO[10]=ON ;
   629:WAIT DO[10]=OFF ;
   630:J P[210] 10% FINE ;
   631:DO[10]=ON ;
   632:WAIT DO[10]=OFF ;
   633:J P[211] 10% FINE ;
   634:DO[10]=ON ;
   635:WAIT DO[10]=OFF ;
   636:J P[212] 10% FINE ;
   637:DO[10]=ON ;
   638:WAIT DO[10]=OFF ;
   639:J P[213] 10% FINE ;
   640:DO[10]=ON ;
   641:WAIT DO[10]=OFF ;
   642:J P[214] 10% FINE ;
   643:DO[10]=ON ;
   644:WAIT DO[10]=OFF ;
   645:J P[215] 10% FINE ;
   646:DO[10]=ON ;
   647:WAIT DO[10]=OFF ;
   648:J P[216] 10% FINE ;
   649:DO[10]=ON ;
   650:WAIT DO[10]=OFF ;
   651:J P[217] 10% FINE ;
   652:DO[10]=ON ;
   653:WAIT DO[10]=OFF ;
   654:J P[218] 10% FINE ;
   655:DO[10]=ON ;
   656:WAIT DO[10]=OFF ;
   657:J P[219] 10% FINE ;
   658:DO[10]=ON ;
   659:WAIT DO[10]=OFF ;
   660:J P[220] 10% FINE ;
   661:DO[10]=ON ;
   662:WAIT DO[10]=OFF ;
   663:J P[221] 10% FINE ;
   664:DO[10]=ON ;
   665:WAIT DO[10]=OFF ;
   666:J P[222] 10% FINE ;
   667:DO[10]=ON ;
   668:WAIT DO[10]=OFF ;
   669:J P[223] 10% FINE ;
   670:DO[10]=ON ;
   671:WAIT DO[10]=OFF ;
   672:J P[224] 10% FINE ;
   673:DO[10]=ON ;
   674:WAIT DO[10]=OFF ;
   675:J P[225] 10% FINE ;
   676:DO[10]=ON ;
   677:WAIT DO[10]=OFF ;
   678:J P[226] 10% FINE ;
   679:DO[10]=ON ;
   680:WAIT DO[10]=OFF ;
   681:J P[227] 10% FINE ;
   682:DO[10]=ON ;
   683:WAIT DO[10]=OFF ;
   684:J P[228] 10% FINE ;
   685:DO[10]=ON ;
   686:WAIT DO[10]=OFF ;
   687:J P[229] 10% FINE ;
   688:DO[10]=ON ;
   689:WAIT DO[10]=OFF ;
   690:J P[230] 10% FINE ;
   691:DO[10]=ON ;
   692:WAIT DO[10]=OFF ;
   693:J P[231] 10% FINE ;
   694:DO[10]=ON ;
   695:WAIT DO[10]=OFF ;
   696:J P[232] 10% FINE ;
   697:DO[10]=ON ;
   698:WAIT DO[10]=OFF ;
   699:J P[233] 10% FINE ;
   700:DO[10]=ON ;
   701:WAIT DO[10]=OFF ;
   702:J P[234] 10% FINE ;
   703:DO[10]=ON ;
   704:WAIT DO[10]=OFF ;
   705:J P[235] 10% FINE ;
   706:DO[10]=ON ;
   707:WAIT DO[10]=OFF ;
   708:J P[236] 10% FINE ;
   709:DO[10]=ON ;
   710:WAIT DO[10]=OFF ;
   711:J P[237] 10% FINE ;
   712:DO[10]=ON ;
   713:WAIT DO[10]=OFF ;
   714:J P[238] 10% FINE ;
   715:DO[10]=ON ;
   716:WAIT DO[10]=OFF ;
   717:J P[239] 10% FINE ;
   718:DO[10]=ON ;
   719:WAIT DO[10]=OFF ;
   720:J P[240] 10% FINE ;
   721:DO[10]=ON ;
   722:WAIT DO[10]=OFF ;
   723:J P[241] 10% FINE ;
   724:DO[10]=ON ;
   725:WAIT DO[10]=OFF ;
   726:J P[242] 10% FINE ;
   727:DO[10]=ON ;
   728:WAIT DO[10]=OFF ;
   729:J P[243] 10% FINE ;
   730:DO[10]=ON ;
   731:WAIT DO[10]=OFF ;
   732:J P[244] 10% FINE ;
   733:DO[10]=ON ;
   734:WAIT DO[10]=OFF ;
   735:J P[245] 10% FINE ;
   736:DO[10]=ON ;
   737:WAIT DO[10]=OFF ;
   738:J P[246] 10% FINE ;
   739:DO[10]=ON ;
   740:WAIT DO[10]=OFF ;
   741:J P[247] 10% FINE ;
   742:DO[10]=ON ;
   743:WAIT DO[10]=OFF ;
   744:J P[248] 10% FINE ;
   745:DO[10]=ON ;
   746:WAIT DO[10]=OFF ;
   747:J P[249] 10% FINE ;
   748:DO[10]=ON ;
   749:WAIT DO[10]=OFF ;
   750:J P[250] 10% FINE ;
   751:DO[10]=ON ;
   752:WAIT DO[10]=OFF ;
   753:J P[251] 10% FINE ;
   754:DO[10]=ON ;
   755:WAIT DO[10]=OFF ;
   756:J P[252] 10% FINE ;
   757:DO[10]=ON ;
   758:WAIT DO[10]=OFF ;
   759:J P[253] 10% FINE ;
   760:DO[10]=ON ;
   761:WAIT DO[10]=OFF ;
   762:J P[254] 10% FINE ;
   763:DO[10]=ON ;
   764:WAIT DO[10]=OFF ;
   765:J P[255] 10% FINE ;
   766:DO[10]=ON ;
   767:WAIT DO[10]=OFF ;
   768:J P[256] 10% FINE ;
   769:DO[10]=ON ;
   770:WAIT DO[10]=OFF ;
   771:J P[257] 10% FINE ;
   772:DO[10]=ON ;
   773:WAIT DO[10]=OFF ;
   774:J P[258] 10% FINE ;
   775:DO[10]=ON ;
   776:WAIT DO[10]=OFF ;
   777:J P[259] 10% FINE ;
   778:DO[10]=ON ;
   779:WAIT DO[10]=OFF ;
   780:J P[260] 10% FINE ;
   781:DO[10]=ON ;
   782:WAIT DO[10]=OFF ;
   783:J P[261] 10% FINE ;
   784:DO[10]=ON ;
   785:WAIT DO[10]=OFF ;
   786:J P[262] 10% FINE ;
   787:DO[10]=ON ;
   788:WAIT DO[10]=OFF ;
   789:J P[263] 10% FINE ;
   790:DO[10]=ON ;
   791:WAIT DO[10]=OFF ;
   792:J P[264] 10% FINE ;
   793:DO[10]=ON ;
   794:WAIT DO[10]=OFF ;
   795:J P[265] 10% FINE ;
   796:DO[10]=ON ;
   797:WAIT DO[10]=OFF ;
   798:J P[266] 10% FINE ;
   799:DO[10]=ON ;
   800:WAIT DO[10]=OFF ;
   801:J P[267] 10% FINE ;
   802:DO[10]=ON ;
   803:WAIT DO[10]=OFF ;
   804:J P[268] 10% FINE ;
   805:DO[10]=ON ;
   806:WAIT DO[10]=OFF ;
   807:J P[269] 10% FINE ;
   808:DO[10]=ON ;
   809:WAIT DO[10]=OFF ;
   810:J P[270] 10% FINE ;
   811:DO[10]=ON ;
   812:WAIT DO[10]=OFF ;
   813:J P[271] 10% FINE ;
   814:DO[10]=ON ;
   815:WAIT DO[10]=OFF ;
   816:J P[272] 10% FINE ;
   817:DO[10]=ON ;
   818:WAIT DO[10]=OFF ;
   819:J P[273] 10% FINE ;
   820:DO[10]=ON ;
   821:WAIT DO[10]=OFF ;
   822:J P[274] 10% FINE ;
   823:DO[10]=ON ;
   824:WAIT DO[10]=OFF ;
   825:J P[275] 10% FINE ;
   826:DO[10]=ON ;
   827:WAIT DO[10]=OFF ;
   828:J P[276] 10% FINE ;
   829:DO[10]=ON ;
   830:WAIT DO[10]=OFF ;
   831:J P[277] 10% FINE ;
   832:DO[10]=ON ;
   833:WAIT DO[10]=OFF ;
   834:J P[278] 10% FINE ;
   835:DO[10]=ON ;
   836:WAIT DO[10]=OFF ;
   837:J P[279] 10% FINE ;
   838:DO[10]=ON ;
   839:WAIT DO[10]=OFF ;
   840:J P[280] 10% FINE ;
   841:DO[10]=ON ;
   842:WAIT DO[10]=OFF ;
   843:J P[281] 10% FINE ;
   844:DO[10]=ON ;
   845:WAIT DO[10]=OFF ;
   846:J P[282] 10% FINE ;
   847:DO[10]=ON ;
   848:WAIT DO[10]=OFF ;
   849:J P[283] 10% FINE ;
   850:DO[10]=ON ;
   851:WAIT DO[10]=OFF ;
   852:J P[284] 10% FINE ;
   853:DO[10]=ON ;
   854:WAIT DO[10]=OFF ;
   855:J P[285] 10% FINE ;
   856:DO[10]=ON ;
   857:WAIT DO[10]=OFF ;
   858:J P[286] 10% FINE ;
   859:DO[10]=ON ;
   860:WAIT DO[10]=OFF ;
   861:J P[287] 10% FINE ;
   862:DO[10]=ON ;
   863:WAIT DO[10]=OFF ;
   864:J P[288] 10% FINE ;
   865:DO[10]=ON ;
   866:WAIT DO[10]=OFF ;
   867:J P[289] 10% FINE ;
   868:DO[10]=ON ;
   869:WAIT DO[10]=OFF ;
   870:J P[290] 10% FINE ;
   871:DO[10]=ON ;
   872:WAIT DO[10]=OFF ;
   873:J P[291] 10% FINE ;
   874:DO[10]=ON ;
   875:WAIT DO[10]=OFF ;
   876:J P[292] 10% FINE ;
   877:DO[10]=ON ;
   878:WAIT DO[10]=OFF ;
   879:J P[293] 10% FINE ;
   880:DO[10]=ON ;
   881:WAIT DO[10]=OFF ;
   882:J P[294] 10% FINE ;
   883:DO[10]=ON ;
   884:WAIT DO[10]=OFF ;
   885:J P[295] 10% FINE ;
   886:DO[10]=ON ;
   887:WAIT DO[10]=OFF ;
   888:J P[296] 10% FINE ;
   889:DO[10]=ON ;
   890:WAIT DO[10]=OFF ;
   891:J P[297] 10% FINE ;
   892:DO[10]=ON ;
   893:WAIT DO[10]=OFF ;
   894:J P[298] 10% FINE ;
   895:DO[10]=ON ;
   896:WAIT DO[10]=OFF ;
   897:J P[299] 10% FINE ;
   898:DO[10]=ON ;
   899:WAIT DO[10]=OFF ;
   900:J P[300] 10% FINE ;
   901:DO[10]=ON ;
   902:WAIT DO[10]=OFF ;
   903:J P[301] 10% FINE ;
   904:DO[10]=ON ;
   905:WAIT DO[10]=OFF ;
   906:J P[302] 10% FINE ;
   907:DO[10]=ON ;
   908:WAIT DO[10]=OFF ;
   909:J P[303] 10% FINE ;
   910:DO[10]=ON ;
   911:WAIT DO[10]=OFF ;
   912:J P[304] 10% FINE ;
   913:DO[10]=ON ;
   914:WAIT DO[10]=OFF ;
   915:J P[305] 10% FINE ;
   916:DO[10]=ON ;
   917:WAIT DO[10]=OFF ;
   918:J P[306] 10% FINE ;
   919:DO[10]=ON ;
   920:WAIT DO[10]=OFF ;
   921:J P[307] 10% FINE ;
   922:DO[10]=ON ;
   923:WAIT DO[10]=OFF ;
   924:J P[308] 10% FINE ;
   925:DO[10]=ON ;
   926:WAIT DO[10]=OFF ;
   927:J P[309] 10% FINE ;
   928:DO[10]=ON ;
   929:WAIT DO[10]=OFF ;
   930:J P[310] 10% FINE ;
   931:DO[10]=ON ;
   932:WAIT DO[10]=OFF ;
   933:J P[311] 10% FINE ;
   934:DO[10]=ON ;
   935:WAIT DO[10]=OFF ;
   936:J P[312] 10% FINE ;
   937:DO[10]=ON ;
   938:WAIT DO[10]=OFF ;
   939:J P[313] 10% FINE ;
   940:DO[10]=ON ;
   941:WAIT DO[10]=OFF ;
   942:J P[314] 10% FINE ;
   943:DO[10]=ON ;
   944:WAIT DO[10]=OFF ;
   945:J P[315] 10% FINE ;
   946:DO[10]=ON ;
   947:WAIT DO[10]=OFF ;
   948:J P[316] 10% FINE ;
   949:DO[10]=ON ;
   950:WAIT DO[10]=OFF ;
   951:J P[317] 10% FINE ;
   952:DO[10]=ON ;
   953:WAIT DO[10]=OFF ;
   954:J P[318] 10% FINE ;
   955:DO[10]=ON ;
   956:WAIT DO[10]=OFF ;
   957:J P[319] 10% FINE ;
   958:DO[10]=ON ;
   959:WAIT DO[10]=OFF ;
   960:J P[320] 10% FINE ;
   961:DO[10]=ON ;
   962:WAIT DO[10]=OFF ;
   963:J P[321] 10% FINE ;
   964:DO[10]=ON ;
   965:WAIT DO[10]=OFF ;
   966:J P[322] 10% FINE ;
   967:DO[10]=ON ;
   968:WAIT DO[10]=OFF ;
   969:J P[323] 10% FINE ;
   970:DO[10]=ON ;
   971:WAIT DO[10]=OFF ;
   972:J P[324] 10% FINE ;
   973:DO[10]=ON ;
   974:WAIT DO[10]=OFF ;
   975:J P[325] 10% FINE ;
   976:DO[10]=ON ;
   977:WAIT DO[10]=OFF ;
   978:J P[326] 10% FINE ;
   979:DO[10]=ON ;
   980:WAIT DO[10]=OFF ;
   981:J P[327] 10% FINE ;
   982:DO[10]=ON ;
   983:WAIT DO[10]=OFF ;
   984:J P[328] 10% FINE ;
   985:DO[10]=ON ;
   986:WAIT DO[10]=OFF ;
   987:J P[329] 10% FINE ;
   988:DO[10]=ON ;
   989:WAIT DO[10]=OFF ;
   990:J P[330] 10% FINE ;
   991:DO[10]=ON ;
   992:WAIT DO[10]=OFF ;
   993:J P[331] 10% FINE ;
   994:DO[10]=ON ;
   995:WAIT DO[10]=OFF ;
   996:J P[332] 10% FINE ;
   997:DO[10]=ON ;
   998:WAIT DO[10]=OFF ;
   999:J P[333] 10% FINE ;
   1000:DO[10]=ON ;
   1001:WAIT DO[10]=OFF ;
   1002:J P[334] 10% FINE ;
   1003:DO[10]=ON ;
   1004:WAIT DO[10]=OFF ;
   1005:J P[335] 10% FINE ;
   1006:DO[10]=ON ;
   1007:WAIT DO[10]=OFF ;
   1008:J P[336] 10% FINE ;
   1009:DO[10]=ON ;
   1010:WAIT DO[10]=OFF ;
   1011:J P[337] 10% FINE ;
   1012:DO[10]=ON ;
   1013:WAIT DO[10]=OFF ;
   1014:J P[338] 10% FINE ;
   1015:DO[10]=ON ;
   1016:WAIT DO[10]=OFF ;
   1017:J P[339] 10% FINE ;
   1018:DO[10]=ON ;
   1019:WAIT DO[10]=OFF ;
   1020:J P[340] 10% FINE ;
   1021:DO[10]=ON ;
   1022:WAIT DO[10]=OFF ;
   1023:J P[341] 10% FINE ;
   1024:DO[10]=ON ;
   1025:WAIT DO[10]=OFF ;
   1026:J P[342] 10% FINE ;
   1027:DO[10]=ON ;
   1028:WAIT DO[10]=OFF ;
   1029:J P[343] 10% FINE ;
   1030:DO[10]=ON ;
   1031:WAIT DO[10]=OFF ;
   1032:J P[344] 10% FINE ;
   1033:DO[10]=ON ;
   1034:WAIT DO[10]=OFF ;
   1035:J P[345] 10% FINE ;
   1036:DO[10]=ON ;
   1037:WAIT DO[10]=OFF ;
   1038:J P[346] 10% FINE ;
   1039:DO[10]=ON ;
   1040:WAIT DO[10]=OFF ;
   1041:J P[347] 10% FINE ;
   1042:DO[10]=ON ;
   1043:WAIT DO[10]=OFF ;
   1044:J P[348] 10% FINE ;
   1045:DO[10]=ON ;
   1046:WAIT DO[10]=OFF ;
   1047:J P[349] 10% FINE ;
   1048:DO[10]=ON ;
   1049:WAIT DO[10]=OFF ;
   1050:J P[350] 10% FINE ;
   1051:DO[10]=ON ;
   1052:WAIT DO[10]=OFF ;
   1053:J P[351] 10% FINE ;
   1054:DO[10]=ON ;
   1055:WAIT DO[10]=OFF ;
   1056:J P[352] 10% FINE ;
   1057:DO[10]=ON ;
   1058:WAIT DO[10]=OFF ;
   1059:J P[353] 10% FINE ;
   1060:DO[10]=ON ;
   1061:WAIT DO[10]=OFF ;
   1062:J P[354] 10% FINE ;
   1063:DO[10]=ON ;
   1064:WAIT DO[10]=OFF ;
   1065:J P[355] 10% FINE ;
   1066:DO[10]=ON ;
   1067:WAIT DO[10]=OFF ;
   1068:J P[356] 10% FINE ;
   1069:DO[10]=ON ;
   1070:WAIT DO[10]=OFF ;
   1071:J P[357] 10% FINE ;
   1072:DO[10]=ON ;
   1073:WAIT DO[10]=OFF ;
   1074:J P[358] 10% FINE ;
   1075:DO[10]=ON ;
   1076:WAIT DO[10]=OFF ;
   1077:J P[359] 10% FINE ;
   1078:DO[10]=ON ;
   1079:WAIT DO[10]=OFF ;
   1080:J P[360] 10% FINE ;
   1081:DO[10]=ON ;
   1082:WAIT DO[10]=OFF ;
   1083:J P[361] 10% FINE ;
   1084:DO[10]=ON ;
   1085:WAIT DO[10]=OFF ;
   1086:J P[362] 10% FINE ;
   1087:DO[10]=ON ;
   1088:WAIT DO[10]=OFF ;
   1089:J P[363] 10% FINE ;
   1090:DO[10]=ON ;
   1091:WAIT DO[10]=OFF ;
   1092:J P[364] 10% FINE ;
   1093:DO[10]=ON ;
   1094:WAIT DO[10]=OFF ;
   1095:J P[365] 10% FINE ;
   1096:DO[10]=ON ;
   1097:WAIT DO[10]=OFF ;
   1098:J P[366] 10% FINE ;
   1099:DO[10]=ON ;
   1100:WAIT DO[10]=OFF ;
   1101:J P[367] 10% FINE ;
   1102:DO[10]=ON ;
   1103:WAIT DO[10]=OFF ;
   1104:J P[368] 10% FINE ;
   1105:DO[10]=ON ;
   1106:WAIT DO[10]=OFF ;
   1107:J P[369] 10% FINE ;
   1108:DO[10]=ON ;
   1109:WAIT DO[10]=OFF ;
   1110:J P[370] 10% FINE ;
   1111:DO[10]=ON ;
   1112:WAIT DO[10]=OFF ;
   1113:J P[371] 10% FINE ;
   1114:DO[10]=ON ;
   1115:WAIT DO[10]=OFF ;
   1116:J P[372] 10% FINE ;
   1117:DO[10]=ON ;
   1118:WAIT DO[10]=OFF ;
   1119:J P[373] 10% FINE ;
   1120:DO[10]=ON ;
   1121:WAIT DO[10]=OFF ;
   1122:J P[374] 10% FINE ;
   1123:DO[10]=ON ;
   1124:WAIT DO[10]=OFF ;
   1125:J P[375] 10% FINE ;
   1126:DO[10]=ON ;
   1127:WAIT DO[10]=OFF ;
   1128:J P[376] 10% FINE ;
   1129:DO[10]=ON ;
   1130:WAIT DO[10]=OFF ;
   1131:J P[377] 10% FINE ;
   1132:DO[10]=ON ;
   1133:WAIT DO[10]=OFF ;
   1134:J P[378] 10% FINE ;
   1135:DO[10]=ON ;
   1136:WAIT DO[10]=OFF ;
   1137:J P[379] 10% FINE ;
   1138:DO[10]=ON ;
   1139:WAIT DO[10]=OFF ;
   1140:J P[380] 10% FINE ;
   1141:DO[10]=ON ;
   1142:WAIT DO[10]=OFF ;
   1143:J P[381] 10% FINE ;
   1144:DO[10]=ON ;
   1145:WAIT DO[10]=OFF ;
   1146:J P[382] 10% FINE ;
   1147:DO[10]=ON ;
   1148:WAIT DO[10]=OFF ;
   1149:J P[383] 10% FINE ;
   1150:DO[10]=ON ;
   1151:WAIT DO[10]=OFF ;
   1152:J P[384] 10% FINE ;
   1153:DO[10]=ON ;
   1154:WAIT DO[10]=OFF ;
   1155:J P[385] 10% FINE ;
   1156:DO[10]=ON ;
   1157:WAIT DO[10]=OFF ;
   1158:J P[386] 10% FINE ;
   1159:DO[10]=ON ;
   1160:WAIT DO[10]=OFF ;
   1161:J P[387] 10% FINE ;
   1162:DO[10]=ON ;
   1163:WAIT DO[10]=OFF ;
   1164:J P[388] 10% FINE ;
   1165:DO[10]=ON ;
   1166:WAIT DO[10]=OFF ;
   1167:J P[389] 10% FINE ;
   1168:DO[10]=ON ;
   1169:WAIT DO[10]=OFF ;
   1170:J P[390] 10% FINE ;
   1171:DO[10]=ON ;
   1172:WAIT DO[10]=OFF ;
   1173:J P[391] 10% FINE ;
   1174:DO[10]=ON ;
   1175:WAIT DO[10]=OFF ;
   1176:J P[392] 10% FINE ;
   1177:DO[10]=ON ;
   1178:WAIT DO[10]=OFF ;
   1179:J P[393] 10% FINE ;
   1180:DO[10]=ON ;
   1181:WAIT DO[10]=OFF ;
   1182:J P[394] 10% FINE ;
   1183:DO[10]=ON ;
   1184:WAIT DO[10]=OFF ;
   1185:J P[395] 10% FINE ;
   1186:DO[10]=ON ;
   1187:WAIT DO[10]=OFF ;
   1188:J P[396] 10% FINE ;
   1189:DO[10]=ON ;
   1190:WAIT DO[10]=OFF ;
   1191:J P[397] 10% FINE ;
   1192:DO[10]=ON ;
   1193:WAIT DO[10]=OFF ;
   1194:J P[398] 10% FINE ;
   1195:DO[10]=ON ;
   1196:WAIT DO[10]=OFF ;
   1197:J P[399] 10% FINE ;
   1198:DO[10]=ON ;
   1199:WAIT DO[10]=OFF ;
   1200:J P[400] 10% FINE ;
   1201:DO[10]=ON ;
   1202:WAIT DO[10]=OFF ;
   1203:  R[81]=0 ;
/POS
P[1]{
   GP1:
   UF : 4, UT : 1,
   J1 = -10.000 deg,  J2 = -31.000 deg,  J3 = -41.000 deg,
   J4 = 2.000 deg,  J5 = -38.000 deg,  J6 = -13.000 deg
};
P[2]{
   GP1:
   UF : 4, UT : 1,
   J1 = -10.679 deg,  J2 = -31.274 deg,  J3 = -40.902 deg,
   J4 = 1.889 deg,  J5 = -38.101 deg,  J6 = -12.644 deg
};
P[3]{
   GP1:
   UF : 4, UT : 1,
   J1 = -11.363 deg,  J2 = -31.538 deg,  J3 = -40.809 deg,
   J4 = 1.778 deg,  J5 = -38.198 deg,  J6 = -12.282 deg
};
P[4]{
   GP1:
   UF : 4, UT : 1,
   J1 = -12.052 deg,  J2 = -31.792 deg,  J3 = -40.720 deg,
   J4 = 1.666 deg,  J5 = -38.292 deg,  J6 = -11.916 deg
};
P[5]{
   GP1:
   UF : 4, UT : 1,
   J1 = -12.747 deg,  J2 = -32.035 deg,  J3 = -40.636 deg,
   J4 = 1.553 deg,  J5 = -38.382 deg,  J6 = -11.543 deg
};
P[6]{
   GP1:
   UF : 4, UT : 1,
   J1 = -13.446 deg,  J2 = -32.268 deg,  J3 = -40.556 deg,
   J4 = 1.439 deg,  J5 = -38.468 deg,  J6 = -11.166 deg
};
P[7]{
   GP1:
   UF : 4, UT : 1,
   J1 = -14.150 deg,  J2 = -32.490 deg,  J3 = -40.481 deg,
   J4 = 1.325 deg,  J5 = -38.549 deg,  J6 = -10.784 deg
};
P[8]{
   GP1:
   UF : 4, UT : 1,
   J1 = -14.859 deg,  J2 = -32.701 deg,  J3 = -40.411 deg,
   J4 = 1.211 deg,  J5 = -38.626 deg,  J6 = -10.398 deg
};
P[9]{
   GP1:
   UF : 4, UT : 1,
   J1 = -15.572 deg,  J2 = -32.901 deg,  J3 = -40.346 deg,
   J4 = 1.096 deg,  J5 = -38.698 deg,  J6 = -10.007 deg
};
P[10]{
   GP1:
   UF : 4, UT : 1,
   J1 = -16.288 deg,  J2 = -33.090 deg,  J3 = -40.286 deg,
   J4 = 0.980 deg,  J5 = -38.766 deg,  J6 = -9.612 deg
};
P[11]{
   GP1:
   UF : 4, UT : 1,
   J1 = -17.009 deg,  J2 = -33.266 deg,  J3 = -40.233 deg,
   J4 = 0.864 deg,  J5 = -38.828 deg,  J6 = -9.213 deg
};
P[12]{
   GP1:
   UF : 4, UT : 1,
   J1 = -17.733 deg,  J2 = -33.431 deg,  J3 = -40.185 deg,
   J4 = 0.748 deg,  J5 = -38.884 deg,  J6 = -8.811 deg
};
P[13]{
   GP1:
   UF : 4, UT : 1,
   J1 = -18.460 deg,  J2 = -33.584 deg,  J3 = -40.144 deg,
   J4 = 0.632 deg,  J5 = -38.936 deg,  J6 = -8.405 deg
};
P[14]{
   GP1:
   UF : 4, UT : 1,
   J1 = -19.191 deg,  J2 = -33.725 deg,  J3 = -40.108 deg,
   J4 = 0.515 deg,  J5 = -38.982 deg,  J6 = -7.996 deg
};
P[15]{
   GP1:
   UF : 4, UT : 1,
   J1 = -19.924 deg,  J2 = -33.853 deg,  J3 = -40.079 deg,
   J4 = 0.398 deg,  J5 = -39.022 deg,  J6 = -7.584 deg
};
P[16]{
   GP1:
   UF : 4, UT : 1,
   J1 = -20.660 deg,  J2 = -33.968 deg,  J3 = -40.057 deg,
   J4 = 0.281 deg,  J5 = -39.056 deg,  J6 = -7.170 deg
};
P[17]{
   GP1:
   UF : 4, UT : 1,
   J1 = -21.398 deg,  J2 = -34.071 deg,  J3 = -40.041 deg,
   J4 = 0.163 deg,  J5 = -39.084 deg,  J6 = -6.753 deg
};
P[18]{
   GP1:
   UF : 4, UT : 1,
   J1 = -22.138 deg,  J2 = -34.160 deg,  J3 = -40.033 deg,
   J4 = 0.046 deg,  J5 = -39.106 deg,  J6 = -6.335 deg
};
P[19]{
   GP1:
   UF : 4, UT : 1,
   J1 = -22.880 deg,  J2 = -34.237 deg,  J3 = -40.031 deg,
   J4 = -0.071 deg,  J5 = -39.121 deg,  J6 = -5.915 deg
};
P[20]{
   GP1:
   UF : 4, UT : 1,
   J1 = -23.624 deg,  J2 = -34.301 deg,  J3 = -40.036 deg,
   J4 = -0.189 deg,  J5 = -39.130 deg,  J6 = -5.493 deg
};
P[21]{
   GP1:
   UF : 4, UT : 1,
   J1 = -24.368 deg,  J2 = -34.351 deg,  J3 = -40.049 deg,
   J4 = -0.306 deg,  J5 = -39.133 deg,  J6 = -5.070 deg
};
P[22]{
   GP1:
   UF : 4, UT : 1,
   J1 = -25.113 deg,  J2 = -34.388 deg,  J3 = -40.068 deg,
   J4 = -0.423 deg,  J5 = -39.130 deg,  J6 = -4.646 deg
};
P[23]{
   GP1:
   UF : 4, UT : 1,
   J1 = -25.859 deg,  J2 = -34.412 deg,  J3 = -40.095 deg,
   J4 = -0.540 deg,  J5 = -39.119 deg,  J6 = -4.222 deg
};
P[24]{
   GP1:
   UF : 4, UT : 1,
   J1 = -26.606 deg,  J2 = -34.423 deg,  J3 = -40.128 deg,
   J4 = -0.657 deg,  J5 = -39.102 deg,  J6 = -3.798 deg
};
P[25]{
   GP1:
   UF : 4, UT : 1,
   J1 = -27.352 deg,  J2 = -34.420 deg,  J3 = -40.170 deg,
   J4 = -0.773 deg,  J5 = -39.079 deg,  J6 = -3.373 deg
};
P[26]{
   GP1:
   UF : 4, UT : 1,
   J1 = -28.098 deg,  J2 = -34.403 deg,  J3 = -40.219 deg,
   J4 = -0.889 deg,  J5 = -39.048 deg,  J6 = -2.949 deg
};
P[27]{
   GP1:
   UF : 4, UT : 1,
   J1 = -28.843 deg,  J2 = -34.373 deg,  J3 = -40.275 deg,
   J4 = -1.005 deg,  J5 = -39.011 deg,  J6 = -2.526 deg
};
P[28]{
   GP1:
   UF : 4, UT : 1,
   J1 = -29.588 deg,  J2 = -34.330 deg,  J3 = -40.339 deg,
   J4 = -1.121 deg,  J5 = -38.968 deg,  J6 = -2.103 deg
};
P[29]{
   GP1:
   UF : 4, UT : 1,
   J1 = -30.331 deg,  J2 = -34.273 deg,  J3 = -40.410 deg,
   J4 = -1.236 deg,  J5 = -38.917 deg,  J6 = -1.682 deg
};
P[30]{
   GP1:
   UF : 4, UT : 1,
   J1 = -31.073 deg,  J2 = -34.203 deg,  J3 = -40.488 deg,
   J4 = -1.350 deg,  J5 = -38.860 deg,  J6 = -1.262 deg
};
P[31]{
   GP1:
   UF : 4, UT : 1,
   J1 = -31.813 deg,  J2 = -34.120 deg,  J3 = -40.572 deg,
   J4 = -1.464 deg,  J5 = -38.797 deg,  J6 = -0.844 deg
};
P[32]{
   GP1:
   UF : 4, UT : 1,
   J1 = -32.551 deg,  J2 = -34.023 deg,  J3 = -40.665 deg,
   J4 = -1.578 deg,  J5 = -38.727 deg,  J6 = -0.428 deg
};
P[33]{
   GP1:
   UF : 4, UT : 1,
   J1 = -33.286 deg,  J2 = -33.914 deg,  J3 = -40.764 deg,
   J4 = -1.691 deg,  J5 = -38.650 deg,  J6 = -0.015 deg
};
P[34]{
   GP1:
   UF : 4, UT : 1,
   J1 = -34.020 deg,  J2 = -33.791 deg,  J3 = -40.871 deg,
   J4 = -1.803 deg,  J5 = -38.567 deg,  J6 = 0.396 deg
};
P[35]{
   GP1:
   UF : 4, UT : 1,
   J1 = -34.750 deg,  J2 = -33.656 deg,  J3 = -40.983 deg,
   J4 = -1.915 deg,  J5 = -38.478 deg,  J6 = 0.804 deg
};
P[36]{
   GP1:
   UF : 4, UT : 1,
   J1 = -35.477 deg,  J2 = -33.507 deg,  J3 = -41.104 deg,
   J4 = -2.026 deg,  J5 = -38.382 deg,  J6 = 1.208 deg
};
P[37]{
   GP1:
   UF : 4, UT : 1,
   J1 = -36.201 deg,  J2 = -33.346 deg,  J3 = -41.230 deg,
   J4 = -2.136 deg,  J5 = -38.281 deg,  J6 = 1.610 deg
};
P[38]{
   GP1:
   UF : 4, UT : 1,
   J1 = -36.921 deg,  J2 = -33.173 deg,  J3 = -41.363 deg,
   J4 = -2.245 deg,  J5 = -38.173 deg,  J6 = 2.007 deg
};
P[39]{
   GP1:
   UF : 4, UT : 1,
   J1 = -37.637 deg,  J2 = -32.988 deg,  J3 = -41.501 deg,
   J4 = -2.354 deg,  J5 = -38.060 deg,  J6 = 2.401 deg
};
P[40]{
   GP1:
   UF : 4, UT : 1,
   J1 = -38.349 deg,  J2 = -32.790 deg,  J3 = -41.647 deg,
   J4 = -2.462 deg,  J5 = -37.941 deg,  J6 = 2.790 deg
};
P[41]{
   GP1:
   UF : 4, UT : 1,
   J1 = -39.057 deg,  J2 = -32.581 deg,  J3 = -41.797 deg,
   J4 = -2.568 deg,  J5 = -37.817 deg,  J6 = 3.175 deg
};
P[42]{
   GP1:
   UF : 4, UT : 1,
   J1 = -39.760 deg,  J2 = -32.360 deg,  J3 = -41.953 deg,
   J4 = -2.674 deg,  J5 = -37.688 deg,  J6 = 3.555 deg
};
P[43]{
   GP1:
   UF : 4, UT : 1,
   J1 = -40.459 deg,  J2 = -32.128 deg,  J3 = -42.115 deg,
   J4 = -2.779 deg,  J5 = -37.553 deg,  J6 = 3.930 deg
};
P[44]{
   GP1:
   UF : 4, UT : 1,
   J1 = -41.153 deg,  J2 = -31.884 deg,  J3 = -42.282 deg,
   J4 = -2.883 deg,  J5 = -37.413 deg,  J6 = 4.300 deg
};
P[45]{
   GP1:
   UF : 4, UT : 1,
   J1 = -41.841 deg,  J2 = -31.630 deg,  J3 = -42.454 deg,
   J4 = -2.986 deg,  J5 = -37.269 deg,  J6 = 4.665 deg
};
P[46]{
   GP1:
   UF : 4, UT : 1,
   J1 = -42.524 deg,  J2 = -31.365 deg,  J3 = -42.631 deg,
   J4 = -3.088 deg,  J5 = -37.120 deg,  J6 = 5.024 deg
};
P[47]{
   GP1:
   UF : 4, UT : 1,
   J1 = -43.202 deg,  J2 = -31.090 deg,  J3 = -42.811 deg,
   J4 = -3.188 deg,  J5 = -36.967 deg,  J6 = 5.377 deg
};
P[48]{
   GP1:
   UF : 4, UT : 1,
   J1 = -43.874 deg,  J2 = -30.804 deg,  J3 = -42.997 deg,
   J4 = -3.288 deg,  J5 = -36.809 deg,  J6 = 5.724 deg
};
P[49]{
   GP1:
   UF : 4, UT : 1,
   J1 = -44.540 deg,  J2 = -30.508 deg,  J3 = -43.187 deg,
   J4 = -3.386 deg,  J5 = -36.648 deg,  J6 = 6.066 deg
};
P[50]{
   GP1:
   UF : 4, UT : 1,
   J1 = -45.200 deg,  J2 = -30.203 deg,  J3 = -43.380 deg,
   J4 = -3.483 deg,  J5 = -36.483 deg,  J6 = 6.400 deg
};
P[51]{
   GP1:
   UF : 4, UT : 1,
   J1 = -45.854 deg,  J2 = -29.889 deg,  J3 = -43.577 deg,
   J4 = -3.579 deg,  J5 = -36.315 deg,  J6 = 6.729 deg
};
P[52]{
   GP1:
   UF : 4, UT : 1,
   J1 = -46.502 deg,  J2 = -29.565 deg,  J3 = -43.777 deg,
   J4 = -3.674 deg,  J5 = -36.144 deg,  J6 = 7.050 deg
};
P[53]{
   GP1:
   UF : 4, UT : 1,
   J1 = -47.144 deg,  J2 = -29.233 deg,  J3 = -43.980 deg,
   J4 = -3.767 deg,  J5 = -35.969 deg,  J6 = 7.365 deg
};
P[54]{
   GP1:
   UF : 4, UT : 1,
   J1 = -47.779 deg,  J2 = -28.892 deg,  J3 = -44.186 deg,
   J4 = -3.859 deg,  J5 = -35.792 deg,  J6 = 7.673 deg
};
P[55]{
   GP1:
   UF : 4, UT : 1,
   J1 = -48.407 deg,  J2 = -28.544 deg,  J3 = -44.394 deg,
   J4 = -3.950 deg,  J5 = -35.612 deg,  J6 = 7.974 deg
};
P[56]{
   GP1:
   UF : 4, UT : 1,
   J1 = -49.029 deg,  J2 = -28.187 deg,  J3 = -44.604 deg,
   J4 = -4.039 deg,  J5 = -35.430 deg,  J6 = 8.267 deg
};
P[57]{
   GP1:
   UF : 4, UT : 1,
   J1 = -49.644 deg,  J2 = -27.823 deg,  J3 = -44.817 deg,
   J4 = -4.126 deg,  J5 = -35.246 deg,  J6 = 8.553 deg
};
P[58]{
   GP1:
   UF : 4, UT : 1,
   J1 = -50.252 deg,  J2 = -27.451 deg,  J3 = -45.031 deg,
   J4 = -4.212 deg,  J5 = -35.060 deg,  J6 = 8.832 deg
};
P[59]{
   GP1:
   UF : 4, UT : 1,
   J1 = -50.854 deg,  J2 = -27.073 deg,  J3 = -45.246 deg,
   J4 = -4.297 deg,  J5 = -34.873 deg,  J6 = 9.103 deg
};
P[60]{
   GP1:
   UF : 4, UT : 1,
   J1 = -51.449 deg,  J2 = -26.687 deg,  J3 = -45.463 deg,
   J4 = -4.380 deg,  J5 = -34.684 deg,  J6 = 9.366 deg
};
P[61]{
   GP1:
   UF : 4, UT : 1,
   J1 = -52.036 deg,  J2 = -26.296 deg,  J3 = -45.680 deg,
   J4 = -4.462 deg,  J5 = -34.494 deg,  J6 = 9.622 deg
};
P[62]{
   GP1:
   UF : 4, UT : 1,
   J1 = -52.617 deg,  J2 = -25.898 deg,  J3 = -45.899 deg,
   J4 = -4.542 deg,  J5 = -34.304 deg,  J6 = 9.870 deg
};
P[63]{
   GP1:
   UF : 4, UT : 1,
   J1 = -53.190 deg,  J2 = -25.494 deg,  J3 = -46.118 deg,
   J4 = -4.620 deg,  J5 = -34.112 deg,  J6 = 10.109 deg
};
P[64]{
   GP1:
   UF : 4, UT : 1,
   J1 = -53.757 deg,  J2 = -25.085 deg,  J3 = -46.337 deg,
   J4 = -4.697 deg,  J5 = -33.920 deg,  J6 = 10.341 deg
};
P[65]{
   GP1:
   UF : 4, UT : 1,
   J1 = -54.317 deg,  J2 = -24.670 deg,  J3 = -46.556 deg,
   J4 = -4.771 deg,  J5 = -33.728 deg,  J6 = 10.564 deg
};
P[66]{
   GP1:
   UF : 4, UT : 1,
   J1 = -54.869 deg,  J2 = -24.250 deg,  J3 = -46.776 deg,
   J4 = -4.844 deg,  J5 = -33.536 deg,  J6 = 10.780 deg
};
P[67]{
   GP1:
   UF : 4, UT : 1,
   J1 = -55.414 deg,  J2 = -23.826 deg,  J3 = -46.994 deg,
   J4 = -4.916 deg,  J5 = -33.344 deg,  J6 = 10.987 deg
};
P[68]{
   GP1:
   UF : 4, UT : 1,
   J1 = -55.953 deg,  J2 = -23.397 deg,  J3 = -47.211 deg,
   J4 = -4.985 deg,  J5 = -33.152 deg,  J6 = 11.186 deg
};
P[69]{
   GP1:
   UF : 4, UT : 1,
   J1 = -56.484 deg,  J2 = -22.964 deg,  J3 = -47.428 deg,
   J4 = -5.052 deg,  J5 = -32.961 deg,  J6 = 11.376 deg
};
P[70]{
   GP1:
   UF : 4, UT : 1,
   J1 = -57.008 deg,  J2 = -22.526 deg,  J3 = -47.644 deg,
   J4 = -5.118 deg,  J5 = -32.770 deg,  J6 = 11.558 deg
};
P[71]{
   GP1:
   UF : 4, UT : 1,
   J1 = -57.525 deg,  J2 = -22.085 deg,  J3 = -47.859 deg,
   J4 = -5.181 deg,  J5 = -32.581 deg,  J6 = 11.732 deg
};
P[72]{
   GP1:
   UF : 4, UT : 1,
   J1 = -58.035 deg,  J2 = -21.640 deg,  J3 = -48.072 deg,
   J4 = -5.243 deg,  J5 = -32.392 deg,  J6 = 11.897 deg
};
P[73]{
   GP1:
   UF : 4, UT : 1,
   J1 = -58.538 deg,  J2 = -21.192 deg,  J3 = -48.283 deg,
   J4 = -5.302 deg,  J5 = -32.205 deg,  J6 = 12.054 deg
};
P[74]{
   GP1:
   UF : 4, UT : 1,
   J1 = -59.035 deg,  J2 = -20.741 deg,  J3 = -48.493 deg,
   J4 = -5.360 deg,  J5 = -32.020 deg,  J6 = 12.202 deg
};
P[75]{
   GP1:
   UF : 4, UT : 1,
   J1 = -59.524 deg,  J2 = -20.287 deg,  J3 = -48.700 deg,
   J4 = -5.415 deg,  J5 = -31.836 deg,  J6 = 12.341 deg
};
P[76]{
   GP1:
   UF : 4, UT : 1,
   J1 = -60.006 deg,  J2 = -19.830 deg,  J3 = -48.906 deg,
   J4 = -5.468 deg,  J5 = -31.653 deg,  J6 = 12.472 deg
};
P[77]{
   GP1:
   UF : 4, UT : 1,
   J1 = -60.482 deg,  J2 = -19.371 deg,  J3 = -49.109 deg,
   J4 = -5.519 deg,  J5 = -31.473 deg,  J6 = 12.595 deg
};
P[78]{
   GP1:
   UF : 4, UT : 1,
   J1 = -60.950 deg,  J2 = -18.910 deg,  J3 = -49.309 deg,
   J4 = -5.568 deg,  J5 = -31.295 deg,  J6 = 12.709 deg
};
P[79]{
   GP1:
   UF : 4, UT : 1,
   J1 = -61.412 deg,  J2 = -18.446 deg,  J3 = -49.507 deg,
   J4 = -5.614 deg,  J5 = -31.118 deg,  J6 = 12.814 deg
};
P[80]{
   GP1:
   UF : 4, UT : 1,
   J1 = -61.868 deg,  J2 = -17.980 deg,  J3 = -49.703 deg,
   J4 = -5.658 deg,  J5 = -30.945 deg,  J6 = 12.911 deg
};
P[81]{
   GP1:
   UF : 4, UT : 1,
   J1 = -62.316 deg,  J2 = -17.513 deg,  J3 = -49.895 deg,
   J4 = -5.700 deg,  J5 = -30.773 deg,  J6 = 12.999 deg
};
P[82]{
   GP1:
   UF : 4, UT : 1,
   J1 = -62.759 deg,  J2 = -17.044 deg,  J3 = -50.085 deg,
   J4 = -5.740 deg,  J5 = -30.604 deg,  J6 = 13.078 deg
};
P[83]{
   GP1:
   UF : 4, UT : 1,
   J1 = -63.194 deg,  J2 = -16.574 deg,  J3 = -50.271 deg,
   J4 = -5.776 deg,  J5 = -30.438 deg,  J6 = 13.150 deg
};
P[84]{
   GP1:
   UF : 4, UT : 1,
   J1 = -63.623 deg,  J2 = -16.102 deg,  J3 = -50.454 deg,
   J4 = -5.811 deg,  J5 = -30.275 deg,  J6 = 13.212 deg
};
P[85]{
   GP1:
   UF : 4, UT : 1,
   J1 = -64.046 deg,  J2 = -15.629 deg,  J3 = -50.634 deg,
   J4 = -5.843 deg,  J5 = -30.114 deg,  J6 = 13.266 deg
};
P[86]{
   GP1:
   UF : 4, UT : 1,
   J1 = -64.463 deg,  J2 = -15.155 deg,  J3 = -50.811 deg,
   J4 = -5.873 deg,  J5 = -29.957 deg,  J6 = 13.312 deg
};
P[87]{
   GP1:
   UF : 4, UT : 1,
   J1 = -64.873 deg,  J2 = -14.680 deg,  J3 = -50.984 deg,
   J4 = -5.900 deg,  J5 = -29.802 deg,  J6 = 13.349 deg
};
P[88]{
   GP1:
   UF : 4, UT : 1,
   J1 = -65.277 deg,  J2 = -14.205 deg,  J3 = -51.153 deg,
   J4 = -5.924 deg,  J5 = -29.651 deg,  J6 = 13.377 deg
};
P[89]{
   GP1:
   UF : 4, UT : 1,
   J1 = -65.675 deg,  J2 = -13.729 deg,  J3 = -51.318 deg,
   J4 = -5.946 deg,  J5 = -29.503 deg,  J6 = 13.398 deg
};
P[90]{
   GP1:
   UF : 4, UT : 1,
   J1 = -66.066 deg,  J2 = -13.252 deg,  J3 = -51.480 deg,
   J4 = -5.965 deg,  J5 = -29.358 deg,  J6 = 13.409 deg
};
P[91]{
   GP1:
   UF : 4, UT : 1,
   J1 = -66.452 deg,  J2 = -12.775 deg,  J3 = -51.638 deg,
   J4 = -5.982 deg,  J5 = -29.216 deg,  J6 = 13.413 deg
};
P[92]{
   GP1:
   UF : 4, UT : 1,
   J1 = -66.832 deg,  J2 = -12.297 deg,  J3 = -51.793 deg,
   J4 = -5.996 deg,  J5 = -29.078 deg,  J6 = 13.408 deg
};
P[93]{
   GP1:
   UF : 4, UT : 1,
   J1 = -67.207 deg,  J2 = -11.820 deg,  J3 = -51.943 deg,
   J4 = -6.007 deg,  J5 = -28.944 deg,  J6 = 13.395 deg
};
P[94]{
   GP1:
   UF : 4, UT : 1,
   J1 = -67.575 deg,  J2 = -11.342 deg,  J3 = -52.090 deg,
   J4 = -6.016 deg,  J5 = -28.813 deg,  J6 = 13.374 deg
};
P[95]{
   GP1:
   UF : 4, UT : 1,
   J1 = -67.938 deg,  J2 = -10.864 deg,  J3 = -52.232 deg,
   J4 = -6.022 deg,  J5 = -28.686 deg,  J6 = 13.344 deg
};
P[96]{
   GP1:
   UF : 4, UT : 1,
   J1 = -68.295 deg,  J2 = -10.386 deg,  J3 = -52.371 deg,
   J4 = -6.025 deg,  J5 = -28.562 deg,  J6 = 13.307 deg
};
P[97]{
   GP1:
   UF : 4, UT : 1,
   J1 = -68.647 deg,  J2 = -9.909 deg,  J3 = -52.504 deg,
   J4 = -6.025 deg,  J5 = -28.442 deg,  J6 = 13.261 deg
};
P[98]{
   GP1:
   UF : 4, UT : 1,
   J1 = -68.993 deg,  J2 = -9.431 deg,  J3 = -52.635 deg,
   J4 = -6.023 deg,  J5 = -28.326 deg,  J6 = 13.208 deg
};
P[99]{
   GP1:
   UF : 4, UT : 1,
   J1 = -69.334 deg,  J2 = -8.954 deg,  J3 = -52.760 deg,
   J4 = -6.018 deg,  J5 = -28.213 deg,  J6 = 13.146 deg
};
P[100]{
   GP1:
   UF : 4, UT : 1,
   J1 = -69.670 deg,  J2 = -8.477 deg,  J3 = -52.882 deg,
   J4 = -6.010 deg,  J5 = -28.105 deg,  J6 = 13.077 deg
};
P[101]{
   GP1:
   UF : 4, UT : 1,
   J1 = -70.000 deg,  J2 = -8.000 deg,  J3 = -53.000 deg,
   J4 = -6.000 deg,  J5 = -28.000 deg,  J6 = 13.000 deg
};
P[102]{
   GP1:
   UF : 4, UT : 1,
   J1 = -70.000 deg,  J2 = -8.424 deg,  J3 = -52.401 deg,
   J4 = -5.884 deg,  J5 = -28.616 deg,  J6 = 12.875 deg
};
P[103]{
   GP1:
   UF : 4, UT : 1,
   J1 = -70.000 deg,  J2 = -8.841 deg,  J3 = -51.805 deg,
   J4 = -5.774 deg,  J5 = -29.231 deg,  J6 = 12.755 deg
};
P[104]{
   GP1:
   UF : 4, UT : 1,
   J1 = -70.000 deg,  J2 = -9.251 deg,  J3 = -51.211 deg,
   J4 = -5.668 deg,  J5 = -29.843 deg,  J6 = 12.640 deg
};
P[105]{
   GP1:
   UF : 4, UT : 1,
   J1 = -70.000 deg,  J2 = -9.654 deg,  J3 = -50.619 deg,
   J4 = -5.568 deg,  J5 = -30.454 deg,  J6 = 12.531 deg
};
P[106]{
   GP1:
   UF : 4, UT : 1,
   J1 = -70.000 deg,  J2 = -10.051 deg,  J3 = -50.029 deg,
   J4 = -5.472 deg,  J5 = -31.062 deg,  J6 = 12.426 deg
};
P[107]{
   GP1:
   UF : 4, UT : 1,
   J1 = -70.000 deg,  J2 = -10.441 deg,  J3 = -49.442 deg,
   J4 = -5.380 deg,  J5 = -31.668 deg,  J6 = 12.325 deg
};
P[108]{
   GP1:
   UF : 4, UT : 1,
   J1 = -70.000 deg,  J2 = -10.825 deg,  J3 = -48.857 deg,
   J4 = -5.292 deg,  J5 = -32.272 deg,  J6 = 12.228 deg
};
P[109]{
   GP1:
   UF : 4, UT : 1,
   J1 = -70.000 deg,  J2 = -11.202 deg,  J3 = -48.274 deg,
   J4 = -5.209 deg,  J5 = -32.873 deg,  J6 = 12.135 deg
};
P[110]{
   GP1:
   UF : 4, UT : 1,
   J1 = -70.000 deg,  J2 = -11.572 deg,  J3 = -47.693 deg,
   J4 = -5.128 deg,  J5 = -33.472 deg,  J6 = 12.045 deg
};
P[111]{
   GP1:
   UF : 4, UT : 1,
   J1 = -70.000 deg,  J2 = -11.935 deg,  J3 = -47.116 deg,
   J4 = -5.052 deg,  J5 = -34.069 deg,  J6 = 11.959 deg
};
P[112]{
   GP1:
   UF : 4, UT : 1,
   J1 = -70.000 deg,  J2 = -12.292 deg,  J3 = -46.540 deg,
   J4 = -4.978 deg,  J5 = -34.663 deg,  J6 = 11.876 deg
};
P[113]{
   GP1:
   UF : 4, UT : 1,
   J1 = -70.000 deg,  J2 = -12.642 deg,  J3 = -45.967 deg,
   J4 = -4.907 deg,  J5 = -35.255 deg,  J6 = 11.796 deg
};
P[114]{
   GP1:
   UF : 4, UT : 1,
   J1 = -70.000 deg,  J2 = -12.985 deg,  J3 = -45.397 deg,
   J4 = -4.839 deg,  J5 = -35.845 deg,  J6 = 11.719 deg
};
P[115]{
   GP1:
   UF : 4, UT : 1,
   J1 = -70.000 deg,  J2 = -13.322 deg,  J3 = -44.829 deg,
   J4 = -4.774 deg,  J5 = -36.432 deg,  J6 = 11.644 deg
};
P[116]{
   GP1:
   UF : 4, UT : 1,
   J1 = -70.000 deg,  J2 = -13.652 deg,  J3 = -44.264 deg,
   J4 = -4.711 deg,  J5 = -37.016 deg,  J6 = 11.572 deg
};
P[117]{
   GP1:
   UF : 4, UT : 1,
   J1 = -70.001 deg,  J2 = -13.975 deg,  J3 = -43.701 deg,
   J4 = -4.651 deg,  J5 = -37.599 deg,  J6 = 11.503 deg
};
P[118]{
   GP1:
   UF : 4, UT : 1,
   J1 = -70.001 deg,  J2 = -14.292 deg,  J3 = -43.141 deg,
   J4 = -4.593 deg,  J5 = -38.178 deg,  J6 = 11.436 deg
};
P[119]{
   GP1:
   UF : 4, UT : 1,
   J1 = -70.001 deg,  J2 = -14.603 deg,  J3 = -42.583 deg,
   J4 = -4.538 deg,  J5 = -38.755 deg,  J6 = 11.371 deg
};
P[120]{
   GP1:
   UF : 4, UT : 1,
   J1 = -70.001 deg,  J2 = -14.907 deg,  J3 = -42.028 deg,
   J4 = -4.484 deg,  J5 = -39.330 deg,  J6 = 11.308 deg
};
P[121]{
   GP1:
   UF : 4, UT : 1,
   J1 = -70.001 deg,  J2 = -15.204 deg,  J3 = -41.476 deg,
   J4 = -4.432 deg,  J5 = -39.902 deg,  J6 = 11.247 deg
};
P[122]{
   GP1:
   UF : 4, UT : 1,
   J1 = -70.001 deg,  J2 = -15.496 deg,  J3 = -40.925 deg,
   J4 = -4.382 deg,  J5 = -40.471 deg,  J6 = 11.188 deg
};
P[123]{
   GP1:
   UF : 4, UT : 1,
   J1 = -70.001 deg,  J2 = -15.780 deg,  J3 = -40.379 deg,
   J4 = -4.334 deg,  J5 = -41.038 deg,  J6 = 11.131 deg
};
P[124]{
   GP1:
   UF : 4, UT : 1,
   J1 = -70.001 deg,  J2 = -16.059 deg,  J3 = -39.833 deg,
   J4 = -4.288 deg,  J5 = -41.602 deg,  J6 = 11.075 deg
};
P[125]{
   GP1:
   UF : 4, UT : 1,
   J1 = -70.001 deg,  J2 = -16.331 deg,  J3 = -39.291 deg,
   J4 = -4.244 deg,  J5 = -42.164 deg,  J6 = 11.021 deg
};
P[126]{
   GP1:
   UF : 4, UT : 1,
   J1 = -70.001 deg,  J2 = -16.596 deg,  J3 = -38.753 deg,
   J4 = -4.200 deg,  J5 = -42.723 deg,  J6 = 10.969 deg
};
P[127]{
   GP1:
   UF : 4, UT : 1,
   J1 = -70.001 deg,  J2 = -16.856 deg,  J3 = -38.215 deg,
   J4 = -4.159 deg,  J5 = -43.280 deg,  J6 = 10.918 deg
};
P[128]{
   GP1:
   UF : 4, UT : 1,
   J1 = -70.001 deg,  J2 = -17.110 deg,  J3 = -37.680 deg,
   J4 = -4.119 deg,  J5 = -43.834 deg,  J6 = 10.869 deg
};
P[129]{
   GP1:
   UF : 4, UT : 1,
   J1 = -70.001 deg,  J2 = -17.357 deg,  J3 = -37.149 deg,
   J4 = -4.080 deg,  J5 = -44.385 deg,  J6 = 10.821 deg
};
P[130]{
   GP1:
   UF : 4, UT : 1,
   J1 = -70.001 deg,  J2 = -17.598 deg,  J3 = -36.620 deg,
   J4 = -4.043 deg,  J5 = -44.934 deg,  J6 = 10.774 deg
};
P[131]{
   GP1:
   UF : 4, UT : 1,
   J1 = -70.001 deg,  J2 = -17.833 deg,  J3 = -36.093 deg,
   J4 = -4.006 deg,  J5 = -45.481 deg,  J6 = 10.728 deg
};
P[132]{
   GP1:
   UF : 4, UT : 1,
   J1 = -70.001 deg,  J2 = -18.062 deg,  J3 = -35.569 deg,
   J4 = -3.971 deg,  J5 = -46.025 deg,  J6 = 10.684 deg
};
P[133]{
   GP1:
   UF : 4, UT : 1,
   J1 = -70.001 deg,  J2 = -18.285 deg,  J3 = -35.048 deg,
   J4 = -3.937 deg,  J5 = -46.566 deg,  J6 = 10.641 deg
};
P[134]{
   GP1:
   UF : 4, UT : 1,
   J1 = -70.001 deg,  J2 = -18.502 deg,  J3 = -34.529 deg,
   J4 = -3.905 deg,  J5 = -47.106 deg,  J6 = 10.599 deg
};
P[135]{
   GP1:
   UF : 4, UT : 1,
   J1 = -70.001 deg,  J2 = -18.714 deg,  J3 = -34.011 deg,
   J4 = -3.873 deg,  J5 = -47.642 deg,  J6 = 10.558 deg
};
P[136]{
   GP1:
   UF : 4, UT : 1,
   J1 = -70.001 deg,  J2 = -18.919 deg,  J3 = -33.498 deg,
   J4 = -3.842 deg,  J5 = -48.176 deg,  J6 = 10.518 deg
};
P[137]{
   GP1:
   UF : 4, UT : 1,
   J1 = -70.001 deg,  J2 = -19.119 deg,  J3 = -32.986 deg,
   J4 = -3.812 deg,  J5 = -48.708 deg,  J6 = 10.479 deg
};
P[138]{
   GP1:
   UF : 4, UT : 1,
   J1 = -70.001 deg,  J2 = -19.313 deg,  J3 = -32.477 deg,
   J4 = -3.784 deg,  J5 = -49.237 deg,  J6 = 10.441 deg
};
P[139]{
   GP1:
   UF : 4, UT : 1,
   J1 = -70.001 deg,  J2 = -19.501 deg,  J3 = -31.970 deg,
   J4 = -3.756 deg,  J5 = -49.764 deg,  J6 = 10.404 deg
};
P[140]{
   GP1:
   UF : 4, UT : 1,
   J1 = -70.001 deg,  J2 = -19.684 deg,  J3 = -31.465 deg,
   J4 = -3.729 deg,  J5 = -50.289 deg,  J6 = 10.367 deg
};
P[141]{
   GP1:
   UF : 4, UT : 1,
   J1 = -70.001 deg,  J2 = -19.861 deg,  J3 = -30.963 deg,
   J4 = -3.703 deg,  J5 = -50.811 deg,  J6 = 10.332 deg
};
P[142]{
   GP1:
   UF : 4, UT : 1,
   J1 = -70.001 deg,  J2 = -20.032 deg,  J3 = -30.464 deg,
   J4 = -3.677 deg,  J5 = -51.331 deg,  J6 = 10.297 deg
};
P[143]{
   GP1:
   UF : 4, UT : 1,
   J1 = -70.001 deg,  J2 = -20.199 deg,  J3 = -29.965 deg,
   J4 = -3.653 deg,  J5 = -51.849 deg,  J6 = 10.263 deg
};
P[144]{
   GP1:
   UF : 4, UT : 1,
   J1 = -70.001 deg,  J2 = -20.359 deg,  J3 = -29.471 deg,
   J4 = -3.629 deg,  J5 = -52.364 deg,  J6 = 10.230 deg
};
P[145]{
   GP1:
   UF : 4, UT : 1,
   J1 = -70.001 deg,  J2 = -20.515 deg,  J3 = -28.977 deg,
   J4 = -3.606 deg,  J5 = -52.878 deg,  J6 = 10.197 deg
};
P[146]{
   GP1:
   UF : 4, UT : 1,
   J1 = -70.001 deg,  J2 = -20.665 deg,  J3 = -28.487 deg,
   J4 = -3.583 deg,  J5 = -53.388 deg,  J6 = 10.165 deg
};
P[147]{
   GP1:
   UF : 4, UT : 1,
   J1 = -70.001 deg,  J2 = -20.810 deg,  J3 = -27.998 deg,
   J4 = -3.562 deg,  J5 = -53.897 deg,  J6 = 10.134 deg
};
P[148]{
   GP1:
   UF : 4, UT : 1,
   J1 = -70.001 deg,  J2 = -20.949 deg,  J3 = -27.512 deg,
   J4 = -3.541 deg,  J5 = -54.404 deg,  J6 = 10.104 deg
};
P[149]{
   GP1:
   UF : 4, UT : 1,
   J1 = -70.001 deg,  J2 = -21.083 deg,  J3 = -27.028 deg,
   J4 = -3.520 deg,  J5 = -54.908 deg,  J6 = 10.074 deg
};
P[150]{
   GP1:
   UF : 4, UT : 1,
   J1 = -70.001 deg,  J2 = -21.213 deg,  J3 = -26.545 deg,
   J4 = -3.500 deg,  J5 = -55.411 deg,  J6 = 10.044 deg
};
P[151]{
   GP1:
   UF : 4, UT : 1,
   J1 = -70.001 deg,  J2 = -21.337 deg,  J3 = -26.065 deg,
   J4 = -3.481 deg,  J5 = -55.911 deg,  J6 = 10.016 deg
};
P[152]{
   GP1:
   UF : 4, UT : 1,
   J1 = -70.001 deg,  J2 = -21.456 deg,  J3 = -25.587 deg,
   J4 = -3.462 deg,  J5 = -56.409 deg,  J6 = 9.988 deg
};
P[153]{
   GP1:
   UF : 4, UT : 1,
   J1 = -70.001 deg,  J2 = -21.570 deg,  J3 = -25.112 deg,
   J4 = -3.444 deg,  J5 = -56.906 deg,  J6 = 9.960 deg
};
P[154]{
   GP1:
   UF : 4, UT : 1,
   J1 = -70.001 deg,  J2 = -21.679 deg,  J3 = -24.638 deg,
   J4 = -3.427 deg,  J5 = -57.400 deg,  J6 = 9.933 deg
};
P[155]{
   GP1:
   UF : 4, UT : 1,
   J1 = -70.001 deg,  J2 = -21.784 deg,  J3 = -24.165 deg,
   J4 = -3.410 deg,  J5 = -57.892 deg,  J6 = 9.906 deg
};
P[156]{
   GP1:
   UF : 4, UT : 1,
   J1 = -70.001 deg,  J2 = -21.883 deg,  J3 = -23.695 deg,
   J4 = -3.393 deg,  J5 = -58.383 deg,  J6 = 9.880 deg
};
P[157]{
   GP1:
   UF : 4, UT : 1,
   J1 = -70.001 deg,  J2 = -21.978 deg,  J3 = -23.227 deg,
   J4 = -3.377 deg,  J5 = -58.871 deg,  J6 = 9.854 deg
};
P[158]{
   GP1:
   UF : 4, UT : 1,
   J1 = -70.001 deg,  J2 = -22.068 deg,  J3 = -22.761 deg,
   J4 = -3.361 deg,  J5 = -59.358 deg,  J6 = 9.829 deg
};
P[159]{
   GP1:
   UF : 4, UT : 1,
   J1 = -70.001 deg,  J2 = -22.153 deg,  J3 = -22.297 deg,
   J4 = -3.346 deg,  J5 = -59.843 deg,  J6 = 9.804 deg
};
P[160]{
   GP1:
   UF : 4, UT : 1,
   J1 = -70.001 deg,  J2 = -22.234 deg,  J3 = -21.834 deg,
   J4 = -3.331 deg,  J5 = -60.326 deg,  J6 = 9.779 deg
};
P[161]{
   GP1:
   UF : 4, UT : 1,
   J1 = -70.001 deg,  J2 = -22.310 deg,  J3 = -21.373 deg,
   J4 = -3.317 deg,  J5 = -60.807 deg,  J6 = 9.755 deg
};
P[162]{
   GP1:
   UF : 4, UT : 1,
   J1 = -70.001 deg,  J2 = -22.382 deg,  J3 = -20.913 deg,
   J4 = -3.303 deg,  J5 = -61.287 deg,  J6 = 9.732 deg
};
P[163]{
   GP1:
   UF : 4, UT : 1,
   J1 = -70.001 deg,  J2 = -22.448 deg,  J3 = -20.456 deg,
   J4 = -3.290 deg,  J5 = -61.765 deg,  J6 = 9.708 deg
};
P[164]{
   GP1:
   UF : 4, UT : 1,
   J1 = -70.001 deg,  J2 = -22.511 deg,  J3 = -20.000 deg,
   J4 = -3.277 deg,  J5 = -62.241 deg,  J6 = 9.685 deg
};
P[165]{
   GP1:
   UF : 4, UT : 1,
   J1 = -70.001 deg,  J2 = -22.569 deg,  J3 = -19.546 deg,
   J4 = -3.264 deg,  J5 = -62.716 deg,  J6 = 9.663 deg
};
P[166]{
   GP1:
   UF : 4, UT : 1,
   J1 = -70.001 deg,  J2 = -22.623 deg,  J3 = -19.093 deg,
   J4 = -3.252 deg,  J5 = -63.189 deg,  J6 = 9.640 deg
};
P[167]{
   GP1:
   UF : 4, UT : 1,
   J1 = -70.001 deg,  J2 = -22.672 deg,  J3 = -18.642 deg,
   J4 = -3.240 deg,  J5 = -63.660 deg,  J6 = 9.618 deg
};
P[168]{
   GP1:
   UF : 4, UT : 1,
   J1 = -70.001 deg,  J2 = -22.717 deg,  J3 = -18.193 deg,
   J4 = -3.228 deg,  J5 = -64.130 deg,  J6 = 9.597 deg
};
P[169]{
   GP1:
   UF : 4, UT : 1,
   J1 = -70.001 deg,  J2 = -22.758 deg,  J3 = -17.744 deg,
   J4 = -3.217 deg,  J5 = -64.598 deg,  J6 = 9.575 deg
};
P[170]{
   GP1:
   UF : 4, UT : 1,
   J1 = -70.001 deg,  J2 = -22.794 deg,  J3 = -17.298 deg,
   J4 = -3.206 deg,  J5 = -65.065 deg,  J6 = 9.554 deg
};
P[171]{
   GP1:
   UF : 4, UT : 1,
   J1 = -70.001 deg,  J2 = -22.827 deg,  J3 = -16.853 deg,
   J4 = -3.195 deg,  J5 = -65.531 deg,  J6 = 9.533 deg
};
P[172]{
   GP1:
   UF : 4, UT : 1,
   J1 = -70.001 deg,  J2 = -22.855 deg,  J3 = -16.409 deg,
   J4 = -3.185 deg,  J5 = -65.995 deg,  J6 = 9.513 deg
};
P[173]{
   GP1:
   UF : 4, UT : 1,
   J1 = -70.001 deg,  J2 = -22.879 deg,  J3 = -15.967 deg,
   J4 = -3.175 deg,  J5 = -66.458 deg,  J6 = 9.493 deg
};
P[174]{
   GP1:
   UF : 4, UT : 1,
   J1 = -70.001 deg,  J2 = -22.899 deg,  J3 = -15.526 deg,
   J4 = -3.166 deg,  J5 = -66.919 deg,  J6 = 9.473 deg
};
P[175]{
   GP1:
   UF : 4, UT : 1,
   J1 = -70.001 deg,  J2 = -22.915 deg,  J3 = -15.086 deg,
   J4 = -3.156 deg,  J5 = -67.379 deg,  J6 = 9.453 deg
};
P[176]{
   GP1:
   UF : 4, UT : 1,
   J1 = -70.001 deg,  J2 = -22.926 deg,  J3 = -14.649 deg,
   J4 = -3.147 deg,  J5 = -67.838 deg,  J6 = 9.433 deg
};
P[177]{
   GP1:
   UF : 4, UT : 1,
   J1 = -70.001 deg,  J2 = -22.934 deg,  J3 = -14.211 deg,
   J4 = -3.138 deg,  J5 = -68.296 deg,  J6 = 9.414 deg
};
P[178]{
   GP1:
   UF : 4, UT : 1,
   J1 = -70.001 deg,  J2 = -22.938 deg,  J3 = -13.775 deg,
   J4 = -3.130 deg,  J5 = -68.752 deg,  J6 = 9.395 deg
};
P[179]{
   GP1:
   UF : 4, UT : 1,
   J1 = -70.001 deg,  J2 = -22.938 deg,  J3 = -13.340 deg,
   J4 = -3.122 deg,  J5 = -69.208 deg,  J6 = 9.376 deg
};
P[180]{
   GP1:
   UF : 4, UT : 1,
   J1 = -70.001 deg,  J2 = -22.934 deg,  J3 = -12.907 deg,
   J4 = -3.114 deg,  J5 = -69.662 deg,  J6 = 9.357 deg
};
P[181]{
   GP1:
   UF : 4, UT : 1,
   J1 = -70.001 deg,  J2 = -22.927 deg,  J3 = -12.474 deg,
   J4 = -3.106 deg,  J5 = -70.115 deg,  J6 = 9.339 deg
};
P[182]{
   GP1:
   UF : 4, UT : 1,
   J1 = -70.001 deg,  J2 = -22.915 deg,  J3 = -12.043 deg,
   J4 = -3.099 deg,  J5 = -70.567 deg,  J6 = 9.321 deg
};
P[183]{
   GP1:
   UF : 4, UT : 1,
   J1 = -70.001 deg,  J2 = -22.900 deg,  J3 = -11.612 deg,
   J4 = -3.091 deg,  J5 = -71.018 deg,  J6 = 9.302 deg
};
P[184]{
   GP1:
   UF : 4, UT : 1,
   J1 = -70.001 deg,  J2 = -22.880 deg,  J3 = -11.183 deg,
   J4 = -3.084 deg,  J5 = -71.468 deg,  J6 = 9.285 deg
};
P[185]{
   GP1:
   UF : 4, UT : 1,
   J1 = -70.001 deg,  J2 = -22.858 deg,  J3 = -10.754 deg,
   J4 = -3.078 deg,  J5 = -71.917 deg,  J6 = 9.267 deg
};
P[186]{
   GP1:
   UF : 4, UT : 1,
   J1 = -70.001 deg,  J2 = -22.831 deg,  J3 = -10.327 deg,
   J4 = -3.071 deg,  J5 = -72.365 deg,  J6 = 9.249 deg
};
P[187]{
   GP1:
   UF : 4, UT : 1,
   J1 = -70.000 deg,  J2 = -22.801 deg,  J3 = -9.899 deg,
   J4 = -3.065 deg,  J5 = -72.812 deg,  J6 = 9.232 deg
};
P[188]{
   GP1:
   UF : 4, UT : 1,
   J1 = -70.000 deg,  J2 = -22.767 deg,  J3 = -9.474 deg,
   J4 = -3.059 deg,  J5 = -73.259 deg,  J6 = 9.214 deg
};
P[189]{
   GP1:
   UF : 4, UT : 1,
   J1 = -70.000 deg,  J2 = -22.729 deg,  J3 = -9.049 deg,
   J4 = -3.053 deg,  J5 = -73.704 deg,  J6 = 9.197 deg
};
P[190]{
   GP1:
   UF : 4, UT : 1,
   J1 = -70.000 deg,  J2 = -22.688 deg,  J3 = -8.624 deg,
   J4 = -3.048 deg,  J5 = -74.149 deg,  J6 = 9.180 deg
};
P[191]{
   GP1:
   UF : 4, UT : 1,
   J1 = -70.000 deg,  J2 = -22.643 deg,  J3 = -8.201 deg,
   J4 = -3.042 deg,  J5 = -74.593 deg,  J6 = 9.163 deg
};
P[192]{
   GP1:
   UF : 4, UT : 1,
   J1 = -70.000 deg,  J2 = -22.594 deg,  J3 = -7.779 deg,
   J4 = -3.037 deg,  J5 = -75.036 deg,  J6 = 9.146 deg
};
P[193]{
   GP1:
   UF : 4, UT : 1,
   J1 = -70.000 deg,  J2 = -22.542 deg,  J3 = -7.357 deg,
   J4 = -3.032 deg,  J5 = -75.479 deg,  J6 = 9.130 deg
};
P[194]{
   GP1:
   UF : 4, UT : 1,
   J1 = -70.000 deg,  J2 = -22.487 deg,  J3 = -6.935 deg,
   J4 = -3.028 deg,  J5 = -75.921 deg,  J6 = 9.113 deg
};
P[195]{
   GP1:
   UF : 4, UT : 1,
   J1 = -70.000 deg,  J2 = -22.428 deg,  J3 = -6.514 deg,
   J4 = -3.023 deg,  J5 = -76.362 deg,  J6 = 9.097 deg
};
P[196]{
   GP1:
   UF : 4, UT : 1,
   J1 = -70.000 deg,  J2 = -22.365 deg,  J3 = -6.094 deg,
   J4 = -3.019 deg,  J5 = -76.803 deg,  J6 = 9.080 deg
};
P[197]{
   GP1:
   UF : 4, UT : 1,
   J1 = -70.000 deg,  J2 = -22.299 deg,  J3 = -5.674 deg,
   J4 = -3.015 deg,  J5 = -77.244 deg,  J6 = 9.064 deg
};
P[198]{
   GP1:
   UF : 4, UT : 1,
   J1 = -70.000 deg,  J2 = -22.230 deg,  J3 = -5.254 deg,
   J4 = -3.011 deg,  J5 = -77.683 deg,  J6 = 9.048 deg
};
P[199]{
   GP1:
   UF : 4, UT : 1,
   J1 = -70.000 deg,  J2 = -22.156 deg,  J3 = -4.837 deg,
   J4 = -3.007 deg,  J5 = -78.123 deg,  J6 = 9.032 deg
};
P[200]{
   GP1:
   UF : 4, UT : 1,
   J1 = -70.000 deg,  J2 = -22.080 deg,  J3 = -4.418 deg,
   J4 = -3.003 deg,  J5 = -78.562 deg,  J6 = 9.016 deg
};
P[201]{
   GP1:
   UF : 4, UT : 1,
   J1 = -70.000 deg,  J2 = -22.000 deg,  J3 = -4.000 deg,
   J4 = -3.000 deg,  J5 = -79.000 deg,  J6 = 9.000 deg
};
P[202]{
   GP1:
   UF : 4, UT : 1,
   J1 = -69.710 deg,  J2 = -22.420 deg,  J3 = -3.854 deg,
   J4 = -2.959 deg,  J5 = -79.121 deg,  J6 = 9.037 deg
};
P[203]{
   GP1:
   UF : 4, UT : 1,
   J1 = -69.415 deg,  J2 = -22.838 deg,  J3 = -3.707 deg,
   J4 = -2.917 deg,  J5 = -79.244 deg,  J6 = 9.069 deg
};
P[204]{
   GP1:
   UF : 4, UT : 1,
   J1 = -69.114 deg,  J2 = -23.254 deg,  J3 = -3.557 deg,
   J4 = -2.875 deg,  J5 = -79.370 deg,  J6 = 9.096 deg
};
P[205]{
   GP1:
   UF : 4, UT : 1,
   J1 = -68.809 deg,  J2 = -23.668 deg,  J3 = -3.405 deg,
   J4 = -2.831 deg,  J5 = -79.497 deg,  J6 = 9.118 deg
};
P[206]{
   GP1:
   UF : 4, UT : 1,
   J1 = -68.498 deg,  J2 = -24.080 deg,  J3 = -3.252 deg,
   J4 = -2.787 deg,  J5 = -79.626 deg,  J6 = 9.135 deg
};
P[207]{
   GP1:
   UF : 4, UT : 1,
   J1 = -68.181 deg,  J2 = -24.490 deg,  J3 = -3.096 deg,
   J4 = -2.742 deg,  J5 = -79.757 deg,  J6 = 9.146 deg
};
P[208]{
   GP1:
   UF : 4, UT : 1,
   J1 = -67.860 deg,  J2 = -24.898 deg,  J3 = -2.939 deg,
   J4 = -2.697 deg,  J5 = -79.890 deg,  J6 = 9.151 deg
};
P[209]{
   GP1:
   UF : 4, UT : 1,
   J1 = -67.532 deg,  J2 = -25.305 deg,  J3 = -2.779 deg,
   J4 = -2.650 deg,  J5 = -80.025 deg,  J6 = 9.151 deg
};
P[210]{
   GP1:
   UF : 4, UT : 1,
   J1 = -67.198 deg,  J2 = -25.708 deg,  J3 = -2.618 deg,
   J4 = -2.603 deg,  J5 = -80.162 deg,  J6 = 9.145 deg
};
P[211]{
   GP1:
   UF : 4, UT : 1,
   J1 = -66.859 deg,  J2 = -26.110 deg,  J3 = -2.455 deg,
   J4 = -2.555 deg,  J5 = -80.300 deg,  J6 = 9.134 deg
};
P[212]{
   GP1:
   UF : 4, UT : 1,
   J1 = -66.514 deg,  J2 = -26.510 deg,  J3 = -2.290 deg,
   J4 = -2.506 deg,  J5 = -80.440 deg,  J6 = 9.116 deg
};
P[213]{
   GP1:
   UF : 4, UT : 1,
   J1 = -66.163 deg,  J2 = -26.907 deg,  J3 = -2.125 deg,
   J4 = -2.456 deg,  J5 = -80.581 deg,  J6 = 9.093 deg
};
P[214]{
   GP1:
   UF : 4, UT : 1,
   J1 = -65.805 deg,  J2 = -27.302 deg,  J3 = -1.957 deg,
   J4 = -2.405 deg,  J5 = -80.724 deg,  J6 = 9.063 deg
};
P[215]{
   GP1:
   UF : 4, UT : 1,
   J1 = -65.441 deg,  J2 = -27.694 deg,  J3 = -1.788 deg,
   J4 = -2.354 deg,  J5 = -80.869 deg,  J6 = 9.027 deg
};
P[216]{
   GP1:
   UF : 4, UT : 1,
   J1 = -65.071 deg,  J2 = -28.084 deg,  J3 = -1.618 deg,
   J4 = -2.301 deg,  J5 = -81.015 deg,  J6 = 8.985 deg
};
P[217]{
   GP1:
   UF : 4, UT : 1,
   J1 = -64.694 deg,  J2 = -28.472 deg,  J3 = -1.446 deg,
   J4 = -2.247 deg,  J5 = -81.162 deg,  J6 = 8.937 deg
};
P[218]{
   GP1:
   UF : 4, UT : 1,
   J1 = -64.310 deg,  J2 = -28.857 deg,  J3 = -1.273 deg,
   J4 = -2.193 deg,  J5 = -81.311 deg,  J6 = 8.882 deg
};
P[219]{
   GP1:
   UF : 4, UT : 1,
   J1 = -63.920 deg,  J2 = -29.239 deg,  J3 = -1.099 deg,
   J4 = -2.137 deg,  J5 = -81.461 deg,  J6 = 8.820 deg
};
P[220]{
   GP1:
   UF : 4, UT : 1,
   J1 = -63.522 deg,  J2 = -29.618 deg,  J3 = -0.925 deg,
   J4 = -2.081 deg,  J5 = -81.612 deg,  J6 = 8.752 deg
};
P[221]{
   GP1:
   UF : 4, UT : 1,
   J1 = -63.118 deg,  J2 = -29.995 deg,  J3 = -0.749 deg,
   J4 = -2.023 deg,  J5 = -81.764 deg,  J6 = 8.676 deg
};
P[222]{
   GP1:
   UF : 4, UT : 1,
   J1 = -62.706 deg,  J2 = -30.369 deg,  J3 = -0.571 deg,
   J4 = -1.964 deg,  J5 = -81.918 deg,  J6 = 8.594 deg
};
P[223]{
   GP1:
   UF : 4, UT : 1,
   J1 = -62.287 deg,  J2 = -30.740 deg,  J3 = -0.394 deg,
   J4 = -1.904 deg,  J5 = -82.072 deg,  J6 = 8.504 deg
};
P[224]{
   GP1:
   UF : 4, UT : 1,
   J1 = -61.861 deg,  J2 = -31.107 deg,  J3 = -0.216 deg,
   J4 = -1.843 deg,  J5 = -82.227 deg,  J6 = 8.408 deg
};
P[225]{
   GP1:
   UF : 4, UT : 1,
   J1 = -61.427 deg,  J2 = -31.472 deg,  J3 = -0.037 deg,
   J4 = -1.781 deg,  J5 = -82.383 deg,  J6 = 8.304 deg
};
P[226]{
   GP1:
   UF : 4, UT : 1,
   J1 = -60.985 deg,  J2 = -31.834 deg,  J3 = 0.143 deg,
   J4 = -1.718 deg,  J5 = -82.540 deg,  J6 = 8.193 deg
};
P[227]{
   GP1:
   UF : 4, UT : 1,
   J1 = -60.536 deg,  J2 = -32.192 deg,  J3 = 0.323 deg,
   J4 = -1.654 deg,  J5 = -82.698 deg,  J6 = 8.074 deg
};
P[228]{
   GP1:
   UF : 4, UT : 1,
   J1 = -60.078 deg,  J2 = -32.547 deg,  J3 = 0.504 deg,
   J4 = -1.588 deg,  J5 = -82.856 deg,  J6 = 7.947 deg
};
P[229]{
   GP1:
   UF : 4, UT : 1,
   J1 = -59.613 deg,  J2 = -32.899 deg,  J3 = 0.685 deg,
   J4 = -1.521 deg,  J5 = -83.015 deg,  J6 = 7.813 deg
};
P[230]{
   GP1:
   UF : 4, UT : 1,
   J1 = -59.139 deg,  J2 = -33.247 deg,  J3 = 0.865 deg,
   J4 = -1.453 deg,  J5 = -83.175 deg,  J6 = 7.671 deg
};
P[231]{
   GP1:
   UF : 4, UT : 1,
   J1 = -58.657 deg,  J2 = -33.591 deg,  J3 = 1.046 deg,
   J4 = -1.384 deg,  J5 = -83.335 deg,  J6 = 7.521 deg
};
P[232]{
   GP1:
   UF : 4, UT : 1,
   J1 = -58.167 deg,  J2 = -33.932 deg,  J3 = 1.227 deg,
   J4 = -1.313 deg,  J5 = -83.495 deg,  J6 = 7.363 deg
};
P[233]{
   GP1:
   UF : 4, UT : 1,
   J1 = -57.668 deg,  J2 = -34.269 deg,  J3 = 1.408 deg,
   J4 = -1.241 deg,  J5 = -83.656 deg,  J6 = 7.196 deg
};
P[234]{
   GP1:
   UF : 4, UT : 1,
   J1 = -57.160 deg,  J2 = -34.602 deg,  J3 = 1.588 deg,
   J4 = -1.168 deg,  J5 = -83.817 deg,  J6 = 7.022 deg
};
P[235]{
   GP1:
   UF : 4, UT : 1,
   J1 = -56.644 deg,  J2 = -34.932 deg,  J3 = 1.769 deg,
   J4 = -1.093 deg,  J5 = -83.978 deg,  J6 = 6.839 deg
};
P[236]{
   GP1:
   UF : 4, UT : 1,
   J1 = -56.118 deg,  J2 = -35.257 deg,  J3 = 1.949 deg,
   J4 = -1.017 deg,  J5 = -84.139 deg,  J6 = 6.647 deg
};
P[237]{
   GP1:
   UF : 4, UT : 1,
   J1 = -55.584 deg,  J2 = -35.578 deg,  J3 = 2.128 deg,
   J4 = -0.940 deg,  J5 = -84.300 deg,  J6 = 6.447 deg
};
P[238]{
   GP1:
   UF : 4, UT : 1,
   J1 = -55.040 deg,  J2 = -35.895 deg,  J3 = 2.306 deg,
   J4 = -0.861 deg,  J5 = -84.461 deg,  J6 = 6.238 deg
};
P[239]{
   GP1:
   UF : 4, UT : 1,
   J1 = -54.487 deg,  J2 = -36.208 deg,  J3 = 2.484 deg,
   J4 = -0.781 deg,  J5 = -84.622 deg,  J6 = 6.020 deg
};
P[240]{
   GP1:
   UF : 4, UT : 1,
   J1 = -53.925 deg,  J2 = -36.516 deg,  J3 = 2.661 deg,
   J4 = -0.700 deg,  J5 = -84.782 deg,  J6 = 5.794 deg
};
P[241]{
   GP1:
   UF : 4, UT : 1,
   J1 = -53.354 deg,  J2 = -36.820 deg,  J3 = 2.837 deg,
   J4 = -0.616 deg,  J5 = -84.943 deg,  J6 = 5.558 deg
};
P[242]{
   GP1:
   UF : 4, UT : 1,
   J1 = -52.772 deg,  J2 = -37.118 deg,  J3 = 3.011 deg,
   J4 = -0.532 deg,  J5 = -85.103 deg,  J6 = 5.313 deg
};
P[243]{
   GP1:
   UF : 4, UT : 1,
   J1 = -52.182 deg,  J2 = -37.413 deg,  J3 = 3.185 deg,
   J4 = -0.446 deg,  J5 = -85.262 deg,  J6 = 5.060 deg
};
P[244]{
   GP1:
   UF : 4, UT : 1,
   J1 = -51.581 deg,  J2 = -37.702 deg,  J3 = 3.356 deg,
   J4 = -0.359 deg,  J5 = -85.421 deg,  J6 = 4.797 deg
};
P[245]{
   GP1:
   UF : 4, UT : 1,
   J1 = -50.971 deg,  J2 = -37.987 deg,  J3 = 3.527 deg,
   J4 = -0.270 deg,  J5 = -85.579 deg,  J6 = 4.524 deg
};
P[246]{
   GP1:
   UF : 4, UT : 1,
   J1 = -50.351 deg,  J2 = -38.266 deg,  J3 = 3.696 deg,
   J4 = -0.179 deg,  J5 = -85.737 deg,  J6 = 4.243 deg
};
P[247]{
   GP1:
   UF : 4, UT : 1,
   J1 = -49.721 deg,  J2 = -38.540 deg,  J3 = 3.862 deg,
   J4 = -0.088 deg,  J5 = -85.894 deg,  J6 = 3.952 deg
};
P[248]{
   GP1:
   UF : 4, UT : 1,
   J1 = -49.082 deg,  J2 = -38.810 deg,  J3 = 4.028 deg,
   J4 = 0.006 deg,  J5 = -86.049 deg,  J6 = 3.652 deg
};
P[249]{
   GP1:
   UF : 4, UT : 1,
   J1 = -48.432 deg,  J2 = -39.073 deg,  J3 = 4.191 deg,
   J4 = 0.101 deg,  J5 = -86.204 deg,  J6 = 3.342 deg
};
P[250]{
   GP1:
   UF : 4, UT : 1,
   J1 = -47.772 deg,  J2 = -39.331 deg,  J3 = 4.351 deg,
   J4 = 0.197 deg,  J5 = -86.358 deg,  J6 = 3.023 deg
};
P[251]{
   GP1:
   UF : 4, UT : 1,
   J1 = -47.102 deg,  J2 = -39.584 deg,  J3 = 4.510 deg,
   J4 = 0.295 deg,  J5 = -86.511 deg,  J6 = 2.695 deg
};
P[252]{
   GP1:
   UF : 4, UT : 1,
   J1 = -46.423 deg,  J2 = -39.831 deg,  J3 = 4.667 deg,
   J4 = 0.394 deg,  J5 = -86.662 deg,  J6 = 2.357 deg
};
P[253]{
   GP1:
   UF : 4, UT : 1,
   J1 = -45.733 deg,  J2 = -40.072 deg,  J3 = 4.820 deg,
   J4 = 0.495 deg,  J5 = -86.813 deg,  J6 = 2.009 deg
};
P[254]{
   GP1:
   UF : 4, UT : 1,
   J1 = -45.034 deg,  J2 = -40.307 deg,  J3 = 4.971 deg,
   J4 = 0.597 deg,  J5 = -86.961 deg,  J6 = 1.652 deg
};
P[255]{
   GP1:
   UF : 4, UT : 1,
   J1 = -44.324 deg,  J2 = -40.536 deg,  J3 = 5.119 deg,
   J4 = 0.701 deg,  J5 = -87.109 deg,  J6 = 1.286 deg
};
P[256]{
   GP1:
   UF : 4, UT : 1,
   J1 = -43.604 deg,  J2 = -40.759 deg,  J3 = 5.264 deg,
   J4 = 0.806 deg,  J5 = -87.255 deg,  J6 = 0.910 deg
};
P[257]{
   GP1:
   UF : 4, UT : 1,
   J1 = -42.875 deg,  J2 = -40.975 deg,  J3 = 5.405 deg,
   J4 = 0.912 deg,  J5 = -87.399 deg,  J6 = 0.526 deg
};
P[258]{
   GP1:
   UF : 4, UT : 1,
   J1 = -42.136 deg,  J2 = -41.186 deg,  J3 = 5.545 deg,
   J4 = 1.020 deg,  J5 = -87.541 deg,  J6 = 0.131 deg
};
P[259]{
   GP1:
   UF : 4, UT : 1,
   J1 = -41.388 deg,  J2 = -41.389 deg,  J3 = 5.679 deg,
   J4 = 1.129 deg,  J5 = -87.682 deg,  J6 = -0.272 deg
};
P[260]{
   GP1:
   UF : 4, UT : 1,
   J1 = -40.629 deg,  J2 = -41.586 deg,  J3 = 5.811 deg,
   J4 = 1.239 deg,  J5 = -87.821 deg,  J6 = -0.684 deg
};
P[261]{
   GP1:
   UF : 4, UT : 1,
   J1 = -39.862 deg,  J2 = -41.777 deg,  J3 = 5.940 deg,
   J4 = 1.351 deg,  J5 = -87.958 deg,  J6 = -1.105 deg
};
P[262]{
   GP1:
   UF : 4, UT : 1,
   J1 = -39.085 deg,  J2 = -41.960 deg,  J3 = 6.063 deg,
   J4 = 1.464 deg,  J5 = -88.093 deg,  J6 = -1.535 deg
};
P[263]{
   GP1:
   UF : 4, UT : 1,
   J1 = -38.299 deg,  J2 = -42.137 deg,  J3 = 6.184 deg,
   J4 = 1.578 deg,  J5 = -88.225 deg,  J6 = -1.974 deg
};
P[264]{
   GP1:
   UF : 4, UT : 1,
   J1 = -37.504 deg,  J2 = -42.306 deg,  J3 = 6.300 deg,
   J4 = 1.693 deg,  J5 = -88.356 deg,  J6 = -2.421 deg
};
P[265]{
   GP1:
   UF : 4, UT : 1,
   J1 = -36.700 deg,  J2 = -42.469 deg,  J3 = 6.412 deg,
   J4 = 1.809 deg,  J5 = -88.484 deg,  J6 = -2.876 deg
};
P[266]{
   GP1:
   UF : 4, UT : 1,
   J1 = -35.888 deg,  J2 = -42.624 deg,  J3 = 6.520 deg,
   J4 = 1.927 deg,  J5 = -88.610 deg,  J6 = -3.340 deg
};
P[267]{
   GP1:
   UF : 4, UT : 1,
   J1 = -35.068 deg,  J2 = -42.772 deg,  J3 = 6.624 deg,
   J4 = 2.045 deg,  J5 = -88.734 deg,  J6 = -3.811 deg
};
P[268]{
   GP1:
   UF : 4, UT : 1,
   J1 = -34.240 deg,  J2 = -42.912 deg,  J3 = 6.722 deg,
   J4 = 2.164 deg,  J5 = -88.854 deg,  J6 = -4.290 deg
};
P[269]{
   GP1:
   UF : 4, UT : 1,
   J1 = -33.404 deg,  J2 = -43.045 deg,  J3 = 6.817 deg,
   J4 = 2.284 deg,  J5 = -88.973 deg,  J6 = -4.776 deg
};
P[270]{
   GP1:
   UF : 4, UT : 1,
   J1 = -32.560 deg,  J2 = -43.171 deg,  J3 = 6.907 deg,
   J4 = 2.404 deg,  J5 = -89.088 deg,  J6 = -5.269 deg
};
P[271]{
   GP1:
   UF : 4, UT : 1,
   J1 = -31.710 deg,  J2 = -43.288 deg,  J3 = 6.991 deg,
   J4 = 2.525 deg,  J5 = -89.202 deg,  J6 = -5.769 deg
};
P[272]{
   GP1:
   UF : 4, UT : 1,
   J1 = -30.852 deg,  J2 = -43.398 deg,  J3 = 7.071 deg,
   J4 = 2.647 deg,  J5 = -89.312 deg,  J6 = -6.276 deg
};
P[273]{
   GP1:
   UF : 4, UT : 1,
   J1 = -29.988 deg,  J2 = -43.500 deg,  J3 = 7.145 deg,
   J4 = 2.769 deg,  J5 = -89.419 deg,  J6 = -6.788 deg
};
P[274]{
   GP1:
   UF : 4, UT : 1,
   J1 = -29.119 deg,  J2 = -43.594 deg,  J3 = 7.215 deg,
   J4 = 2.892 deg,  J5 = -89.523 deg,  J6 = -7.307 deg
};
P[275]{
   GP1:
   UF : 4, UT : 1,
   J1 = -28.243 deg,  J2 = -43.680 deg,  J3 = 7.279 deg,
   J4 = 3.015 deg,  J5 = -89.624 deg,  J6 = -7.831 deg
};
P[276]{
   GP1:
   UF : 4, UT : 1,
   J1 = -27.363 deg,  J2 = -43.758 deg,  J3 = 7.338 deg,
   J4 = 3.138 deg,  J5 = -89.723 deg,  J6 = -8.360 deg
};
P[277]{
   GP1:
   UF : 4, UT : 1,
   J1 = -26.477 deg,  J2 = -43.828 deg,  J3 = 7.392 deg,
   J4 = 3.261 deg,  J5 = -89.818 deg,  J6 = -8.894 deg
};
P[278]{
   GP1:
   UF : 4, UT : 1,
   J1 = -25.587 deg,  J2 = -43.890 deg,  J3 = 7.441 deg,
   J4 = 3.384 deg,  J5 = -89.910 deg,  J6 = -9.432 deg
};
P[279]{
   GP1:
   UF : 4, UT : 1,
   J1 = -24.693 deg,  J2 = -43.943 deg,  J3 = 7.483 deg,
   J4 = 3.507 deg,  J5 = -89.998 deg,  J6 = -9.974 deg
};
P[280]{
   GP1:
   UF : 4, UT : 1,
   J1 = -23.796 deg,  J2 = -43.988 deg,  J3 = 7.520 deg,
   J4 = 3.630 deg,  J5 = -90.083 deg,  J6 = -10.520 deg
};
P[281]{
   GP1:
   UF : 4, UT : 1,
   J1 = -22.895 deg,  J2 = -44.025 deg,  J3 = 7.552 deg,
   J4 = 3.753 deg,  J5 = -90.165 deg,  J6 = -11.069 deg
};
P[282]{
   GP1:
   UF : 4, UT : 1,
   J1 = -21.992 deg,  J2 = -44.053 deg,  J3 = 7.578 deg,
   J4 = 3.875 deg,  J5 = -90.243 deg,  J6 = -11.620 deg
};
P[283]{
   GP1:
   UF : 4, UT : 1,
   J1 = -21.087 deg,  J2 = -44.073 deg,  J3 = 7.598 deg,
   J4 = 3.996 deg,  J5 = -90.317 deg,  J6 = -12.174 deg
};
P[284]{
   GP1:
   UF : 4, UT : 1,
   J1 = -20.181 deg,  J2 = -44.085 deg,  J3 = 7.613 deg,
   J4 = 4.118 deg,  J5 = -90.388 deg,  J6 = -12.729 deg
};
P[285]{
   GP1:
   UF : 4, UT : 1,
   J1 = -19.273 deg,  J2 = -44.088 deg,  J3 = 7.622 deg,
   J4 = 4.238 deg,  J5 = -90.456 deg,  J6 = -13.286 deg
};
P[286]{
   GP1:
   UF : 4, UT : 1,
   J1 = -18.365 deg,  J2 = -44.083 deg,  J3 = 7.625 deg,
   J4 = 4.358 deg,  J5 = -90.519 deg,  J6 = -13.843 deg
};
P[287]{
   GP1:
   UF : 4, UT : 1,
   J1 = -17.456 deg,  J2 = -44.069 deg,  J3 = 7.622 deg,
   J4 = 4.476 deg,  J5 = -90.579 deg,  J6 = -14.401 deg
};
P[288]{
   GP1:
   UF : 4, UT : 1,
   J1 = -16.548 deg,  J2 = -44.047 deg,  J3 = 7.614 deg,
   J4 = 4.594 deg,  J5 = -90.635 deg,  J6 = -14.959 deg
};
P[289]{
   GP1:
   UF : 4, UT : 1,
   J1 = -15.641 deg,  J2 = -44.017 deg,  J3 = 7.601 deg,
   J4 = 4.711 deg,  J5 = -90.687 deg,  J6 = -15.516 deg
};
P[290]{
   GP1:
   UF : 4, UT : 1,
   J1 = -14.735 deg,  J2 = -43.978 deg,  J3 = 7.581 deg,
   J4 = 4.826 deg,  J5 = -90.735 deg,  J6 = -16.072 deg
};
P[291]{
   GP1:
   UF : 4, UT : 1,
   J1 = -13.832 deg,  J2 = -43.930 deg,  J3 = 7.555 deg,
   J4 = 4.941 deg,  J5 = -90.779 deg,  J6 = -16.627 deg
};
P[292]{
   GP1:
   UF : 4, UT : 1,
   J1 = -12.930 deg,  J2 = -43.874 deg,  J3 = 7.524 deg,
   J4 = 5.054 deg,  J5 = -90.820 deg,  J6 = -17.180 deg
};
P[293]{
   GP1:
   UF : 4, UT : 1,
   J1 = -12.032 deg,  J2 = -43.810 deg,  J3 = 7.487 deg,
   J4 = 5.165 deg,  J5 = -90.856 deg,  J6 = -17.730 deg
};
P[294]{
   GP1:
   UF : 4, UT : 1,
   J1 = -11.136 deg,  J2 = -43.738 deg,  J3 = 7.446 deg,
   J4 = 5.276 deg,  J5 = -90.888 deg,  J6 = -18.278 deg
};
P[295]{
   GP1:
   UF : 4, UT : 1,
   J1 = -10.245 deg,  J2 = -43.657 deg,  J3 = 7.398 deg,
   J4 = 5.384 deg,  J5 = -90.916 deg,  J6 = -18.823 deg
};
P[296]{
   GP1:
   UF : 4, UT : 1,
   J1 = -9.358 deg,  J2 = -43.568 deg,  J3 = 7.345 deg,
   J4 = 5.491 deg,  J5 = -90.941 deg,  J6 = -19.364 deg
};
P[297]{
   GP1:
   UF : 4, UT : 1,
   J1 = -8.475 deg,  J2 = -43.470 deg,  J3 = 7.286 deg,
   J4 = 5.596 deg,  J5 = -90.961 deg,  J6 = -19.901 deg
};
P[298]{
   GP1:
   UF : 4, UT : 1,
   J1 = -7.598 deg,  J2 = -43.365 deg,  J3 = 7.223 deg,
   J4 = 5.700 deg,  J5 = -90.977 deg,  J6 = -20.433 deg
};
P[299]{
   GP1:
   UF : 4, UT : 1,
   J1 = -6.726 deg,  J2 = -43.251 deg,  J3 = 7.153 deg,
   J4 = 5.802 deg,  J5 = -90.988 deg,  J6 = -20.961 deg
};
P[300]{
   GP1:
   UF : 4, UT : 1,
   J1 = -5.860 deg,  J2 = -43.130 deg,  J3 = 7.080 deg,
   J4 = 5.902 deg,  J5 = -90.996 deg,  J6 = -21.483 deg
};
P[301]{
   GP1:
   UF : 4, UT : 1,
   J1 = -5.000 deg,  J2 = -43.000 deg,  J3 = 7.000 deg,
   J4 = 6.000 deg,  J5 = -91.000 deg,  J6 = -22.000 deg
};
P[302]{
   GP1:
   UF : 4, UT : 1,
   J1 = -5.065 deg,  J2 = -43.102 deg,  J3 = 6.629 deg,
   J4 = 5.957 deg,  J5 = -90.574 deg,  J6 = -21.921 deg
};
P[303]{
   GP1:
   UF : 4, UT : 1,
   J1 = -5.129 deg,  J2 = -43.202 deg,  J3 = 6.258 deg,
   J4 = 5.914 deg,  J5 = -90.148 deg,  J6 = -21.842 deg
};
P[304]{
   GP1:
   UF : 4, UT : 1,
   J1 = -5.193 deg,  J2 = -43.298 deg,  J3 = 5.885 deg,
   J4 = 5.871 deg,  J5 = -89.720 deg,  J6 = -21.763 deg
};
P[305]{
   GP1:
   UF : 4, UT : 1,
   J1 = -5.257 deg,  J2 = -43.392 deg,  J3 = 5.513 deg,
   J4 = 5.829 deg,  J5 = -89.292 deg,  J6 = -21.683 deg
};
P[306]{
   GP1:
   UF : 4, UT : 1,
   J1 = -5.320 deg,  J2 = -43.482 deg,  J3 = 5.138 deg,
   J4 = 5.786 deg,  J5 = -88.864 deg,  J6 = -21.604 deg
};
P[307]{
   GP1:
   UF : 4, UT : 1,
   J1 = -5.383 deg,  J2 = -43.570 deg,  J3 = 4.764 deg,
   J4 = 5.744 deg,  J5 = -88.434 deg,  J6 = -21.524 deg
};
P[308]{
   GP1:
   UF : 4, UT : 1,
   J1 = -5.445 deg,  J2 = -43.655 deg,  J3 = 4.388 deg,
   J4 = 5.702 deg,  J5 = -88.004 deg,  J6 = -21.444 deg
};
P[309]{
   GP1:
   UF : 4, UT : 1,
   J1 = -5.508 deg,  J2 = -43.736 deg,  J3 = 4.011 deg,
   J4 = 5.660 deg,  J5 = -87.573 deg,  J6 = -21.364 deg
};
P[310]{
   GP1:
   UF : 4, UT : 1,
   J1 = -5.569 deg,  J2 = -43.815 deg,  J3 = 3.634 deg,
   J4 = 5.619 deg,  J5 = -87.141 deg,  J6 = -21.284 deg
};
P[311]{
   GP1:
   UF : 4, UT : 1,
   J1 = -5.631 deg,  J2 = -43.890 deg,  J3 = 3.254 deg,
   J4 = 5.577 deg,  J5 = -86.708 deg,  J6 = -21.204 deg
};
P[312]{
   GP1:
   UF : 4, UT : 1,
   J1 = -5.692 deg,  J2 = -43.963 deg,  J3 = 2.875 deg,
   J4 = 5.536 deg,  J5 = -86.275 deg,  J6 = -21.123 deg
};
P[313]{
   GP1:
   UF : 4, UT : 1,
   J1 = -5.753 deg,  J2 = -44.032 deg,  J3 = 2.494 deg,
   J4 = 5.495 deg,  J5 = -85.840 deg,  J6 = -21.043 deg
};
P[314]{
   GP1:
   UF : 4, UT : 1,
   J1 = -5.813 deg,  J2 = -44.099 deg,  J3 = 2.113 deg,
   J4 = 5.454 deg,  J5 = -85.404 deg,  J6 = -20.962 deg
};
P[315]{
   GP1:
   UF : 4, UT : 1,
   J1 = -5.873 deg,  J2 = -44.162 deg,  J3 = 1.730 deg,
   J4 = 5.413 deg,  J5 = -84.967 deg,  J6 = -20.881 deg
};
P[316]{
   GP1:
   UF : 4, UT : 1,
   J1 = -5.933 deg,  J2 = -44.222 deg,  J3 = 1.345 deg,
   J4 = 5.372 deg,  J5 = -84.529 deg,  J6 = -20.800 deg
};
P[317]{
   GP1:
   UF : 4, UT : 1,
   J1 = -5.993 deg,  J2 = -44.278 deg,  J3 = 0.959 deg,
   J4 = 5.332 deg,  J5 = -84.090 deg,  J6 = -20.719 deg
};
P[318]{
   GP1:
   UF : 4, UT : 1,
   J1 = -6.052 deg,  J2 = -44.331 deg,  J3 = 0.572 deg,
   J4 = 5.291 deg,  J5 = -83.650 deg,  J6 = -20.637 deg
};
P[319]{
   GP1:
   UF : 4, UT : 1,
   J1 = -6.111 deg,  J2 = -44.381 deg,  J3 = 0.184 deg,
   J4 = 5.251 deg,  J5 = -83.208 deg,  J6 = -20.556 deg
};
P[320]{
   GP1:
   UF : 4, UT : 1,
   J1 = -6.169 deg,  J2 = -44.428 deg,  J3 = -0.205 deg,
   J4 = 5.211 deg,  J5 = -82.766 deg,  J6 = -20.474 deg
};
P[321]{
   GP1:
   UF : 4, UT : 1,
   J1 = -6.227 deg,  J2 = -44.471 deg,  J3 = -0.597 deg,
   J4 = 5.171 deg,  J5 = -82.321 deg,  J6 = -20.392 deg
};
P[322]{
   GP1:
   UF : 4, UT : 1,
   J1 = -6.285 deg,  J2 = -44.511 deg,  J3 = -0.989 deg,
   J4 = 5.131 deg,  J5 = -81.876 deg,  J6 = -20.311 deg
};
P[323]{
   GP1:
   UF : 4, UT : 1,
   J1 = -6.343 deg,  J2 = -44.547 deg,  J3 = -1.383 deg,
   J4 = 5.091 deg,  J5 = -81.429 deg,  J6 = -20.228 deg
};
P[324]{
   GP1:
   UF : 4, UT : 1,
   J1 = -6.400 deg,  J2 = -44.580 deg,  J3 = -1.778 deg,
   J4 = 5.052 deg,  J5 = -80.981 deg,  J6 = -20.146 deg
};
P[325]{
   GP1:
   UF : 4, UT : 1,
   J1 = -6.457 deg,  J2 = -44.609 deg,  J3 = -2.175 deg,
   J4 = 5.012 deg,  J5 = -80.531 deg,  J6 = -20.064 deg
};
P[326]{
   GP1:
   UF : 4, UT : 1,
   J1 = -6.513 deg,  J2 = -44.634 deg,  J3 = -2.574 deg,
   J4 = 4.973 deg,  J5 = -80.080 deg,  J6 = -19.981 deg
};
P[327]{
   GP1:
   UF : 4, UT : 1,
   J1 = -6.570 deg,  J2 = -44.656 deg,  J3 = -2.974 deg,
   J4 = 4.934 deg,  J5 = -79.627 deg,  J6 = -19.899 deg
};
P[328]{
   GP1:
   UF : 4, UT : 1,
   J1 = -6.626 deg,  J2 = -44.674 deg,  J3 = -3.377 deg,
   J4 = 4.894 deg,  J5 = -79.173 deg,  J6 = -19.816 deg
};
P[329]{
   GP1:
   UF : 4, UT : 1,
   J1 = -6.681 deg,  J2 = -44.689 deg,  J3 = -3.780 deg,
   J4 = 4.855 deg,  J5 = -78.716 deg,  J6 = -19.733 deg
};
P[330]{
   GP1:
   UF : 4, UT : 1,
   J1 = -6.737 deg,  J2 = -44.699 deg,  J3 = -4.186 deg,
   J4 = 4.816 deg,  J5 = -78.259 deg,  J6 = -19.650 deg
};
P[331]{
   GP1:
   UF : 4, UT : 1,
   J1 = -6.792 deg,  J2 = -44.706 deg,  J3 = -4.593 deg,
   J4 = 4.778 deg,  J5 = -77.799 deg,  J6 = -19.567 deg
};
P[332]{
   GP1:
   UF : 4, UT : 1,
   J1 = -6.846 deg,  J2 = -44.709 deg,  J3 = -5.002 deg,
   J4 = 4.739 deg,  J5 = -77.338 deg,  J6 = -19.483 deg
};
P[333]{
   GP1:
   UF : 4, UT : 1,
   J1 = -6.901 deg,  J2 = -44.708 deg,  J3 = -5.413 deg,
   J4 = 4.700 deg,  J5 = -76.875 deg,  J6 = -19.400 deg
};
P[334]{
   GP1:
   UF : 4, UT : 1,
   J1 = -6.955 deg,  J2 = -44.702 deg,  J3 = -5.827 deg,
   J4 = 4.662 deg,  J5 = -76.410 deg,  J6 = -19.316 deg
};
P[335]{
   GP1:
   UF : 4, UT : 1,
   J1 = -7.009 deg,  J2 = -44.693 deg,  J3 = -6.242 deg,
   J4 = 4.623 deg,  J5 = -75.943 deg,  J6 = -19.232 deg
};
P[336]{
   GP1:
   UF : 4, UT : 1,
   J1 = -7.062 deg,  J2 = -44.680 deg,  J3 = -6.659 deg,
   J4 = 4.585 deg,  J5 = -75.474 deg,  J6 = -19.148 deg
};
P[337]{
   GP1:
   UF : 4, UT : 1,
   J1 = -7.116 deg,  J2 = -44.662 deg,  J3 = -7.079 deg,
   J4 = 4.546 deg,  J5 = -75.003 deg,  J6 = -19.064 deg
};
P[338]{
   GP1:
   UF : 4, UT : 1,
   J1 = -7.169 deg,  J2 = -44.640 deg,  J3 = -7.500 deg,
   J4 = 4.508 deg,  J5 = -74.530 deg,  J6 = -18.979 deg
};
P[339]{
   GP1:
   UF : 4, UT : 1,
   J1 = -7.221 deg,  J2 = -44.614 deg,  J3 = -7.924 deg,
   J4 = 4.470 deg,  J5 = -74.055 deg,  J6 = -18.894 deg
};
P[340]{
   GP1:
   UF : 4, UT : 1,
   J1 = -7.274 deg,  J2 = -44.583 deg,  J3 = -8.351 deg,
   J4 = 4.432 deg,  J5 = -73.578 deg,  J6 = -18.810 deg
};
P[341]{
   GP1:
   UF : 4, UT : 1,
   J1 = -7.326 deg,  J2 = -44.548 deg,  J3 = -8.779 deg,
   J4 = 4.394 deg,  J5 = -73.098 deg,  J6 = -18.725 deg
};
P[342]{
   GP1:
   UF : 4, UT : 1,
   J1 = -7.378 deg,  J2 = -44.508 deg,  J3 = -9.210 deg,
   J4 = 4.356 deg,  J5 = -72.616 deg,  J6 = -18.640 deg
};
P[343]{
   GP1:
   UF : 4, UT : 1,
   J1 = -7.430 deg,  J2 = -44.464 deg,  J3 = -9.643 deg,
   J4 = 4.318 deg,  J5 = -72.132 deg,  J6 = -18.554 deg
};
P[344]{
   GP1:
   UF : 4, UT : 1,
   J1 = -7.481 deg,  J2 = -44.415 deg,  J3 = -10.079 deg,
   J4 = 4.280 deg,  J5 = -71.646 deg,  J6 = -18.469 deg
};
P[345]{
   GP1:
   UF : 4, UT : 1,
   J1 = -7.532 deg,  J2 = -44.362 deg,  J3 = -10.517 deg,
   J4 = 4.243 deg,  J5 = -71.157 deg,  J6 = -18.383 deg
};
P[346]{
   GP1:
   UF : 4, UT : 1,
   J1 = -7.583 deg,  J2 = -44.303 deg,  J3 = -10.958 deg,
   J4 = 4.205 deg,  J5 = -70.665 deg,  J6 = -18.297 deg
};
P[347]{
   GP1:
   UF : 4, UT : 1,
   J1 = -7.633 deg,  J2 = -44.240 deg,  J3 = -11.402 deg,
   J4 = 4.167 deg,  J5 = -70.171 deg,  J6 = -18.211 deg
};
P[348]{
   GP1:
   UF : 4, UT : 1,
   J1 = -7.683 deg,  J2 = -44.172 deg,  J3 = -11.848 deg,
   J4 = 4.130 deg,  J5 = -69.674 deg,  J6 = -18.125 deg
};
P[349]{
   GP1:
   UF : 4, UT : 1,
   J1 = -7.733 deg,  J2 = -44.098 deg,  J3 = -12.298 deg,
   J4 = 4.092 deg,  J5 = -69.175 deg,  J6 = -18.038 deg
};
P[350]{
   GP1:
   UF : 4, UT : 1,
   J1 = -7.783 deg,  J2 = -44.020 deg,  J3 = -12.749 deg,
   J4 = 4.055 deg,  J5 = -68.673 deg,  J6 = -17.952 deg
};
P[351]{
   GP1:
   UF : 4, UT : 1,
   J1 = -7.832 deg,  J2 = -43.936 deg,  J3 = -13.204 deg,
   J4 = 4.017 deg,  J5 = -68.168 deg,  J6 = -17.865 deg
};
P[352]{
   GP1:
   UF : 4, UT : 1,
   J1 = -7.882 deg,  J2 = -43.848 deg,  J3 = -13.661 deg,
   J4 = 3.980 deg,  J5 = -67.660 deg,  J6 = -17.777 deg
};
P[353]{
   GP1:
   UF : 4, UT : 1,
   J1 = -7.930 deg,  J2 = -43.753 deg,  J3 = -14.123 deg,
   J4 = 3.942 deg,  J5 = -67.150 deg,  J6 = -17.690 deg
};
P[354]{
   GP1:
   UF : 4, UT : 1,
   J1 = -7.979 deg,  J2 = -43.654 deg,  J3 = -14.586 deg,
   J4 = 3.905 deg,  J5 = -66.636 deg,  J6 = -17.602 deg
};
P[355]{
   GP1:
   UF : 4, UT : 1,
   J1 = -8.027 deg,  J2 = -43.548 deg,  J3 = -15.054 deg,
   J4 = 3.868 deg,  J5 = -66.119 deg,  J6 = -17.515 deg
};
P[356]{
   GP1:
   UF : 4, UT : 1,
   J1 = -8.076 deg,  J2 = -43.438 deg,  J3 = -15.524 deg,
   J4 = 3.830 deg,  J5 = -65.600 deg,  J6 = -17.426 deg
};
P[357]{
   GP1:
   UF : 4, UT : 1,
   J1 = -8.123 deg,  J2 = -43.321 deg,  J3 = -15.997 deg,
   J4 = 3.793 deg,  J5 = -65.077 deg,  J6 = -17.338 deg
};
P[358]{
   GP1:
   UF : 4, UT : 1,
   J1 = -8.171 deg,  J2 = -43.199 deg,  J3 = -16.474 deg,
   J4 = 3.755 deg,  J5 = -64.551 deg,  J6 = -17.250 deg
};
P[359]{
   GP1:
   UF : 4, UT : 1,
   J1 = -8.218 deg,  J2 = -43.071 deg,  J3 = -16.954 deg,
   J4 = 3.718 deg,  J5 = -64.021 deg,  J6 = -17.161 deg
};
P[360]{
   GP1:
   UF : 4, UT : 1,
   J1 = -8.266 deg,  J2 = -42.937 deg,  J3 = -17.437 deg,
   J4 = 3.681 deg,  J5 = -63.489 deg,  J6 = -17.072 deg
};
P[361]{
   GP1:
   UF : 4, UT : 1,
   J1 = -8.312 deg,  J2 = -42.796 deg,  J3 = -17.925 deg,
   J4 = 3.643 deg,  J5 = -62.952 deg,  J6 = -16.982 deg
};
P[362]{
   GP1:
   UF : 4, UT : 1,
   J1 = -8.359 deg,  J2 = -42.650 deg,  J3 = -18.416 deg,
   J4 = 3.606 deg,  J5 = -62.413 deg,  J6 = -16.892 deg
};
P[363]{
   GP1:
   UF : 4, UT : 1,
   J1 = -8.405 deg,  J2 = -42.497 deg,  J3 = -18.910 deg,
   J4 = 3.569 deg,  J5 = -61.870 deg,  J6 = -16.802 deg
};
P[364]{
   GP1:
   UF : 4, UT : 1,
   J1 = -8.452 deg,  J2 = -42.338 deg,  J3 = -19.408 deg,
   J4 = 3.531 deg,  J5 = -61.323 deg,  J6 = -16.712 deg
};
P[365]{
   GP1:
   UF : 4, UT : 1,
   J1 = -8.497 deg,  J2 = -42.173 deg,  J3 = -19.909 deg,
   J4 = 3.494 deg,  J5 = -60.772 deg,  J6 = -16.621 deg
};
P[366]{
   GP1:
   UF : 4, UT : 1,
   J1 = -8.543 deg,  J2 = -42.001 deg,  J3 = -20.415 deg,
   J4 = 3.456 deg,  J5 = -60.218 deg,  J6 = -16.530 deg
};
P[367]{
   GP1:
   UF : 4, UT : 1,
   J1 = -8.588 deg,  J2 = -41.822 deg,  J3 = -20.925 deg,
   J4 = 3.419 deg,  J5 = -59.660 deg,  J6 = -16.439 deg
};
P[368]{
   GP1:
   UF : 4, UT : 1,
   J1 = -8.634 deg,  J2 = -41.636 deg,  J3 = -21.439 deg,
   J4 = 3.381 deg,  J5 = -59.098 deg,  J6 = -16.348 deg
};
P[369]{
   GP1:
   UF : 4, UT : 1,
   J1 = -8.678 deg,  J2 = -41.444 deg,  J3 = -21.956 deg,
   J4 = 3.343 deg,  J5 = -58.533 deg,  J6 = -16.256 deg
};
P[370]{
   GP1:
   UF : 4, UT : 1,
   J1 = -8.723 deg,  J2 = -41.244 deg,  J3 = -22.478 deg,
   J4 = 3.306 deg,  J5 = -57.963 deg,  J6 = -16.163 deg
};
P[371]{
   GP1:
   UF : 4, UT : 1,
   J1 = -8.768 deg,  J2 = -41.038 deg,  J3 = -23.003 deg,
   J4 = 3.268 deg,  J5 = -57.389 deg,  J6 = -16.070 deg
};
P[372]{
   GP1:
   UF : 4, UT : 1,
   J1 = -8.812 deg,  J2 = -40.824 deg,  J3 = -23.534 deg,
   J4 = 3.230 deg,  J5 = -56.811 deg,  J6 = -15.977 deg
};
P[373]{
   GP1:
   UF : 4, UT : 1,
   J1 = -8.856 deg,  J2 = -40.603 deg,  J3 = -24.068 deg,
   J4 = 3.192 deg,  J5 = -56.229 deg,  J6 = -15.884 deg
};
P[374]{
   GP1:
   UF : 4, UT : 1,
   J1 = -8.900 deg,  J2 = -40.374 deg,  J3 = -24.607 deg,
   J4 = 3.153 deg,  J5 = -55.642 deg,  J6 = -15.790 deg
};
P[375]{
   GP1:
   UF : 4, UT : 1,
   J1 = -8.943 deg,  J2 = -40.138 deg,  J3 = -25.150 deg,
   J4 = 3.115 deg,  J5 = -55.052 deg,  J6 = -15.696 deg
};
P[376]{
   GP1:
   UF : 4, UT : 1,
   J1 = -8.987 deg,  J2 = -39.895 deg,  J3 = -25.697 deg,
   J4 = 3.077 deg,  J5 = -54.456 deg,  J6 = -15.601 deg
};
P[377]{
   GP1:
   UF : 4, UT : 1,
   J1 = -9.030 deg,  J2 = -39.643 deg,  J3 = -26.250 deg,
   J4 = 3.038 deg,  J5 = -53.857 deg,  J6 = -15.505 deg
};
P[378]{
   GP1:
   UF : 4, UT : 1,
   J1 = -9.072 deg,  J2 = -39.384 deg,  J3 = -26.806 deg,
   J4 = 2.999 deg,  J5 = -53.253 deg,  J6 = -15.410 deg
};
P[379]{
   GP1:
   UF : 4, UT : 1,
   J1 = -9.115 deg,  J2 = -39.116 deg,  J3 = -27.369 deg,
   J4 = 2.960 deg,  J5 = -52.644 deg,  J6 = -15.313 deg
};
P[380]{
   GP1:
   UF : 4, UT : 1,
   J1 = -9.158 deg,  J2 = -38.841 deg,  J3 = -27.934 deg,
   J4 = 2.921 deg,  J5 = -52.031 deg,  J6 = -15.216 deg
};
P[381]{
   GP1:
   UF : 4, UT : 1,
   J1 = -9.200 deg,  J2 = -38.557 deg,  J3 = -28.506 deg,
   J4 = 2.882 deg,  J5 = -51.413 deg,  J6 = -15.119 deg
};
P[382]{
   GP1:
   UF : 4, UT : 1,
   J1 = -9.242 deg,  J2 = -38.265 deg,  J3 = -29.082 deg,
   J4 = 2.842 deg,  J5 = -50.790 deg,  J6 = -15.021 deg
};
P[383]{
   GP1:
   UF : 4, UT : 1,
   J1 = -9.284 deg,  J2 = -37.965 deg,  J3 = -29.662 deg,
   J4 = 2.802 deg,  J5 = -50.162 deg,  J6 = -14.922 deg
};
P[384]{
   GP1:
   UF : 4, UT : 1,
   J1 = -9.325 deg,  J2 = -37.656 deg,  J3 = -30.248 deg,
   J4 = 2.762 deg,  J5 = -49.530 deg,  J6 = -14.823 deg
};
P[385]{
   GP1:
   UF : 4, UT : 1,
   J1 = -9.366 deg,  J2 = -37.338 deg,  J3 = -30.839 deg,
   J4 = 2.721 deg,  J5 = -48.893 deg,  J6 = -14.723 deg
};
P[386]{
   GP1:
   UF : 4, UT : 1,
   J1 = -9.408 deg,  J2 = -37.012 deg,  J3 = -31.434 deg,
   J4 = 2.680 deg,  J5 = -48.250 deg,  J6 = -14.622 deg
};
P[387]{
   GP1:
   UF : 4, UT : 1,
   J1 = -9.449 deg,  J2 = -36.677 deg,  J3 = -32.035 deg,
   J4 = 2.639 deg,  J5 = -47.603 deg,  J6 = -14.521 deg
};
P[388]{
   GP1:
   UF : 4, UT : 1,
   J1 = -9.489 deg,  J2 = -36.333 deg,  J3 = -32.641 deg,
   J4 = 2.597 deg,  J5 = -46.951 deg,  J6 = -14.419 deg
};
P[389]{
   GP1:
   UF : 4, UT : 1,
   J1 = -9.530 deg,  J2 = -35.979 deg,  J3 = -33.253 deg,
   J4 = 2.555 deg,  J5 = -46.294 deg,  J6 = -14.316 deg
};
P[390]{
   GP1:
   UF : 4, UT : 1,
   J1 = -9.570 deg,  J2 = -35.617 deg,  J3 = -33.869 deg,
   J4 = 2.513 deg,  J5 = -45.631 deg,  J6 = -14.212 deg
};
P[391]{
   GP1:
   UF : 4, UT : 1,
   J1 = -9.610 deg,  J2 = -35.245 deg,  J3 = -34.491 deg,
   J4 = 2.470 deg,  J5 = -44.964 deg,  J6 = -14.108 deg
};
P[392]{
   GP1:
   UF : 4, UT : 1,
   J1 = -9.650 deg,  J2 = -34.864 deg,  J3 = -35.118 deg,
   J4 = 2.426 deg,  J5 = -44.291 deg,  J6 = -14.002 deg
};
P[393]{
   GP1:
   UF : 4, UT : 1,
   J1 = -9.690 deg,  J2 = -34.474 deg,  J3 = -35.749 deg,
   J4 = 2.382 deg,  J5 = -43.613 deg,  J6 = -13.896 deg
};
P[394]{
   GP1:
   UF : 4, UT : 1,
   J1 = -9.729 deg,  J2 = -34.074 deg,  J3 = -36.387 deg,
   J4 = 2.337 deg,  J5 = -42.929 deg,  J6 = -13.788 deg
};
P[395]{
   GP1:
   UF : 4, UT : 1,
   J1 = -9.768 deg,  J2 = -33.664 deg,  J3 = -37.030 deg,
   J4 = 2.291 deg,  J5 = -42.241 deg,  J6 = -13.679 deg
};
P[396]{
   GP1:
   UF : 4, UT : 1,
   J1 = -9.808 deg,  J2 = -33.245 deg,  J3 = -37.678 deg,
   J4 = 2.245 deg,  J5 = -41.547 deg,  J6 = -13.569 deg
};
P[397]{
   GP1:
   UF : 4, UT : 1,
   J1 = -9.846 deg,  J2 = -32.816 deg,  J3 = -38.332 deg,
   J4 = 2.198 deg,  J5 = -40.848 deg,  J6 = -13.458 deg
};
P[398]{
   GP1:
   UF : 4, UT : 1,
   J1 = -9.885 deg,  J2 = -32.377 deg,  J3 = -38.991 deg,
   J4 = 2.150 deg,  J5 = -40.144 deg,  J6 = -13.346 deg
};
P[399]{
   GP1:
   UF : 4, UT : 1,
   J1 = -9.924 deg,  J2 = -31.928 deg,  J3 = -39.655 deg,
   J4 = 2.101 deg,  J5 = -39.435 deg,  J6 = -13.232 deg
};
P[400]{
   GP1:
   UF : 4, UT : 1,
   J1 = -9.962 deg,  J2 = -31.469 deg,  J3 = -40.325 deg,
   J4 = 2.051 deg,  J5 = -38.720 deg,  J6 = -13.117 deg
};
/END
