/JOB
//NAME AAA
//POS
///NPOS 58,0,0,0,0,0
///TOOL 1
///POSTYPE PULSE
///PULSE
C00000=-47639,107933,64405,4583,-51181,-5255
C00001=-47639,107933,64405,4583,-51181,-5255
C00002=-47627,108008,64587,4583,-51255,-5257
C00003=-49612,116576,76024,3746,-53784,-4342
C00004=-49612,116576,76024,3746,-53784,-4342
C00005=-47627,107986,64641,4580,-51300,-5254
C00006=-49612,116562,76088,3743,-53831,-4340
C00007=-49612,116562,76088,3743,-53831,-4340
C00008=-47627,107964,64695,4577,-51344,-5252
C00009=-49612,116549,76153,3741,-53878,-4338
C00010=-49612,116549,76153,3741,-53878,-4338
C00011=-47627,107942,64750,4574,-51389,-5250
C00012=-49612,116536,76218,3739,-53924,-4337
C00013=-49612,116536,76218,3739,-53924,-4337
C00014=-47627,107920,64805,4571,-51433,-5248
C00015=-49612,116522,76284,3737,-53971,-4335
C00016=-49612,116522,76284,3737,-53971,-4335
C00017=-47627,107899,64859,4569,-51478,-5246
C00018=-49612,116510,76350,3735,-54018,-4333
C00019=-49612,116510,76350,3735,-54018,-4333
C00020=-47627,107877,64915,4566,-51523,-5244
C00021=-49612,116497,76416,3732,-54065,-4332
C00022=-49612,116497,76416,3732,-54065,-4332
C00023=-47627,107856,64970,4563,-51568,-5242
C00024=-49612,116484,76482,3730,-54113,-4330
C00025=-49612,116484,76482,3730,-54113,-4330
C00026=-47627,107835,65025,4560,-51613,-5240
C00027=-49612,116472,76549,3728,-54160,-4328
C00028=-49612,116472,76549,3728,-54160,-4328
C00029=-47627,107814,65081,4557,-51658,-5238
C00030=-49612,116460,76615,3726,-54207,-4326
C00031=-49612,116460,76615,3726,-54207,-4326
C00032=-47627,107793,65137,4555,-51702,-5236
C00033=-49612,116448,76683,3724,-54254,-4325
C00034=-49612,116448,76683,3724,-54254,-4325
C00035=-47627,107773,65193,4552,-51747,-5234
C00036=-49612,116437,76750,3722,-54302,-4323
C00037=-49612,116437,76750,3722,-54302,-4323
C00038=-47627,107752,65250,4549,-51793,-5232
C00039=-49612,116425,76818,3719,-54349,-4321
C00040=-49612,116425,76818,3719,-54349,-4321
C00041=-47627,107732,65306,4546,-51838,-5230
C00042=-49612,116414,76886,3717,-54397,-4320
C00043=-49612,116414,76886,3717,-54397,-4320
C00044=-47627,107712,65363,4544,-51883,-5228
C00045=-49612,116403,76954,3715,-54444,-4318
C00046=-49612,116403,76954,3715,-54444,-4318
C00047=-47627,107692,65420,4541,-51928,-5226
C00048=-49612,116393,77023,3713,-54492,-4316
C00049=-49612,116393,77023,3713,-54492,-4316
C00050=-47627,107673,65478,4538,-51973,-5224
C00051=-49612,116382,77092,3711,-54540,-4315
C00052=-49612,116382,77092,3711,-54540,-4315
C00053=-47627,107653,65535,4535,-52019,-5222
C00054=-49612,116372,77161,3709,-54587,-4313
C00055=-49612,116372,77161,3709,-54587,-4313
C00056=-47627,107634,65593,4533,-52064,-5220
C00057=-49612,116362,77231,3706,-54635,-4311
//INST
///DATE 2023/01/12 01:02
///COMM Generated using RoboDK
///ATTR SC,RW
///GROUP1 RB1
NOP
'Using Motoman MA2010 Base (ta
'rgets wrt base):
'0.0,0.0,0.0,0.0,0.0,0.0
MOVJ C00000 VJ=1.0 PL=1
ARCON
MOVC C00001 V=5.0 PL=1
MOVC C00002 V=5.0 PL=1
MOVC C00003 V=5.0 PL=1
MOVC C00004 V=10.0 PL=1
MOVC C00005 V=10.0 PL=1
MOVC C00006 V=10.0 PL=1
MOVC C00007 V=15.0 PL=1
MOVC C00008 V=15.0 PL=1
MOVC C00009 V=15.0 PL=1
MOVC C00010 V=50.0 PL=1
MOVC C00011 V=50.0 PL=1
MOVC C00012 V=50.0 PL=1
MOVC C00013 V=50.0 PL=1
MOVC C00014 V=50.0 PL=1
MOVC C00015 V=50.0 PL=1
MOVC C00016 V=50.0 PL=1
MOVC C00017 V=50.0 PL=1
MOVC C00018 V=50.0 PL=1
MOVC C00019 V=50.0 PL=1
MOVC C00020 V=50.0 PL=1
MOVC C00021 V=50.0 PL=1
MOVC C00022 V=50.0 PL=1
MOVC C00023 V=50.0 PL=1
MOVC C00024 V=50.0 PL=1
MOVC C00025 V=50.0 PL=1
MOVC C00026 V=50.0 PL=1
MOVC C00027 V=50.0 PL=1
MOVC C00028 V=50.0 PL=1
MOVC C00029 V=50.0 PL=1
MOVC C00030 V=50.0 PL=1
MOVC C00031 V=50.0 PL=1
MOVC C00032 V=50.0 PL=1
MOVC C00033 V=50.0 PL=1
MOVC C00034 V=50.0 PL=1
MOVC C00035 V=50.0 PL=1
MOVC C00036 V=50.0 PL=1
MOVC C00037 V=50.0 PL=1
MOVC C00038 V=50.0 PL=1
MOVC C00039 V=50.0 PL=1
MOVC C00040 V=50.0 PL=1
MOVC C00041 V=50.0 PL=1
MOVC C00042 V=50.0 PL=1
MOVC C00043 V=50.0 PL=1
MOVC C00044 V=50.0 PL=1
MOVC C00045 V=50.0 PL=1
MOVC C00046 V=50.0 PL=1
MOVC C00047 V=50.0 PL=1
MOVC C00048 V=50.0 PL=1
MOVC C00049 V=50.0 PL=1
MOVC C00050 V=50.0 PL=1
MOVC C00051 V=50.0 PL=1
MOVC C00052 V=50.0 PL=1
MOVC C00053 V=50.0 PL=1
MOVC C00054 V=50.0 PL=1
MOVC C00055 V=50.0 PL=1
MOVC C00056 V=50.0 PL=1
MOVC C00057 V=50.0 PL=1
ARCOF
END
