/JOB
//NAME AAA
//POS
///NPOS 340,0,340,0,0,0
///TOOL 12
///POSTYPE PULSE
///PULSE
C00000=-29142,77965,25125,12321,-44287,-13778
C00001=-29378,77496,24550,12263,-44144,-13693
C00002=-29581,77143,24118,12210,-44033,-13619
C00003=-29788,76825,23728,12153,-43931,-13541
C00004=-30001,76541,23380,12093,-43835,-13459
C00005=-30216,76287,23070,12030,-43747,-13376
C00006=-30435,76063,22796,11964,-43665,-13290
C00007=-30656,75863,22552,11896,-43589,-13202
C00008=-30879,75684,22334,11825,-43518,-13112
C00009=-31147,75493,22100,11739,-43438,-13003
C00010=-31372,75347,21922,11665,-43375,-12911
C00011=-31598,75211,21755,11591,-43314,-12818
C00012=-31824,75079,21594,11515,-43254,-12725
C00013=-32050,74948,21434,11440,-43194,-12632
C00014=-32276,74814,21271,11364,-43134,-12539
C00015=-32502,74673,21099,11289,-43073,-12446
C00016=-32728,74521,20913,11214,-43010,-12353
C00017=-32997,74316,20664,11125,-42929,-12243
C00018=-33219,74122,20429,11052,-42857,-12152
C00019=-33440,73902,20161,10981,-42779,-12063
C00020=-33657,73650,19856,10912,-42695,-11976
C00021=-33871,73362,19507,10846,-42604,-11892
C00022=-34080,73035,19111,10783,-42505,-11810
C00023=-34281,72664,18663,10725,-42397,-11733
C00024=-34475,72249,18162,10671,-42281,-11660
C00025=-34694,71692,17492,10614,-42131,-11580
C00026=-34864,71181,16878,10573,-41997,-11520
C00027=-35022,70632,16220,10538,-41858,-11465
C00028=-35167,70049,15523,10508,-41713,-11417
C00029=-35300,69438,14793,10485,-41565,-11375
C00030=-35420,68804,14037,10467,-41414,-11339
C00031=-35529,68151,13261,10454,-41262,-11309
C00032=-35626,67483,12468,10446,-41108,-11284
C00033=-35714,66803,11664,10442,-40955,-11263
C00034=-33396,61870,5954,11557,-40271,-12419
C00035=-33471,62538,6741,11496,-40400,-12367
C00036=-33536,63215,7540,11437,-40533,-12318
C00037=-33589,63905,8356,11383,-40672,-12275
C00038=-33627,64606,9185,11334,-40815,-12237
C00039=-33650,65315,10027,11291,-40962,-12207
C00040=-33656,66174,11046,11248,-41144,-12180
C00041=-33634,66880,11886,11222,-41298,-12169
C00042=-33579,67555,12688,11211,-41449,-12174
C00043=-33490,68190,13444,11214,-41596,-12195
C00044=-33370,68785,14153,11231,-41739,-12230
C00045=-33188,69449,14944,11268,-41904,-12291
C00046=-33010,69969,15562,11310,-42037,-12353
C00047=-32902,70585,16295,11321,-42183,-12383
C00048=-32653,70989,16767,11396,-42296,-12480
C00049=-32392,71388,17227,11476,-42406,-12583
C00050=-32120,71786,17677,11561,-42511,-12692
C00051=-31773,72255,18191,11671,-42630,-12832
C00052=-31463,72633,18588,11774,-42719,-12959
C00053=-31128,72998,18947,11888,-42796,-13099
C00054=-30767,73349,19262,12015,-42857,-13253
C00055=-30377,73688,19527,12159,-42898,-13422
C00056=-29866,74083,19769,12354,-42915,-13649
C00057=-29403,74410,19903,12539,-42895,-13860
C00058=-28909,74746,19974,12744,-42838,-14090
C00059=-28387,75104,19987,12971,-42741,-14339
C00060=-27842,75499,19947,13218,-42597,-14606
C00061=-27285,75949,19867,13484,-42406,-14887
C00062=-26620,76583,19752,13819,-42119,-15234
C00063=-26093,77203,19678,14100,-41846,-15518
C00064=-25623,77904,19694,14359,-41578,-15778
C00065=-25260,78656,19914,14556,-41392,-15975
C00066=-24991,79422,20331,14688,-41302,-16114
C00067=-24790,80322,21108,14753,-41349,-16198
C00068=-24750,80276,21026,14775,-41330,-16219
C00069=-24941,79373,20231,14716,-41274,-16142
C00070=-25197,78600,19787,14591,-41354,-16011
C00071=-25547,77835,19539,14402,-41532,-15820
C00072=-26005,77114,19499,14148,-41797,-15567
C00073=-26519,76470,19546,13872,-42068,-15288
C00074=-27165,75803,19624,13545,-42352,-14950
C00075=-27715,75330,19692,13280,-42548,-14671
C00076=-28260,74919,19736,13030,-42701,-14402
C00077=-28786,74550,19735,12799,-42810,-14149
C00078=-29287,74210,19680,12588,-42878,-13914
C00079=-29761,73886,19573,12396,-42910,-13697
C00080=-30292,73506,19372,12190,-42908,-13459
C00081=-30700,73184,19143,12037,-42878,-13280
C00082=-31076,72849,18859,11902,-42825,-13119
C00083=-31423,72499,18526,11782,-42754,-12973
C00084=-31743,72134,18151,11674,-42670,-12840
C00085=-32099,71680,17657,11559,-42555,-12695
C00086=-32378,71292,17222,11471,-42453,-12583
C00087=-32645,70902,16774,11389,-42345,-12477
C00088=-32901,70503,16309,11311,-42233,-12377
C00089=-32998,69866,15549,11305,-42083,-12353
C00090=-33171,69333,14915,11265,-41948,-12292
C00091=-33347,68658,14111,11231,-41781,-12235
C00092=-33460,68051,13389,11217,-41637,-12203
C00093=-33541,67406,12621,11218,-41488,-12186
C00094=-33586,66722,11808,11233,-41336,-12186
C00095=-33599,66011,10963,11262,-41183,-12200
C00096=-33586,65154,9945,11308,-41002,-12231
C00097=-33556,64448,9108,11354,-40856,-12264
C00098=-33511,63752,8284,11405,-40715,-12304
C00099=-33453,63067,7475,11461,-40579,-12350
C00100=-33381,62396,6683,11521,-40448,-12401
C00101=-33300,61737,5905,11585,-40322,-12456
C00102=-34266,62841,7371,11135,-40530,-11982
C00103=-34281,63545,8201,11096,-40674,-11956
C00104=-34286,64254,9036,11061,-40821,-11935
C00105=-34276,64962,9872,11032,-40970,-11919
C00106=-34244,65652,10688,11012,-41119,-11914
C00107=-34185,66304,11459,11005,-41264,-11922
C00108=-34076,67027,12317,11013,-41430,-11950
C00109=-33956,67580,12972,11033,-41561,-11987
C00110=-33812,68090,13575,11064,-41687,-12036
C00111=-33645,68561,14134,11105,-41807,-12096
C00112=-33457,69002,14655,11156,-41922,-12166
C00113=-33268,69575,15330,11201,-42064,-12233
C00114=-33046,69954,15774,11267,-42169,-12320
C00115=-32810,70333,16215,11339,-42274,-12413
C00116=-32560,70721,16662,11415,-42380,-12511
C00117=-32294,71109,17103,11498,-42484,-12617
C00118=-32012,71493,17528,11587,-42583,-12731
C00119=-31653,71946,18012,11705,-42693,-12878
C00120=-31331,72312,18383,11813,-42774,-13011
C00121=-30984,72663,18711,11934,-42841,-13158
C00122=-30604,72997,18985,12072,-42889,-13321
C00123=-30190,73316,19197,12228,-42912,-13504
C00124=-29647,73692,19370,12442,-42902,-13749
C00125=-29161,74013,19451,12642,-42856,-13974
C00126=-28650,74357,19483,12860,-42775,-14216
C00127=-28121,74739,19476,13095,-42655,-14472
C00128=-27583,75172,19440,13345,-42495,-14739
C00129=-27044,75670,19391,13607,-42297,-15014
C00130=-26415,76366,19343,13927,-42014,-15344
C00131=-25921,77031,19333,14193,-41752,-15613
C00132=-25482,77767,19411,14437,-41500,-15855
C00133=-25146,78540,19684,14618,-41331,-16038
C00134=-24898,79318,20140,14739,-41255,-16165
C00135=-24711,80224,20939,14796,-41310,-16241
C00136=-24701,80167,20932,14792,-41336,-16241
C00137=-24873,79261,20099,14746,-41262,-16175
C00138=-25104,78479,19600,14639,-41318,-16060
C00139=-25419,77694,19276,14472,-41465,-15890
C00140=-25832,76938,19138,14244,-41696,-15662
C00141=-26301,76244,19093,13991,-41943,-15408
C00142=-26906,75510,19093,13681,-42218,-15088
C00143=-27434,74983,19120,13422,-42420,-14818
C00144=-27972,74528,19155,13170,-42590,-14549
C00145=-28504,74131,19173,12930,-42723,-14289
C00146=-29021,73777,19156,12706,-42817,-14043
C00147=-29515,73451,19093,12500,-42874,-13812
C00148=-30071,73076,18947,12278,-42898,-13560
C00149=-30499,72765,18763,12114,-42886,-13369
C00150=-30895,72445,18522,11967,-42849,-13197
C00151=-31260,72111,18228,11837,-42791,-13041
C00152=-31597,71763,17888,11721,-42718,-12899
C00153=-31971,71329,17434,11597,-42614,-12745
C00154=-32264,70960,17031,11502,-42519,-12626
C00155=-32545,70590,16616,11412,-42419,-12513
C00156=-32819,70225,16198,11326,-42317,-12403
C00157=-33077,69839,15747,11247,-42207,-12301
C00158=-33165,69197,14983,11244,-42058,-12281
C00159=-33369,68571,14239,11196,-41899,-12209
C00160=-33510,68011,13573,11170,-41762,-12163
C00161=-33619,67409,12857,11157,-41620,-12133
C00162=-33694,66764,12091,11158,-41473,-12118
C00163=-33733,66078,11278,11176,-41323,-12120
C00164=-33740,65224,10265,11214,-41141,-12142
C00165=-33724,64512,9422,11254,-40993,-12169
C00166=-33693,63808,8589,11299,-40849,-12203
C00167=-33648,63113,7769,11350,-40709,-12242
C00168=-33590,62429,6963,11405,-40574,-12287
C00169=-33523,61756,6170,11464,-40443,-12336
C00170=-34109,62532,7228,11180,-40619,-12043
C00171=-34135,63234,8053,11137,-40760,-12012
C00172=-34151,63941,8887,11098,-40905,-11985
C00173=-34153,64653,9727,11064,-41053,-11965
C00174=-34138,65362,10565,11037,-41204,-11951
C00175=-34097,66043,11371,11021,-41352,-11950
C00176=-34023,66677,12122,11020,-41495,-11966
C00177=-33892,67372,12946,11038,-41658,-12004
C00178=-33752,67901,13573,11066,-41788,-12050
C00179=-33585,68388,14151,11107,-41911,-12110
C00180=-33394,68839,14684,11158,-42030,-12181
C00181=-33265,69372,15312,11182,-42156,-12222
C00182=-33017,69725,15724,11259,-42258,-12321
C00183=-32756,70077,16130,11342,-42358,-12426
C00184=-32430,70512,16623,11445,-42477,-12557
C00185=-32143,70875,17023,11538,-42573,-12673
C00186=-31838,71232,17403,11639,-42661,-12799
C00187=-31511,71577,17751,11750,-42740,-12935
C00188=-31158,71908,18058,11874,-42804,-13084
C00189=-30775,72224,18315,12014,-42851,-13250
C00190=-30274,72590,18551,12204,-42877,-13471
C00191=-29822,72892,18688,12382,-42869,-13675
C00192=-29344,73204,18775,12577,-42831,-13896
C00193=-28843,73539,18820,12789,-42760,-14131
C00194=-28327,73911,18835,13015,-42655,-14379
C00195=-27805,74334,18831,13253,-42517,-14636
C00196=-27284,74820,18824,13500,-42346,-14897
C00197=-26676,75496,18834,13801,-42105,-15211
C00198=-26194,76142,18875,14051,-41880,-15467
C00199=-25746,76858,18966,14291,-41646,-15710
C00200=-25356,77629,19150,14506,-41433,-15924
C00201=-25057,78421,19509,14663,-41300,-16084
C00202=-24835,79208,20027,14764,-41252,-16194
C00203=-24669,80116,20871,14807,-41329,-16256
C00204=-24650,80056,20839,14810,-41343,-16262
C00205=-24811,79143,19976,14772,-41258,-16204
C00206=-25025,78348,19436,14676,-41297,-16100
C00207=-25313,77546,19047,14527,-41420,-15946
C00208=-25687,76760,18822,14322,-41618,-15741
C00209=-26117,76025,18690,14092,-41840,-15508
C00210=-26584,75356,18614,13850,-42057,-15261
C00211=-27180,74651,18575,13553,-42297,-14952
C00212=-27696,74144,18571,13307,-42472,-14692
C00213=-28220,73705,18574,13066,-42618,-14433
C00214=-28738,73319,18563,12837,-42730,-14183
C00215=-29241,72973,18521,12623,-42808,-13945
C00216=-29721,72650,18435,12425,-42852,-13723
C00217=-30174,72339,18300,12245,-42865,-13518
C00218=-30679,71966,18068,12053,-42845,-13294
C00219=-31066,71646,17816,11911,-42803,-13126
C00220=-31420,71310,17511,11786,-42742,-12975
C00221=-31744,70956,17158,11675,-42665,-12840
C00222=-32041,70585,16766,11577,-42577,-12719
C00223=-32318,70204,16349,11489,-42482,-12607
C00224=-32632,69748,15837,11390,-42363,-12481
C00225=-32887,69381,15420,11310,-42264,-12379
C00226=-33139,69039,15029,11230,-42169,-12278
C00227=-33392,68733,14677,11148,-42079,-12175
C00228=-33645,68466,14370,11064,-41997,-12071
C00229=-33834,68116,13966,11008,-41907,-11998
C00230=-34050,67799,13595,10940,-41816,-11911
C00231=-34281,67364,13083,10872,-41698,-11822
C00232=-34447,66947,12590,10827,-41591,-11760
C00233=-34586,66466,12022,10795,-41474,-11712
C00234=-34706,65941,11402,10773,-41350,-11673
C00235=-34807,65378,10739,10759,-41221,-11644
C00236=-34883,64760,10011,10757,-41084,-11627
C00237=-34932,64083,9214,10769,-40938,-11623
C00238=-34563,63112,8163,10943,-40836,-11805
C00239=-34557,63825,9001,10913,-40984,-11789
C00240=-34539,64535,9837,10888,-41133,-11777
C00241=-34497,65216,10640,10874,-41280,-11778
C00242=-34424,65847,11385,10873,-41421,-11793
C00243=-34323,66428,12072,10885,-41555,-11821
C00244=-34194,66953,12694,10910,-41681,-11863
C00245=-34004,67516,13360,10957,-41822,-11931
C00246=-33820,67940,13861,11007,-41934,-12000
C00247=-33615,68331,14322,11067,-42040,-12079
C00248=-33438,68748,14809,11116,-42145,-12146
C00249=-33189,69060,15168,11195,-42236,-12246
C00250=-32935,69393,15551,11276,-42331,-12349
C00251=-32672,69741,15946,11360,-42427,-12455
C00252=-32336,70162,16413,11469,-42540,-12591
C00253=-32033,70505,16780,11569,-42627,-12715
C00254=-31706,70835,17115,11681,-42705,-12852
C00255=-31351,71151,17408,11807,-42769,-13003
C00256=-30968,71455,17658,11946,-42817,-13168
C00257=-30558,71752,17863,12100,-42845,-13349
C00258=-30030,72109,18046,12306,-42848,-13585
C00259=-29561,72414,18148,12495,-42820,-13800
C00260=-29068,72737,18203,12701,-42760,-14030
C00261=-28555,73091,18221,12924,-42665,-14275
C00262=-28032,73491,18216,13160,-42537,-14530
C00263=-27513,73954,18214,13402,-42380,-14789
C00264=-27012,74491,18241,13644,-42202,-15043
C00265=-26446,75233,18334,13927,-41972,-15337
C00266=-26008,75928,18466,14154,-41771,-15569
C00267=-25605,76682,18651,14369,-41568,-15788
C00268=-25256,77479,18931,14557,-41393,-15977
C00269=-24990,78285,19369,14690,-41295,-16116
C00270=-24791,79078,19943,14775,-41274,-16211
C00271=-24640,79990,20824,14806,-41369,-16263
C00272=-24610,79934,20764,14819,-41365,-16277
C00273=-24753,79022,19866,14794,-41262,-16230
C00274=-24941,78226,19269,14716,-41272,-16142
C00275=-25189,77416,18793,14595,-41352,-16015
C00276=-25510,76609,18454,14426,-41502,-15843
C00277=-25885,75835,18212,14226,-41684,-15640
C00278=-26303,75116,18044,14008,-41878,-15418
C00279=-26847,74341,17915,13734,-42106,-15133
C00280=-27333,73776,17864,13496,-42286,-14885
C00281=-27846,73287,17859,13254,-42452,-14627
C00282=-28372,72869,17876,13013,-42596,-14368
C00283=-28895,72506,17883,12782,-42708,-14116
C00284=-29399,72180,17855,12567,-42784,-13878
C00285=-29879,71874,17779,12370,-42825,-13656
C00286=-30416,71519,17620,12158,-42835,-13413
C00287=-30834,71223,17433,11999,-42816,-13229
C00288=-31226,70924,17204,11854,-42776,-13058
C00289=-31593,70619,16936,11722,-42720,-12901
C00290=-31938,70306,16634,11602,-42651,-12755
C00291=-32258,69985,16301,11493,-42571,-12622
C00292=-32615,69593,15876,11374,-42466,-12475
C00293=-32892,69268,15512,11284,-42376,-12362
C00294=-33157,68953,15154,11198,-42285,-12254
C00295=-33411,68654,14811,11115,-42197,-12151
C00296=-33657,68378,14492,11034,-42114,-12051
C00297=-33842,68019,14078,10980,-42022,-11979
C00298=-34056,67694,13696,10913,-41929,-11894
C00299=-34282,67244,13165,10848,-41809,-11807
C00300=-34444,66812,12656,10805,-41699,-11748
C00301=-34579,66319,12074,10776,-41580,-11702
C00302=-34694,65782,11440,10756,-41454,-11665
C00303=-34788,65201,10754,10745,-41322,-11639
C00304=-34854,64557,9996,10749,-41181,-11628
C00305=-34892,63863,9179,10765,-41033,-11629
C00306=-35131,64538,10103,10626,-41222,-11495
C00307=-35046,65148,10823,10632,-41360,-11517
C00308=-34934,65679,11448,10651,-41483,-11552
C00309=-34809,66179,12037,10677,-41601,-11594
C00310=-34674,66656,12598,10708,-41716,-11641
C00311=-34521,67087,13106,10748,-41824,-11697
C00312=-34337,67438,13518,10802,-41918,-11768
C00313=-34083,67781,13921,10884,-42018,-11871
C00314=-33846,68029,14209,10962,-42096,-11968
C00315=-33676,68379,14608,11012,-42182,-12034
C00316=-33418,68610,14872,11100,-42256,-12140
C00317=-33139,68852,15145,11194,-42333,-12256
C00318=-32842,69115,15438,11295,-42414,-12380
C00319=-32531,69399,15745,11401,-42496,-12509
C00320=-32143,69760,16123,11534,-42591,-12671
C00321=-31811,70074,16436,11649,-42665,-12810
C00322=-31468,70393,16737,11769,-42731,-12956
C00323=-31105,70707,17009,11900,-42784,-13111
C00324=-30714,71011,17234,12045,-42819,-13282
C00325=-30288,71302,17400,12210,-42829,-13472
C00326=-29731,71648,17517,12433,-42802,-13726
C00327=-29235,71950,17558,12640,-42744,-13957
C00328=-28721,72283,17563,12863,-42652,-14202
C00329=-28201,72664,17555,13096,-42531,-14455
C00330=-27686,73108,17555,13334,-42383,-14710
C00331=-27186,73621,17577,13573,-42213,-14963
C00332=-26705,74207,17633,13811,-42026,-15211
C00333=-26170,75008,17773,14085,-41791,-15493
C00334=-25772,75749,17979,14293,-41606,-15705
C00335=-25419,76538,18267,14479,-41439,-15894
C00336=-25116,77357,18640,14639,-41302,-16057
C00337=-24880,78174,19144,14752,-41233,-16177
C00338=-24709,78969,19778,14817,-41243,-16254
C00339=-24583,79876,20710,14829,-41367,-16289
EC00000=-29914,-208537
EC00001=-29914,-208537
EC00002=-29914,-208537
EC00003=-29914,-208537
EC00004=-29914,-208537
EC00005=-29914,-208537
EC00006=-29914,-208537
EC00007=-29914,-208537
EC00008=-29914,-208537
EC00009=-29914,-208537
EC00010=-29914,-208537
EC00011=-29914,-208537
EC00012=-29914,-208537
EC00013=-29914,-208537
EC00014=-29914,-208537
EC00015=-29914,-208537
EC00016=-29914,-208537
EC00017=-29914,-208537
EC00018=-29914,-208537
EC00019=-29914,-208537
EC00020=-29914,-208537
EC00021=-29914,-208537
EC00022=-29914,-208537
EC00023=-29914,-208537
EC00024=-29914,-208537
EC00025=-29914,-208537
EC00026=-29914,-208537
EC00027=-29914,-208537
EC00028=-29914,-208537
EC00029=-29914,-208537
EC00030=-29914,-208537
EC00031=-29914,-208537
EC00032=-29914,-208537
EC00033=-29914,-208537
EC00034=-25528,-155721
EC00035=-25528,-155721
EC00036=-25528,-155721
EC00037=-25528,-155721
EC00038=-25528,-155721
EC00039=-25528,-155721
EC00040=-25528,-155703
EC00041=-25497,-155517
EC00042=-25327,-154981
EC00043=-24985,-154059
EC00044=-24444,-152805
EC00045=-23492,-150925
EC00046=-22410,-149282
EC00047=-22489,-146897
EC00048=-20550,-143780
EC00049=-18330,-140835
EC00050=-15819,-138316
EC00051=-12381,-135846
EC00052=-9117,-134263
EC00053=-5456,-133119
EC00054=-1373,-132403
EC00055=3156,-132101
EC00056=9215,-132266
EC00057=14809,-132837
EC00058=20896,-133798
EC00059=27451,-135143
EC00060=34434,-136864
EC00061=41772,-138947
EC00062=50799,-141895
EC00063=58244,-144600
EC00064=65139,-147205
EC00065=70446,-149411
EC00066=74301,-150993
EC00067=76957,-151801
EC00068=78142,-151770
EC00069=75647,-150956
EC00070=71999,-149365
EC00071=66875,-147152
EC00072=60093,-144548
EC00073=52769,-141851
EC00074=43945,-138920
EC00075=36632,-136854
EC00076=29556,-135152
EC00077=22876,-133829
EC00078=16635,-132889
EC00079=10830,-132332
EC00080=4457,-132175
EC00081=-333,-132479
EC00082=-4643,-133193
EC00083=-8491,-134335
EC00084=-11904,-135920
EC00085=-15480,-138406
EC00086=-18085,-140926
EC00087=-20403,-143800
EC00088=-22466,-146626
EC00089=-22337,-148544
EC00090=-23456,-149796
EC00091=-24440,-151425
EC00092=-24997,-152477
EC00093=-25342,-153215
EC00094=-25502,-153608
EC00095=-25520,-153726
EC00096=-25520,-153732
EC00097=-25520,-153732
EC00098=-25520,-153732
EC00099=-25520,-153732
EC00100=-25520,-153732
EC00101=-25520,-153732
EC00102=-25641,-175210
EC00103=-25641,-175210
EC00104=-25641,-175210
EC00105=-25641,-175169
EC00106=-25615,-174901
EC00107=-25535,-174216
EC00108=-25351,-172734
EC00109=-25110,-170905
EC00110=-24761,-168554
EC00111=-24263,-165739
EC00112=-23570,-162545
EC00113=-23424,-157661
EC00114=-22411,-152692
EC00115=-21010,-147889
EC00116=-19158,-143910
EC00117=-16872,-140748
EC00118=-14210,-138224
EC00119=-10570,-135823
EC00120=-7138,-134285
EC00121=-3270,-133171
EC00122=1098,-132488
EC00123=5998,-132225
EC00124=12570,-132445
EC00125=18576,-133058
EC00126=24994,-134053
EC00127=31754,-135426
EC00128=38781,-137173
EC00129=45970,-139285
EC00130=54589,-142273
EC00131=61610,-145017
EC00132=68054,-147664
EC00133=72946,-149912
EC00134=76468,-151528
EC00135=78906,-152357
EC00136=79737,-151701
EC00137=77564,-150879
EC00138=74357,-149280
EC00139=69812,-147072
EC00140=63735,-144493
EC00141=57010,-141842
EC00142=48598,-138975
EC00143=41437,-136964
EC00144=34299,-135316
EC00145=27368,-134039
EC00146=20779,-133137
EC00147=14605,-132612
EC00148=7805,-132493
EC00149=2686,-132833
EC00150=-1924,-133584
EC00151=-6039,-134761
EC00152=-9691,-136381
EC00153=-13516,-138934
EC00154=-16303,-141561
EC00155=-18794,-144580
EC00156=-21037,-147905
EC00157=-23040,-150737
EC00158=-22736,-152773
EC00159=-23949,-154723
EC00160=-24678,-156186
EC00161=-25178,-157322
EC00162=-25472,-158100
EC00163=-25590,-158488
EC00164=-25595,-158589
EC00165=-25595,-158589
EC00166=-25595,-158589
EC00167=-25595,-158589
EC00168=-25595,-158589
EC00169=-25595,-158589
EC00170=-25607,-171561
EC00171=-25607,-171561
EC00172=-25607,-171561
EC00173=-25607,-171561
EC00174=-25607,-171482
EC00175=-25564,-171080
EC00176=-25427,-170150
EC00177=-25098,-168338
EC00178=-24651,-166309
EC00179=-24010,-163873
EC00180=-23140,-161087
EC00181=-23295,-157452
EC00182=-21824,-153051
EC00183=-20027,-148733
EC00184=-17411,-144337
EC00185=-14822,-141280
EC00186=-11838,-138720
EC00187=-8427,-136630
EC00188=-4552,-135001
EC00189=-178,-133823
EC00190=5749,-132977
EC00191=11235,-132721
EC00192=17171,-132854
EC00193=23499,-133364
EC00194=30142,-134242
EC00195=37009,-135486
EC00196=43987,-137094
EC00197=52327,-139503
EC00198=59087,-141893
EC00199=65507,-144523
EC00200=71225,-147086
EC00201=75512,-149286
EC00202=78581,-150882
EC00203=80671,-151703
EC00204=81259,-151701
EC00205=79277,-150880
EC00206=76345,-149285
EC00207=72249,-147091
EC00208=66791,-144540
EC00209=60626,-141935
EC00210=54046,-139577
EC00211=45819,-137208
EC00212=38837,-135624
EC00213=31906,-134399
EC00214=25185,-133538
EC00215=18795,-133046
EC00216=12818,-132930
EC00217=7300,-133203
EC00218=1322,-134070
EC00219=-3099,-135276
EC00220=-6990,-136963
EC00221=-10345,-139169
EC00222=-13192,-141902
EC00223=-15595,-145136
EC00224=-18000,-149638
EC00225=-19681,-153920
EC00226=-21112,-158730
EC00227=-22321,-164052
EC00228=-23330,-169735
EC00229=-23430,-174953
EC00230=-24086,-179232
EC00231=-24675,-183501
EC00232=-25026,-186359
EC00233=-25235,-188559
EC00234=-25392,-190298
EC00235=-25503,-191665
EC00236=-25577,-192506
EC00237=-25597,-192799
EC00238=-25662,-182764
EC00239=-25662,-182764
EC00240=-25662,-182711
EC00241=-25624,-182366
EC00242=-25505,-181547
EC00243=-25318,-180223
EC00244=-25014,-178348
EC00245=-24486,-175367
EC00246=-23876,-172364
EC00247=-23073,-168984
EC00248=-22842,-164577
EC00249=-21675,-159406
EC00250=-20245,-154535
EC00251=-18474,-150122
EC00252=-15799,-145471
EC00253=-13044,-142191
EC00254=-9773,-139487
EC00255=-5983,-137341
EC00256=-1697,-135696
EC00257=3061,-134501
EC00258=9375,-133618
EC00259=15139,-133321
EC00260=21346,-133408
EC00261=27945,-133867
EC00262=34827,-134690
EC00263=41808,-135870
EC00264=48676,-137397
EC00265=56559,-139687
EC00266=62757,-141983
EC00267=68540,-144543
EC00268=73561,-147066
EC00269=77238,-149245
EC00270=79865,-150832
EC00271=81674,-151651
EC00272=82532,-151660
EC00273=80863,-150846
EC00274=78426,-149271
EC00275=75060,-147120
EC00276=70510,-144641
EC00277=65140,-142135
EC00278=59159,-139893
EC00279=51469,-137664
EC00280=44721,-136181
EC00281=37737,-135031
EC00282=30719,-134223
EC00283=23913,-133770
EC00284=17495,-133685
EC00285=11550,-133988
EC00286=5071,-134888
EC00287=206,-136098
EC00288=-4202,-137733
EC00289=-8166,-139816
EC00290=-11670,-142415
EC00291=-14683,-145616
EC00292=-17636,-150307
EC00293=-19588,-154834
EC00294=-21150,-159757
EC00295=-22380,-164989
EC00296=-23318,-170472
EC00297=-23418,-175461
EC00298=-24094,-179508
EC00299=-24681,-183531
EC00300=-25026,-186208
EC00301=-25236,-188269
EC00302=-25403,-189864
EC00303=-25528,-191029
EC00304=-25594,-191626
EC00305=-25598,-191781
EC00306=-25604,-198939
EC00307=-25456,-198247
EC00308=-25300,-196799
EC00309=-25151,-195025
EC00310=-24997,-192989
EC00311=-24811,-190444
EC00312=-24454,-187079
EC00313=-23816,-182039
EC00314=-23048,-177229
EC00315=-23313,-171598
EC00316=-22380,-165394
EC00317=-20939,-159447
EC00318=-18956,-154274
EC00319=-16489,-150005
EC00320=-13046,-145837
EC00321=-9864,-142903
EC00322=-6381,-140352
EC00323=-2497,-138201
EC00324=1905,-136496
EC00325=6899,-135256
EC00326=13669,-134362
EC00327=19878,-134069
EC00328=26477,-134151
EC00329=33314,-134583
EC00330=40235,-135356
EC00331=47128,-136469
EC00332=53894,-137922
EC00333=61589,-140113
EC00334=67333,-142311
EC00335=72380,-144765
EC00336=76700,-147198
EC00337=79872,-149318
EC00338=81980,-150871
EC00339=83300,-151674
//INST
///DATE 2023/06/21 18:15
///ATTR SC,RW
///GROUP1 RB1
///GROUP2 ST1
NOP
MOVJ C00000 VJ=30.0 +MOVJ EC00000
ARCON ASF#(210)
MOVL C00001 V=30.0 +MOVJ EC00001 VJ=0.0
ARCSET ASF#(210)
MOVL C00002 V=12.0 +MOVJ EC00002 VJ=0.0
ARCSET ASF#(210)
MOVL C00003 V=12.0 +MOVJ EC00003 VJ=0.0
ARCSET ASF#(210)
MOVL C00004 V=12.0 +MOVJ EC00004 VJ=0.0
ARCSET ASF#(210)
MOVL C00005 V=12.0 +MOVJ EC00005 VJ=0.0
ARCSET ASF#(210)
MOVL C00006 V=12.0 +MOVJ EC00006 VJ=0.0
ARCSET ASF#(210)
MOVL C00007 V=12.0 +MOVJ EC00007 VJ=0.0
ARCSET ASF#(210)
MOVL C00008 V=12.0 +MOVJ EC00008 VJ=0.0
ARCSET ASF#(210)
MOVL C00009 V=12.0 +MOVJ EC00009 VJ=0.0
ARCSET ASF#(210)
MOVL C00010 V=12.0 +MOVJ EC00010 VJ=0.0
ARCSET ASF#(210)
MOVL C00011 V=12.0 +MOVJ EC00011 VJ=0.0
ARCSET ASF#(210)
MOVL C00012 V=12.0 +MOVJ EC00012 VJ=0.0
ARCSET ASF#(210)
MOVL C00013 V=12.0 +MOVJ EC00013 VJ=0.0
ARCSET ASF#(210)
MOVL C00014 V=12.0 +MOVJ EC00014 VJ=0.0
ARCSET ASF#(210)
MOVL C00015 V=12.0 +MOVJ EC00015 VJ=0.0
ARCSET ASF#(210)
MOVL C00016 V=12.0 +MOVJ EC00016 VJ=0.0
ARCSET ASF#(210)
MOVL C00017 V=12.0 +MOVJ EC00017 VJ=0.0
ARCSET ASF#(210)
MOVL C00018 V=12.0 +MOVJ EC00018 VJ=0.0
ARCSET ASF#(210)
MOVL C00019 V=12.0 +MOVJ EC00019 VJ=0.0
ARCSET ASF#(210)
MOVL C00020 V=12.0 +MOVJ EC00020 VJ=0.0
ARCSET ASF#(210)
MOVL C00021 V=12.0 +MOVJ EC00021 VJ=0.0
ARCSET ASF#(210)
MOVL C00022 V=12.0 +MOVJ EC00022 VJ=0.0
ARCSET ASF#(210)
MOVL C00023 V=12.0 +MOVJ EC00023 VJ=0.0
ARCSET ASF#(210)
MOVL C00024 V=12.0 +MOVJ EC00024 VJ=0.0
ARCSET ASF#(210)
MOVL C00025 V=12.0 +MOVJ EC00025 VJ=0.0
ARCSET ASF#(210)
MOVL C00026 V=12.0 +MOVJ EC00026 VJ=0.0
ARCSET ASF#(210)
MOVL C00027 V=12.0 +MOVJ EC00027 VJ=0.0
ARCSET ASF#(210)
MOVL C00028 V=12.0 +MOVJ EC00028 VJ=0.0
ARCSET ASF#(210)
MOVL C00029 V=12.0 +MOVJ EC00029 VJ=0.0
ARCSET ASF#(210)
MOVL C00030 V=12.0 +MOVJ EC00030 VJ=0.0
ARCSET ASF#(210)
MOVL C00031 V=12.0 +MOVJ EC00031 VJ=0.0
ARCSET ASF#(210)
MOVL C00032 V=12.0 +MOVJ EC00032 VJ=0.0
ARCSET ASF#(210)
MOVL C00033 V=12.0 +MOVJ EC00033 VJ=0.0
ARCOF
MOVL C00034 V=12.0 +MOVJ EC00034 VJ=0.0
ARCON ASF#(210)
MOVL C00035 V=30.0 +MOVJ EC00035 VJ=0.0
ARCSET ASF#(210)
MOVL C00036 V=12.0 +MOVJ EC00036 VJ=0.0
ARCSET ASF#(210)
MOVL C00037 V=12.0 +MOVJ EC00037 VJ=0.0
ARCSET ASF#(210)
MOVL C00038 V=12.0 +MOVJ EC00038 VJ=0.0
ARCSET ASF#(210)
MOVL C00039 V=12.0 +MOVJ EC00039 VJ=0.0
ARCSET ASF#(210)
MOVL C00040 V=12.0 +MOVJ EC00040 VJ=0.0
ARCSET ASF#(210)
MOVL C00041 V=12.0 +MOVJ EC00041 VJ=0.0
ARCSET ASF#(210)
MOVL C00042 V=11.8 +MOVJ EC00042 VJ=0.0
ARCSET ASF#(210)
MOVL C00043 V=11.5 +MOVJ EC00043 VJ=0.0
ARCSET ASF#(210)
MOVL C00044 V=11.4 +MOVJ EC00044 VJ=0.0
ARCSET ASF#(210)
MOVL C00045 V=11.6 +MOVJ EC00045 VJ=0.0
ARCSET ASF#(210)
MOVL C00046 V=11.9 +MOVJ EC00046 VJ=0.0
ARCSET ASF#(210)
MOVL C00047 V=12.5 +MOVJ EC00047 VJ=0.0
ARCSET ASF#(210)
MOVL C00048 V=16.5 +MOVJ EC00048 VJ=0.0
ARCSET ASF#(210)
MOVL C00049 V=14.4 +MOVJ EC00049 VJ=0.0
ARCSET ASF#(210)
MOVL C00050 V=14.9 +MOVJ EC00050 VJ=0.0
ARCSET ASF#(210)
MOVL C00051 V=15.5 +MOVJ EC00051 VJ=0.0
ARCSET ASF#(210)
MOVL C00052 V=16.2 +MOVJ EC00052 VJ=0.0
ARCSET ASF#(210)
MOVL C00053 V=17.2 +MOVJ EC00053 VJ=0.0
ARCSET ASF#(210)
MOVL C00054 V=18.3 +MOVJ EC00054 VJ=0.0
ARCSET ASF#(210)
MOVL C00055 V=19.7 +MOVJ EC00055 VJ=0.0
ARCSET ASF#(210)
MOVL C00056 V=21.3 +MOVJ EC00056 VJ=0.0
ARCSET ASF#(210)
MOVL C00057 V=23.3 +MOVJ EC00057 VJ=0.0
ARCSET ASF#(210)
MOVL C00058 V=25.5 +MOVJ EC00058 VJ=0.0
ARCSET ASF#(210)
MOVL C00059 V=27.7 +MOVJ EC00059 VJ=0.0
ARCSET ASF#(210)
MOVL C00060 V=29.9 +MOVJ EC00060 VJ=0.0
ARCSET ASF#(210)
MOVL C00061 V=32.1 +MOVJ EC00061 VJ=0.0
ARCSET ASF#(210)
MOVL C00062 V=34.1 +MOVJ EC00062 VJ=0.0
ARCSET ASF#(210)
MOVL C00063 V=35.7 +MOVJ EC00063 VJ=0.0
ARCSET ASF#(210)
MOVL C00064 V=36.1 +MOVJ EC00064 VJ=0.0
ARCSET ASF#(210)
MOVL C00065 V=34.2 +MOVJ EC00065 VJ=0.0
ARCSET ASF#(210)
MOVL C00066 V=27.8 +MOVJ EC00066 VJ=0.0
ARCSET ASF#(210)
MOVL C00067 V=21.7 +MOVJ EC00067 VJ=0.0
ARCOF
MOVL C00068 V=15.4 +MOVJ EC00068 VJ=0.0
ARCON ASF#(210)
MOVL C00069 V=30.0 +MOVJ EC00069 VJ=0.0
ARCSET ASF#(210)
MOVL C00070 V=15.1 +MOVJ EC00070 VJ=0.0
ARCSET ASF#(210)
MOVL C00071 V=21.0 +MOVJ EC00071 VJ=0.0
ARCSET ASF#(210)
MOVL C00072 V=27.2 +MOVJ EC00072 VJ=0.0
ARCSET ASF#(210)
MOVL C00073 V=33.8 +MOVJ EC00073 VJ=0.0
ARCSET ASF#(210)
MOVL C00074 V=35.7 +MOVJ EC00074 VJ=0.0
ARCSET ASF#(210)
MOVL C00075 V=35.1 +MOVJ EC00075 VJ=0.0
ARCSET ASF#(210)
MOVL C00076 V=34.1 +MOVJ EC00076 VJ=0.0
ARCSET ASF#(210)
MOVL C00077 V=32.5 +MOVJ EC00077 VJ=0.0
ARCSET ASF#(210)
MOVL C00078 V=30.4 +MOVJ EC00078 VJ=0.0
ARCSET ASF#(210)
MOVL C00079 V=28.2 +MOVJ EC00079 VJ=0.0
ARCSET ASF#(210)
MOVL C00080 V=26.3 +MOVJ EC00080 VJ=0.0
ARCSET ASF#(210)
MOVL C00081 V=24.2 +MOVJ EC00081 VJ=0.0
ARCSET ASF#(210)
MOVL C00082 V=22.2 +MOVJ EC00082 VJ=0.0
ARCSET ASF#(210)
MOVL C00083 V=20.4 +MOVJ EC00083 VJ=0.0
ARCSET ASF#(210)
MOVL C00084 V=18.9 +MOVJ EC00084 VJ=0.0
ARCSET ASF#(210)
MOVL C00085 V=17.7 +MOVJ EC00085 VJ=0.0
ARCSET ASF#(210)
MOVL C00086 V=16.5 +MOVJ EC00086 VJ=0.0
ARCSET ASF#(210)
MOVL C00087 V=15.7 +MOVJ EC00087 VJ=0.0
ARCSET ASF#(210)
MOVL C00088 V=15.2 +MOVJ EC00088 VJ=0.0
ARCSET ASF#(210)
MOVL C00089 V=14.7 +MOVJ EC00089 VJ=0.0
ARCSET ASF#(210)
MOVL C00090 V=17.3 +MOVJ EC00090 VJ=0.0
ARCSET ASF#(210)
MOVL C00091 V=12.5 +MOVJ EC00091 VJ=0.0
ARCSET ASF#(210)
MOVL C00092 V=11.9 +MOVJ EC00092 VJ=0.0
ARCSET ASF#(210)
MOVL C00093 V=11.6 +MOVJ EC00093 VJ=0.0
ARCSET ASF#(210)
MOVL C00094 V=11.5 +MOVJ EC00094 VJ=0.0
ARCSET ASF#(210)
MOVL C00095 V=11.6 +MOVJ EC00095 VJ=0.0
ARCSET ASF#(210)
MOVL C00096 V=11.9 +MOVJ EC00096 VJ=0.0
ARCSET ASF#(210)
MOVL C00097 V=12.0 +MOVJ EC00097 VJ=0.0
ARCSET ASF#(210)
MOVL C00098 V=12.0 +MOVJ EC00098 VJ=0.0
ARCSET ASF#(210)
MOVL C00099 V=12.0 +MOVJ EC00099 VJ=0.0
ARCSET ASF#(210)
MOVL C00100 V=12.0 +MOVJ EC00100 VJ=0.0
ARCSET ASF#(210)
MOVL C00101 V=12.0 +MOVJ EC00101 VJ=0.0
ARCOF
MOVL C00102 V=12.0 +MOVJ EC00102 VJ=0.0
ARCON ASF#(210)
MOVL C00103 V=30.0 +MOVJ EC00103 VJ=0.0
ARCSET ASF#(210)
MOVL C00104 V=12.0 +MOVJ EC00104 VJ=0.0
ARCSET ASF#(210)
MOVL C00105 V=12.0 +MOVJ EC00105 VJ=0.0
ARCSET ASF#(210)
MOVL C00106 V=12.0 +MOVJ EC00106 VJ=0.0
ARCSET ASF#(210)
MOVL C00107 V=11.7 +MOVJ EC00107 VJ=0.0
ARCSET ASF#(210)
MOVL C00108 V=11.3 +MOVJ EC00108 VJ=0.0
ARCSET ASF#(210)
MOVL C00109 V=11.1 +MOVJ EC00109 VJ=0.0
ARCSET ASF#(210)
MOVL C00110 V=11.0 +MOVJ EC00110 VJ=0.0
ARCSET ASF#(210)
MOVL C00111 V=11.2 +MOVJ EC00111 VJ=0.0
ARCSET ASF#(210)
MOVL C00112 V=11.6 +MOVJ EC00112 VJ=0.0
ARCSET ASF#(210)
MOVL C00113 V=12.1 +MOVJ EC00113 VJ=0.0
ARCSET ASF#(210)
MOVL C00114 V=13.1 +MOVJ EC00114 VJ=0.0
ARCSET ASF#(210)
MOVL C00115 V=13.0 +MOVJ EC00115 VJ=0.0
ARCSET ASF#(210)
MOVL C00116 V=13.7 +MOVJ EC00116 VJ=0.0
ARCSET ASF#(210)
MOVL C00117 V=14.4 +MOVJ EC00117 VJ=0.0
ARCSET ASF#(210)
MOVL C00118 V=15.1 +MOVJ EC00118 VJ=0.0
ARCSET ASF#(210)
MOVL C00119 V=15.9 +MOVJ EC00119 VJ=0.0
ARCSET ASF#(210)
MOVL C00120 V=16.7 +MOVJ EC00120 VJ=0.0
ARCSET ASF#(210)
MOVL C00121 V=17.7 +MOVJ EC00121 VJ=0.0
ARCSET ASF#(210)
MOVL C00122 V=19.0 +MOVJ EC00122 VJ=0.0
ARCSET ASF#(210)
MOVL C00123 V=20.7 +MOVJ EC00123 VJ=0.0
ARCSET ASF#(210)
MOVL C00124 V=22.6 +MOVJ EC00124 VJ=0.0
ARCSET ASF#(210)
MOVL C00125 V=24.8 +MOVJ EC00125 VJ=0.0
ARCSET ASF#(210)
MOVL C00126 V=27.1 +MOVJ EC00126 VJ=0.0
ARCSET ASF#(210)
MOVL C00127 V=29.0 +MOVJ EC00127 VJ=0.0
ARCSET ASF#(210)
MOVL C00128 V=30.8 +MOVJ EC00128 VJ=0.0
ARCSET ASF#(210)
MOVL C00129 V=32.4 +MOVJ EC00129 VJ=0.0
ARCSET ASF#(210)
MOVL C00130 V=33.8 +MOVJ EC00130 VJ=0.0
ARCSET ASF#(210)
MOVL C00131 V=34.6 +MOVJ EC00131 VJ=0.0
ARCSET ASF#(210)
MOVL C00132 V=34.8 +MOVJ EC00132 VJ=0.0
ARCSET ASF#(210)
MOVL C00133 V=32.8 +MOVJ EC00133 VJ=0.0
ARCSET ASF#(210)
MOVL C00134 V=26.6 +MOVJ EC00134 VJ=0.0
ARCSET ASF#(210)
MOVL C00135 V=20.7 +MOVJ EC00135 VJ=0.0
ARCOF
MOVL C00136 V=15.0 +MOVJ EC00136 VJ=0.0
ARCON ASF#(210)
MOVL C00137 V=30.0 +MOVJ EC00137 VJ=0.0
ARCSET ASF#(210)
MOVL C00138 V=14.4 +MOVJ EC00138 VJ=0.0
ARCSET ASF#(210)
MOVL C00139 V=19.6 +MOVJ EC00139 VJ=0.0
ARCSET ASF#(210)
MOVL C00140 V=25.2 +MOVJ EC00140 VJ=0.0
ARCSET ASF#(210)
MOVL C00141 V=31.2 +MOVJ EC00141 VJ=0.0
ARCSET ASF#(210)
MOVL C00142 V=33.5 +MOVJ EC00142 VJ=0.0
ARCSET ASF#(210)
MOVL C00143 V=33.8 +MOVJ EC00143 VJ=0.0
ARCSET ASF#(210)
MOVL C00144 V=33.4 +MOVJ EC00144 VJ=0.0
ARCSET ASF#(210)
MOVL C00145 V=32.7 +MOVJ EC00145 VJ=0.0
ARCSET ASF#(210)
MOVL C00146 V=31.3 +MOVJ EC00146 VJ=0.0
ARCSET ASF#(210)
MOVL C00147 V=29.5 +MOVJ EC00147 VJ=0.0
ARCSET ASF#(210)
MOVL C00148 V=27.6 +MOVJ EC00148 VJ=0.0
ARCSET ASF#(210)
MOVL C00149 V=25.4 +MOVJ EC00149 VJ=0.0
ARCSET ASF#(210)
MOVL C00150 V=23.3 +MOVJ EC00150 VJ=0.0
ARCSET ASF#(210)
MOVL C00151 V=21.5 +MOVJ EC00151 VJ=0.0
ARCSET ASF#(210)
MOVL C00152 V=19.8 +MOVJ EC00152 VJ=0.0
ARCSET ASF#(210)
MOVL C00153 V=18.4 +MOVJ EC00153 VJ=0.0
ARCSET ASF#(210)
MOVL C00154 V=17.2 +MOVJ EC00154 VJ=0.0
ARCSET ASF#(210)
MOVL C00155 V=16.3 +MOVJ EC00155 VJ=0.0
ARCSET ASF#(210)
MOVL C00156 V=15.7 +MOVJ EC00156 VJ=0.0
ARCSET ASF#(210)
MOVL C00157 V=15.3 +MOVJ EC00157 VJ=0.0
ARCSET ASF#(210)
MOVL C00158 V=14.7 +MOVJ EC00158 VJ=0.0
ARCSET ASF#(210)
MOVL C00159 V=16.5 +MOVJ EC00159 VJ=0.0
ARCSET ASF#(210)
MOVL C00160 V=12.3 +MOVJ EC00160 VJ=0.0
ARCSET ASF#(210)
MOVL C00161 V=11.7 +MOVJ EC00161 VJ=0.0
ARCSET ASF#(210)
MOVL C00162 V=11.4 +MOVJ EC00162 VJ=0.0
ARCSET ASF#(210)
MOVL C00163 V=11.4 +MOVJ EC00163 VJ=0.0
ARCSET ASF#(210)
MOVL C00164 V=11.6 +MOVJ EC00164 VJ=0.0
ARCSET ASF#(210)
MOVL C00165 V=11.9 +MOVJ EC00165 VJ=0.0
ARCSET ASF#(210)
MOVL C00166 V=12.0 +MOVJ EC00166 VJ=0.0
ARCSET ASF#(210)
MOVL C00167 V=12.0 +MOVJ EC00167 VJ=0.0
ARCSET ASF#(210)
MOVL C00168 V=12.0 +MOVJ EC00168 VJ=0.0
ARCSET ASF#(210)
MOVL C00169 V=12.0 +MOVJ EC00169 VJ=0.0
ARCOF
MOVL C00170 V=12.0 +MOVJ EC00170 VJ=0.0
ARCON ASF#(210)
MOVL C00171 V=30.0 +MOVJ EC00171 VJ=0.0
ARCSET ASF#(210)
MOVL C00172 V=12.0 +MOVJ EC00172 VJ=0.0
ARCSET ASF#(210)
MOVL C00173 V=12.0 +MOVJ EC00173 VJ=0.0
ARCSET ASF#(210)
MOVL C00174 V=12.0 +MOVJ EC00174 VJ=0.0
ARCSET ASF#(210)
MOVL C00175 V=11.9 +MOVJ EC00175 VJ=0.0
ARCSET ASF#(210)
MOVL C00176 V=11.6 +MOVJ EC00176 VJ=0.0
ARCSET ASF#(210)
MOVL C00177 V=11.2 +MOVJ EC00177 VJ=0.0
ARCSET ASF#(210)
MOVL C00178 V=11.1 +MOVJ EC00178 VJ=0.0
ARCSET ASF#(210)
MOVL C00179 V=11.3 +MOVJ EC00179 VJ=0.0
ARCSET ASF#(210)
MOVL C00180 V=11.7 +MOVJ EC00180 VJ=0.0
ARCSET ASF#(210)
MOVL C00181 V=12.3 +MOVJ EC00181 VJ=0.0
ARCSET ASF#(210)
MOVL C00182 V=14.7 +MOVJ EC00182 VJ=0.0
ARCSET ASF#(210)
MOVL C00183 V=14.0 +MOVJ EC00183 VJ=0.0
ARCSET ASF#(210)
MOVL C00184 V=14.6 +MOVJ EC00184 VJ=0.0
ARCSET ASF#(210)
MOVL C00185 V=15.2 +MOVJ EC00185 VJ=0.0
ARCSET ASF#(210)
MOVL C00186 V=16.0 +MOVJ EC00186 VJ=0.0
ARCSET ASF#(210)
MOVL C00187 V=16.8 +MOVJ EC00187 VJ=0.0
ARCSET ASF#(210)
MOVL C00188 V=17.9 +MOVJ EC00188 VJ=0.0
ARCSET ASF#(210)
MOVL C00189 V=19.1 +MOVJ EC00189 VJ=0.0
ARCSET ASF#(210)
MOVL C00190 V=20.7 +MOVJ EC00190 VJ=0.0
ARCSET ASF#(210)
MOVL C00191 V=22.6 +MOVJ EC00191 VJ=0.0
ARCSET ASF#(210)
MOVL C00192 V=24.7 +MOVJ EC00192 VJ=0.0
ARCSET ASF#(210)
MOVL C00193 V=26.5 +MOVJ EC00193 VJ=0.0
ARCSET ASF#(210)
MOVL C00194 V=28.2 +MOVJ EC00194 VJ=0.0
ARCSET ASF#(210)
MOVL C00195 V=29.7 +MOVJ EC00195 VJ=0.0
ARCSET ASF#(210)
MOVL C00196 V=31.0 +MOVJ EC00196 VJ=0.0
ARCSET ASF#(210)
MOVL C00197 V=32.1 +MOVJ EC00197 VJ=0.0
ARCSET ASF#(210)
MOVL C00198 V=32.7 +MOVJ EC00198 VJ=0.0
ARCSET ASF#(210)
MOVL C00199 V=32.9 +MOVJ EC00199 VJ=0.0
ARCSET ASF#(210)
MOVL C00200 V=32.3 +MOVJ EC00200 VJ=0.0
ARCSET ASF#(210)
MOVL C00201 V=29.9 +MOVJ EC00201 VJ=0.0
ARCSET ASF#(210)
MOVL C00202 V=24.3 +MOVJ EC00202 VJ=0.0
ARCSET ASF#(210)
MOVL C00203 V=19.2 +MOVJ EC00203 VJ=0.0
ARCOF
MOVL C00204 V=14.3 +MOVJ EC00204 VJ=0.0
ARCON ASF#(210)
MOVL C00205 V=30.0 +MOVJ EC00205 VJ=0.0
ARCSET ASF#(210)
MOVL C00206 V=14.1 +MOVJ EC00206 VJ=0.0
ARCSET ASF#(210)
MOVL C00207 V=18.7 +MOVJ EC00207 VJ=0.0
ARCSET ASF#(210)
MOVL C00208 V=23.6 +MOVJ EC00208 VJ=0.0
ARCSET ASF#(210)
MOVL C00209 V=28.9 +MOVJ EC00209 VJ=0.0
ARCSET ASF#(210)
MOVL C00210 V=31.2 +MOVJ EC00210 VJ=0.0
ARCSET ASF#(210)
MOVL C00211 V=32.1 +MOVJ EC00211 VJ=0.0
ARCSET ASF#(210)
MOVL C00212 V=32.2 +MOVJ EC00212 VJ=0.0
ARCSET ASF#(210)
MOVL C00213 V=31.9 +MOVJ EC00213 VJ=0.0
ARCSET ASF#(210)
MOVL C00214 V=31.2 +MOVJ EC00214 VJ=0.0
ARCSET ASF#(210)
MOVL C00215 V=29.9 +MOVJ EC00215 VJ=0.0
ARCSET ASF#(210)
MOVL C00216 V=28.3 +MOVJ EC00216 VJ=0.0
ARCSET ASF#(210)
MOVL C00217 V=26.5 +MOVJ EC00217 VJ=0.0
ARCSET ASF#(210)
MOVL C00218 V=24.7 +MOVJ EC00218 VJ=0.0
ARCSET ASF#(210)
MOVL C00219 V=22.7 +MOVJ EC00219 VJ=0.0
ARCSET ASF#(210)
MOVL C00220 V=20.8 +MOVJ EC00220 VJ=0.0
ARCSET ASF#(210)
MOVL C00221 V=19.2 +MOVJ EC00221 VJ=0.0
ARCSET ASF#(210)
MOVL C00222 V=17.7 +MOVJ EC00222 VJ=0.0
ARCSET ASF#(210)
MOVL C00223 V=16.4 +MOVJ EC00223 VJ=0.0
ARCSET ASF#(210)
MOVL C00224 V=15.5 +MOVJ EC00224 VJ=0.0
ARCSET ASF#(210)
MOVL C00225 V=14.8 +MOVJ EC00225 VJ=0.0
ARCSET ASF#(210)
MOVL C00226 V=14.3 +MOVJ EC00226 VJ=0.0
ARCSET ASF#(210)
MOVL C00227 V=14.1 +MOVJ EC00227 VJ=0.0
ARCSET ASF#(210)
MOVL C00228 V=13.9 +MOVJ EC00228 VJ=0.0
ARCSET ASF#(210)
MOVL C00229 V=13.7 +MOVJ EC00229 VJ=0.0
ARCSET ASF#(210)
MOVL C00230 V=12.6 +MOVJ EC00230 VJ=0.0
ARCSET ASF#(210)
MOVL C00231 V=12.2 +MOVJ EC00231 VJ=0.0
ARCSET ASF#(210)
MOVL C00232 V=11.5 +MOVJ EC00232 VJ=0.0
ARCSET ASF#(210)
MOVL C00233 V=10.9 +MOVJ EC00233 VJ=0.0
ARCSET ASF#(210)
MOVL C00234 V=10.6 +MOVJ EC00234 VJ=0.0
ARCSET ASF#(210)
MOVL C00235 V=10.6 +MOVJ EC00235 VJ=0.0
ARCSET ASF#(210)
MOVL C00236 V=10.7 +MOVJ EC00236 VJ=0.0
ARCSET ASF#(210)
MOVL C00237 V=11.0 +MOVJ EC00237 VJ=0.0
ARCOF
MOVL C00238 V=11.6 +MOVJ EC00238 VJ=0.0
ARCON ASF#(210)
MOVL C00239 V=30.0 +MOVJ EC00239 VJ=0.0
ARCSET ASF#(210)
MOVL C00240 V=12.0 +MOVJ EC00240 VJ=0.0
ARCSET ASF#(210)
MOVL C00241 V=11.9 +MOVJ EC00241 VJ=0.0
ARCSET ASF#(210)
MOVL C00242 V=11.6 +MOVJ EC00242 VJ=0.0
ARCSET ASF#(210)
MOVL C00243 V=11.1 +MOVJ EC00243 VJ=0.0
ARCSET ASF#(210)
MOVL C00244 V=10.9 +MOVJ EC00244 VJ=0.0
ARCSET ASF#(210)
MOVL C00245 V=10.9 +MOVJ EC00245 VJ=0.0
ARCSET ASF#(210)
MOVL C00246 V=11.2 +MOVJ EC00246 VJ=0.0
ARCSET ASF#(210)
MOVL C00247 V=11.7 +MOVJ EC00247 VJ=0.0
ARCSET ASF#(210)
MOVL C00248 V=12.3 +MOVJ EC00248 VJ=0.0
ARCSET ASF#(210)
MOVL C00249 V=13.0 +MOVJ EC00249 VJ=0.0
ARCSET ASF#(210)
MOVL C00250 V=13.7 +MOVJ EC00250 VJ=0.0
ARCSET ASF#(210)
MOVL C00251 V=14.1 +MOVJ EC00251 VJ=0.0
ARCSET ASF#(210)
MOVL C00252 V=14.6 +MOVJ EC00252 VJ=0.0
ARCSET ASF#(210)
MOVL C00253 V=15.5 +MOVJ EC00253 VJ=0.0
ARCSET ASF#(210)
MOVL C00254 V=16.5 +MOVJ EC00254 VJ=0.0
ARCSET ASF#(210)
MOVL C00255 V=17.7 +MOVJ EC00255 VJ=0.0
ARCSET ASF#(210)
MOVL C00256 V=19.1 +MOVJ EC00256 VJ=0.0
ARCSET ASF#(210)
MOVL C00257 V=20.5 +MOVJ EC00257 VJ=0.0
ARCSET ASF#(210)
MOVL C00258 V=22.0 +MOVJ EC00258 VJ=0.0
ARCSET ASF#(210)
MOVL C00259 V=23.7 +MOVJ EC00259 VJ=0.0
ARCSET ASF#(210)
MOVL C00260 V=25.6 +MOVJ EC00260 VJ=0.0
ARCSET ASF#(210)
MOVL C00261 V=27.4 +MOVJ EC00261 VJ=0.0
ARCSET ASF#(210)
MOVL C00262 V=29.1 +MOVJ EC00262 VJ=0.0
ARCSET ASF#(210)
MOVL C00263 V=30.5 +MOVJ EC00263 VJ=0.0
ARCSET ASF#(210)
MOVL C00264 V=31.3 +MOVJ EC00264 VJ=0.0
ARCSET ASF#(210)
MOVL C00265 V=31.5 +MOVJ EC00265 VJ=0.0
ARCSET ASF#(210)
MOVL C00266 V=31.1 +MOVJ EC00266 VJ=0.0
ARCSET ASF#(210)
MOVL C00267 V=30.6 +MOVJ EC00267 VJ=0.0
ARCSET ASF#(210)
MOVL C00268 V=29.8 +MOVJ EC00268 VJ=0.0
ARCSET ASF#(210)
MOVL C00269 V=27.3 +MOVJ EC00269 VJ=0.0
ARCSET ASF#(210)
MOVL C00270 V=22.1 +MOVJ EC00270 VJ=0.0
ARCSET ASF#(210)
MOVL C00271 V=17.8 +MOVJ EC00271 VJ=0.0
ARCOF
MOVL C00272 V=13.8 +MOVJ EC00272 VJ=0.0
ARCON ASF#(210)
MOVL C00273 V=30.0 +MOVJ EC00273 VJ=0.0
ARCSET ASF#(210)
MOVL C00274 V=13.5 +MOVJ EC00274 VJ=0.0
ARCSET ASF#(210)
MOVL C00275 V=17.2 +MOVJ EC00275 VJ=0.0
ARCSET ASF#(210)
MOVL C00276 V=21.1 +MOVJ EC00276 VJ=0.0
ARCSET ASF#(210)
MOVL C00277 V=25.6 +MOVJ EC00277 VJ=0.0
ARCSET ASF#(210)
MOVL C00278 V=28.3 +MOVJ EC00278 VJ=0.0
ARCSET ASF#(210)
MOVL C00279 V=29.8 +MOVJ EC00279 VJ=0.0
ARCSET ASF#(210)
MOVL C00280 V=30.5 +MOVJ EC00280 VJ=0.0
ARCSET ASF#(210)
MOVL C00281 V=31.0 +MOVJ EC00281 VJ=0.0
ARCSET ASF#(210)
MOVL C00282 V=31.4 +MOVJ EC00282 VJ=0.0
ARCSET ASF#(210)
MOVL C00283 V=31.1 +MOVJ EC00283 VJ=0.0
ARCSET ASF#(210)
MOVL C00284 V=29.9 +MOVJ EC00284 VJ=0.0
ARCSET ASF#(210)
MOVL C00285 V=28.2 +MOVJ EC00285 VJ=0.0
ARCSET ASF#(210)
MOVL C00286 V=26.3 +MOVJ EC00286 VJ=0.0
ARCSET ASF#(210)
MOVL C00287 V=24.3 +MOVJ EC00287 VJ=0.0
ARCSET ASF#(210)
MOVL C00288 V=22.4 +MOVJ EC00288 VJ=0.0
ARCSET ASF#(210)
MOVL C00289 V=21.0 +MOVJ EC00289 VJ=0.0
ARCSET ASF#(210)
MOVL C00290 V=19.7 +MOVJ EC00290 VJ=0.0
ARCSET ASF#(210)
MOVL C00291 V=18.5 +MOVJ EC00291 VJ=0.0
ARCSET ASF#(210)
MOVL C00292 V=17.3 +MOVJ EC00292 VJ=0.0
ARCSET ASF#(210)
MOVL C00293 V=16.2 +MOVJ EC00293 VJ=0.0
ARCSET ASF#(210)
MOVL C00294 V=15.2 +MOVJ EC00294 VJ=0.0
ARCSET ASF#(210)
MOVL C00295 V=14.5 +MOVJ EC00295 VJ=0.0
ARCSET ASF#(210)
MOVL C00296 V=13.9 +MOVJ EC00296 VJ=0.0
ARCSET ASF#(210)
MOVL C00297 V=13.4 +MOVJ EC00297 VJ=0.0
ARCSET ASF#(210)
MOVL C00298 V=12.4 +MOVJ EC00298 VJ=0.0
ARCSET ASF#(210)
MOVL C00299 V=12.2 +MOVJ EC00299 VJ=0.0
ARCSET ASF#(210)
MOVL C00300 V=11.4 +MOVJ EC00300 VJ=0.0
ARCSET ASF#(210)
MOVL C00301 V=10.9 +MOVJ EC00301 VJ=0.0
ARCSET ASF#(210)
MOVL C00302 V=10.6 +MOVJ EC00302 VJ=0.0
ARCSET ASF#(210)
MOVL C00303 V=10.6 +MOVJ EC00303 VJ=0.0
ARCSET ASF#(210)
MOVL C00304 V=10.8 +MOVJ EC00304 VJ=0.0
ARCSET ASF#(210)
MOVL C00305 V=11.2 +MOVJ EC00305 VJ=0.0
ARCOF
MOVL C00306 V=11.8 +MOVJ EC00306 VJ=0.0
ARCON ASF#(210)
MOVL C00307 V=30.0 +MOVJ EC00307 VJ=0.0
ARCSET ASF#(210)
MOVL C00308 V=11.1 +MOVJ EC00308 VJ=0.0
ARCSET ASF#(210)
MOVL C00309 V=10.5 +MOVJ EC00309 VJ=0.0
ARCSET ASF#(210)
MOVL C00310 V=10.4 +MOVJ EC00310 VJ=0.0
ARCSET ASF#(210)
MOVL C00311 V=10.5 +MOVJ EC00311 VJ=0.0
ARCSET ASF#(210)
MOVL C00312 V=10.5 +MOVJ EC00312 VJ=0.0
ARCSET ASF#(210)
MOVL C00313 V=11.0 +MOVJ EC00313 VJ=0.0
ARCSET ASF#(210)
MOVL C00314 V=11.8 +MOVJ EC00314 VJ=0.0
ARCSET ASF#(210)
MOVL C00315 V=12.8 +MOVJ EC00315 VJ=0.0
ARCSET ASF#(210)
MOVL C00316 V=13.0 +MOVJ EC00316 VJ=0.0
ARCSET ASF#(210)
MOVL C00317 V=13.7 +MOVJ EC00317 VJ=0.0
ARCSET ASF#(210)
MOVL C00318 V=14.9 +MOVJ EC00318 VJ=0.0
ARCSET ASF#(210)
MOVL C00319 V=15.9 +MOVJ EC00319 VJ=0.0
ARCSET ASF#(210)
MOVL C00320 V=16.7 +MOVJ EC00320 VJ=0.0
ARCSET ASF#(210)
MOVL C00321 V=17.3 +MOVJ EC00321 VJ=0.0
ARCSET ASF#(210)
MOVL C00322 V=17.9 +MOVJ EC00322 VJ=0.0
ARCSET ASF#(210)
MOVL C00323 V=18.5 +MOVJ EC00323 VJ=0.0
ARCSET ASF#(210)
MOVL C00324 V=19.5 +MOVJ EC00324 VJ=0.0
ARCSET ASF#(210)
MOVL C00325 V=21.0 +MOVJ EC00325 VJ=0.0
ARCSET ASF#(210)
MOVL C00326 V=22.9 +MOVJ EC00326 VJ=0.0
ARCSET ASF#(210)
MOVL C00327 V=25.2 +MOVJ EC00327 VJ=0.0
ARCSET ASF#(210)
MOVL C00328 V=27.4 +MOVJ EC00328 VJ=0.0
ARCSET ASF#(210)
MOVL C00329 V=29.0 +MOVJ EC00329 VJ=0.0
ARCSET ASF#(210)
MOVL C00330 V=30.1 +MOVJ EC00330 VJ=0.0
ARCSET ASF#(210)
MOVL C00331 V=30.7 +MOVJ EC00331 VJ=0.0
ARCSET ASF#(210)
MOVL C00332 V=31.1 +MOVJ EC00332 VJ=0.0
ARCSET ASF#(210)
MOVL C00333 V=31.1 +MOVJ EC00333 VJ=0.0
ARCSET ASF#(210)
MOVL C00334 V=30.5 +MOVJ EC00334 VJ=0.0
ARCSET ASF#(210)
MOVL C00335 V=28.9 +MOVJ EC00335 VJ=0.0
ARCSET ASF#(210)
MOVL C00336 V=27.1 +MOVJ EC00336 VJ=0.0
ARCSET ASF#(210)
MOVL C00337 V=24.7 +MOVJ EC00337 VJ=0.0
ARCSET ASF#(210)
MOVL C00338 V=20.5 +MOVJ EC00338 VJ=0.0
ARCSET ASF#(210)
MOVL C00339 V=16.3 +MOVJ EC00339 VJ=0.0
ARCOF
END
