/JOB
//NAME AAA
//POS
///NPOS 732,0,732,0,0,0
///TOOL 12
///POSTYPE PULSE
///PULSE
C00000=-33693,73462,17966,11123,-41712,-12109
C00001=-33693,73462,17966,11123,-41712,-12109
C00002=-33745,74068,18678,11076,-41830,-12070
C00003=-33831,75079,19871,10999,-42030,-12005
C00004=-33917,76093,21070,10922,-42232,-11940
C00005=-34003,77110,22277,10844,-42437,-11875
C00006=-34107,78335,23735,10752,-42687,-11797
C00007=-34193,79359,24958,10675,-42898,-11732
C00008=-34279,80387,26190,10598,-43112,-11667
C00009=-34366,81418,27430,10521,-43330,-11602
C00010=-34470,82657,28923,10429,-43594,-11523
C00011=-35523,76768,21633,10313,-42035,-11236
C00012=-35607,77773,22825,10239,-42237,-11173
C00013=-35691,78781,24024,10165,-42442,-11110
C00014=-35791,79994,25473,10076,-42692,-11035
C00015=-35875,81009,26689,10003,-42904,-10972
C00016=-35959,82028,27913,9929,-43118,-10909
C00017=-36042,83050,29145,9855,-43336,-10846
C00018=-36143,84282,30635,9767,-43601,-10771
C00019=-36227,85314,31887,9694,-43825,-10708
C00020=-37303,79472,24589,9549,-42238,-10400
C00021=-37384,80470,25780,9478,-42443,-10340
C00022=-37465,81472,26979,9407,-42651,-10279
C00023=-37563,82677,28427,9322,-42905,-10207
C00024=-37644,83686,29643,9252,-43119,-10146
C00025=-37725,84699,30867,9181,-43337,-10086
C00026=-37807,85716,32100,9111,-43557,-10025
C00027=-37904,86943,33591,9027,-43826,-9952
C00028=-37985,87970,34845,8957,-44054,-9891
C00029=-38971,82000,27350,8831,-42426,-9617
C00030=-38864,82680,28201,8844,-42609,-9646
C00031=-38736,83506,29236,8858,-42832,-9681
C00032=-38630,84198,30106,8870,-43020,-9709
C00033=-38525,84895,30982,8880,-43210,-9737
C00034=-38420,85595,31865,8891,-43402,-9764
C00035=-38296,86440,32933,8902,-43635,-9796
C00036=-38193,87150,33831,8911,-43831,-9821
C00037=-38090,87864,34737,8919,-44030,-9847
C00038=-38833,82919,28549,8841,-42703,-9650
C00039=-38892,82491,28011,8836,-42587,-9636
C00040=-38765,83310,29037,8851,-42808,-9670
C00041=-38659,83996,29898,8862,-42994,-9698
C00042=-38555,84686,30766,8873,-43182,-9726
C00043=-38451,85379,31640,8883,-43372,-9753
C00044=-38327,86217,32698,8895,-43602,-9785
C00045=-38224,86920,33587,8904,-43796,-9811
C00046=-38122,87627,34483,8912,-43992,-9836
C00047=-38021,88339,35387,8920,-44191,-9861
C00048=-38892,82479,28042,8832,-42613,-9633
C00049=-38786,83158,28893,8844,-42796,-9662
C00050=-38681,83840,29750,8856,-42980,-9690
C00051=-38577,84527,30613,8867,-43167,-9718
C00052=-38453,85355,31657,8879,-43394,-9750
C00053=-38350,86050,32534,8889,-43585,-9777
C00054=-38248,86749,33418,8898,-43778,-9803
C00055=-38146,87453,34309,8906,-43973,-9828
C00056=-38085,87877,34847,8911,-44091,-9843
C00057=-38996,81805,27246,8816,-42460,-9602
C00058=-38886,82505,28122,8829,-42648,-9632
C00059=-38776,83210,29004,8841,-42838,-9662
C00060=-38668,83918,29893,8853,-43030,-9691
C00061=-38560,84630,30789,8864,-43223,-9720
C00062=-38431,85490,31873,8877,-43459,-9753
C00063=-38324,86212,32784,8887,-43657,-9780
C00064=-38219,86937,33702,8896,-43858,-9807
C00065=-38114,87668,34628,8905,-44061,-9833
C00066=-38028,88273,35397,8911,-44230,-9854
C00067=-38870,82594,28280,8826,-42701,-9634
C00068=-38762,83293,29157,8839,-42889,-9663
C00069=-38654,83997,30040,8850,-43080,-9692
C00070=-38547,84704,30929,8861,-43273,-9720
C00071=-38440,85415,31825,8872,-43467,-9748
C00072=-38314,86274,32910,8884,-43703,-9781
C00073=-38209,86994,33822,8893,-43903,-9807
C00074=-38105,87719,34741,8901,-44104,-9833
C00075=-38986,81842,27387,8808,-42528,-9599
C00076=-38878,82532,28250,8821,-42713,-9629
C00077=-38749,83365,29294,8836,-42938,-9664
C00078=-38642,84063,30171,8847,-43127,-9693
C00079=-38536,84765,31054,8858,-43318,-9721
C00080=-38430,85471,31944,8869,-43512,-9748
C00081=-38326,86181,32840,8878,-43707,-9775
C00082=-38201,87039,33925,8889,-43944,-9806
C00083=-38098,87758,34838,8898,-44144,-9832
C00084=-38973,81914,27524,8806,-42576,-9600
C00085=-38865,82602,28384,8818,-42761,-9630
C00086=-38737,83432,29425,8833,-42984,-9665
C00087=-38630,84128,30298,8844,-43173,-9693
C00088=-38525,84827,31179,8855,-43364,-9721
C00089=-38420,85531,32066,8865,-43557,-9748
C00090=-38316,86239,32959,8875,-43751,-9775
C00091=-38192,87094,34041,8886,-43987,-9806
C00092=-38089,87811,34951,8894,-44187,-9832
C00093=-38958,81998,27676,8803,-42627,-9602
C00094=-38851,82681,28530,8816,-42811,-9631
C00095=-38745,83367,29391,8828,-42996,-9660
C00096=-38618,84196,30431,8841,-43221,-9694
C00097=-38514,84890,31305,8852,-43410,-9721
C00098=-38410,85589,32186,8862,-43601,-9748
C00099=-38307,86291,33073,8872,-43795,-9775
C00100=-38204,86998,33967,8881,-43990,-9800
C00101=-38082,87852,35050,8891,-44227,-9831
C00102=-38923,82208,27985,8803,-42712,-9609
C00103=-38817,82887,28834,8815,-42894,-9638
C00104=-38712,83569,29690,8827,-43079,-9666
C00105=-38608,84255,30552,8838,-43265,-9694
C00106=-38483,85083,31594,8851,-43491,-9727
C00107=-38380,85777,32470,8861,-43681,-9753
C00108=-38278,86476,33353,8870,-43874,-9779
C00109=-38177,87178,34242,8879,-44068,-9805
C00110=-38116,87602,34779,8884,-44186,-9820
C00111=-38985,81804,27526,8792,-42632,-9590
C00112=-38875,82505,28402,8805,-42820,-9620
C00113=-38766,83209,29284,8817,-43009,-9649
C00114=-38657,83917,30173,8829,-43201,-9678
C00115=-38550,84630,31069,8840,-43395,-9707
C00116=-38443,85346,31972,8851,-43591,-9735
C00117=-38315,86212,33065,8863,-43829,-9767
C00118=-38210,86939,33984,8872,-44030,-9794
C00119=-38105,87670,34911,8881,-44233,-9820
C00120=-38953,81994,27811,8791,-42712,-9596
C00121=-38844,82692,28683,8804,-42899,-9626
C00122=-38714,83534,29739,8819,-43126,-9661
C00123=-38607,84240,30626,8830,-43318,-9689
C00124=-38500,84950,31521,8841,-43512,-9717
C00125=-38394,85665,32422,8851,-43708,-9745
C00126=-38288,86384,33330,8861,-43905,-9771
C00127=-38163,87253,34430,8872,-44146,-9803
C00128=-38059,87981,35353,8880,-44348,-9829
C00129=-38899,82326,28273,8793,-42830,-9608
C00130=-38791,83021,29144,8806,-43017,-9637
C00131=-38684,83721,30021,8818,-43206,-9666
C00132=-38556,84565,31083,8831,-43436,-9700
C00133=-38450,85274,31975,8842,-43629,-9727
C00134=-38345,85986,32875,8852,-43825,-9754
C00135=-38241,86703,33781,8861,-44023,-9781
C00136=-38137,87425,34695,8870,-44223,-9807
C00137=-38953,81972,27877,8783,-42763,-9591
C00138=-38846,82656,28733,8795,-42947,-9620
C00139=-38739,83347,29599,8807,-43133,-9649
C00140=-38633,84042,30471,8819,-43322,-9677
C00141=-38528,84741,31351,8830,-43512,-9705
C00142=-38402,85585,32414,8842,-43743,-9737
C00143=-38299,86293,33309,8852,-43938,-9764
C00144=-38195,87006,34210,8861,-44135,-9790
C00145=-38093,87722,35119,8870,-44334,-9815
C00146=-38923,82147,28143,8782,-42839,-9596
C00147=-38795,82969,29172,8797,-43060,-9631
C00148=-38690,83658,30036,8809,-43246,-9659
C00149=-38585,84351,30907,8820,-43435,-9687
C00150=-38480,85047,31784,8831,-43625,-9714
C00151=-38377,85748,32668,8841,-43817,-9741
C00152=-38253,86595,33737,8852,-44050,-9773
C00153=-38151,87305,34637,8861,-44247,-9798
C00154=-38833,82750,28944,8787,-43029,-9617
C00155=-38850,82603,28760,8786,-42990,-9613
C00156=-38745,83286,29616,8798,-43174,-9642
C00157=-38619,84111,30652,8812,-43398,-9675
C00158=-38515,84803,31522,8823,-43586,-9703
C00159=-38412,85498,32399,8833,-43777,-9730
C00160=-38309,86198,33282,8843,-43969,-9756
C00161=-38208,86902,34173,8852,-44163,-9782
C00162=-38147,87326,34710,8857,-44281,-9797
C00163=-38973,81805,27808,8768,-42804,-9577
C00164=-38863,82511,28690,8781,-42993,-9607
C00165=-38753,83220,29579,8793,-43184,-9637
C00166=-38645,83933,30474,8805,-43377,-9666
C00167=-38537,84650,31375,8817,-43572,-9695
C00168=-38429,85370,32283,8827,-43769,-9723
C00169=-38302,86241,33382,8839,-44009,-9755
C00170=-38196,86971,34306,8849,-44210,-9782
C00171=-38091,87705,35237,8858,-44414,-9808
C00172=-38899,82264,28429,8772,-42956,-9595
C00173=-38791,82966,29308,8785,-43145,-9624
C00174=-38661,83813,30370,8799,-43374,-9659
C00175=-38554,84523,31263,8811,-43567,-9687
C00176=-38448,85237,32162,8821,-43762,-9715
C00177=-38342,85955,33068,8832,-43959,-9742
C00178=-38237,86677,33981,8841,-44158,-9769
C00179=-38133,87403,34901,8850,-44359,-9795
C00180=-38916,82149,28333,8766,-42954,-9588
C00181=-38808,82844,29203,8779,-43141,-9617
C00182=-38700,83543,30080,8791,-43330,-9646
C00183=-38594,84246,30962,8802,-43521,-9674
C00184=-38488,84952,31851,8813,-43713,-9702
C00185=-38362,85805,32926,8825,-43947,-9735
C00186=-38258,86520,33830,8835,-44144,-9761
C00187=-38155,87239,34741,8844,-44343,-9787
C00188=-38954,81890,28056,8757,-42914,-9575
C00189=-38846,82584,28924,8770,-43100,-9604
C00190=-38739,83281,29797,8782,-43288,-9633
C00191=-38611,84122,30853,8796,-43515,-9667
C00192=-38505,84826,31739,8807,-43707,-9695
C00193=-38401,85535,32632,8818,-43901,-9722
C00194=-38296,86247,33531,8828,-44097,-9749
C00195=-38193,86963,34436,8837,-44294,-9775
C00196=-38230,86744,34176,8830,-44244,-9763
C00197=-38856,82510,28879,8765,-43109,-9599
C00198=-38749,83202,29745,8777,-43295,-9628
C00199=-38643,83897,30617,8789,-43483,-9656
C00200=-38538,84596,31495,8800,-43673,-9684
C00201=-38434,85298,32380,8810,-43865,-9711
C00202=-38310,86145,33449,8822,-44097,-9743
C00203=-38207,86855,34347,8831,-44293,-9769
C00204=-38194,86970,34502,8831,-44331,-9771
C00205=-38869,82411,28801,8759,-43110,-9593
C00206=-38764,83095,29657,8771,-43294,-9621
C00207=-38638,83920,30692,8785,-43517,-9655
C00208=-38534,84611,31561,8796,-43705,-9682
C00209=-38431,85305,32436,8807,-43895,-9709
C00210=-38329,86003,33317,8816,-44087,-9735
C00211=-38227,86705,34204,8826,-44280,-9761
C00212=-38167,87128,34739,8831,-44397,-9776
C00213=-38962,81808,28092,8744,-42977,-9565
C00214=-38851,82519,28981,8757,-43167,-9595
C00215=-38741,83234,29876,8770,-43360,-9625
C00216=-38632,83951,30778,8782,-43554,-9654
C00217=-38524,84673,31685,8793,-43750,-9683
C00218=-38416,85398,32598,8804,-43949,-9711
C00219=-38309,86127,33519,8814,-44149,-9738
C00220=-38204,86860,34446,8824,-44351,-9765
C00221=-38205,86879,34481,8821,-44363,-9763
C00222=-38853,82494,28997,8753,-43189,-9592
C00223=-38722,83345,30064,8768,-43419,-9627
C00224=-38614,84058,30959,8780,-43612,-9656
C00225=-38507,84775,31860,8791,-43807,-9684
C00226=-38400,85495,32768,8801,-44004,-9712
C00227=-38295,86218,33682,8811,-44203,-9739
C00228=-38190,86946,34603,8821,-44404,-9765
C00229=-38905,82155,28620,8742,-43127,-9575
C00230=-38830,82630,29215,8751,-43255,-9596
C00231=-38722,83334,30097,8764,-43445,-9625
C00232=-38594,84184,31164,8778,-43675,-9659
C00233=-38487,84896,32060,8789,-43869,-9687
C00234=-38382,85611,32961,8799,-44065,-9714
C00235=-38277,86330,33870,8809,-44263,-9741
C00236=-38173,87052,34784,8818,-44462,-9767
C00237=-38913,82086,28579,8737,-43137,-9571
C00238=-38806,82778,29445,8750,-43323,-9600
C00239=-38699,83474,30318,8762,-43510,-9628
C00240=-38593,84174,31197,8774,-43700,-9657
C00241=-38488,84879,32084,8785,-43892,-9684
C00242=-38363,85730,33158,8797,-44125,-9717
C00243=-38259,86445,34061,8807,-44322,-9743
C00244=-38156,87164,34971,8816,-44521,-9769
C00245=-38893,82204,28774,8736,-43197,-9574
C00246=-38786,82894,29637,8748,-43383,-9603
C00247=-38680,83587,30507,8760,-43570,-9631
C00248=-38575,84285,31384,8772,-43759,-9659
C00249=-38471,84987,32267,8782,-43951,-9686
C00250=-38367,85693,33158,8792,-44144,-9713
C00251=-38243,86547,34237,8804,-44379,-9744
C00252=-38140,87264,35145,8813,-44577,-9770
C00253=-38874,82312,28957,8734,-43255,-9576
C00254=-38768,82999,29817,8746,-43440,-9605
C00255=-38663,83690,30683,8758,-43626,-9633
C00256=-38559,84385,31557,8769,-43815,-9661
C00257=-38455,85085,32437,8780,-44006,-9688
C00258=-38352,85788,33325,8790,-44199,-9714
C00259=-38249,86497,34220,8799,-44394,-9740
C00260=-38188,86924,34761,8805,-44512,-9756
C00261=-38950,81813,28378,8721,-43149,-9553
C00262=-38841,82515,29256,8734,-43338,-9583
C00263=-38733,83221,30141,8746,-43528,-9612
C00264=-38625,83931,31032,8758,-43720,-9641
C00265=-38518,84646,31931,8769,-43915,-9669
C00266=-38391,85510,33020,8782,-44151,-9702
C00267=-38285,86235,33936,8792,-44350,-9729
C00268=-38180,86965,34859,8801,-44552,-9755
C00269=-38908,82075,28753,8722,-43248,-9562
C00270=-38799,82775,29629,8734,-43436,-9591
C00271=-38671,83620,30689,8749,-43665,-9626
C00272=-38564,84330,31581,8760,-43857,-9654
C00273=-38458,85044,32479,8771,-44052,-9682
C00274=-38352,85762,33385,8782,-44249,-9709
C00275=-38248,86485,34299,8791,-44448,-9736
C00276=-38136,87270,35294,8801,-44666,-9764
C00277=-38846,82464,29287,8725,-43382,-9576
C00278=-38738,83163,30162,8737,-43570,-9605
C00279=-38632,83866,31045,8749,-43760,-9634
C00280=-38526,84574,31934,8760,-43953,-9661
C00281=-38400,85428,33012,8773,-44186,-9694
C00282=-38295,86146,33917,8783,-44383,-9721
C00283=-38191,86868,34831,8792,-44583,-9747
C00284=-38914,82010,28765,8712,-43288,-9555
C00285=-38807,82705,29635,8725,-43475,-9584
C00286=-38679,83544,30687,8740,-43701,-9619
C00287=-38573,84247,31570,8751,-43892,-9647
C00288=-38468,84954,32459,8762,-44084,-9674
C00289=-38364,85664,33355,8772,-44279,-9701
C00290=-38260,86378,34257,8782,-44475,-9727
C00291=-38142,87206,35305,8793,-44704,-9757
C00292=-38852,82398,29298,8716,-43421,-9569
C00293=-38746,83089,30163,8728,-43607,-9598
C00294=-38641,83784,31034,8740,-43795,-9626
C00295=-38537,84481,31911,8751,-43984,-9654
C00296=-38412,85323,32972,8764,-44214,-9686
C00297=-38309,86029,33862,8774,-44408,-9712
C00298=-38207,86738,34759,8783,-44603,-9738
C00299=-38920,81952,28786,8704,-43330,-9548
C00300=-38814,82634,29640,8716,-43513,-9577
C00301=-38689,83457,30672,8730,-43735,-9611
C00302=-38585,84147,31538,8742,-43922,-9638
C00303=-38482,84840,32410,8753,-44111,-9665
C00304=-38380,85536,33288,8763,-44301,-9692
C00305=-38278,86237,34172,8772,-44494,-9718
C00306=-38217,86658,34705,8778,-44610,-9733
C00307=-38939,81819,28666,8697,-43323,-9541
C00308=-38829,82529,29554,8710,-43513,-9571
C00309=-38720,83243,30449,8723,-43705,-9600
C00310=-38611,83961,31349,8735,-43899,-9629
C00311=-38482,84827,32439,8749,-44135,-9663
C00312=-38376,85554,33355,8759,-44334,-9690
C00313=-38270,86284,34278,8769,-44535,-9717
C00314=-38156,87082,35288,8779,-44756,-9746
C00315=-38837,82464,29520,8705,-43524,-9566
C00316=-38729,83173,30408,8718,-43715,-9595
C00317=-38600,84028,31482,8732,-43947,-9629
C00318=-38493,84746,32384,8743,-44142,-9657
C00319=-38387,85467,33292,8754,-44339,-9685
C00320=-38261,86337,34392,8766,-44578,-9717
C00321=-38161,87039,35280,8775,-44772,-9742
C00322=-38845,82405,29493,8700,-43537,-9561
C00323=-38737,83109,30374,8713,-43727,-9590
C00324=-38609,83958,31441,8727,-43956,-9624
C00325=-38503,84670,32336,8738,-44150,-9652
C00326=-38397,85386,33238,8749,-44346,-9680
C00327=-38272,86251,34330,8761,-44583,-9712
C00328=-38168,86976,35247,8770,-44783,-9738
C00329=-38851,82349,29469,8695,-43550,-9557
C00330=-38724,83185,30516,8710,-43775,-9591
C00331=-38618,83886,31395,8722,-43965,-9619
C00332=-38513,84589,32280,8733,-44156,-9647
C00333=-38388,85439,33351,8746,-44388,-9679
C00334=-38285,86152,34251,8756,-44584,-9706
C00335=-38182,86868,35157,8765,-44782,-9732
C00336=-38860,82281,29431,8690,-43561,-9552
C00337=-38733,83110,30470,8705,-43784,-9586
C00338=-38628,83806,31342,8717,-43972,-9614
C00339=-38524,84504,32220,8728,-44162,-9642
C00340=-38400,85348,33283,8741,-44392,-9674
C00341=-38297,86055,34175,8751,-44586,-9700
C00342=-38196,86766,35075,8760,-44782,-9726
C00343=-38847,82355,29571,8688,-43610,-9553
C00344=-38742,83042,30431,8700,-43794,-9581
C00345=-38638,83732,31297,8712,-43981,-9609
C00346=-38514,84565,32344,8725,-44207,-9642
C00347=-38411,85263,33223,8736,-44398,-9668
C00348=-38309,85964,34108,8745,-44590,-9695
C00349=-38248,86387,34643,8751,-44707,-9710
C00350=-38927,81827,28956,8674,-43496,-9528
C00351=-38817,82543,29852,8687,-43688,-9559
C00352=-38707,83263,30753,8700,-43882,-9588
C00353=-38599,83985,31660,8712,-44077,-9617
C00354=-38469,84857,32757,8726,-44315,-9651
C00355=-38362,85588,33679,8736,-44515,-9678
C00356=-38256,86322,34606,8746,-44717,-9705
C00357=-38893,82038,29266,8674,-43581,-9535
C00358=-38784,82747,30155,8687,-43772,-9565
C00359=-38676,83461,31049,8699,-43964,-9594
C00360=-38547,84321,32129,8714,-44197,-9628
C00361=-38441,85041,33036,8725,-44394,-9656
C00362=-38335,85765,33950,8735,-44592,-9683
C00363=-38231,86493,34869,8745,-44793,-9709
C00364=-38861,82233,29558,8674,-43663,-9541
C00365=-38754,82937,30439,8687,-43852,-9571
C00366=-38647,83643,31325,8699,-44043,-9599
C00367=-38520,84495,32397,8712,-44274,-9633
C00368=-38415,85209,33296,8723,-44469,-9660
C00369=-38311,85927,34201,8733,-44666,-9687
C00370=-38191,86764,35260,8744,-44896,-9717
C00371=-38831,82418,29836,8673,-43741,-9547
C00372=-38724,83119,30713,8686,-43929,-9576
C00373=-38618,83823,31597,8698,-44119,-9604
C00374=-38492,84672,32664,8711,-44350,-9637
C00375=-38388,85383,33560,8722,-44545,-9664
C00376=-38285,86097,34463,8732,-44741,-9691
C00377=-38895,81997,29356,8662,-43656,-9527
C00378=-38800,82611,30124,8673,-43821,-9553
C00379=-38695,83306,30995,8685,-44008,-9581
C00380=-38569,84143,32046,8699,-44235,-9615
C00381=-38465,84844,32929,8710,-44426,-9642
C00382=-38363,85549,33817,8720,-44619,-9668
C00383=-38260,86257,34711,8730,-44813,-9694
C00384=-38876,82105,29538,8660,-43714,-9530
C00385=-38771,82790,30395,8672,-43898,-9558
C00386=-38667,83478,31258,8684,-44084,-9586
C00387=-38543,84308,32300,8698,-44309,-9619
C00388=-38441,85002,33175,8708,-44498,-9645
C00389=-38339,85700,34056,8719,-44689,-9672
C00390=-38279,86121,34587,8724,-44805,-9687
C00391=-38916,81837,29248,8651,-43670,-9516
C00392=-38806,82553,30143,8664,-43862,-9546
C00393=-38697,83272,31044,8677,-44055,-9576
C00394=-38588,83994,31951,8689,-44251,-9605
C00395=-38459,84866,33049,8703,-44488,-9638
C00396=-38353,85597,33970,8713,-44688,-9666
C00397=-38247,86332,34899,8723,-44891,-9693
C00398=-38845,82288,29859,8656,-43819,-9533
C00399=-38736,83001,30751,8668,-44011,-9563
C00400=-38628,83717,31650,8681,-44205,-9591
C00401=-38521,84436,32554,8692,-44400,-9620
C00402=-38394,85304,33648,8705,-44637,-9653
C00403=-38289,86032,34567,8715,-44837,-9679
C00404=-38833,82368,30005,8652,-43869,-9533
C00405=-38774,82739,30471,8660,-43970,-9550
C00406=-38667,83448,31360,8672,-44161,-9579
C00407=-38561,84161,32256,8684,-44354,-9607
C00408=-38455,84877,33157,8695,-44549,-9634
C00409=-38329,85742,34248,8708,-44786,-9667
C00410=-38225,86467,35164,8717,-44986,-9693
C00411=-38833,82344,30022,8649,-43891,-9531
C00412=-38706,83183,31073,8664,-44117,-9566
C00413=-38600,83886,31956,8676,-44308,-9594
C00414=-38495,84592,32844,8687,-44500,-9621
C00415=-38392,85302,33739,8698,-44694,-9648
C00416=-38268,86159,34821,8710,-44929,-9680
C00417=-38872,82081,29740,8640,-43850,-9518
C00418=-38766,82774,30607,8653,-44036,-9547
C00419=-38640,83609,31655,8667,-44261,-9581
C00420=-38536,84308,32534,8679,-44451,-9608
C00421=-38433,85012,33420,8689,-44643,-9635
C00422=-38330,85718,34311,8700,-44837,-9661
C00423=-38817,82449,30246,8642,-43976,-9530
C00424=-38804,82514,30329,8644,-43995,-9534
C00425=-38699,83203,31193,8656,-44181,-9562
C00426=-38575,84034,32237,8670,-44406,-9595
C00427=-38472,84731,33113,8681,-44595,-9622
C00428=-38370,85430,33995,8692,-44787,-9648
C00429=-38310,85852,34527,8698,-44902,-9664
C00430=-38904,81849,29542,8628,-43844,-9504
C00431=-38794,82571,30445,8642,-44037,-9535
C00432=-38684,83296,31354,8654,-44233,-9564
C00433=-38575,84024,32268,8666,-44430,-9593
C00434=-38446,84902,33373,8680,-44669,-9627
C00435=-38339,85637,34301,8691,-44871,-9654
C00436=-38235,86366,35222,8701,-45071,-9680
C00437=-38813,82433,30320,8635,-44029,-9527
C00438=-38683,83293,31397,8650,-44261,-9562
C00439=-38576,84012,32301,8662,-44456,-9590
C00440=-38469,84735,33211,8674,-44653,-9618
C00441=-38342,85607,34310,8686,-44891,-9651
C00442=-38242,86310,35199,8696,-45085,-9676
C00443=-38812,82428,30361,8631,-44057,-9524
C00444=-38705,83136,31248,8644,-44248,-9553
C00445=-38578,83989,32320,8658,-44479,-9587
C00446=-38472,84703,33219,8669,-44673,-9615
C00447=-38368,85420,34123,8680,-44870,-9641
C00448=-38244,86287,35216,8692,-45107,-9673
C00449=-38813,82417,30393,8627,-44082,-9522
C00450=-38706,83121,31276,8640,-44272,-9551
C00451=-38600,83829,32164,8652,-44463,-9579
C00452=-38474,84682,33238,8665,-44696,-9612
C00453=-38370,85397,34139,8676,-44891,-9638
C00454=-38267,86114,35044,8686,-45088,-9665
C00455=-38831,82286,30277,8621,-44076,-9514
C00456=-38704,83125,31327,8636,-44302,-9549
C00457=-38599,83827,32208,8648,-44492,-9576
C00458=-38495,84532,33095,8659,-44683,-9604
C00459=-38371,85383,34168,8672,-44916,-9636
C00460=-38268,86095,35068,8682,-45112,-9662
C00461=-38827,82302,30343,8618,-44109,-9513
C00462=-38722,82995,31211,8630,-44295,-9541
C00463=-38597,83830,32260,8644,-44521,-9574
C00464=-38494,84530,33140,8655,-44711,-9601
C00465=-38391,85233,34026,8666,-44904,-9628
C00466=-38330,85656,34560,8672,-45020,-9644
C00467=-38893,81862,29837,8606,-44018,-9492
C00468=-38783,82583,30740,8619,-44212,-9522
C00469=-38674,83308,31649,8632,-44407,-9552
C00470=-38565,84036,32563,8644,-44604,-9580
C00471=-38436,84914,33668,8657,-44844,-9614
C00472=-38330,85649,34596,8668,-45045,-9641
C00473=-38874,81974,30025,8604,-44077,-9495
C00474=-38744,82833,31101,8620,-44308,-9530
C00475=-38636,83553,32004,8632,-44502,-9559
C00476=-38528,84276,32912,8644,-44699,-9587
C00477=-38422,85002,33827,8655,-44897,-9615
C00478=-38296,85878,34932,8667,-45137,-9647
C00479=-38833,82231,30393,8605,-44175,-9504
C00480=-38726,82942,31284,8618,-44366,-9533
C00481=-38598,83799,32360,8632,-44598,-9567
C00482=-38492,84517,33263,8644,-44793,-9594
C00483=-38387,85238,34172,8654,-44990,-9622
C00484=-38270,86050,35196,8666,-45213,-9651
C00485=-38793,82488,30762,8606,-44272,-9512
C00486=-38686,83194,31646,8618,-44462,-9541
C00487=-38581,83903,32536,8630,-44654,-9569
C00488=-38455,84757,33611,8644,-44887,-9601
C00489=-38352,85471,34512,8654,-45082,-9628
C00490=-38874,81949,30133,8592,-44156,-9488
C00491=-38754,82738,31121,8606,-44368,-9520
C00492=-38649,83436,31997,8619,-44556,-9548
C00493=-38545,84137,32878,8630,-44746,-9576
C00494=-38442,84840,33763,8641,-44938,-9602
C00495=-38320,85688,34832,8653,-45170,-9634
C00496=-38842,82146,30426,8592,-44237,-9494
C00497=-38738,82834,31288,8604,-44422,-9522
C00498=-38614,83662,32327,8619,-44646,-9555
C00499=-38512,84355,33199,8630,-44835,-9582
C00500=-38410,85050,34075,8640,-45024,-9608
C00501=-38350,85469,34603,8646,-45139,-9624
C00502=-38882,81877,30135,8583,-44193,-9481
C00503=-38771,82602,31042,8597,-44387,-9510
C00504=-38662,83329,31954,8609,-44584,-9540
C00505=-38554,84060,32872,8621,-44782,-9568
C00506=-38425,84940,33981,8635,-45022,-9602
C00507=-38319,85678,34912,8646,-45224,-9629
C00508=-38824,82248,30646,8586,-44321,-9494
C00509=-38715,82967,31548,8599,-44515,-9523
C00510=-38586,83835,32637,8614,-44750,-9557
C00511=-38479,84561,33551,8625,-44947,-9585
C00512=-38373,85290,34470,8636,-45147,-9613
C00513=-38852,82048,30443,8579,-44296,-9483
C00514=-38744,82761,31336,8592,-44488,-9513
C00515=-38637,83476,32233,8604,-44681,-9541
C00516=-38531,84194,33136,8616,-44876,-9569
C00517=-38405,85060,34227,8629,-45113,-9602
C00518=-38301,85784,35142,8639,-45311,-9628
C00519=-38795,82418,30952,8582,-44424,-9497
C00520=-38668,83263,32012,8597,-44651,-9531
C00521=-38563,83970,32900,8608,-44843,-9558
C00522=-38459,84680,33794,8620,-45037,-9586
C00523=-38356,85393,34693,8630,-45232,-9612
C00524=-38825,82210,30738,8574,-44396,-9486
C00525=-38720,82906,31611,8587,-44584,-9514
C00526=-38615,83605,32489,8599,-44773,-9542
C00527=-38492,84448,33549,8612,-45002,-9575
C00528=-38389,85153,34438,8623,-45195,-9601
C00529=-38800,82381,30996,8573,-44469,-9490
C00530=-38770,82561,31226,8577,-44520,-9498
C00531=-38646,83391,32267,8591,-44744,-9531
C00532=-38543,84086,33140,8603,-44933,-9558
C00533=-38441,84783,34018,8614,-45123,-9585
C00534=-38381,85203,34547,8620,-45238,-9601
C00535=-38870,81894,30435,8561,-44368,-9469
C00536=-38759,82626,31352,8574,-44565,-9499
C00537=-38649,83361,32273,8587,-44763,-9528
C00538=-38540,84097,33199,8599,-44963,-9557
C00539=-38411,84984,34316,8613,-45205,-9590
C00540=-38314,85657,35167,8623,-45390,-9615
C00541=-38770,82544,31296,8569,-44571,-9493
C00542=-38662,83268,32204,8582,-44767,-9522
C00543=-38533,84139,33300,8596,-45004,-9556
C00544=-38427,84868,34218,8607,-45202,-9584
C00545=-38322,85594,35134,8618,-45402,-9610
C00546=-38783,82452,31228,8564,-44576,-9487
C00547=-38654,83309,32303,8579,-44807,-9522
C00548=-38548,84024,33203,8590,-45001,-9550
C00549=-38444,84742,34107,8602,-45197,-9577
C00550=-38323,85579,35162,8614,-45426,-9608
C00551=-38774,82497,31331,8561,-44616,-9487
C00552=-38668,83206,32220,8573,-44807,-9516
C00553=-38563,83917,33113,8585,-45000,-9543
C00554=-38438,84772,34190,8598,-45233,-9576
C00555=-38335,85487,35092,8609,-45429,-9602
C00556=-38786,82411,31270,8555,-44621,-9482
C00557=-38681,83110,32146,8568,-44810,-9510
C00558=-38557,83951,33203,8582,-45038,-9542
C00559=-38454,84654,34088,8593,-45230,-9569
C00560=-38353,85358,34977,8603,-45423,-9595
C00561=-38799,82317,31199,8550,-44625,-9476
C00562=-38675,83144,32236,8564,-44848,-9509
C00563=-38573,83834,33104,8576,-45035,-9536
C00564=-38471,84527,33975,8587,-45224,-9562
C00565=-38411,84943,34500,8593,-45338,-9578
C00566=-38859,81913,30736,8539,-44543,-9457
C00567=-38748,82644,31653,8552,-44740,-9487
C00568=-38639,83378,32574,8565,-44938,-9516
C00569=-38509,84261,33686,8579,-45179,-9550
C00570=-38402,85000,34617,8591,-45381,-9578
C00571=-38809,82229,31181,8541,-44657,-9468
C00572=-38700,82954,32090,8554,-44853,-9497
C00573=-38571,83827,33187,8569,-45089,-9531
C00574=-38465,84557,34106,8580,-45289,-9559
C00575=-38346,85380,35145,8592,-45515,-9589
C00576=-38760,82545,31623,8543,-44771,-9479
C00577=-38653,83264,32525,8555,-44965,-9507
C00578=-38526,84128,33613,8570,-45200,-9541
C00579=-38421,84851,34524,8581,-45398,-9568
C00580=-38819,82148,31170,8532,-44692,-9460
C00581=-38713,82853,32055,8545,-44882,-9489
C00582=-38587,83702,33122,8559,-45112,-9522
C00583=-38483,84412,34016,8570,-45306,-9549
C00584=-38360,85267,35094,8583,-45540,-9581
C00585=-38773,82443,31588,8534,-44800,-9470
C00586=-38669,83142,32465,8546,-44989,-9498
C00587=-38545,83983,33523,8560,-45218,-9531
C00588=-38442,84686,34409,8571,-45410,-9557
C00589=-38831,82047,31139,8522,-44723,-9452
C00590=-38728,82737,32005,8535,-44909,-9480
C00591=-38604,83568,33048,8549,-45134,-9513
C00592=-38503,84262,33922,8560,-45323,-9539
C00593=-38442,84679,34448,8567,-45437,-9555
C00594=-38847,81933,31040,8517,-44719,-9445
C00595=-38736,82674,31968,8530,-44918,-9475
C00596=-38626,83415,32900,8543,-45119,-9505
C00597=-38495,84306,34022,8558,-45362,-9539
C00598=-38388,85050,34960,8569,-45566,-9566
C00599=-38756,82532,31838,8524,-44909,-9467
C00600=-38647,83261,32754,8537,-45106,-9496
C00601=-38519,84137,33856,8551,-45345,-9530
C00602=-38413,84868,34778,8562,-45545,-9557
C00603=-38799,82238,31518,8515,-44859,-9453
C00604=-38670,83099,32598,8530,-45092,-9488
C00605=-38564,83816,33501,8542,-45287,-9516
C00606=-38439,84678,34587,8556,-45523,-9548
C00607=-38820,82086,31373,8508,-44846,-9445
C00608=-38692,82941,32445,8524,-45077,-9479
C00609=-38587,83654,33342,8536,-45271,-9507
C00610=-38462,84512,34423,8549,-45505,-9540
C00611=-38838,81959,31260,8502,-44840,-9438
C00612=-38732,82662,32142,8515,-45030,-9466
C00613=-38607,83508,33205,8530,-45260,-9499
C00614=-38504,84215,34095,8541,-45452,-9526
C00615=-38475,84425,34372,8543,-45517,-9533
C00616=-38750,82535,32029,8509,-45024,-9459
C00617=-38626,83371,33079,8524,-45251,-9492
C00618=-38524,84069,33958,8535,-45441,-9519
C00619=-38463,84488,34487,8542,-45556,-9535
C00620=-38836,81955,31346,8495,-44895,-9434
C00621=-38725,82695,32274,8508,-45094,-9463
C00622=-38615,83436,33205,8521,-45295,-9492
C00623=-38485,84326,34326,8535,-45538,-9526
C00624=-38501,84230,34221,8532,-45521,-9521
C00625=-38708,82803,32457,8507,-45153,-9465
C00626=-38600,83534,33377,8519,-45351,-9494
C00627=-38472,84414,34485,8533,-45592,-9527
C00628=-38820,82046,31554,8489,-44977,-9433
C00629=-38690,82912,32641,8505,-45211,-9468
C00630=-38584,83634,33551,8517,-45408,-9496
C00631=-38457,84503,34645,8531,-45645,-9529
C00632=-38800,82167,31751,8488,-45037,-9436
C00633=-38673,83023,32826,8503,-45269,-9470
C00634=-38568,83735,33723,8515,-45463,-9498
C00635=-38444,84591,34802,8528,-45697,-9530
C00636=-38782,82283,31943,8486,-45097,-9438
C00637=-38657,83123,32999,8501,-45325,-9472
C00638=-38554,83824,33881,8513,-45516,-9499
C00639=-38432,84664,34941,8526,-45746,-9530
C00640=-38765,82384,32117,8484,-45153,-9440
C00641=-38643,83209,33154,8499,-45377,-9473
C00642=-38542,83897,34020,8510,-45565,-9499
C00643=-38482,84309,34540,8517,-45678,-9515
C00644=-38825,81979,31654,8474,-45071,-9422
C00645=-38713,82723,32588,8487,-45272,-9452
C00646=-38604,83468,33524,8500,-45475,-9481
C00647=-38474,84361,34651,8514,-45719,-9515
C00648=-38788,82214,31995,8474,-45163,-9429
C00649=-38657,83095,33102,8490,-45402,-9464
C00650=-38550,83829,34028,8502,-45603,-9492
C00651=-38426,84682,35104,8515,-45837,-9524
C00652=-38731,82592,32517,8477,-45294,-9442
C00653=-38602,83461,33611,8492,-45531,-9476
C00654=-38497,84186,34525,8504,-45729,-9504
C00655=-38781,82247,32129,8467,-45228,-9426
C00656=-38675,82957,33021,8480,-45421,-9454
C00657=-38550,83808,34093,8494,-45653,-9487
C00658=-38448,84517,34988,8505,-45848,-9514
C00659=-38727,82600,32619,8470,-45353,-9438
C00660=-38624,83299,33499,8482,-45543,-9466
C00661=-38502,84138,34557,8495,-45773,-9497
C00662=-38798,82119,32062,8458,-45252,-9417
C00663=-38674,82946,33103,8472,-45476,-9450
C00664=-38573,83635,33971,8484,-45665,-9476
C00665=-38513,84049,34493,8490,-45778,-9492
C00666=-38813,82005,31963,8452,-45247,-9410
C00667=-38701,82761,32913,8466,-45453,-9440
C00668=-38590,83514,33862,8478,-45658,-9470
C00669=-38459,84415,35000,8492,-45906,-9503
C00670=-38734,82526,32665,8458,-45418,-9429
C00671=-38604,83411,33780,8473,-45659,-9463
C00672=-38497,84146,34708,8484,-45861,-9491
C00673=-38747,82432,32595,8452,-45422,-9423
C00674=-38640,83154,33504,8465,-45619,-9451
C00675=-38515,84016,34593,8479,-45855,-9484
C00676=-38782,82191,32338,8444,-45384,-9411
C00677=-38655,83050,33418,8459,-45618,-9445
C00678=-38551,83762,34316,8471,-45813,-9472
C00679=-38782,82186,32377,8441,-45411,-9409
C00680=-38689,82810,33164,8452,-45581,-9434
C00681=-38566,83647,34219,8465,-45810,-9466
C00682=-38466,84341,35096,8476,-46001,-9492
C00683=-38703,82706,33080,8446,-45582,-9427
C00684=-38603,83389,33940,8458,-45768,-9454
C00685=-38543,83797,34455,8464,-45880,-9469
C00686=-38802,82033,32275,8431,-45424,-9399
C00687=-38690,82788,33225,8444,-45630,-9429
C00688=-38580,83540,34174,8457,-45836,-9458
C00689=-38765,82276,32624,8431,-45517,-9406
C00690=-38686,82806,33296,8441,-45664,-9427
C00691=-38556,83693,34416,8455,-45908,-9461
C00692=-38762,82291,32692,8428,-45551,-9405
C00693=-38660,82973,33554,8440,-45739,-9431
C00694=-38554,83699,34471,8452,-45939,-9459
C00695=-38762,82278,32723,8424,-45577,-9402
C00696=-38656,82993,33625,8437,-45772,-9430
C00697=-38533,83842,34698,8450,-46006,-9462
C00698=-38754,82325,32830,8421,-45618,-9402
C00699=-38630,83163,33887,8436,-45848,-9434
C00700=-38530,83855,34761,8447,-46038,-9461
C00701=-38723,82527,33132,8421,-45702,-9408
C00702=-38623,83210,33993,8433,-45890,-9434
C00703=-38563,83616,34507,8439,-46001,-9449
C00704=-38791,82063,32589,8410,-45602,-9387
C00705=-38674,82851,33584,8423,-45818,-9418
C00706=-38539,83779,34759,8438,-46074,-9453
C00707=-38721,82525,33220,8414,-45757,-9403
C00708=-38589,83429,34363,8429,-46007,-9438
C00709=-38765,82219,32881,8405,-45703,-9389
C00710=-38635,83100,33995,8420,-45945,-9423
C00711=-38510,83964,35087,8434,-46183,-9456
C00712=-38288,81932,32853,8559,-45882,-9580
C00713=-37745,81629,32825,8737,-46077,-9798
C00714=-37539,79811,30856,8849,-45827,-9911
C00715=-37045,79614,30947,9005,-46035,-10106
C00716=-36842,78186,29454,9103,-45874,-10208
C00717=-36305,78066,29631,9271,-46100,-10419
C00718=-36035,78020,29735,9354,-46216,-10524
C00719=-35893,77114,28768,9420,-46105,-10595
C00720=-35301,76783,28667,9616,-46276,-10834
C00721=-34570,76258,28386,9861,-46453,-11133
C00722=-33987,74580,26697,10096,-46344,-11397
C00723=-33291,73159,25340,10363,-46319,-11704
C00724=-32829,71335,23487,10562,-46170,-11922
C00725=-32393,69409,21525,10757,-46002,-12131
C00726=-32605,69267,21375,10687,-45956,-12044
C00727=-32872,69192,21307,10594,-45921,-11932
C00728=-33012,69682,21909,10524,-46021,-11860
C00729=-33157,70403,22786,10443,-46170,-11779
C00730=-33112,71033,23556,10433,-46324,-11782
C00731=-33056,71420,24029,10437,-46420,-11795
EC00000=-18031,23112496
EC00001=-18031,23112496
EC00002=-19642,23112496
EC00003=-22327,23112496
EC00004=-25011,23112496
EC00005=-27696,23112496
EC00006=-30918,23112496
EC00007=-33603,23112496
EC00008=-36288,23112496
EC00009=-38972,23112496
EC00010=-42194,23112496
EC00011=-44879,23195099
EC00012=-47564,23195099
EC00013=-50249,23195099
EC00014=-53470,23195099
EC00015=-56155,23195099
EC00016=-58840,23195099
EC00017=-61525,23195099
EC00018=-64747,23195099
EC00019=-67431,23195099
EC00020=-70116,23277701
EC00021=-72801,23277701
EC00022=-75486,23277701
EC00023=-78708,23277701
EC00024=-81393,23277701
EC00025=-84077,23277701
EC00026=-86762,23277701
EC00027=-89984,23277701
EC00028=-92669,23277701
EC00029=-93743,23360256
EC00030=-93743,23360304
EC00031=-93743,23360304
EC00032=-93743,23360304
EC00033=-93743,23360304
EC00034=-93743,23360304
EC00035=-93743,23360304
EC00036=-93743,23360304
EC00037=-93743,23360304
EC00038=-93743,23428853
EC00039=-93743,23442907
EC00040=-93743,23442907
EC00041=-93743,23442907
EC00042=-93743,23442907
EC00043=-93743,23442907
EC00044=-93743,23442907
EC00045=-93743,23442907
EC00046=-93743,23442907
EC00047=-93743,23442907
EC00048=-93743,23525510
EC00049=-93743,23525510
EC00050=-93743,23525510
EC00051=-93743,23525510
EC00052=-93743,23525510
EC00053=-93743,23525510
EC00054=-93743,23525510
EC00055=-93743,23525510
EC00056=-93743,23525510
EC00057=-93743,23608112
EC00058=-93743,23608112
EC00059=-93743,23608112
EC00060=-93743,23608112
EC00061=-93743,23608112
EC00062=-93743,23608112
EC00063=-93743,23608112
EC00064=-93743,23608112
EC00065=-93743,23608112
EC00066=-93743,23608513
EC00067=-93743,23690715
EC00068=-93743,23690715
EC00069=-93743,23690715
EC00070=-93743,23690715
EC00071=-93743,23690715
EC00072=-93743,23690715
EC00073=-93743,23690715
EC00074=-93743,23690715
EC00075=-93743,23773318
EC00076=-93743,23773318
EC00077=-93743,23773318
EC00078=-93743,23773318
EC00079=-93743,23773318
EC00080=-93743,23773318
EC00081=-93743,23773318
EC00082=-93743,23773318
EC00083=-93743,23773318
EC00084=-93743,23855920
EC00085=-93743,23855920
EC00086=-93743,23855920
EC00087=-93743,23855920
EC00088=-93743,23855920
EC00089=-93743,23855920
EC00090=-93743,23855920
EC00091=-93743,23855920
EC00092=-93743,23855920
EC00093=-93743,23938523
EC00094=-93743,23938523
EC00095=-93743,23938523
EC00096=-93743,23938523
EC00097=-93743,23938523
EC00098=-93743,23938523
EC00099=-93743,23938523
EC00100=-93743,23938523
EC00101=-93743,23938523
EC00102=-93743,24021126
EC00103=-93743,24021126
EC00104=-93743,24021126
EC00105=-93743,24021126
EC00106=-93743,24021126
EC00107=-93743,24021126
EC00108=-93743,24021126
EC00109=-93743,24021126
EC00110=-93743,24021126
EC00111=-93743,24103728
EC00112=-93743,24103728
EC00113=-93743,24103728
EC00114=-93743,24103728
EC00115=-93743,24103728
EC00116=-93743,24103728
EC00117=-93743,24103728
EC00118=-93743,24103728
EC00119=-93743,24103728
EC00120=-93743,24186331
EC00121=-93743,24186331
EC00122=-93743,24186331
EC00123=-93743,24186331
EC00124=-93743,24186331
EC00125=-93743,24186331
EC00126=-93743,24186331
EC00127=-93743,24186331
EC00128=-93743,24186331
EC00129=-93743,24268934
EC00130=-93743,24268934
EC00131=-93743,24268934
EC00132=-93743,24268934
EC00133=-93743,24268934
EC00134=-93743,24268934
EC00135=-93743,24268934
EC00136=-93743,24268934
EC00137=-93743,24351489
EC00138=-93743,24351536
EC00139=-93743,24351536
EC00140=-93743,24351536
EC00141=-93743,24351536
EC00142=-93743,24351536
EC00143=-93743,24351536
EC00144=-93743,24351536
EC00145=-93743,24351536
EC00146=-93743,24434139
EC00147=-93743,24434139
EC00148=-93743,24434139
EC00149=-93743,24434139
EC00150=-93743,24434139
EC00151=-93743,24434139
EC00152=-93743,24434139
EC00153=-93743,24434139
EC00154=-93743,24505222
EC00155=-93743,24516742
EC00156=-93743,24516742
EC00157=-93743,24516742
EC00158=-93743,24516742
EC00159=-93743,24516742
EC00160=-93743,24516742
EC00161=-93743,24516742
EC00162=-93743,24516742
EC00163=-93743,24599344
EC00164=-93743,24599344
EC00165=-93743,24599344
EC00166=-93743,24599344
EC00167=-93743,24599344
EC00168=-93743,24599344
EC00169=-93743,24599344
EC00170=-93743,24599344
EC00171=-93743,24599344
EC00172=-93743,24681947
EC00173=-93743,24681947
EC00174=-93743,24681947
EC00175=-93743,24681947
EC00176=-93743,24681947
EC00177=-93743,24681947
EC00178=-93743,24681947
EC00179=-93743,24681947
EC00180=-93743,24764550
EC00181=-93743,24764550
EC00182=-93743,24764550
EC00183=-93743,24764550
EC00184=-93743,24764550
EC00185=-93743,24764550
EC00186=-93743,24764550
EC00187=-93743,24764550
EC00188=-93743,24847152
EC00189=-93743,24847152
EC00190=-93743,24847152
EC00191=-93743,24847152
EC00192=-93743,24847152
EC00193=-93743,24847152
EC00194=-93743,24847152
EC00195=-93743,24847152
EC00196=-93743,24861461
EC00197=-93743,24929755
EC00198=-93743,24929755
EC00199=-93743,24929755
EC00200=-93743,24929755
EC00201=-93743,24929755
EC00202=-93743,24929755
EC00203=-93743,24929755
EC00204=-93743,24938461
EC00205=-93743,25012358
EC00206=-93743,25012358
EC00207=-93743,25012358
EC00208=-93743,25012358
EC00209=-93743,25012358
EC00210=-93743,25012358
EC00211=-93743,25012358
EC00212=-93743,25012358
EC00213=-93743,25094960
EC00214=-93743,25094960
EC00215=-93743,25094960
EC00216=-93743,25094960
EC00217=-93743,25094960
EC00218=-93743,25094960
EC00219=-93743,25094960
EC00220=-93743,25094960
EC00221=-93743,25104637
EC00222=-93743,25177563
EC00223=-93743,25177563
EC00224=-93743,25177563
EC00225=-93743,25177563
EC00226=-93743,25177563
EC00227=-93743,25177563
EC00228=-93743,25177563
EC00229=-93743,25257062
EC00230=-93743,25260166
EC00231=-93743,25260166
EC00232=-93743,25260166
EC00233=-93743,25260166
EC00234=-93743,25260166
EC00235=-93743,25260166
EC00236=-93743,25260166
EC00237=-93743,25342768
EC00238=-93743,25342768
EC00239=-93743,25342768
EC00240=-93743,25342768
EC00241=-93743,25342768
EC00242=-93743,25342768
EC00243=-93743,25342768
EC00244=-93743,25342768
EC00245=-93743,25425371
EC00246=-93743,25425371
EC00247=-93743,25425371
EC00248=-93743,25425371
EC00249=-93743,25425371
EC00250=-93743,25425371
EC00251=-93743,25425371
EC00252=-93743,25425371
EC00253=-93743,25507974
EC00254=-93743,25507974
EC00255=-93743,25507974
EC00256=-93743,25507974
EC00257=-93743,25507974
EC00258=-93743,25507974
EC00259=-93743,25507974
EC00260=-93743,25507974
EC00261=-93743,25590576
EC00262=-93743,25590576
EC00263=-93743,25590576
EC00264=-93743,25590576
EC00265=-93743,25590576
EC00266=-93743,25590576
EC00267=-93743,25590576
EC00268=-93743,25590576
EC00269=-93743,25673179
EC00270=-93743,25673179
EC00271=-93743,25673179
EC00272=-93743,25673179
EC00273=-93743,25673179
EC00274=-93743,25673179
EC00275=-93743,25673179
EC00276=-93743,25673412
EC00277=-93743,25755782
EC00278=-93743,25755782
EC00279=-93743,25755782
EC00280=-93743,25755782
EC00281=-93743,25755782
EC00282=-93743,25755782
EC00283=-93743,25755782
EC00284=-93743,25838384
EC00285=-93743,25838384
EC00286=-93743,25838384
EC00287=-93743,25838384
EC00288=-93743,25838384
EC00289=-93743,25838384
EC00290=-93743,25838384
EC00291=-93743,25838384
EC00292=-93743,25920987
EC00293=-93743,25920987
EC00294=-93743,25920987
EC00295=-93743,25920987
EC00296=-93743,25920987
EC00297=-93743,25920987
EC00298=-93743,25920987
EC00299=-93743,26003590
EC00300=-93743,26003590
EC00301=-93743,26003590
EC00302=-93743,26003590
EC00303=-93743,26003590
EC00304=-93743,26003590
EC00305=-93743,26003590
EC00306=-93743,26003590
EC00307=-93743,26086192
EC00308=-93743,26086192
EC00309=-93743,26086192
EC00310=-93743,26086192
EC00311=-93743,26086192
EC00312=-93743,26086192
EC00313=-93743,26086192
EC00314=-93743,26086192
EC00315=-93743,26168795
EC00316=-93743,26168795
EC00317=-93743,26168795
EC00318=-93743,26168795
EC00319=-93743,26168795
EC00320=-93743,26168795
EC00321=-93743,26168795
EC00322=-93743,26251398
EC00323=-93743,26251398
EC00324=-93743,26251398
EC00325=-93743,26251398
EC00326=-93743,26251398
EC00327=-93743,26251398
EC00328=-93743,26251398
EC00329=-93743,26334000
EC00330=-93743,26334000
EC00331=-93743,26334000
EC00332=-93743,26334000
EC00333=-93743,26334000
EC00334=-93743,26334000
EC00335=-93743,26334000
EC00336=-93743,26416603
EC00337=-93743,26416603
EC00338=-93743,26416603
EC00339=-93743,26416603
EC00340=-93743,26416603
EC00341=-93743,26416603
EC00342=-93743,26416603
EC00343=-93743,26499206
EC00344=-93743,26499206
EC00345=-93743,26499206
EC00346=-93743,26499206
EC00347=-93743,26499206
EC00348=-93743,26499206
EC00349=-93743,26499206
EC00350=-93743,26581808
EC00351=-93743,26581808
EC00352=-93743,26581808
EC00353=-93743,26581808
EC00354=-93743,26581808
EC00355=-93743,26581808
EC00356=-93743,26581808
EC00357=-93743,26664411
EC00358=-93743,26664411
EC00359=-93743,26664411
EC00360=-93743,26664411
EC00361=-93743,26664411
EC00362=-93743,26664411
EC00363=-93743,26664411
EC00364=-93743,26747014
EC00365=-93743,26747014
EC00366=-93743,26747014
EC00367=-93743,26747014
EC00368=-93743,26747014
EC00369=-93743,26747014
EC00370=-93743,26747014
EC00371=-93743,26829616
EC00372=-93743,26829616
EC00373=-93743,26829616
EC00374=-93743,26829616
EC00375=-93743,26829616
EC00376=-93743,26829616
EC00377=-93743,26910859
EC00378=-93743,26912219
EC00379=-93743,26912219
EC00380=-93743,26912219
EC00381=-93743,26912219
EC00382=-93743,26912219
EC00383=-93743,26912219
EC00384=-93743,26994822
EC00385=-93743,26994822
EC00386=-93743,26994822
EC00387=-93743,26994822
EC00388=-93743,26994822
EC00389=-93743,26994822
EC00390=-93743,26994822
EC00391=-93743,27077424
EC00392=-93743,27077424
EC00393=-93743,27077424
EC00394=-93743,27077424
EC00395=-93743,27077424
EC00396=-93743,27077424
EC00397=-93743,27077424
EC00398=-93743,27160027
EC00399=-93743,27160027
EC00400=-93743,27160027
EC00401=-93743,27160027
EC00402=-93743,27160027
EC00403=-93743,27160027
EC00404=-93743,27234700
EC00405=-93743,27242630
EC00406=-93743,27242630
EC00407=-93743,27242630
EC00408=-93743,27242630
EC00409=-93743,27242630
EC00410=-93743,27242630
EC00411=-93743,27325232
EC00412=-93743,27325232
EC00413=-93743,27325232
EC00414=-93743,27325232
EC00415=-93743,27325232
EC00416=-93743,27325232
EC00417=-93743,27407835
EC00418=-93743,27407835
EC00419=-93743,27407835
EC00420=-93743,27407835
EC00421=-93743,27407835
EC00422=-93743,27407835
EC00423=-93743,27479204
EC00424=-93743,27490438
EC00425=-93743,27490438
EC00426=-93743,27490438
EC00427=-93743,27490438
EC00428=-93743,27490438
EC00429=-93743,27490438
EC00430=-93743,27573040
EC00431=-93743,27573040
EC00432=-93743,27573040
EC00433=-93743,27573040
EC00434=-93743,27573040
EC00435=-93743,27573040
EC00436=-93743,27573040
EC00437=-93743,27655643
EC00438=-93743,27655643
EC00439=-93743,27655643
EC00440=-93743,27655643
EC00441=-93743,27655643
EC00442=-93743,27655933
EC00443=-93743,27738246
EC00444=-93743,27738246
EC00445=-93743,27738246
EC00446=-93743,27738246
EC00447=-93743,27738246
EC00448=-93743,27738246
EC00449=-93743,27820848
EC00450=-93743,27820848
EC00451=-93743,27820848
EC00452=-93743,27820848
EC00453=-93743,27820848
EC00454=-93743,27820848
EC00455=-93743,27903451
EC00456=-93743,27903451
EC00457=-93743,27903451
EC00458=-93743,27903451
EC00459=-93743,27903451
EC00460=-93743,27903451
EC00461=-93743,27986054
EC00462=-93743,27986054
EC00463=-93743,27986054
EC00464=-93743,27986054
EC00465=-93743,27986054
EC00466=-93743,27986054
EC00467=-93743,28068657
EC00468=-93743,28068657
EC00469=-93743,28068657
EC00470=-93743,28068657
EC00471=-93743,28068657
EC00472=-93743,28068657
EC00473=-93743,28151259
EC00474=-93743,28151259
EC00475=-93743,28151259
EC00476=-93743,28151259
EC00477=-93743,28151259
EC00478=-93743,28151259
EC00479=-93743,28233862
EC00480=-93743,28233862
EC00481=-93743,28233862
EC00482=-93743,28233862
EC00483=-93743,28233862
EC00484=-93743,28233862
EC00485=-93743,28316465
EC00486=-93743,28316465
EC00487=-93743,28316465
EC00488=-93743,28316465
EC00489=-93743,28316465
EC00490=-93743,28398119
EC00491=-93743,28399067
EC00492=-93743,28399067
EC00493=-93743,28399067
EC00494=-93743,28399067
EC00495=-93743,28399067
EC00496=-93743,28481670
EC00497=-93743,28481670
EC00498=-93743,28481670
EC00499=-93743,28481670
EC00500=-93743,28481670
EC00501=-93743,28481670
EC00502=-93743,28564273
EC00503=-93743,28564273
EC00504=-93743,28564273
EC00505=-93743,28564273
EC00506=-93743,28564273
EC00507=-93743,28564273
EC00508=-93743,28646875
EC00509=-93743,28646875
EC00510=-93743,28646875
EC00511=-93743,28646875
EC00512=-93743,28646875
EC00513=-93743,28729478
EC00514=-93743,28729478
EC00515=-93743,28729478
EC00516=-93743,28729478
EC00517=-93743,28729478
EC00518=-93743,28729478
EC00519=-93743,28812081
EC00520=-93743,28812081
EC00521=-93743,28812081
EC00522=-93743,28812081
EC00523=-93743,28812081
EC00524=-93743,28894683
EC00525=-93743,28894683
EC00526=-93743,28894683
EC00527=-93743,28894683
EC00528=-93743,28894683
EC00529=-93743,28966276
EC00530=-93743,28977286
EC00531=-93743,28977286
EC00532=-93743,28977286
EC00533=-93743,28977286
EC00534=-93743,28977286
EC00535=-93743,29059889
EC00536=-93743,29059889
EC00537=-93743,29059889
EC00538=-93743,29059889
EC00539=-93743,29059889
EC00540=-93743,29059889
EC00541=-93743,29142491
EC00542=-93743,29142491
EC00543=-93743,29142491
EC00544=-93743,29142491
EC00545=-93743,29142491
EC00546=-93743,29225094
EC00547=-93743,29225094
EC00548=-93743,29225094
EC00549=-93743,29225094
EC00550=-93743,29225094
EC00551=-93743,29307697
EC00552=-93743,29307697
EC00553=-93743,29307697
EC00554=-93743,29307697
EC00555=-93743,29307697
EC00556=-93743,29390299
EC00557=-93743,29390299
EC00558=-93743,29390299
EC00559=-93743,29390299
EC00560=-93743,29390299
EC00561=-93743,29472902
EC00562=-93743,29472902
EC00563=-93743,29472902
EC00564=-93743,29472902
EC00565=-93743,29472902
EC00566=-93743,29555505
EC00567=-93743,29555505
EC00568=-93743,29555505
EC00569=-93743,29555505
EC00570=-93743,29555505
EC00571=-93743,29638107
EC00572=-93743,29638107
EC00573=-93743,29638107
EC00574=-93743,29638107
EC00575=-93743,29638107
EC00576=-93743,29720710
EC00577=-93743,29720710
EC00578=-93743,29720710
EC00579=-93743,29720710
EC00580=-93743,29803313
EC00581=-93743,29803313
EC00582=-93743,29803313
EC00583=-93743,29803313
EC00584=-93743,29803313
EC00585=-93743,29885915
EC00586=-93743,29885915
EC00587=-93743,29885915
EC00588=-93743,29885915
EC00589=-93743,29968518
EC00590=-93743,29968518
EC00591=-93743,29968518
EC00592=-93743,29968518
EC00593=-93743,29968518
EC00594=-93743,30051121
EC00595=-93743,30051121
EC00596=-93743,30051121
EC00597=-93743,30051121
EC00598=-93743,30051121
EC00599=-93743,30133723
EC00600=-93743,30133723
EC00601=-93743,30133723
EC00602=-93743,30133723
EC00603=-93743,30216326
EC00604=-93743,30216326
EC00605=-93743,30216326
EC00606=-93743,30216326
EC00607=-93743,30298929
EC00608=-93743,30298929
EC00609=-93743,30298929
EC00610=-93743,30298929
EC00611=-93743,30381531
EC00612=-93743,30381531
EC00613=-93743,30381531
EC00614=-93743,30381531
EC00615=-93743,30398788
EC00616=-93743,30464134
EC00617=-93743,30464134
EC00618=-93743,30464134
EC00619=-93743,30464134
EC00620=-93743,30546737
EC00621=-93743,30546737
EC00622=-93743,30546737
EC00623=-93743,30546737
EC00624=-93743,30565679
EC00625=-93743,30629339
EC00626=-93743,30629339
EC00627=-93743,30629339
EC00628=-93743,30711942
EC00629=-93743,30711942
EC00630=-93743,30711942
EC00631=-93743,30711942
EC00632=-93743,30794545
EC00633=-93743,30794545
EC00634=-93743,30794545
EC00635=-93743,30794545
EC00636=-93743,30877147
EC00637=-93743,30877147
EC00638=-93743,30877147
EC00639=-93743,30877147
EC00640=-93743,30959750
EC00641=-93743,30959750
EC00642=-93743,30959750
EC00643=-93743,30959750
EC00644=-93743,31042353
EC00645=-93743,31042353
EC00646=-93743,31042353
EC00647=-93743,31042353
EC00648=-93743,31124955
EC00649=-93743,31124955
EC00650=-93743,31124955
EC00651=-93743,31124955
EC00652=-93743,31207558
EC00653=-93743,31207558
EC00654=-93743,31207558
EC00655=-93743,31290161
EC00656=-93743,31290161
EC00657=-93743,31290161
EC00658=-93743,31290161
EC00659=-93743,31372763
EC00660=-93743,31372763
EC00661=-93743,31372763
EC00662=-93743,31455366
EC00663=-93743,31455366
EC00664=-93743,31455366
EC00665=-93743,31455366
EC00666=-93743,31537969
EC00667=-93743,31537969
EC00668=-93743,31537969
EC00669=-93743,31537969
EC00670=-93743,31620571
EC00671=-93743,31620571
EC00672=-93743,31620571
EC00673=-93743,31703174
EC00674=-93743,31703174
EC00675=-93743,31703174
EC00676=-93743,31785777
EC00677=-93743,31785777
EC00678=-93743,31785777
EC00679=-93743,31865477
EC00680=-93743,31868379
EC00681=-93743,31868379
EC00682=-93743,31868379
EC00683=-93743,31950982
EC00684=-93743,31950982
EC00685=-93743,31950982
EC00686=-93743,32033585
EC00687=-93743,32033585
EC00688=-93743,32033585
EC00689=-93743,32109161
EC00690=-93743,32116187
EC00691=-93743,32116187
EC00692=-93743,32192232
EC00693=-93743,32198790
EC00694=-93743,32198790
EC00695=-93743,32281393
EC00696=-93743,32281393
EC00697=-93743,32281393
EC00698=-93743,32363996
EC00699=-93743,32363996
EC00700=-93743,32363996
EC00701=-93743,32446598
EC00702=-93743,32446598
EC00703=-93743,32446598
EC00704=-93743,32529201
EC00705=-93743,32529201
EC00706=-93743,32529201
EC00707=-93743,32611804
EC00708=-93743,32611804
EC00709=-93743,32694406
EC00710=-93743,32694406
EC00711=-93743,32694406
EC00712=-89651,32787599
EC00713=-84741,32800307
EC00714=-80650,32876556
EC00715=-75740,32882910
EC00716=-71648,32942214
EC00717=-66738,32942214
EC00718=-64284,32942214
EC00719=-61829,32735708
EC00720=-57269,32765208
EC00721=-51798,32800610
EC00722=-46327,32857251
EC00723=-40856,32885572
EC00724=-35385,32920974
EC00725=-29914,32942214
EC00726=-29914,32942214
EC00727=-29914,32942214
EC00728=-29914,32942214
EC00729=-29914,32942214
EC00730=-29914,32942214
EC00731=-29914,32942214
//INST
///DATE 2023/08/24 17:12
///ATTR SC,RW
///GROUP1 RB1
///GROUP2 ST1
NOP
MOVJ C00000 VJ=1.0 +MOVJ EC00000 VJ=10.0
MOVL C00001 V=64.6 +MOVJ EC00001 VJ=100.0
MOVL C00002 V=5.0 +MOVJ EC00002 VJ=100.0
MOVL C00003 V=5.0 +MOVJ EC00003 VJ=100.0
MOVL C00004 V=5.0 +MOVJ EC00004 VJ=100.0
MOVL C00005 V=5.0 +MOVJ EC00005 VJ=100.0
MOVL C00006 V=5.0 +MOVJ EC00006 VJ=100.0
MOVL C00007 V=5.0 +MOVJ EC00007 VJ=100.0
MOVL C00008 V=5.0 +MOVJ EC00008 VJ=100.0
MOVL C00009 V=5.0 +MOVJ EC00009 VJ=100.0
MOVL C00010 V=5.0 +MOVJ EC00010 VJ=100.0
MOVL C00011 V=59.6 +MOVJ EC00011 VJ=100.0
MOVL C00012 V=5.0 +MOVJ EC00012 VJ=100.0
MOVL C00013 V=5.0 +MOVJ EC00013 VJ=100.0
MOVL C00014 V=5.0 +MOVJ EC00014 VJ=100.0
MOVL C00015 V=5.0 +MOVJ EC00015 VJ=100.0
MOVL C00016 V=5.0 +MOVJ EC00016 VJ=100.0
MOVL C00017 V=5.0 +MOVJ EC00017 VJ=100.0
MOVL C00018 V=5.0 +MOVJ EC00018 VJ=100.0
MOVL C00019 V=5.0 +MOVJ EC00019 VJ=100.0
MOVL C00020 V=59.5 +MOVJ EC00020 VJ=100.0
MOVL C00021 V=5.0 +MOVJ EC00021 VJ=100.0
MOVL C00022 V=5.0 +MOVJ EC00022 VJ=100.0
MOVL C00023 V=5.0 +MOVJ EC00023 VJ=100.0
MOVL C00024 V=5.0 +MOVJ EC00024 VJ=100.0
MOVL C00025 V=5.0 +MOVJ EC00025 VJ=100.0
MOVL C00026 V=5.0 +MOVJ EC00026 VJ=100.0
MOVL C00027 V=5.0 +MOVJ EC00027 VJ=100.0
MOVL C00028 V=5.0 +MOVJ EC00028 VJ=100.0
MOVL C00029 V=59.1 +MOVJ EC00029 VJ=100.0
MOVL C00030 V=5.0 +MOVJ EC00030 VJ=100.0
MOVL C00031 V=5.0 +MOVJ EC00031 VJ=100.0
MOVL C00032 V=5.0 +MOVJ EC00032 VJ=100.0
MOVL C00033 V=5.0 +MOVJ EC00033 VJ=100.0
MOVL C00034 V=5.0 +MOVJ EC00034 VJ=100.0
MOVL C00035 V=5.0 +MOVJ EC00035 VJ=100.0
MOVL C00036 V=5.0 +MOVJ EC00036 VJ=100.0
MOVL C00037 V=5.0 +MOVJ EC00037 VJ=100.0
MOVL C00038 V=58.2 +MOVJ EC00038 VJ=100.0
MOVL C00039 V=5.0 +MOVJ EC00039 VJ=100.0
MOVL C00040 V=5.0 +MOVJ EC00040 VJ=100.0
MOVL C00041 V=5.0 +MOVJ EC00041 VJ=100.0
MOVL C00042 V=5.0 +MOVJ EC00042 VJ=100.0
MOVL C00043 V=5.0 +MOVJ EC00043 VJ=100.0
MOVL C00044 V=5.0 +MOVJ EC00044 VJ=100.0
MOVL C00045 V=5.0 +MOVJ EC00045 VJ=100.0
MOVL C00046 V=5.0 +MOVJ EC00046 VJ=100.0
MOVL C00047 V=5.0 +MOVJ EC00047 VJ=100.0
MOVL C00048 V=47.2 +MOVJ EC00048 VJ=100.0
MOVL C00049 V=5.0 +MOVJ EC00049 VJ=100.0
MOVL C00050 V=5.0 +MOVJ EC00050 VJ=100.0
MOVL C00051 V=5.0 +MOVJ EC00051 VJ=100.0
MOVL C00052 V=5.0 +MOVJ EC00052 VJ=100.0
MOVL C00053 V=5.0 +MOVJ EC00053 VJ=100.0
MOVL C00054 V=5.0 +MOVJ EC00054 VJ=100.0
MOVL C00055 V=5.0 +MOVJ EC00055 VJ=100.0
MOVL C00056 V=5.0 +MOVJ EC00056 VJ=100.0
MOVL C00057 V=62.5 +MOVJ EC00057 VJ=100.0
MOVL C00058 V=5.0 +MOVJ EC00058 VJ=100.0
MOVL C00059 V=5.0 +MOVJ EC00059 VJ=100.0
MOVL C00060 V=5.0 +MOVJ EC00060 VJ=100.0
MOVL C00061 V=5.0 +MOVJ EC00061 VJ=100.0
MOVL C00062 V=5.0 +MOVJ EC00062 VJ=100.0
MOVL C00063 V=5.0 +MOVJ EC00063 VJ=100.0
MOVL C00064 V=5.0 +MOVJ EC00064 VJ=100.0
MOVL C00065 V=5.0 +MOVJ EC00065 VJ=100.0
MOVL C00066 V=5.0 +MOVJ EC00066 VJ=100.0
MOVL C00067 V=42.9 +MOVJ EC00067 VJ=100.0
MOVL C00068 V=5.0 +MOVJ EC00068 VJ=100.0
MOVL C00069 V=5.0 +MOVJ EC00069 VJ=100.0
MOVL C00070 V=5.0 +MOVJ EC00070 VJ=100.0
MOVL C00071 V=5.0 +MOVJ EC00071 VJ=100.0
MOVL C00072 V=5.0 +MOVJ EC00072 VJ=100.0
MOVL C00073 V=5.0 +MOVJ EC00073 VJ=100.0
MOVL C00074 V=5.0 +MOVJ EC00074 VJ=100.0
MOVL C00075 V=56.1 +MOVJ EC00075 VJ=100.0
MOVL C00076 V=5.0 +MOVJ EC00076 VJ=100.0
MOVL C00077 V=5.0 +MOVJ EC00077 VJ=100.0
MOVL C00078 V=5.0 +MOVJ EC00078 VJ=100.0
MOVL C00079 V=5.0 +MOVJ EC00079 VJ=100.0
MOVL C00080 V=5.0 +MOVJ EC00080 VJ=100.0
MOVL C00081 V=5.0 +MOVJ EC00081 VJ=100.0
MOVL C00082 V=5.0 +MOVJ EC00082 VJ=100.0
MOVL C00083 V=5.0 +MOVJ EC00083 VJ=100.0
MOVL C00084 V=57.5 +MOVJ EC00084 VJ=100.0
MOVL C00085 V=5.0 +MOVJ EC00085 VJ=100.0
MOVL C00086 V=5.0 +MOVJ EC00086 VJ=100.0
MOVL C00087 V=5.0 +MOVJ EC00087 VJ=100.0
MOVL C00088 V=5.0 +MOVJ EC00088 VJ=100.0
MOVL C00089 V=5.0 +MOVJ EC00089 VJ=100.0
MOVL C00090 V=5.0 +MOVJ EC00090 VJ=100.0
MOVL C00091 V=5.0 +MOVJ EC00091 VJ=100.0
MOVL C00092 V=5.0 +MOVJ EC00092 VJ=100.0
MOVL C00093 V=57.0 +MOVJ EC00093 VJ=100.0
MOVL C00094 V=5.0 +MOVJ EC00094 VJ=100.0
MOVL C00095 V=5.0 +MOVJ EC00095 VJ=100.0
MOVL C00096 V=5.0 +MOVJ EC00096 VJ=100.0
MOVL C00097 V=5.0 +MOVJ EC00097 VJ=100.0
MOVL C00098 V=5.0 +MOVJ EC00098 VJ=100.0
MOVL C00099 V=5.0 +MOVJ EC00099 VJ=100.0
MOVL C00100 V=5.0 +MOVJ EC00100 VJ=100.0
MOVL C00101 V=5.0 +MOVJ EC00101 VJ=100.0
MOVL C00102 V=47.2 +MOVJ EC00102 VJ=100.0
MOVL C00103 V=5.0 +MOVJ EC00103 VJ=100.0
MOVL C00104 V=5.0 +MOVJ EC00104 VJ=100.0
MOVL C00105 V=5.0 +MOVJ EC00105 VJ=100.0
MOVL C00106 V=5.0 +MOVJ EC00106 VJ=100.0
MOVL C00107 V=5.0 +MOVJ EC00107 VJ=100.0
MOVL C00108 V=5.0 +MOVJ EC00108 VJ=100.0
MOVL C00109 V=5.0 +MOVJ EC00109 VJ=100.0
MOVL C00110 V=5.0 +MOVJ EC00110 VJ=100.0
MOVL C00111 V=60.3 +MOVJ EC00111 VJ=100.0
MOVL C00112 V=5.0 +MOVJ EC00112 VJ=100.0
MOVL C00113 V=5.0 +MOVJ EC00113 VJ=100.0
MOVL C00114 V=5.0 +MOVJ EC00114 VJ=100.0
MOVL C00115 V=5.0 +MOVJ EC00115 VJ=100.0
MOVL C00116 V=5.0 +MOVJ EC00116 VJ=100.0
MOVL C00117 V=5.0 +MOVJ EC00117 VJ=100.0
MOVL C00118 V=5.0 +MOVJ EC00118 VJ=100.0
MOVL C00119 V=5.0 +MOVJ EC00119 VJ=100.0
MOVL C00120 V=54.9 +MOVJ EC00120 VJ=100.0
MOVL C00121 V=5.0 +MOVJ EC00121 VJ=100.0
MOVL C00122 V=5.0 +MOVJ EC00122 VJ=100.0
MOVL C00123 V=5.0 +MOVJ EC00123 VJ=100.0
MOVL C00124 V=5.0 +MOVJ EC00124 VJ=100.0
MOVL C00125 V=5.0 +MOVJ EC00125 VJ=100.0
MOVL C00126 V=5.0 +MOVJ EC00126 VJ=100.0
MOVL C00127 V=5.0 +MOVJ EC00127 VJ=100.0
MOVL C00128 V=5.0 +MOVJ EC00128 VJ=100.0
MOVL C00129 V=55.3 +MOVJ EC00129 VJ=100.0
MOVL C00130 V=5.0 +MOVJ EC00130 VJ=100.0
MOVL C00131 V=5.0 +MOVJ EC00131 VJ=100.0
MOVL C00132 V=5.0 +MOVJ EC00132 VJ=100.0
MOVL C00133 V=5.0 +MOVJ EC00133 VJ=100.0
MOVL C00134 V=5.0 +MOVJ EC00134 VJ=100.0
MOVL C00135 V=5.0 +MOVJ EC00135 VJ=100.0
MOVL C00136 V=5.0 +MOVJ EC00136 VJ=100.0
MOVL C00137 V=44.9 +MOVJ EC00137 VJ=100.0
MOVL C00138 V=5.0 +MOVJ EC00138 VJ=100.0
MOVL C00139 V=5.0 +MOVJ EC00139 VJ=100.0
MOVL C00140 V=5.0 +MOVJ EC00140 VJ=100.0
MOVL C00141 V=5.0 +MOVJ EC00141 VJ=100.0
MOVL C00142 V=5.0 +MOVJ EC00142 VJ=100.0
MOVL C00143 V=5.0 +MOVJ EC00143 VJ=100.0
MOVL C00144 V=5.0 +MOVJ EC00144 VJ=100.0
MOVL C00145 V=5.0 +MOVJ EC00145 VJ=100.0
MOVL C00146 V=55.2 +MOVJ EC00146 VJ=100.0
MOVL C00147 V=5.0 +MOVJ EC00147 VJ=100.0
MOVL C00148 V=5.0 +MOVJ EC00148 VJ=100.0
MOVL C00149 V=5.0 +MOVJ EC00149 VJ=100.0
MOVL C00150 V=5.0 +MOVJ EC00150 VJ=100.0
MOVL C00151 V=5.0 +MOVJ EC00151 VJ=100.0
MOVL C00152 V=5.0 +MOVJ EC00152 VJ=100.0
MOVL C00153 V=5.0 +MOVJ EC00153 VJ=100.0
MOVL C00154 V=45.4 +MOVJ EC00154 VJ=100.0
MOVL C00155 V=5.0 +MOVJ EC00155 VJ=100.0
MOVL C00156 V=5.0 +MOVJ EC00156 VJ=100.0
MOVL C00157 V=5.0 +MOVJ EC00157 VJ=100.0
MOVL C00158 V=5.0 +MOVJ EC00158 VJ=100.0
MOVL C00159 V=5.0 +MOVJ EC00159 VJ=100.0
MOVL C00160 V=5.0 +MOVJ EC00160 VJ=100.0
MOVL C00161 V=5.0 +MOVJ EC00161 VJ=100.0
MOVL C00162 V=5.0 +MOVJ EC00162 VJ=100.0
MOVL C00163 V=58.1 +MOVJ EC00163 VJ=100.0
MOVL C00164 V=5.0 +MOVJ EC00164 VJ=100.0
MOVL C00165 V=5.0 +MOVJ EC00165 VJ=100.0
MOVL C00166 V=5.0 +MOVJ EC00166 VJ=100.0
MOVL C00167 V=5.0 +MOVJ EC00167 VJ=100.0
MOVL C00168 V=5.0 +MOVJ EC00168 VJ=100.0
MOVL C00169 V=5.0 +MOVJ EC00169 VJ=100.0
MOVL C00170 V=5.0 +MOVJ EC00170 VJ=100.0
MOVL C00171 V=5.0 +MOVJ EC00171 VJ=100.0
MOVL C00172 V=52.0 +MOVJ EC00172 VJ=100.0
MOVL C00173 V=5.0 +MOVJ EC00173 VJ=100.0
MOVL C00174 V=5.0 +MOVJ EC00174 VJ=100.0
MOVL C00175 V=5.0 +MOVJ EC00175 VJ=100.0
MOVL C00176 V=5.0 +MOVJ EC00176 VJ=100.0
MOVL C00177 V=5.0 +MOVJ EC00177 VJ=100.0
MOVL C00178 V=5.0 +MOVJ EC00178 VJ=100.0
MOVL C00179 V=5.0 +MOVJ EC00179 VJ=100.0
MOVL C00180 V=43.7 +MOVJ EC00180 VJ=100.0
MOVL C00181 V=5.0 +MOVJ EC00181 VJ=100.0
MOVL C00182 V=5.0 +MOVJ EC00182 VJ=100.0
MOVL C00183 V=5.0 +MOVJ EC00183 VJ=100.0
MOVL C00184 V=5.0 +MOVJ EC00184 VJ=100.0
MOVL C00185 V=5.0 +MOVJ EC00185 VJ=100.0
MOVL C00186 V=5.0 +MOVJ EC00186 VJ=100.0
MOVL C00187 V=5.0 +MOVJ EC00187 VJ=100.0
MOVL C00188 V=53.1 +MOVJ EC00188 VJ=100.0
MOVL C00189 V=5.0 +MOVJ EC00189 VJ=100.0
MOVL C00190 V=5.0 +MOVJ EC00190 VJ=100.0
MOVL C00191 V=5.0 +MOVJ EC00191 VJ=100.0
MOVL C00192 V=5.0 +MOVJ EC00192 VJ=100.0
MOVL C00193 V=5.0 +MOVJ EC00193 VJ=100.0
MOVL C00194 V=5.0 +MOVJ EC00194 VJ=100.0
MOVL C00195 V=5.0 +MOVJ EC00195 VJ=100.0
MOVL C00196 V=5.0 +MOVJ EC00196 VJ=100.0
MOVL C00197 V=45.4 +MOVJ EC00197 VJ=100.0
MOVL C00198 V=5.0 +MOVJ EC00198 VJ=100.0
MOVL C00199 V=5.0 +MOVJ EC00199 VJ=100.0
MOVL C00200 V=5.0 +MOVJ EC00200 VJ=100.0
MOVL C00201 V=5.0 +MOVJ EC00201 VJ=100.0
MOVL C00202 V=5.0 +MOVJ EC00202 VJ=100.0
MOVL C00203 V=5.0 +MOVJ EC00203 VJ=100.0
MOVL C00204 V=5.0 +MOVJ EC00204 VJ=100.0
MOVL C00205 V=43.6 +MOVJ EC00205 VJ=100.0
MOVL C00206 V=5.0 +MOVJ EC00206 VJ=100.0
MOVL C00207 V=5.0 +MOVJ EC00207 VJ=100.0
MOVL C00208 V=5.0 +MOVJ EC00208 VJ=100.0
MOVL C00209 V=5.0 +MOVJ EC00209 VJ=100.0
MOVL C00210 V=5.0 +MOVJ EC00210 VJ=100.0
MOVL C00211 V=5.0 +MOVJ EC00211 VJ=100.0
MOVL C00212 V=5.0 +MOVJ EC00212 VJ=100.0
MOVL C00213 V=46.9 +MOVJ EC00213 VJ=100.0
MOVL C00214 V=5.0 +MOVJ EC00214 VJ=100.0
MOVL C00215 V=5.0 +MOVJ EC00215 VJ=100.0
MOVL C00216 V=5.0 +MOVJ EC00216 VJ=100.0
MOVL C00217 V=5.0 +MOVJ EC00217 VJ=100.0
MOVL C00218 V=5.0 +MOVJ EC00218 VJ=100.0
MOVL C00219 V=5.0 +MOVJ EC00219 VJ=100.0
MOVL C00220 V=5.0 +MOVJ EC00220 VJ=100.0
MOVL C00221 V=5.0 +MOVJ EC00221 VJ=100.0
MOVL C00222 V=41.9 +MOVJ EC00222 VJ=100.0
MOVL C00223 V=5.0 +MOVJ EC00223 VJ=100.0
MOVL C00224 V=5.0 +MOVJ EC00224 VJ=100.0
MOVL C00225 V=5.0 +MOVJ EC00225 VJ=100.0
MOVL C00226 V=5.0 +MOVJ EC00226 VJ=100.0
MOVL C00227 V=5.0 +MOVJ EC00227 VJ=100.0
MOVL C00228 V=5.0 +MOVJ EC00228 VJ=100.0
MOVL C00229 V=41.9 +MOVJ EC00229 VJ=100.0
MOVL C00230 V=5.0 +MOVJ EC00230 VJ=100.0
MOVL C00231 V=5.0 +MOVJ EC00231 VJ=100.0
MOVL C00232 V=5.0 +MOVJ EC00232 VJ=100.0
MOVL C00233 V=5.0 +MOVJ EC00233 VJ=100.0
MOVL C00234 V=5.0 +MOVJ EC00234 VJ=100.0
MOVL C00235 V=5.0 +MOVJ EC00235 VJ=100.0
MOVL C00236 V=5.0 +MOVJ EC00236 VJ=100.0
MOVL C00237 V=41.9 +MOVJ EC00237 VJ=100.0
MOVL C00238 V=5.0 +MOVJ EC00238 VJ=100.0
MOVL C00239 V=5.0 +MOVJ EC00239 VJ=100.0
MOVL C00240 V=5.0 +MOVJ EC00240 VJ=100.0
MOVL C00241 V=5.0 +MOVJ EC00241 VJ=100.0
MOVL C00242 V=5.0 +MOVJ EC00242 VJ=100.0
MOVL C00243 V=5.0 +MOVJ EC00243 VJ=100.0
MOVL C00244 V=5.0 +MOVJ EC00244 VJ=100.0
MOVL C00245 V=41.9 +MOVJ EC00245 VJ=100.0
MOVL C00246 V=5.0 +MOVJ EC00246 VJ=100.0
MOVL C00247 V=5.0 +MOVJ EC00247 VJ=100.0
MOVL C00248 V=5.0 +MOVJ EC00248 VJ=100.0
MOVL C00249 V=5.0 +MOVJ EC00249 VJ=100.0
MOVL C00250 V=5.0 +MOVJ EC00250 VJ=100.0
MOVL C00251 V=5.0 +MOVJ EC00251 VJ=100.0
MOVL C00252 V=5.0 +MOVJ EC00252 VJ=100.0
MOVL C00253 V=41.9 +MOVJ EC00253 VJ=100.0
MOVL C00254 V=5.0 +MOVJ EC00254 VJ=100.0
MOVL C00255 V=5.0 +MOVJ EC00255 VJ=100.0
MOVL C00256 V=5.0 +MOVJ EC00256 VJ=100.0
MOVL C00257 V=5.0 +MOVJ EC00257 VJ=100.0
MOVL C00258 V=5.0 +MOVJ EC00258 VJ=100.0
MOVL C00259 V=5.0 +MOVJ EC00259 VJ=100.0
MOVL C00260 V=5.0 +MOVJ EC00260 VJ=100.0
MOVL C00261 V=53.8 +MOVJ EC00261 VJ=100.0
MOVL C00262 V=5.0 +MOVJ EC00262 VJ=100.0
MOVL C00263 V=5.0 +MOVJ EC00263 VJ=100.0
MOVL C00264 V=5.0 +MOVJ EC00264 VJ=100.0
MOVL C00265 V=5.0 +MOVJ EC00265 VJ=100.0
MOVL C00266 V=5.0 +MOVJ EC00266 VJ=100.0
MOVL C00267 V=5.0 +MOVJ EC00267 VJ=100.0
MOVL C00268 V=5.0 +MOVJ EC00268 VJ=100.0
MOVL C00269 V=48.8 +MOVJ EC00269 VJ=100.0
MOVL C00270 V=5.0 +MOVJ EC00270 VJ=100.0
MOVL C00271 V=5.0 +MOVJ EC00271 VJ=100.0
MOVL C00272 V=5.0 +MOVJ EC00272 VJ=100.0
MOVL C00273 V=5.0 +MOVJ EC00273 VJ=100.0
MOVL C00274 V=5.0 +MOVJ EC00274 VJ=100.0
MOVL C00275 V=5.0 +MOVJ EC00275 VJ=100.0
MOVL C00276 V=5.0 +MOVJ EC00276 VJ=100.0
MOVL C00277 V=43.3 +MOVJ EC00277 VJ=100.0
MOVL C00278 V=5.0 +MOVJ EC00278 VJ=100.0
MOVL C00279 V=5.0 +MOVJ EC00279 VJ=100.0
MOVL C00280 V=5.0 +MOVJ EC00280 VJ=100.0
MOVL C00281 V=5.0 +MOVJ EC00281 VJ=100.0
MOVL C00282 V=5.0 +MOVJ EC00282 VJ=100.0
MOVL C00283 V=5.0 +MOVJ EC00283 VJ=100.0
MOVL C00284 V=48.5 +MOVJ EC00284 VJ=100.0
MOVL C00285 V=5.0 +MOVJ EC00285 VJ=100.0
MOVL C00286 V=5.0 +MOVJ EC00286 VJ=100.0
MOVL C00287 V=5.0 +MOVJ EC00287 VJ=100.0
MOVL C00288 V=5.0 +MOVJ EC00288 VJ=100.0
MOVL C00289 V=5.0 +MOVJ EC00289 VJ=100.0
MOVL C00290 V=5.0 +MOVJ EC00290 VJ=100.0
MOVL C00291 V=5.0 +MOVJ EC00291 VJ=100.0
MOVL C00292 V=46.0 +MOVJ EC00292 VJ=100.0
MOVL C00293 V=5.0 +MOVJ EC00293 VJ=100.0
MOVL C00294 V=5.0 +MOVJ EC00294 VJ=100.0
MOVL C00295 V=5.0 +MOVJ EC00295 VJ=100.0
MOVL C00296 V=5.0 +MOVJ EC00296 VJ=100.0
MOVL C00297 V=5.0 +MOVJ EC00297 VJ=100.0
MOVL C00298 V=5.0 +MOVJ EC00298 VJ=100.0
MOVL C00299 V=46.6 +MOVJ EC00299 VJ=100.0
MOVL C00300 V=5.0 +MOVJ EC00300 VJ=100.0
MOVL C00301 V=5.0 +MOVJ EC00301 VJ=100.0
MOVL C00302 V=5.0 +MOVJ EC00302 VJ=100.0
MOVL C00303 V=5.0 +MOVJ EC00303 VJ=100.0
MOVL C00304 V=5.0 +MOVJ EC00304 VJ=100.0
MOVL C00305 V=5.0 +MOVJ EC00305 VJ=100.0
MOVL C00306 V=5.0 +MOVJ EC00306 VJ=100.0
MOVL C00307 V=51.6 +MOVJ EC00307 VJ=100.0
MOVL C00308 V=5.0 +MOVJ EC00308 VJ=100.0
MOVL C00309 V=5.0 +MOVJ EC00309 VJ=100.0
MOVL C00310 V=5.0 +MOVJ EC00310 VJ=100.0
MOVL C00311 V=5.0 +MOVJ EC00311 VJ=100.0
MOVL C00312 V=5.0 +MOVJ EC00312 VJ=100.0
MOVL C00313 V=5.0 +MOVJ EC00313 VJ=100.0
MOVL C00314 V=5.0 +MOVJ EC00314 VJ=100.0
MOVL C00315 V=41.5 +MOVJ EC00315 VJ=100.0
MOVL C00316 V=5.0 +MOVJ EC00316 VJ=100.0
MOVL C00317 V=5.0 +MOVJ EC00317 VJ=100.0
MOVL C00318 V=5.0 +MOVJ EC00318 VJ=100.0
MOVL C00319 V=5.0 +MOVJ EC00319 VJ=100.0
MOVL C00320 V=5.0 +MOVJ EC00320 VJ=100.0
MOVL C00321 V=5.0 +MOVJ EC00321 VJ=100.0
MOVL C00322 V=44.0 +MOVJ EC00322 VJ=100.0
MOVL C00323 V=5.0 +MOVJ EC00323 VJ=100.0
MOVL C00324 V=5.0 +MOVJ EC00324 VJ=100.0
MOVL C00325 V=5.0 +MOVJ EC00325 VJ=100.0
MOVL C00326 V=5.0 +MOVJ EC00326 VJ=100.0
MOVL C00327 V=5.0 +MOVJ EC00327 VJ=100.0
MOVL C00328 V=5.0 +MOVJ EC00328 VJ=100.0
MOVL C00329 V=46.6 +MOVJ EC00329 VJ=100.0
MOVL C00330 V=5.0 +MOVJ EC00330 VJ=100.0
MOVL C00331 V=5.0 +MOVJ EC00331 VJ=100.0
MOVL C00332 V=5.0 +MOVJ EC00332 VJ=100.0
MOVL C00333 V=5.0 +MOVJ EC00333 VJ=100.0
MOVL C00334 V=5.0 +MOVJ EC00334 VJ=100.0
MOVL C00335 V=5.0 +MOVJ EC00335 VJ=100.0
MOVL C00336 V=46.4 +MOVJ EC00336 VJ=100.0
MOVL C00337 V=5.0 +MOVJ EC00337 VJ=100.0
MOVL C00338 V=5.0 +MOVJ EC00338 VJ=100.0
MOVL C00339 V=5.0 +MOVJ EC00339 VJ=100.0
MOVL C00340 V=5.0 +MOVJ EC00340 VJ=100.0
MOVL C00341 V=5.0 +MOVJ EC00341 VJ=100.0
MOVL C00342 V=5.0 +MOVJ EC00342 VJ=100.0
MOVL C00343 V=37.4 +MOVJ EC00343 VJ=100.0
MOVL C00344 V=5.0 +MOVJ EC00344 VJ=100.0
MOVL C00345 V=5.0 +MOVJ EC00345 VJ=100.0
MOVL C00346 V=5.0 +MOVJ EC00346 VJ=100.0
MOVL C00347 V=5.0 +MOVJ EC00347 VJ=100.0
MOVL C00348 V=5.0 +MOVJ EC00348 VJ=100.0
MOVL C00349 V=5.0 +MOVJ EC00349 VJ=100.0
MOVL C00350 V=47.0 +MOVJ EC00350 VJ=100.0
MOVL C00351 V=5.0 +MOVJ EC00351 VJ=100.0
MOVL C00352 V=5.0 +MOVJ EC00352 VJ=100.0
MOVL C00353 V=5.0 +MOVJ EC00353 VJ=100.0
MOVL C00354 V=5.0 +MOVJ EC00354 VJ=100.0
MOVL C00355 V=5.0 +MOVJ EC00355 VJ=100.0
MOVL C00356 V=5.0 +MOVJ EC00356 VJ=100.0
MOVL C00357 V=36.9 +MOVJ EC00357 VJ=100.0
MOVL C00358 V=5.0 +MOVJ EC00358 VJ=100.0
MOVL C00359 V=5.0 +MOVJ EC00359 VJ=100.0
MOVL C00360 V=5.0 +MOVJ EC00360 VJ=100.0
MOVL C00361 V=5.0 +MOVJ EC00361 VJ=100.0
MOVL C00362 V=5.0 +MOVJ EC00362 VJ=100.0
MOVL C00363 V=5.0 +MOVJ EC00363 VJ=100.0
MOVL C00364 V=36.8 +MOVJ EC00364 VJ=100.0
MOVL C00365 V=5.0 +MOVJ EC00365 VJ=100.0
MOVL C00366 V=5.0 +MOVJ EC00366 VJ=100.0
MOVL C00367 V=5.0 +MOVJ EC00367 VJ=100.0
MOVL C00368 V=5.0 +MOVJ EC00368 VJ=100.0
MOVL C00369 V=5.0 +MOVJ EC00369 VJ=100.0
MOVL C00370 V=5.0 +MOVJ EC00370 VJ=100.0
MOVL C00371 V=42.0 +MOVJ EC00371 VJ=100.0
MOVL C00372 V=5.0 +MOVJ EC00372 VJ=100.0
MOVL C00373 V=5.0 +MOVJ EC00373 VJ=100.0
MOVL C00374 V=5.0 +MOVJ EC00374 VJ=100.0
MOVL C00375 V=5.0 +MOVJ EC00375 VJ=100.0
MOVL C00376 V=5.0 +MOVJ EC00376 VJ=100.0
MOVL C00377 V=36.9 +MOVJ EC00377 VJ=100.0
MOVL C00378 V=5.0 +MOVJ EC00378 VJ=100.0
MOVL C00379 V=5.0 +MOVJ EC00379 VJ=100.0
MOVL C00380 V=5.0 +MOVJ EC00380 VJ=100.0
MOVL C00381 V=5.0 +MOVJ EC00381 VJ=100.0
MOVL C00382 V=5.0 +MOVJ EC00382 VJ=100.0
MOVL C00383 V=5.0 +MOVJ EC00383 VJ=100.0
MOVL C00384 V=35.8 +MOVJ EC00384 VJ=100.0
MOVL C00385 V=5.0 +MOVJ EC00385 VJ=100.0
MOVL C00386 V=5.0 +MOVJ EC00386 VJ=100.0
MOVL C00387 V=5.0 +MOVJ EC00387 VJ=100.0
MOVL C00388 V=5.0 +MOVJ EC00388 VJ=100.0
MOVL C00389 V=5.0 +MOVJ EC00389 VJ=100.0
MOVL C00390 V=5.0 +MOVJ EC00390 VJ=100.0
MOVL C00391 V=47.4 +MOVJ EC00391 VJ=100.0
MOVL C00392 V=5.0 +MOVJ EC00392 VJ=100.0
MOVL C00393 V=5.0 +MOVJ EC00393 VJ=100.0
MOVL C00394 V=5.0 +MOVJ EC00394 VJ=100.0
MOVL C00395 V=5.0 +MOVJ EC00395 VJ=100.0
MOVL C00396 V=5.0 +MOVJ EC00396 VJ=100.0
MOVL C00397 V=5.0 +MOVJ EC00397 VJ=100.0
MOVL C00398 V=34.8 +MOVJ EC00398 VJ=100.0
MOVL C00399 V=5.0 +MOVJ EC00399 VJ=100.0
MOVL C00400 V=5.0 +MOVJ EC00400 VJ=100.0
MOVL C00401 V=5.0 +MOVJ EC00401 VJ=100.0
MOVL C00402 V=5.0 +MOVJ EC00402 VJ=100.0
MOVL C00403 V=5.0 +MOVJ EC00403 VJ=100.0
MOVL C00404 V=42.2 +MOVJ EC00404 VJ=100.0
MOVL C00405 V=5.0 +MOVJ EC00405 VJ=100.0
MOVL C00406 V=5.0 +MOVJ EC00406 VJ=100.0
MOVL C00407 V=5.0 +MOVJ EC00407 VJ=100.0
MOVL C00408 V=5.0 +MOVJ EC00408 VJ=100.0
MOVL C00409 V=5.0 +MOVJ EC00409 VJ=100.0
MOVL C00410 V=5.0 +MOVJ EC00410 VJ=100.0
MOVL C00411 V=42.4 +MOVJ EC00411 VJ=100.0
MOVL C00412 V=5.0 +MOVJ EC00412 VJ=100.0
MOVL C00413 V=5.0 +MOVJ EC00413 VJ=100.0
MOVL C00414 V=5.0 +MOVJ EC00414 VJ=100.0
MOVL C00415 V=5.0 +MOVJ EC00415 VJ=100.0
MOVL C00416 V=5.0 +MOVJ EC00416 VJ=100.0
MOVL C00417 V=42.3 +MOVJ EC00417 VJ=100.0
MOVL C00418 V=5.0 +MOVJ EC00418 VJ=100.0
MOVL C00419 V=5.0 +MOVJ EC00419 VJ=100.0
MOVL C00420 V=5.0 +MOVJ EC00420 VJ=100.0
MOVL C00421 V=5.0 +MOVJ EC00421 VJ=100.0
MOVL C00422 V=5.0 +MOVJ EC00422 VJ=100.0
MOVL C00423 V=34.2 +MOVJ EC00423 VJ=100.0
MOVL C00424 V=5.0 +MOVJ EC00424 VJ=100.0
MOVL C00425 V=5.0 +MOVJ EC00425 VJ=100.0
MOVL C00426 V=5.0 +MOVJ EC00426 VJ=100.0
MOVL C00427 V=5.0 +MOVJ EC00427 VJ=100.0
MOVL C00428 V=5.0 +MOVJ EC00428 VJ=100.0
MOVL C00429 V=5.0 +MOVJ EC00429 VJ=100.0
MOVL C00430 V=43.6 +MOVJ EC00430 VJ=100.0
MOVL C00431 V=5.0 +MOVJ EC00431 VJ=100.0
MOVL C00432 V=5.0 +MOVJ EC00432 VJ=100.0
MOVL C00433 V=5.0 +MOVJ EC00433 VJ=100.0
MOVL C00434 V=5.0 +MOVJ EC00434 VJ=100.0
MOVL C00435 V=5.0 +MOVJ EC00435 VJ=100.0
MOVL C00436 V=5.0 +MOVJ EC00436 VJ=100.0
MOVL C00437 V=38.6 +MOVJ EC00437 VJ=100.0
MOVL C00438 V=5.0 +MOVJ EC00438 VJ=100.0
MOVL C00439 V=5.0 +MOVJ EC00439 VJ=100.0
MOVL C00440 V=5.0 +MOVJ EC00440 VJ=100.0
MOVL C00441 V=5.0 +MOVJ EC00441 VJ=100.0
MOVL C00442 V=5.0 +MOVJ EC00442 VJ=100.0
MOVL C00443 V=38.6 +MOVJ EC00443 VJ=100.0
MOVL C00444 V=5.0 +MOVJ EC00444 VJ=100.0
MOVL C00445 V=5.0 +MOVJ EC00445 VJ=100.0
MOVL C00446 V=5.0 +MOVJ EC00446 VJ=100.0
MOVL C00447 V=5.0 +MOVJ EC00447 VJ=100.0
MOVL C00448 V=5.0 +MOVJ EC00448 VJ=100.0
MOVL C00449 V=38.6 +MOVJ EC00449 VJ=100.0
MOVL C00450 V=5.0 +MOVJ EC00450 VJ=100.0
MOVL C00451 V=5.0 +MOVJ EC00451 VJ=100.0
MOVL C00452 V=5.0 +MOVJ EC00452 VJ=100.0
MOVL C00453 V=5.0 +MOVJ EC00453 VJ=100.0
MOVL C00454 V=5.0 +MOVJ EC00454 VJ=100.0
MOVL C00455 V=38.6 +MOVJ EC00455 VJ=100.0
MOVL C00456 V=5.0 +MOVJ EC00456 VJ=100.0
MOVL C00457 V=5.0 +MOVJ EC00457 VJ=100.0
MOVL C00458 V=5.0 +MOVJ EC00458 VJ=100.0
MOVL C00459 V=5.0 +MOVJ EC00459 VJ=100.0
MOVL C00460 V=5.0 +MOVJ EC00460 VJ=100.0
MOVL C00461 V=38.6 +MOVJ EC00461 VJ=100.0
MOVL C00462 V=5.0 +MOVJ EC00462 VJ=100.0
MOVL C00463 V=5.0 +MOVJ EC00463 VJ=100.0
MOVL C00464 V=5.0 +MOVJ EC00464 VJ=100.0
MOVL C00465 V=5.0 +MOVJ EC00465 VJ=100.0
MOVL C00466 V=5.0 +MOVJ EC00466 VJ=100.0
MOVL C00467 V=43.1 +MOVJ EC00467 VJ=100.0
MOVL C00468 V=5.0 +MOVJ EC00468 VJ=100.0
MOVL C00469 V=5.0 +MOVJ EC00469 VJ=100.0
MOVL C00470 V=5.0 +MOVJ EC00470 VJ=100.0
MOVL C00471 V=5.0 +MOVJ EC00471 VJ=100.0
MOVL C00472 V=5.0 +MOVJ EC00472 VJ=100.0
MOVL C00473 V=38.0 +MOVJ EC00473 VJ=100.0
MOVL C00474 V=5.0 +MOVJ EC00474 VJ=100.0
MOVL C00475 V=5.0 +MOVJ EC00475 VJ=100.0
MOVL C00476 V=5.0 +MOVJ EC00476 VJ=100.0
MOVL C00477 V=5.0 +MOVJ EC00477 VJ=100.0
MOVL C00478 V=5.0 +MOVJ EC00478 VJ=100.0
MOVL C00479 V=38.1 +MOVJ EC00479 VJ=100.0
MOVL C00480 V=5.0 +MOVJ EC00480 VJ=100.0
MOVL C00481 V=5.0 +MOVJ EC00481 VJ=100.0
MOVL C00482 V=5.0 +MOVJ EC00482 VJ=100.0
MOVL C00483 V=5.0 +MOVJ EC00483 VJ=100.0
MOVL C00484 V=5.0 +MOVJ EC00484 VJ=100.0
MOVL C00485 V=35.2 +MOVJ EC00485 VJ=100.0
MOVL C00486 V=5.0 +MOVJ EC00486 VJ=100.0
MOVL C00487 V=5.0 +MOVJ EC00487 VJ=100.0
MOVL C00488 V=5.0 +MOVJ EC00488 VJ=100.0
MOVL C00489 V=5.0 +MOVJ EC00489 VJ=100.0
MOVL C00490 V=37.6 +MOVJ EC00490 VJ=100.0
MOVL C00491 V=5.0 +MOVJ EC00491 VJ=100.0
MOVL C00492 V=5.0 +MOVJ EC00492 VJ=100.0
MOVL C00493 V=5.0 +MOVJ EC00493 VJ=100.0
MOVL C00494 V=5.0 +MOVJ EC00494 VJ=100.0
MOVL C00495 V=5.0 +MOVJ EC00495 VJ=100.0
MOVL C00496 V=36.6 +MOVJ EC00496 VJ=100.0
MOVL C00497 V=5.0 +MOVJ EC00497 VJ=100.0
MOVL C00498 V=5.0 +MOVJ EC00498 VJ=100.0
MOVL C00499 V=5.0 +MOVJ EC00499 VJ=100.0
MOVL C00500 V=5.0 +MOVJ EC00500 VJ=100.0
MOVL C00501 V=5.0 +MOVJ EC00501 VJ=100.0
MOVL C00502 V=40.9 +MOVJ EC00502 VJ=100.0
MOVL C00503 V=5.0 +MOVJ EC00503 VJ=100.0
MOVL C00504 V=5.0 +MOVJ EC00504 VJ=100.0
MOVL C00505 V=5.0 +MOVJ EC00505 VJ=100.0
MOVL C00506 V=5.0 +MOVJ EC00506 VJ=100.0
MOVL C00507 V=5.0 +MOVJ EC00507 VJ=100.0
MOVL C00508 V=35.9 +MOVJ EC00508 VJ=100.0
MOVL C00509 V=5.0 +MOVJ EC00509 VJ=100.0
MOVL C00510 V=5.0 +MOVJ EC00510 VJ=100.0
MOVL C00511 V=5.0 +MOVJ EC00511 VJ=100.0
MOVL C00512 V=5.0 +MOVJ EC00512 VJ=100.0
MOVL C00513 V=29.8 +MOVJ EC00513 VJ=100.0
MOVL C00514 V=5.0 +MOVJ EC00514 VJ=100.0
MOVL C00515 V=5.0 +MOVJ EC00515 VJ=100.0
MOVL C00516 V=5.0 +MOVJ EC00516 VJ=100.0
MOVL C00517 V=5.0 +MOVJ EC00517 VJ=100.0
MOVL C00518 V=5.0 +MOVJ EC00518 VJ=100.0
MOVL C00519 V=35.8 +MOVJ EC00519 VJ=100.0
MOVL C00520 V=5.0 +MOVJ EC00520 VJ=100.0
MOVL C00521 V=5.0 +MOVJ EC00521 VJ=100.0
MOVL C00522 V=5.0 +MOVJ EC00522 VJ=100.0
MOVL C00523 V=5.0 +MOVJ EC00523 VJ=100.0
MOVL C00524 V=30.0 +MOVJ EC00524 VJ=100.0
MOVL C00525 V=5.0 +MOVJ EC00525 VJ=100.0
MOVL C00526 V=5.0 +MOVJ EC00526 VJ=100.0
MOVL C00527 V=5.0 +MOVJ EC00527 VJ=100.0
MOVL C00528 V=5.0 +MOVJ EC00528 VJ=100.0
MOVL C00529 V=34.7 +MOVJ EC00529 VJ=100.0
MOVL C00530 V=5.0 +MOVJ EC00530 VJ=100.0
MOVL C00531 V=5.0 +MOVJ EC00531 VJ=100.0
MOVL C00532 V=5.0 +MOVJ EC00532 VJ=100.0
MOVL C00533 V=5.0 +MOVJ EC00533 VJ=100.0
MOVL C00534 V=5.0 +MOVJ EC00534 VJ=100.0
MOVL C00535 V=38.8 +MOVJ EC00535 VJ=100.0
MOVL C00536 V=5.0 +MOVJ EC00536 VJ=100.0
MOVL C00537 V=5.0 +MOVJ EC00537 VJ=100.0
MOVL C00538 V=5.0 +MOVJ EC00538 VJ=100.0
MOVL C00539 V=5.0 +MOVJ EC00539 VJ=100.0
MOVL C00540 V=5.0 +MOVJ EC00540 VJ=100.0
MOVL C00541 V=31.3 +MOVJ EC00541 VJ=100.0
MOVL C00542 V=5.0 +MOVJ EC00542 VJ=100.0
MOVL C00543 V=5.0 +MOVJ EC00543 VJ=100.0
MOVL C00544 V=5.0 +MOVJ EC00544 VJ=100.0
MOVL C00545 V=5.0 +MOVJ EC00545 VJ=100.0
MOVL C00546 V=33.7 +MOVJ EC00546 VJ=100.0
MOVL C00547 V=5.0 +MOVJ EC00547 VJ=100.0
MOVL C00548 V=5.0 +MOVJ EC00548 VJ=100.0
MOVL C00549 V=5.0 +MOVJ EC00549 VJ=100.0
MOVL C00550 V=5.0 +MOVJ EC00550 VJ=100.0
MOVL C00551 V=32.2 +MOVJ EC00551 VJ=100.0
MOVL C00552 V=5.0 +MOVJ EC00552 VJ=100.0
MOVL C00553 V=5.0 +MOVJ EC00553 VJ=100.0
MOVL C00554 V=5.0 +MOVJ EC00554 VJ=100.0
MOVL C00555 V=5.0 +MOVJ EC00555 VJ=100.0
MOVL C00556 V=33.8 +MOVJ EC00556 VJ=100.0
MOVL C00557 V=5.0 +MOVJ EC00557 VJ=100.0
MOVL C00558 V=5.0 +MOVJ EC00558 VJ=100.0
MOVL C00559 V=5.0 +MOVJ EC00559 VJ=100.0
MOVL C00560 V=5.0 +MOVJ EC00560 VJ=100.0
MOVL C00561 V=32.7 +MOVJ EC00561 VJ=100.0
MOVL C00562 V=5.0 +MOVJ EC00562 VJ=100.0
MOVL C00563 V=5.0 +MOVJ EC00563 VJ=100.0
MOVL C00564 V=5.0 +MOVJ EC00564 VJ=100.0
MOVL C00565 V=5.0 +MOVJ EC00565 VJ=100.0
MOVL C00566 V=36.5 +MOVJ EC00566 VJ=100.0
MOVL C00567 V=5.0 +MOVJ EC00567 VJ=100.0
MOVL C00568 V=5.0 +MOVJ EC00568 VJ=100.0
MOVL C00569 V=5.0 +MOVJ EC00569 VJ=100.0
MOVL C00570 V=5.0 +MOVJ EC00570 VJ=100.0
MOVL C00571 V=26.5 +MOVJ EC00571 VJ=100.0
MOVL C00572 V=5.0 +MOVJ EC00572 VJ=100.0
MOVL C00573 V=5.0 +MOVJ EC00573 VJ=100.0
MOVL C00574 V=5.0 +MOVJ EC00574 VJ=100.0
MOVL C00575 V=5.0 +MOVJ EC00575 VJ=100.0
MOVL C00576 V=29.4 +MOVJ EC00576 VJ=100.0
MOVL C00577 V=5.0 +MOVJ EC00577 VJ=100.0
MOVL C00578 V=5.0 +MOVJ EC00578 VJ=100.0
MOVL C00579 V=5.0 +MOVJ EC00579 VJ=100.0
MOVL C00580 V=26.5 +MOVJ EC00580 VJ=100.0
MOVL C00581 V=5.0 +MOVJ EC00581 VJ=100.0
MOVL C00582 V=5.0 +MOVJ EC00582 VJ=100.0
MOVL C00583 V=5.0 +MOVJ EC00583 VJ=100.0
MOVL C00584 V=5.0 +MOVJ EC00584 VJ=100.0
MOVL C00585 V=31.5 +MOVJ EC00585 VJ=100.0
MOVL C00586 V=5.0 +MOVJ EC00586 VJ=100.0
MOVL C00587 V=5.0 +MOVJ EC00587 VJ=100.0
MOVL C00588 V=5.0 +MOVJ EC00588 VJ=100.0
MOVL C00589 V=26.0 +MOVJ EC00589 VJ=100.0
MOVL C00590 V=5.0 +MOVJ EC00590 VJ=100.0
MOVL C00591 V=5.0 +MOVJ EC00591 VJ=100.0
MOVL C00592 V=5.0 +MOVJ EC00592 VJ=100.0
MOVL C00593 V=5.0 +MOVJ EC00593 VJ=100.0
MOVL C00594 V=33.7 +MOVJ EC00594 VJ=100.0
MOVL C00595 V=5.0 +MOVJ EC00595 VJ=100.0
MOVL C00596 V=5.0 +MOVJ EC00596 VJ=100.0
MOVL C00597 V=5.0 +MOVJ EC00597 VJ=100.0
MOVL C00598 V=5.0 +MOVJ EC00598 VJ=100.0
MOVL C00599 V=24.4 +MOVJ EC00599 VJ=100.0
MOVL C00600 V=5.0 +MOVJ EC00600 VJ=100.0
MOVL C00601 V=5.0 +MOVJ EC00601 VJ=100.0
MOVL C00602 V=5.0 +MOVJ EC00602 VJ=100.0
MOVL C00603 V=28.7 +MOVJ EC00603 VJ=100.0
MOVL C00604 V=5.0 +MOVJ EC00604 VJ=100.0
MOVL C00605 V=5.0 +MOVJ EC00605 VJ=100.0
MOVL C00606 V=5.0 +MOVJ EC00606 VJ=100.0
MOVL C00607 V=28.7 +MOVJ EC00607 VJ=100.0
MOVL C00608 V=5.0 +MOVJ EC00608 VJ=100.0
MOVL C00609 V=5.0 +MOVJ EC00609 VJ=100.0
MOVL C00610 V=5.0 +MOVJ EC00610 VJ=100.0
MOVL C00611 V=28.7 +MOVJ EC00611 VJ=100.0
MOVL C00612 V=5.0 +MOVJ EC00612 VJ=100.0
MOVL C00613 V=5.0 +MOVJ EC00613 VJ=100.0
MOVL C00614 V=5.0 +MOVJ EC00614 VJ=100.0
MOVL C00615 V=5.0 +MOVJ EC00615 VJ=100.0
MOVL C00616 V=28.7 +MOVJ EC00616 VJ=100.0
MOVL C00617 V=5.0 +MOVJ EC00617 VJ=100.0
MOVL C00618 V=5.0 +MOVJ EC00618 VJ=100.0
MOVL C00619 V=5.0 +MOVJ EC00619 VJ=100.0
MOVL C00620 V=32.4 +MOVJ EC00620 VJ=100.0
MOVL C00621 V=5.0 +MOVJ EC00621 VJ=100.0
MOVL C00622 V=5.0 +MOVJ EC00622 VJ=100.0
MOVL C00623 V=5.0 +MOVJ EC00623 VJ=100.0
MOVL C00624 V=5.0 +MOVJ EC00624 VJ=100.0
MOVL C00625 V=20.5 +MOVJ EC00625 VJ=100.0
MOVL C00626 V=5.0 +MOVJ EC00626 VJ=100.0
MOVL C00627 V=5.0 +MOVJ EC00627 VJ=100.0
MOVL C00628 V=27.4 +MOVJ EC00628 VJ=100.0
MOVL C00629 V=5.0 +MOVJ EC00629 VJ=100.0
MOVL C00630 V=5.0 +MOVJ EC00630 VJ=100.0
MOVL C00631 V=5.0 +MOVJ EC00631 VJ=100.0
MOVL C00632 V=27.4 +MOVJ EC00632 VJ=100.0
MOVL C00633 V=5.0 +MOVJ EC00633 VJ=100.0
MOVL C00634 V=5.0 +MOVJ EC00634 VJ=100.0
MOVL C00635 V=5.0 +MOVJ EC00635 VJ=100.0
MOVL C00636 V=27.3 +MOVJ EC00636 VJ=100.0
MOVL C00637 V=5.0 +MOVJ EC00637 VJ=100.0
MOVL C00638 V=5.0 +MOVJ EC00638 VJ=100.0
MOVL C00639 V=5.0 +MOVJ EC00639 VJ=100.0
MOVL C00640 V=26.7 +MOVJ EC00640 VJ=100.0
MOVL C00641 V=5.0 +MOVJ EC00641 VJ=100.0
MOVL C00642 V=5.0 +MOVJ EC00642 VJ=100.0
MOVL C00643 V=5.0 +MOVJ EC00643 VJ=100.0
MOVL C00644 V=30.2 +MOVJ EC00644 VJ=100.0
MOVL C00645 V=5.0 +MOVJ EC00645 VJ=100.0
MOVL C00646 V=5.0 +MOVJ EC00646 VJ=100.0
MOVL C00647 V=5.0 +MOVJ EC00647 VJ=100.0
MOVL C00648 V=25.2 +MOVJ EC00648 VJ=100.0
MOVL C00649 V=5.0 +MOVJ EC00649 VJ=100.0
MOVL C00650 V=5.0 +MOVJ EC00650 VJ=100.0
MOVL C00651 V=5.0 +MOVJ EC00651 VJ=100.0
MOVL C00652 V=24.3 +MOVJ EC00652 VJ=100.0
MOVL C00653 V=5.0 +MOVJ EC00653 VJ=100.0
MOVL C00654 V=5.0 +MOVJ EC00654 VJ=100.0
MOVL C00655 V=21.1 +MOVJ EC00655 VJ=100.0
MOVL C00656 V=5.0 +MOVJ EC00656 VJ=100.0
MOVL C00657 V=5.0 +MOVJ EC00657 VJ=100.0
MOVL C00658 V=5.0 +MOVJ EC00658 VJ=100.0
MOVL C00659 V=21.5 +MOVJ EC00659 VJ=100.0
MOVL C00660 V=5.0 +MOVJ EC00660 VJ=100.0
MOVL C00661 V=5.0 +MOVJ EC00661 VJ=100.0
MOVL C00662 V=24.7 +MOVJ EC00662 VJ=100.0
MOVL C00663 V=5.0 +MOVJ EC00663 VJ=100.0
MOVL C00664 V=5.0 +MOVJ EC00664 VJ=100.0
MOVL C00665 V=5.0 +MOVJ EC00665 VJ=100.0
MOVL C00666 V=28.2 +MOVJ EC00666 VJ=100.0
MOVL C00667 V=5.0 +MOVJ EC00667 VJ=100.0
MOVL C00668 V=5.0 +MOVJ EC00668 VJ=100.0
MOVL C00669 V=5.0 +MOVJ EC00669 VJ=100.0
MOVL C00670 V=23.2 +MOVJ EC00670 VJ=100.0
MOVL C00671 V=5.0 +MOVJ EC00671 VJ=100.0
MOVL C00672 V=5.0 +MOVJ EC00672 VJ=100.0
MOVL C00673 V=19.4 +MOVJ EC00673 VJ=100.0
MOVL C00674 V=5.0 +MOVJ EC00674 VJ=100.0
MOVL C00675 V=5.0 +MOVJ EC00675 VJ=100.0
MOVL C00676 V=23.1 +MOVJ EC00676 VJ=100.0
MOVL C00677 V=5.0 +MOVJ EC00677 VJ=100.0
MOVL C00678 V=5.0 +MOVJ EC00678 VJ=100.0
MOVL C00679 V=19.6 +MOVJ EC00679 VJ=100.0
MOVL C00680 V=5.0 +MOVJ EC00680 VJ=100.0
MOVL C00681 V=5.0 +MOVJ EC00681 VJ=100.0
MOVL C00682 V=5.0 +MOVJ EC00682 VJ=100.0
MOVL C00683 V=19.5 +MOVJ EC00683 VJ=100.0
MOVL C00684 V=5.0 +MOVJ EC00684 VJ=100.0
MOVL C00685 V=5.0 +MOVJ EC00685 VJ=100.0
MOVL C00686 V=26.1 +MOVJ EC00686 VJ=100.0
MOVL C00687 V=5.0 +MOVJ EC00687 VJ=100.0
MOVL C00688 V=5.0 +MOVJ EC00688 VJ=100.0
MOVL C00689 V=18.1 +MOVJ EC00689 VJ=100.0
MOVL C00690 V=5.0 +MOVJ EC00690 VJ=100.0
MOVL C00691 V=5.0 +MOVJ EC00691 VJ=100.0
MOVL C00692 V=21.1 +MOVJ EC00692 VJ=100.0
MOVL C00693 V=5.0 +MOVJ EC00693 VJ=100.0
MOVL C00694 V=5.0 +MOVJ EC00694 VJ=100.0
MOVL C00695 V=17.9 +MOVJ EC00695 VJ=100.0
MOVL C00696 V=5.0 +MOVJ EC00696 VJ=100.0
MOVL C00697 V=5.0 +MOVJ EC00697 VJ=100.0
MOVL C00698 V=20.7 +MOVJ EC00698 VJ=100.0
MOVL C00699 V=5.0 +MOVJ EC00699 VJ=100.0
MOVL C00700 V=5.0 +MOVJ EC00700 VJ=100.0
MOVL C00701 V=17.9 +MOVJ EC00701 VJ=100.0
MOVL C00702 V=5.0 +MOVJ EC00702 VJ=100.0
MOVL C00703 V=5.0 +MOVJ EC00703 VJ=100.0
MOVL C00704 V=20.6 +MOVJ EC00704 VJ=100.0
MOVL C00705 V=5.0 +MOVJ EC00705 VJ=100.0
MOVL C00706 V=5.0 +MOVJ EC00706 VJ=100.0
MOVL C00707 V=15.6 +MOVJ EC00707 VJ=100.0
MOVL C00708 V=5.0 +MOVJ EC00708 VJ=100.0
MOVL C00709 V=15.6 +MOVJ EC00709 VJ=100.0
MOVL C00710 V=5.0 +MOVJ EC00710 VJ=100.0
MOVL C00711 V=5.0 +MOVJ EC00711 VJ=100.0
MOVL C00712 V=15.6 +MOVJ EC00712 VJ=100.0
MOVL C00713 V=5.0 +MOVJ EC00713 VJ=100.0
MOVL C00714 V=15.6 +MOVJ EC00714 VJ=100.0
MOVL C00715 V=5.0 +MOVJ EC00715 VJ=100.0
MOVL C00716 V=15.6 +MOVJ EC00716 VJ=100.0
MOVL C00717 V=5.0 +MOVJ EC00717 VJ=100.0
MOVL C00718 V=5.0 +MOVJ EC00718 VJ=100.0
MOVL C00719 V=10.0 +MOVJ EC00719 VJ=100.0
MOVL C00720 V=5.0 +MOVJ EC00720 VJ=100.0
MOVL C00721 V=5.0 +MOVJ EC00721 VJ=100.0
MOVL C00722 V=5.0 +MOVJ EC00722 VJ=100.0
MOVL C00723 V=5.0 +MOVJ EC00723 VJ=100.0
MOVL C00724 V=5.0 +MOVJ EC00724 VJ=100.0
MOVL C00725 V=5.0 +MOVJ EC00725 VJ=100.0
MOVL C00726 V=5.0 +MOVJ EC00726 VJ=100.0
MOVL C00727 V=5.0 +MOVJ EC00727 VJ=100.0
MOVL C00728 V=5.0 +MOVJ EC00728 VJ=100.0
MOVL C00729 V=5.0 +MOVJ EC00729 VJ=100.0
MOVL C00730 V=5.0 +MOVJ EC00730 VJ=100.0
MOVL C00731 V=5.0 +MOVJ EC00731 VJ=100.0
END
