/JOB
//NAME AAA
//POS
///NPOS 100,0,100,0,0,0
///TOOL 9
///POSTYPE PULSE
///PULSE
C00000=-75255,25296,-30408,-7170,-35513,7265
C00001=-75206,25781,-29934,-7140,-35552,7237
C00002=-75150,26264,-29459,-7107,-35591,7206
C00003=-75086,26745,-28986,-7069,-35630,7171
C00004=-75017,27202,-28535,-7030,-35668,7134
C00005=-74940,27653,-28089,-6987,-35704,7093
C00006=-74855,28085,-27661,-6941,-35739,7048
C00007=-74763,28511,-27237,-6891,-35774,7000
C00008=-74659,28930,-26820,-6836,-35808,6947
C00009=-74550,29326,-26424,-6779,-35840,6891
C00010=-74434,29703,-26047,-6720,-35869,6832
C00011=-74316,30052,-25698,-6659,-35897,6772
C00012=-74194,30380,-25368,-6597,-35922,6711
C00013=-74048,30727,-25020,-6524,-35948,6637
C00014=-73895,31059,-24685,-6448,-35973,6561
C00015=-73734,31370,-24371,-6368,-35995,6481
C00016=-73573,31655,-24083,-6289,-36015,6401
C00017=-73404,31921,-23813,-6206,-36033,6318
C00018=-73238,32166,-23565,-6125,-36049,6236
C00019=-73066,32399,-23329,-6042,-36063,6152
C00020=-72888,32620,-23104,-5956,-36076,6064
C00021=-72713,32822,-22899,-5871,-36088,5979
C00022=-72538,33010,-22707,-5787,-36098,5893
C00023=-72368,33183,-22531,-5706,-36107,5810
C00024=-72196,33351,-22360,-5623,-36116,5726
C00025=-72019,33511,-22196,-5538,-36124,5640
C00026=-71848,33666,-22038,-5456,-36132,5557
C00027=-71676,33815,-21886,-5374,-36139,5473
C00028=-71508,33953,-21744,-5294,-36145,5391
C00029=-71336,34099,-21594,-5211,-36153,5307
C00030=-71167,34238,-21452,-5131,-36159,5225
C00031=-70998,34377,-21309,-5050,-36167,5143
C00032=-70822,34528,-21154,-4965,-36175,5057
C00033=-70653,34670,-21009,-4885,-36183,4975
C00034=-70486,34817,-20858,-4805,-36192,4893
C00035=-70318,34968,-20703,-4724,-36201,4811
C00036=-70148,35125,-20541,-4643,-36211,4729
C00037=-69977,35288,-20372,-4561,-36222,4645
C00038=-69799,35466,-20189,-4475,-36235,4559
C00039=-69634,35644,-20005,-4396,-36249,4478
C00040=-69474,35824,-19820,-4318,-36263,4400
C00041=-69314,36014,-19623,-4241,-36279,4322
C00042=-69152,36221,-19409,-4163,-36297,4243
C00043=-68994,36434,-19188,-4086,-36317,4165
C00044=-68833,36672,-18941,-4008,-36339,4086
C00045=-68681,36910,-18694,-3934,-36363,4012
C00046=-68529,37165,-18428,-3860,-36389,3937
C00047=-68376,37442,-18140,-3785,-36417,3862
C00048=-68228,37730,-17840,-3713,-36448,3789
C00049=-68080,38036,-17521,-3640,-36482,3716
C00050=-62020,27942,-37342,-949,-29328,886
C00051=-62313,27524,-37178,-1105,-29646,1037
C00052=-62680,27195,-36647,-1294,-30147,1222
C00053=-63093,26932,-36011,-1501,-30678,1428
C00054=-63492,26742,-35438,-1697,-31135,1625
C00055=-63887,26623,-34871,-1889,-31552,1818
C00056=-64336,26588,-34175,-2103,-32007,2036
C00057=-64826,26679,-33336,-2331,-32487,2271
C00058=-65267,26772,-32668,-2535,-32862,2481
C00059=-65733,26970,-31900,-2747,-33244,2702
C00060=-66206,27231,-31119,-2961,-33605,2925
C00061=-66609,27403,-30577,-3144,-33862,3116
C00062=-67108,27770,-29765,-3367,-34190,3349
C00063=-67579,28153,-29013,-3576,-34473,3569
C00064=-67979,28424,-28482,-3754,-34675,3756
C00065=-68400,28792,-27858,-3940,-34886,3953
C00066=-68730,28973,-27521,-4089,-35014,4108
C00067=-69037,29117,-27250,-4227,-35120,4253
C00068=-69393,29349,-26877,-4387,-35247,4420
C00069=-69674,29445,-26694,-4514,-35323,4553
C00070=-70060,29860,-26142,-4684,-35468,4732
C00071=-70304,29865,-26089,-4797,-35510,4849
C00072=-70627,30122,-25752,-4941,-35601,5000
C00073=-70918,30296,-25522,-5072,-35669,5138
C00074=-71164,30326,-25459,-5186,-35705,5255
C00075=-71457,30501,-25242,-5318,-35765,5393
C00076=-71733,30639,-25074,-5443,-35813,5524
C00077=-71967,30691,-25005,-5551,-35843,5635
C00078=-72218,30750,-24930,-5666,-35873,5755
C00079=-72465,30799,-24871,-5780,-35899,5873
C00080=-72710,30852,-24810,-5893,-35925,5990
C00081=-72966,30965,-24692,-6010,-35955,6112
C00082=-73173,30942,-24712,-6106,-35968,6211
C00083=-73429,31082,-24572,-6223,-35999,6333
C00084=-73636,31047,-24608,-6320,-36008,6432
C00085=-73903,31282,-24379,-6440,-36046,6558
C00086=-74069,31216,-24438,-6517,-36055,6638
C00087=-74301,31327,-24334,-6623,-36078,6749
C00088=-74474,31420,-24239,-6701,-36101,6831
C00089=-74645,31486,-24172,-6779,-36121,6912
C00090=-74846,31720,-23939,-6867,-36158,7005
C00091=-75032,31871,-23791,-6950,-36185,7093
C00092=-75224,32064,-23602,-7035,-36216,7183
C00093=-75401,32143,-23526,-7115,-36236,7267
C00094=-75588,32410,-23266,-7196,-36273,7354
C00095=-75760,32568,-23110,-7272,-36301,7434
C00096=-75869,32535,-23112,-7319,-36325,7485
C00097=-76045,32754,-22895,-7395,-36359,7566
C00098=-76219,32528,-23127,-7479,-36346,7652
C00099=-76383,32456,-23199,-7555,-36352,7730
EC00000=-29915,-132269
EC00001=-29915,-132269
EC00002=-29915,-132269
EC00003=-29915,-132269
EC00004=-29915,-132269
EC00005=-29915,-132269
EC00006=-29915,-132269
EC00007=-29915,-132269
EC00008=-29915,-132269
EC00009=-29915,-132269
EC00010=-29915,-132269
EC00011=-29915,-132269
EC00012=-29915,-132269
EC00013=-29915,-132269
EC00014=-29915,-132269
EC00015=-29915,-132269
EC00016=-29915,-132269
EC00017=-29915,-132269
EC00018=-29915,-132269
EC00019=-29915,-132269
EC00020=-29915,-132269
EC00021=-29915,-132269
EC00022=-29915,-132269
EC00023=-29915,-132269
EC00024=-29915,-132269
EC00025=-29915,-132269
EC00026=-29915,-132269
EC00027=-29915,-132269
EC00028=-29915,-132269
EC00029=-29915,-132269
EC00030=-29915,-132269
EC00031=-29915,-132269
EC00032=-29915,-132269
EC00033=-29915,-132269
EC00034=-29915,-132269
EC00035=-29915,-132269
EC00036=-29915,-132269
EC00037=-29915,-132269
EC00038=-29915,-132269
EC00039=-29915,-132269
EC00040=-29915,-132269
EC00041=-29915,-132269
EC00042=-29915,-132269
EC00043=-29915,-132269
EC00044=-29915,-132269
EC00045=-29915,-132269
EC00046=-29915,-132269
EC00047=-29915,-132269
EC00048=-29915,-132269
EC00049=-29915,-132269
EC00050=86127,-132269
EC00051=82077,-132214
EC00052=77624,-128947
EC00053=72337,-126096
EC00054=67127,-124482
EC00055=62455,-122425
EC00056=57274,-119855
EC00057=51577,-116947
EC00058=46406,-115585
EC00059=40821,-114321
EC00060=35475,-112465
EC00061=31349,-111040
EC00062=25579,-110125
EC00063=20358,-108875
EC00064=16271,-107933
EC00065=11678,-107361
EC00066=8496,-107361
EC00067=5681,-107440
EC00068=2395,-106596
EC00069=52,-106596
EC00070=-4212,-107361
EC00071=-5936,-107981
EC00072=-9027,-108253
EC00073=-11608,-109368
EC00074=-13319,-109862
EC00075=-15820,-110977
EC00076=-18015,-112465
EC00077=-19526,-115187
EC00078=-21150,-116898
EC00079=-22670,-118632
EC00080=-23969,-121757
EC00081=-25441,-124904
EC00082=-26016,-128344
EC00083=-27336,-131876
EC00084=-27834,-134711
EC00085=-29111,-139366
EC00086=-28534,-144555
EC00087=-29372,-147745
EC00088=-29358,-152329
EC00089=-29351,-156274
EC00090=-29689,-161236
EC00091=-29901,-165227
EC00092=-30184,-169364
EC00093=-30308,-172464
EC00094=-30691,-176607
EC00095=-30775,-180209
EC00096=-29734,-184072
EC00097=-29918,-187701
EC00098=-29996,-187964
EC00099=-29973,-189580
//INST
///DATE 2023/02/17 14:30
///ATTR SC,RW
///GROUP1 RB1
///GROUP2 ST1
NOP
MOVL C00000 V=10.0 +MOVJ EC00000 VJ=10.0
MOVL C00001 V=10.0 +MOVJ EC00001 VJ=10.0
MOVL C00002 V=10.0 +MOVJ EC00002 VJ=10.0
MOVL C00003 V=10.0 +MOVJ EC00003 VJ=10.0
MOVL C00004 V=10.0 +MOVJ EC00004 VJ=10.0
MOVL C00005 V=10.0 +MOVJ EC00005 VJ=10.0
MOVL C00006 V=10.0 +MOVJ EC00006 VJ=10.0
MOVL C00007 V=10.0 +MOVJ EC00007 VJ=10.0
MOVL C00008 V=10.0 +MOVJ EC00008 VJ=10.0
MOVL C00009 V=10.0 +MOVJ EC00009 VJ=10.0
MOVL C00010 V=10.0 +MOVJ EC00010 VJ=10.0
MOVL C00011 V=10.0 +MOVJ EC00011 VJ=10.0
MOVL C00012 V=10.0 +MOVJ EC00012 VJ=10.0
MOVL C00013 V=10.0 +MOVJ EC00013 VJ=10.0
MOVL C00014 V=10.0 +MOVJ EC00014 VJ=10.0
MOVL C00015 V=10.0 +MOVJ EC00015 VJ=10.0
MOVL C00016 V=10.0 +MOVJ EC00016 VJ=10.0
MOVL C00017 V=10.0 +MOVJ EC00017 VJ=10.0
MOVL C00018 V=10.0 +MOVJ EC00018 VJ=10.0
MOVL C00019 V=10.0 +MOVJ EC00019 VJ=10.0
MOVL C00020 V=10.0 +MOVJ EC00020 VJ=10.0
MOVL C00021 V=10.0 +MOVJ EC00021 VJ=10.0
MOVL C00022 V=10.0 +MOVJ EC00022 VJ=10.0
MOVL C00023 V=10.0 +MOVJ EC00023 VJ=10.0
MOVL C00024 V=10.0 +MOVJ EC00024 VJ=10.0
MOVL C00025 V=10.0 +MOVJ EC00025 VJ=10.0
MOVL C00026 V=10.0 +MOVJ EC00026 VJ=10.0
MOVL C00027 V=10.0 +MOVJ EC00027 VJ=10.0
MOVL C00028 V=10.0 +MOVJ EC00028 VJ=10.0
MOVL C00029 V=10.0 +MOVJ EC00029 VJ=10.0
MOVL C00030 V=10.0 +MOVJ EC00030 VJ=10.0
MOVL C00031 V=10.0 +MOVJ EC00031 VJ=10.0
MOVL C00032 V=10.0 +MOVJ EC00032 VJ=10.0
MOVL C00033 V=10.0 +MOVJ EC00033 VJ=10.0
MOVL C00034 V=10.0 +MOVJ EC00034 VJ=10.0
MOVL C00035 V=10.0 +MOVJ EC00035 VJ=10.0
MOVL C00036 V=10.0 +MOVJ EC00036 VJ=10.0
MOVL C00037 V=10.0 +MOVJ EC00037 VJ=10.0
MOVL C00038 V=10.0 +MOVJ EC00038 VJ=10.0
MOVL C00039 V=10.0 +MOVJ EC00039 VJ=10.0
MOVL C00040 V=10.0 +MOVJ EC00040 VJ=10.0
MOVL C00041 V=10.0 +MOVJ EC00041 VJ=10.0
MOVL C00042 V=10.0 +MOVJ EC00042 VJ=10.0
MOVL C00043 V=10.0 +MOVJ EC00043 VJ=10.0
MOVL C00044 V=10.0 +MOVJ EC00044 VJ=10.0
MOVL C00045 V=10.0 +MOVJ EC00045 VJ=10.0
MOVL C00046 V=10.0 +MOVJ EC00046 VJ=10.0
MOVL C00047 V=10.0 +MOVJ EC00047 VJ=10.0
MOVL C00048 V=10.0 +MOVJ EC00048 VJ=10.0
MOVL C00049 V=10.0 +MOVJ EC00049 VJ=10.0
MOVL C00050 V=10.0 +MOVJ EC00050 VJ=10.0
MOVL C00051 V=10.0 +MOVJ EC00051 VJ=10.0
MOVL C00052 V=10.0 +MOVJ EC00052 VJ=10.0
MOVL C00053 V=10.0 +MOVJ EC00053 VJ=10.0
MOVL C00054 V=10.0 +MOVJ EC00054 VJ=10.0
MOVL C00055 V=10.0 +MOVJ EC00055 VJ=10.0
MOVL C00056 V=10.0 +MOVJ EC00056 VJ=10.0
MOVL C00057 V=10.0 +MOVJ EC00057 VJ=10.0
MOVL C00058 V=10.0 +MOVJ EC00058 VJ=10.0
MOVL C00059 V=10.0 +MOVJ EC00059 VJ=10.0
MOVL C00060 V=10.0 +MOVJ EC00060 VJ=10.0
MOVL C00061 V=10.0 +MOVJ EC00061 VJ=10.0
MOVL C00062 V=10.0 +MOVJ EC00062 VJ=10.0
MOVL C00063 V=10.0 +MOVJ EC00063 VJ=10.0
MOVL C00064 V=10.0 +MOVJ EC00064 VJ=10.0
MOVL C00065 V=10.0 +MOVJ EC00065 VJ=10.0
MOVL C00066 V=10.0 +MOVJ EC00066 VJ=10.0
MOVL C00067 V=10.0 +MOVJ EC00067 VJ=10.0
MOVL C00068 V=10.0 +MOVJ EC00068 VJ=10.0
MOVL C00069 V=10.0 +MOVJ EC00069 VJ=10.0
MOVL C00070 V=10.0 +MOVJ EC00070 VJ=10.0
MOVL C00071 V=10.0 +MOVJ EC00071 VJ=10.0
MOVL C00072 V=10.0 +MOVJ EC00072 VJ=10.0
MOVL C00073 V=10.0 +MOVJ EC00073 VJ=10.0
MOVL C00074 V=10.0 +MOVJ EC00074 VJ=10.0
MOVL C00075 V=10.0 +MOVJ EC00075 VJ=10.0
MOVL C00076 V=10.0 +MOVJ EC00076 VJ=10.0
MOVL C00077 V=10.0 +MOVJ EC00077 VJ=10.0
MOVL C00078 V=10.0 +MOVJ EC00078 VJ=10.0
MOVL C00079 V=10.0 +MOVJ EC00079 VJ=10.0
MOVL C00080 V=10.0 +MOVJ EC00080 VJ=10.0
MOVL C00081 V=10.0 +MOVJ EC00081 VJ=10.0
MOVL C00082 V=10.0 +MOVJ EC00082 VJ=10.0
MOVL C00083 V=10.0 +MOVJ EC00083 VJ=10.0
MOVL C00084 V=10.0 +MOVJ EC00084 VJ=10.0
MOVL C00085 V=10.0 +MOVJ EC00085 VJ=10.0
MOVL C00086 V=10.0 +MOVJ EC00086 VJ=10.0
MOVL C00087 V=10.0 +MOVJ EC00087 VJ=10.0
MOVL C00088 V=10.0 +MOVJ EC00088 VJ=10.0
MOVL C00089 V=10.0 +MOVJ EC00089 VJ=10.0
MOVL C00090 V=10.0 +MOVJ EC00090 VJ=10.0
MOVL C00091 V=10.0 +MOVJ EC00091 VJ=10.0
MOVL C00092 V=10.0 +MOVJ EC00092 VJ=10.0
MOVL C00093 V=10.0 +MOVJ EC00093 VJ=10.0
MOVL C00094 V=10.0 +MOVJ EC00094 VJ=10.0
MOVL C00095 V=10.0 +MOVJ EC00095 VJ=10.0
MOVL C00096 V=10.0 +MOVJ EC00096 VJ=10.0
MOVL C00097 V=10.0 +MOVJ EC00097 VJ=10.0
MOVL C00098 V=10.0 +MOVJ EC00098 VJ=10.0
MOVL C00099 V=10.0 +MOVJ EC00099 VJ=10.0
END
