/JOB
//NAME AAA
//POS
///NPOS 7294,0,7294,0,0,0
///TOOL 12
///POSTYPE PULSE
///PULSE
C00000=-24941,65168,7773,14822,-40919,-16206
C00001=-24941,65168,7773,14822,-40919,-16206
C00002=-24941,65168,7773,14822,-40919,-16206
C00003=-24941,65168,7773,14822,-40919,-16206
C00004=-24941,65168,7773,14822,-40919,-16206
C00005=-24941,65168,7773,14822,-40919,-16206
C00006=-24941,65168,7773,14822,-40919,-16206
C00007=-24941,65168,7773,14822,-40919,-16206
C00008=-24941,65168,7773,14822,-40919,-16206
C00009=-24941,65168,7773,14822,-40919,-16206
C00010=-24941,65168,7773,14822,-40919,-16206
C00011=-24941,65168,7773,14822,-40919,-16206
C00012=-24941,65168,7773,14822,-40919,-16206
C00013=-24941,65168,7773,14822,-40919,-16206
C00014=-24941,65168,7773,14822,-40919,-16206
C00015=-24941,65168,7773,14822,-40919,-16206
C00016=-24941,65168,7773,14822,-40919,-16206
C00017=-24941,65168,7773,14822,-40919,-16206
C00018=-24941,65168,7773,14822,-40919,-16206
C00019=-24941,65168,7773,14822,-40919,-16206
C00020=-24941,65168,7773,14822,-40919,-16206
C00021=-24941,65168,7773,14822,-40919,-16206
C00022=-24941,65168,7773,14822,-40919,-16206
C00023=-24941,65168,7773,14822,-40919,-16206
C00024=-24941,65168,7773,14822,-40919,-16206
C00025=-24941,65168,7773,14822,-40919,-16206
C00026=-24941,65168,7773,14822,-40919,-16206
C00027=-24941,65168,7773,14822,-40919,-16206
C00028=-24941,65168,7773,14822,-40919,-16206
C00029=-24941,65168,7773,14822,-40919,-16206
C00030=-24941,65168,7773,14822,-40919,-16206
C00031=-24941,65168,7773,14822,-40919,-16206
C00032=-24941,65168,7773,14822,-40919,-16206
C00033=-24941,65168,7773,14822,-40919,-16206
C00034=-24941,65168,7773,14822,-40919,-16206
C00035=-24941,65168,7773,14822,-40919,-16206
C00036=-24941,65168,7773,14822,-40919,-16206
C00037=-24941,65168,7773,14822,-40919,-16206
C00038=-24941,65168,7773,14822,-40919,-16206
C00039=-24941,65168,7773,14822,-40919,-16206
C00040=-24941,65168,7773,14822,-40919,-16206
C00041=-24941,65168,7773,14822,-40919,-16206
C00042=-24941,65167,7774,14822,-40920,-16205
C00043=-24942,65167,7776,14821,-40921,-16205
C00044=-24942,65166,7778,14820,-40923,-16204
C00045=-24943,65165,7780,14820,-40924,-16203
C00046=-24944,65164,7782,14819,-40926,-16203
C00047=-24945,65163,7784,14818,-40927,-16202
C00048=-24946,65162,7786,14817,-40929,-16202
C00049=-24946,65161,7788,14817,-40930,-16201
C00050=-24947,65161,7790,14816,-40932,-16200
C00051=-24948,65160,7792,14815,-40933,-16200
C00052=-24949,65159,7794,14814,-40935,-16199
C00053=-24949,65158,7796,14814,-40936,-16198
C00054=-24950,65157,7798,14813,-40937,-16198
C00055=-24951,65156,7799,14812,-40939,-16197
C00056=-24952,65155,7801,14811,-40940,-16197
C00057=-24952,65155,7803,14811,-40942,-16196
C00058=-24953,65154,7805,14810,-40943,-16195
C00059=-24954,65153,7807,14809,-40945,-16195
C00060=-24955,65152,7809,14808,-40946,-16194
C00061=-24955,65151,7811,14808,-40948,-16194
C00062=-24956,65150,7813,14807,-40949,-16193
C00063=-24957,65149,7815,14806,-40951,-16192
C00064=-24958,65148,7817,14805,-40952,-16192
C00065=-24958,65148,7819,14805,-40954,-16191
C00066=-24959,65147,7821,14804,-40955,-16191
C00067=-24960,65146,7823,14803,-40957,-16190
C00068=-24961,65145,7825,14802,-40958,-16189
C00069=-24962,65144,7827,14802,-40960,-16189
C00070=-24962,65143,7829,14801,-40961,-16188
C00071=-24963,65142,7831,14800,-40963,-16187
C00072=-24964,65142,7833,14800,-40964,-16187
C00073=-24965,65141,7835,14799,-40966,-16186
C00074=-24965,65140,7837,14798,-40967,-16186
C00075=-24966,65139,7839,14797,-40968,-16185
C00076=-24967,65138,7841,14797,-40970,-16184
C00077=-24968,65137,7843,14796,-40971,-16184
C00078=-24968,65136,7845,14795,-40973,-16183
C00079=-24969,65135,7847,14794,-40974,-16183
C00080=-24970,65135,7848,14794,-40976,-16182
C00081=-24971,65134,7850,14793,-40977,-16181
C00082=-24971,65133,7852,14792,-40979,-16181
C00083=-24972,65132,7854,14791,-40980,-16180
C00084=-24973,65131,7856,14791,-40982,-16179
C00085=-24974,65130,7858,14790,-40983,-16179
C00086=-24974,65129,7860,14789,-40985,-16178
C00087=-24975,65129,7862,14788,-40986,-16178
C00088=-24976,65128,7864,14788,-40987,-16177
C00089=-24977,65127,7866,14787,-40989,-16176
C00090=-24977,65126,7868,14786,-40990,-16176
C00091=-24978,65125,7870,14785,-40992,-16175
C00092=-24979,65124,7872,14785,-40993,-16175
C00093=-24980,65123,7874,14784,-40995,-16174
C00094=-24980,65123,7875,14783,-40996,-16173
C00095=-24981,65122,7877,14783,-40998,-16173
C00096=-24982,65121,7879,14782,-40999,-16172
C00097=-24983,65120,7881,14781,-41000,-16172
C00098=-24983,65119,7883,14780,-41002,-16171
C00099=-24984,65118,7885,14780,-41003,-16170
C00100=-24985,65118,7887,14779,-41005,-16170
C00101=-24986,65117,7889,14778,-41006,-16169
C00102=-24986,65116,7891,14777,-41008,-16169
C00103=-24987,65115,7893,14777,-41009,-16168
C00104=-24988,65114,7895,14776,-41011,-16167
C00105=-24989,65113,7896,14775,-41012,-16167
C00106=-24989,65113,7898,14775,-41013,-16166
C00107=-24990,65112,7900,14774,-41015,-16166
C00108=-24991,65111,7902,14773,-41016,-16165
C00109=-24992,65110,7904,14772,-41018,-16164
C00110=-24992,65109,7906,14772,-41019,-16164
C00111=-24993,65108,7908,14771,-41021,-16163
C00112=-24994,65107,7910,14770,-41022,-16163
C00113=-24995,65107,7912,14769,-41024,-16162
C00114=-24995,65106,7914,14769,-41025,-16161
C00115=-24996,65105,7916,14768,-41027,-16161
C00116=-24997,65104,7918,14767,-41028,-16160
C00117=-24998,65103,7920,14766,-41029,-16160
C00118=-24998,65102,7921,14766,-41031,-16159
C00119=-24999,65101,7923,14765,-41032,-16158
C00120=-25000,65101,7925,14764,-41034,-16158
C00121=-25000,65100,7927,14764,-41035,-16157
C00122=-25001,65099,7929,14763,-41037,-16157
C00123=-25002,65098,7931,14762,-41038,-16156
C00124=-25003,65097,7933,14761,-41040,-16155
C00125=-25003,65096,7935,14761,-41041,-16155
C00126=-25004,65096,7937,14760,-41042,-16154
C00127=-25005,65095,7938,14759,-41044,-16154
C00128=-25006,65094,7940,14759,-41045,-16153
C00129=-25006,65093,7942,14758,-41047,-16153
C00130=-25007,65092,7944,14757,-41048,-16152
C00131=-25008,65092,7946,14756,-41050,-16151
C00132=-25009,65091,7948,14756,-41051,-16151
C00133=-25009,65090,7950,14755,-41052,-16150
C00134=-25010,65089,7952,14754,-41054,-16149
C00135=-25011,65088,7954,14753,-41055,-16149
C00136=-25012,65088,7956,14753,-41057,-16148
C00137=-25012,65087,7958,14752,-41058,-16148
C00138=-25013,65086,7960,14751,-41060,-16147
C00139=-25014,65085,7962,14750,-41061,-16146
C00140=-25015,65084,7964,14750,-41062,-16146
C00141=-25016,65083,7966,14749,-41064,-16145
C00142=-25016,65083,7968,14748,-41065,-16145
C00143=-25017,65082,7969,14748,-41067,-16144
C00144=-25018,65081,7971,14747,-41068,-16143
C00145=-25019,65080,7974,14746,-41070,-16143
C00146=-25019,65079,7975,14745,-41071,-16142
C00147=-25020,65079,7977,14745,-41073,-16142
C00148=-25021,65078,7979,14744,-41074,-16141
C00149=-25022,65077,7981,14743,-41075,-16140
C00150=-25022,65076,7983,14742,-41077,-16140
C00151=-25023,65075,7985,14742,-41078,-16139
C00152=-25024,65075,7987,14741,-41080,-16139
C00153=-25025,65074,7989,14740,-41081,-16138
C00154=-25025,65073,7991,14740,-41083,-16137
C00155=-25026,65072,7993,14739,-41084,-16137
C00156=-25027,65071,7995,14738,-41086,-16136
C00157=-25028,65070,7997,14737,-41087,-16136
C00158=-25028,65070,7999,14737,-41088,-16135
C00159=-25029,65069,8001,14736,-41090,-16134
C00160=-25030,65068,8002,14735,-41091,-16134
C00161=-25031,65067,8005,14734,-41093,-16133
C00162=-25031,65066,8006,14734,-41094,-16133
C00163=-25032,65066,8008,14733,-41096,-16132
C00164=-25033,65065,8010,14732,-41097,-16131
C00165=-25034,65064,8012,14732,-41098,-16131
C00166=-25034,65063,8014,14731,-41100,-16130
C00167=-25035,65062,8016,14730,-41101,-16130
C00168=-25036,65061,8018,14729,-41103,-16129
C00169=-25037,65061,8020,14729,-41104,-16128
C00170=-25037,65060,8022,14728,-41106,-16128
C00171=-25038,65059,8024,14727,-41107,-16127
C00172=-25039,65058,8026,14726,-41108,-16127
C00173=-25040,65057,8028,14726,-41110,-16126
C00174=-25040,65057,8030,14725,-41111,-16125
C00175=-25041,65056,8032,14724,-41113,-16125
C00176=-25042,65055,8033,14724,-41114,-16124
C00177=-25043,65054,8035,14723,-41116,-16124
C00178=-25043,65053,8037,14722,-41117,-16123
C00179=-25044,65053,8039,14721,-41118,-16122
C00180=-25045,65052,8041,14721,-41120,-16122
C00181=-25046,65051,8043,14720,-41121,-16121
C00182=-25046,65050,8045,14719,-41123,-16121
C00183=-25047,65049,8047,14719,-41124,-16120
C00184=-25048,65049,8049,14718,-41126,-16119
C00185=-25049,65048,8051,14717,-41127,-16119
C00186=-25049,65047,8053,14716,-41128,-16118
C00187=-25050,65046,8055,14716,-41130,-16118
C00188=-25051,65045,8056,14715,-41131,-16117
C00189=-25052,65045,8058,14714,-41133,-16116
C00190=-25052,65044,8060,14713,-41134,-16116
C00191=-25053,65043,8062,14713,-41136,-16115
C00192=-25054,65042,8064,14712,-41137,-16115
C00193=-25055,65041,8066,14711,-41138,-16114
C00194=-25055,65041,8068,14711,-41140,-16113
C00195=-25056,65040,8070,14710,-41141,-16113
C00196=-25057,65039,8072,14709,-41143,-16112
C00197=-25058,65038,8074,14708,-41144,-16112
C00198=-25058,65037,8076,14708,-41146,-16111
C00199=-25059,65037,8078,14707,-41147,-16110
C00200=-25060,65036,8079,14706,-41148,-16110
C00201=-25061,65035,8081,14706,-41150,-16109
C00202=-25061,65034,8083,14705,-41151,-16109
C00203=-25062,65033,8085,14704,-41153,-16108
C00204=-25063,65033,8087,14703,-41154,-16107
C00205=-25064,65032,8089,14703,-41156,-16107
C00206=-25064,65031,8091,14702,-41157,-16106
C00207=-25065,65030,8093,14701,-41158,-16106
C00208=-25066,65029,8095,14701,-41160,-16105
C00209=-25067,65028,8097,14700,-41161,-16104
C00210=-25067,65028,8099,14699,-41163,-16104
C00211=-25068,65027,8101,14698,-41164,-16103
C00212=-25069,65026,8102,14698,-41165,-16103
C00213=-25070,65025,8104,14697,-41167,-16102
C00214=-25070,65025,8106,14696,-41168,-16102
C00215=-25071,65024,8108,14695,-41170,-16101
C00216=-25072,65023,8110,14695,-41171,-16100
C00217=-25073,65022,8112,14694,-41172,-16100
C00218=-25073,65022,8114,14693,-41174,-16099
C00219=-25074,65021,8116,14693,-41175,-16099
C00220=-25075,65020,8118,14692,-41177,-16098
C00221=-25076,65019,8120,14691,-41178,-16097
C00222=-25076,65018,8122,14690,-41180,-16097
C00223=-25077,65018,8124,14690,-41181,-16096
C00224=-25078,65017,8126,14689,-41182,-16096
C00225=-25079,65016,8127,14688,-41184,-16095
C00226=-25080,65015,8130,14688,-41185,-16094
C00227=-25080,65015,8131,14687,-41187,-16094
C00228=-25081,65014,8133,14686,-41188,-16093
C00229=-25082,65013,8135,14685,-41189,-16093
C00230=-25083,65012,8137,14685,-41191,-16092
C00231=-25083,65012,8139,14684,-41192,-16091
C00232=-25084,65011,8141,14683,-41194,-16091
C00233=-25085,65010,8143,14683,-41195,-16090
C00234=-25086,65009,8145,14682,-41197,-16090
C00235=-25086,65008,8147,14681,-41198,-16089
C00236=-25087,65008,8149,14680,-41199,-16088
C00237=-25088,65007,8151,14680,-41201,-16088
C00238=-25089,65006,8153,14679,-41202,-16087
C00239=-25089,65005,8155,14678,-41204,-16087
C00240=-25090,65005,8157,14677,-41205,-16086
C00241=-25091,65004,8159,14677,-41207,-16085
C00242=-25092,65003,8161,14676,-41208,-16085
C00243=-25092,65002,8163,14675,-41209,-16084
C00244=-25093,65002,8165,14675,-41211,-16084
C00245=-25094,65001,8166,14674,-41212,-16083
C00246=-25095,65000,8168,14673,-41214,-16082
C00247=-25095,64999,8170,14672,-41215,-16082
C00248=-25096,64998,8172,14672,-41216,-16081
C00249=-25097,64998,8174,14671,-41218,-16081
C00250=-25098,64997,8176,14670,-41219,-16080
C00251=-25099,64996,8178,14670,-41221,-16079
C00252=-25099,64995,8180,14669,-41222,-16079
C00253=-25100,64995,8182,14668,-41224,-16078
C00254=-25101,64994,8184,14667,-41225,-16078
C00255=-25102,64993,8186,14667,-41226,-16077
C00256=-25102,64992,8188,14666,-41228,-16076
C00257=-25103,64992,8190,14665,-41229,-16076
C00258=-25104,64991,8192,14665,-41231,-16075
C00259=-25105,64990,8193,14664,-41232,-16075
C00260=-25105,64989,8195,14663,-41233,-16074
C00261=-25106,64989,8197,14662,-41235,-16073
C00262=-25107,64988,8199,14662,-41236,-16073
C00263=-25107,64987,8201,14661,-41237,-16072
C00264=-25108,64986,8203,14660,-41239,-16072
C00265=-25109,64985,8205,14660,-41240,-16071
C00266=-25110,64985,8207,14659,-41242,-16071
C00267=-25110,64984,8209,14658,-41243,-16070
C00268=-25111,64983,8210,14658,-41245,-16069
C00269=-25112,64983,8212,14657,-41246,-16069
C00270=-25113,64982,8214,14656,-41247,-16068
C00271=-25113,64981,8216,14655,-41249,-16068
C00272=-25114,64980,8218,14655,-41250,-16067
C00273=-25115,64980,8220,14654,-41251,-16066
C00274=-25116,64979,8222,14653,-41253,-16066
C00275=-25116,64978,8224,14653,-41254,-16065
C00276=-25117,64977,8226,14652,-41256,-16065
C00277=-25118,64976,8228,14651,-41257,-16064
C00278=-25119,64976,8229,14650,-41258,-16063
C00279=-25119,64975,8231,14650,-41260,-16063
C00280=-25120,64974,8233,14649,-41261,-16062
C00281=-25121,64973,8235,14648,-41263,-16062
C00282=-25122,64973,8237,14648,-41264,-16061
C00283=-25122,64972,8239,14647,-41265,-16061
C00284=-25123,64971,8241,14646,-41267,-16060
C00285=-25124,64970,8243,14646,-41268,-16059
C00286=-25125,64970,8245,14645,-41270,-16059
C00287=-25125,64969,8247,14644,-41271,-16058
C00288=-25126,64968,8248,14643,-41272,-16058
C00289=-25127,64967,8250,14643,-41274,-16057
C00290=-25128,64967,8252,14642,-41275,-16056
C00291=-25128,64966,8254,14641,-41276,-16056
C00292=-25129,64965,8256,14641,-41278,-16055
C00293=-25130,64964,8258,14640,-41279,-16055
C00294=-25131,64964,8260,14639,-41281,-16054
C00295=-25131,64963,8262,14639,-41282,-16054
C00296=-25132,64962,8264,14638,-41283,-16053
C00297=-25133,64961,8266,14637,-41285,-16052
C00298=-25134,64961,8267,14636,-41286,-16052
C00299=-25134,64960,8269,14636,-41287,-16051
C00300=-25135,64959,8271,14635,-41289,-16051
C00301=-25136,64959,8273,14634,-41290,-16050
C00302=-25136,64958,8275,14634,-41292,-16049
C00303=-25137,64957,8277,14633,-41293,-16049
C00304=-25138,64956,8279,14632,-41294,-16048
C00305=-25139,64956,8281,14632,-41296,-16048
C00306=-25140,64955,8283,14631,-41297,-16047
C00307=-25140,64954,8285,14630,-41299,-16047
C00308=-25141,64954,8286,14629,-41300,-16046
C00309=-25142,64953,8288,14629,-41301,-16045
C00310=-25143,64952,8290,14628,-41303,-16045
C00311=-25143,64951,8292,14627,-41304,-16044
C00312=-25144,64951,8294,14627,-41305,-16044
C00313=-25145,64950,8296,14626,-41307,-16043
C00314=-25146,64949,8298,14625,-41308,-16042
C00315=-25146,64948,8300,14624,-41310,-16042
C00316=-25147,64948,8302,14624,-41311,-16041
C00317=-25148,64947,8304,14623,-41312,-16041
C00318=-25149,64946,8306,14622,-41314,-16040
C00319=-25149,64946,8308,14622,-41315,-16039
C00320=-25150,64945,8309,14621,-41317,-16039
C00321=-25151,64944,8311,14620,-41318,-16038
C00322=-25152,64943,8313,14620,-41319,-16038
C00323=-25152,64943,8315,14619,-41321,-16037
C00324=-25153,64942,8317,14618,-41322,-16036
C00325=-25154,64941,8319,14617,-41324,-16036
C00326=-25155,64941,8321,14617,-41325,-16035
C00327=-25155,64940,8323,14616,-41326,-16035
C00328=-25156,64939,8325,14615,-41328,-16034
C00329=-25157,64938,8327,14615,-41329,-16034
C00330=-25158,64938,8329,14614,-41330,-16033
C00331=-25158,64937,8331,14613,-41332,-16032
C00332=-25159,64936,8333,14613,-41333,-16032
C00333=-25160,64935,8335,14612,-41335,-16031
C00334=-25161,64935,8337,14611,-41336,-16031
C00335=-25161,64934,8338,14610,-41337,-16030
C00336=-25162,64933,8340,14610,-41339,-16029
C00337=-25163,64933,8342,14609,-41340,-16029
C00338=-25164,64932,8344,14608,-41341,-16028
C00339=-25164,64931,8346,14608,-41343,-16028
C00340=-25165,64930,8348,14607,-41344,-16027
C00341=-25166,64930,8350,14606,-41346,-16027
C00342=-25167,64929,8352,14605,-41347,-16026
C00343=-25167,64928,8354,14605,-41348,-16025
C00344=-25168,64928,8356,14604,-41350,-16025
C00345=-25169,64927,8358,14603,-41351,-16024
C00346=-25170,64926,8359,14603,-41353,-16024
C00347=-25170,64925,8361,14602,-41354,-16023
C00348=-25171,64925,8363,14601,-41355,-16022
C00349=-25172,64924,8365,14601,-41357,-16022
C00350=-25173,64923,8367,14600,-41358,-16021
C00351=-25173,64923,8369,14599,-41359,-16021
C00352=-25174,64922,8371,14599,-41361,-16020
C00353=-25175,64921,8373,14598,-41362,-16020
C00354=-25176,64920,8375,14597,-41363,-16019
C00355=-25176,64920,8377,14596,-41365,-16018
C00356=-25177,64919,8379,14596,-41366,-16018
C00357=-25178,64918,8380,14595,-41368,-16017
C00358=-25179,64918,8382,14594,-41369,-16017
C00359=-25179,64917,8384,14594,-41370,-16016
C00360=-25180,64916,8386,14593,-41372,-16015
C00361=-25181,64915,8388,14592,-41373,-16015
C00362=-25182,64915,8390,14592,-41375,-16014
C00363=-25182,64914,8392,14591,-41376,-16014
C00364=-25183,64913,8394,14590,-41377,-16013
C00365=-25184,64913,8396,14589,-41379,-16013
C00366=-25185,64912,8397,14589,-41380,-16012
C00367=-25185,64911,8399,14588,-41381,-16011
C00368=-25186,64910,8401,14587,-41383,-16011
C00369=-25187,64910,8403,14587,-41384,-16010
C00370=-25188,64909,8405,14586,-41385,-16010
C00371=-25188,64908,8407,14585,-41387,-16009
C00372=-25189,64908,8409,14585,-41388,-16008
C00373=-25190,64907,8411,14584,-41390,-16008
C00374=-25191,64906,8413,14583,-41391,-16007
C00375=-25191,64905,8415,14582,-41392,-16007
C00376=-25192,64905,8417,14582,-41394,-16006
C00377=-25193,64904,8418,14581,-41395,-16006
C00378=-25194,64903,8420,14580,-41396,-16005
C00379=-25194,64903,8422,14580,-41398,-16004
C00380=-25195,64902,8424,14579,-41399,-16004
C00381=-25196,64901,8426,14578,-41401,-16003
C00382=-25197,64900,8428,14578,-41402,-16003
C00383=-25197,64900,8430,14577,-41403,-16002
C00384=-25198,64899,8432,14576,-41405,-16001
C00385=-25199,64898,8434,14576,-41406,-16001
C00386=-25200,64898,8435,14575,-41407,-16000
C00387=-25200,64897,8437,14574,-41409,-16000
C00388=-25201,64896,8439,14574,-41410,-15999
C00389=-25202,64896,8441,14573,-41411,-15999
C00390=-25203,64895,8443,14572,-41413,-15998
C00391=-25203,64894,8445,14571,-41414,-15997
C00392=-25204,64894,8447,14571,-41415,-15997
C00393=-25205,64893,8449,14570,-41417,-15996
C00394=-25206,64892,8451,14569,-41418,-15996
C00395=-25206,64891,8453,14569,-41420,-15995
C00396=-25207,64891,8455,14568,-41421,-15994
C00397=-25208,64890,8456,14567,-41422,-15994
C00398=-25209,64889,8458,14567,-41424,-15993
C00399=-25209,64889,8460,14566,-41425,-15993
C00400=-25210,64888,8462,14565,-41426,-15992
C00401=-25211,64887,8464,14564,-41428,-15992
C00402=-25212,64887,8466,14564,-41429,-15991
C00403=-25212,64886,8468,14563,-41431,-15990
C00404=-25213,64885,8470,14562,-41432,-15990
C00405=-25214,64885,8472,14562,-41433,-15989
C00406=-25215,64884,8474,14561,-41435,-15989
C00407=-25216,64883,8476,14560,-41436,-15988
C00408=-25216,64883,8478,14560,-41437,-15987
C00409=-25217,64882,8480,14559,-41439,-15987
C00410=-25218,64881,8481,14558,-41440,-15986
C00411=-25218,64881,8483,14558,-41441,-15986
C00412=-25219,64880,8485,14557,-41443,-15985
C00413=-25220,64879,8487,14556,-41444,-15985
C00414=-25221,64879,8489,14555,-41446,-15984
C00415=-25222,64878,8491,14555,-41447,-15983
C00416=-25222,64877,8493,14554,-41448,-15983
C00417=-25223,64877,8495,14553,-41450,-15982
C00418=-25224,64876,8497,14553,-41451,-15982
C00419=-25225,64875,8499,14552,-41452,-15981
C00420=-25225,64874,8501,14551,-41454,-15980
C00421=-25226,64874,8503,14551,-41455,-15980
C00422=-25227,64873,8505,14550,-41456,-15979
C00423=-25228,64872,8506,14549,-41458,-15979
C00424=-25228,64872,8508,14549,-41459,-15978
C00425=-25229,64871,8510,14548,-41461,-15978
C00426=-25230,64870,8512,14547,-41462,-15977
C00427=-25231,64870,8514,14546,-41463,-15976
C00428=-25231,64869,8516,14546,-41465,-15976
C00429=-25232,64868,8518,14545,-41466,-15975
C00430=-25233,64868,8520,14544,-41467,-15975
C00431=-25234,64867,8522,14544,-41469,-15974
C00432=-25234,64866,8524,14543,-41470,-15973
C00433=-25235,64866,8526,14542,-41472,-15973
C00434=-25236,64865,8528,14542,-41473,-15972
C00435=-25237,64864,8529,14541,-41474,-15972
C00436=-25237,64864,8531,14540,-41476,-15971
C00437=-25238,64863,8533,14539,-41477,-15971
C00438=-25239,64862,8535,14539,-41478,-15970
C00439=-25240,64862,8537,14538,-41480,-15969
C00440=-25240,64861,8539,14537,-41481,-15969
C00441=-25241,64860,8541,14537,-41482,-15968
C00442=-25242,64860,8543,14536,-41484,-15968
C00443=-25243,64859,8545,14535,-41485,-15967
C00444=-25243,64858,8547,14535,-41486,-15967
C00445=-25244,64858,8548,14534,-41488,-15966
C00446=-25245,64857,8551,14533,-41489,-15965
C00447=-25246,64856,8552,14533,-41490,-15965
C00448=-25246,64855,8554,14532,-41492,-15964
C00449=-25247,64855,8556,14531,-41493,-15964
C00450=-25248,64854,8558,14531,-41494,-15963
C00451=-25249,64853,8560,14530,-41496,-15962
C00452=-25249,64853,8562,14529,-41497,-15962
C00453=-25250,64852,8564,14528,-41499,-15961
C00454=-25251,64851,8566,14528,-41500,-15961
C00455=-25252,64851,8568,14527,-41501,-15960
C00456=-25252,64850,8569,14526,-41503,-15960
C00457=-25253,64849,8571,14526,-41504,-15959
C00458=-25254,64849,8573,14525,-41505,-15958
C00459=-25255,64848,8575,14524,-41507,-15958
C00460=-25255,64847,8577,14524,-41508,-15957
C00461=-25256,64847,8579,14523,-41509,-15957
C00462=-25257,64846,8581,14522,-41511,-15956
C00463=-25258,64845,8583,14522,-41512,-15955
C00464=-25258,64845,8585,14521,-41513,-15955
C00465=-25259,64844,8587,14520,-41515,-15954
C00466=-25260,64843,8589,14520,-41516,-15954
C00467=-25261,64843,8591,14519,-41518,-15953
C00468=-25261,64842,8592,14518,-41519,-15953
C00469=-25262,64841,8594,14517,-41520,-15952
C00470=-25263,64841,8596,14517,-41522,-15951
C00471=-25264,64840,8598,14516,-41523,-15951
C00472=-25265,64839,8600,14515,-41524,-15950
C00473=-25265,64839,8602,14515,-41526,-15950
C00474=-25266,64838,8604,14514,-41527,-15949
C00475=-25267,64837,8606,14513,-41528,-15949
C00476=-25267,64837,8608,14513,-41530,-15948
C00477=-25268,64836,8609,14512,-41531,-15947
C00478=-25269,64835,8611,14511,-41532,-15947
C00479=-25270,64835,8613,14511,-41534,-15946
C00480=-25270,64834,8615,14510,-41535,-15946
C00481=-25271,64833,8617,14509,-41536,-15945
C00482=-25272,64833,8619,14509,-41538,-15945
C00483=-25273,64832,8621,14508,-41539,-15944
C00484=-25273,64832,8623,14507,-41540,-15943
C00485=-25274,64831,8625,14507,-41542,-15943
C00486=-25275,64830,8627,14506,-41543,-15942
C00487=-25276,64830,8629,14505,-41544,-15942
C00488=-25277,64829,8631,14504,-41546,-15941
C00489=-25277,64828,8632,14504,-41547,-15940
C00490=-25278,64828,8634,14503,-41548,-15940
C00491=-25279,64827,8636,14502,-41550,-15939
C00492=-25280,64826,8638,14502,-41551,-15939
C00493=-25280,64826,8640,14501,-41553,-15938
C00494=-25281,64825,8642,14500,-41554,-15938
C00495=-25282,64824,8644,14500,-41555,-15937
C00496=-25283,64824,8646,14499,-41557,-15936
C00497=-25283,64823,8648,14498,-41558,-15936
C00498=-25284,64823,8650,14498,-41559,-15935
C00499=-25285,64822,8652,14497,-41561,-15935
C00500=-25286,64821,8654,14496,-41562,-15934
C00501=-25286,64821,8656,14496,-41563,-15933
C00502=-25287,64820,8658,14495,-41565,-15933
C00503=-25288,64819,8659,14494,-41566,-15932
C00504=-25289,64819,8661,14494,-41567,-15932
C00505=-25289,64818,8663,14493,-41569,-15931
C00506=-25290,64817,8665,14492,-41570,-15931
C00507=-25291,64817,8667,14491,-41571,-15930
C00508=-25292,64816,8669,14491,-41573,-15929
C00509=-25293,64815,8671,14490,-41574,-15929
C00510=-25293,64815,8673,14489,-41575,-15928
C00511=-25294,64814,8675,14489,-41577,-15928
C00512=-25295,64814,8677,14488,-41578,-15927
C00513=-25296,64813,8679,14487,-41579,-15927
C00514=-25296,64812,8681,14487,-41581,-15926
C00515=-25297,64812,8682,14486,-41582,-15925
C00516=-25298,64811,8684,14485,-41583,-15925
C00517=-25299,64810,8686,14485,-41585,-15924
C00518=-25299,64810,8688,14484,-41586,-15924
C00519=-25300,64809,8690,14483,-41588,-15923
C00520=-25301,64808,8692,14483,-41589,-15923
C00521=-25302,64808,8694,14482,-41590,-15922
C00522=-25302,64807,8696,14481,-41592,-15921
C00523=-25303,64807,8698,14480,-41593,-15921
C00524=-25304,64806,8700,14480,-41594,-15920
C00525=-25305,64805,8702,14479,-41596,-15920
C00526=-25305,64805,8703,14478,-41597,-15919
C00527=-25306,64804,8705,14478,-41598,-15919
C00528=-25307,64803,8707,14477,-41599,-15918
C00529=-25308,64803,8709,14476,-41601,-15917
C00530=-25308,64802,8711,14476,-41602,-15917
C00531=-25309,64801,8713,14475,-41604,-15916
C00532=-25310,64801,8715,14474,-41605,-15916
C00533=-25311,64800,8717,14474,-41606,-15915
C00534=-25311,64800,8718,14473,-41607,-15915
C00535=-25312,64799,8720,14472,-41609,-15914
C00536=-25313,64798,8722,14472,-41610,-15913
C00537=-25314,64798,8724,14471,-41611,-15913
C00538=-25314,64797,8726,14470,-41613,-15912
C00539=-25315,64796,8728,14470,-41614,-15912
C00540=-25316,64796,8730,14469,-41615,-15911
C00541=-25317,64795,8732,14468,-41617,-15911
C00542=-25317,64795,8734,14468,-41618,-15910
C00543=-25318,64794,8735,14467,-41619,-15909
C00544=-25319,64793,8737,14466,-41621,-15909
C00545=-25320,64793,8739,14466,-41622,-15908
C00546=-25320,64792,8741,14465,-41623,-15908
C00547=-25321,64791,8743,14464,-41625,-15907
C00548=-25322,64791,8745,14464,-41626,-15907
C00549=-25323,64790,8747,14463,-41627,-15906
C00550=-25323,64790,8749,14462,-41629,-15905
C00551=-25324,64789,8751,14462,-41630,-15905
C00552=-25325,64788,8753,14461,-41631,-15904
C00553=-25326,64788,8754,14460,-41633,-15904
C00554=-25326,64787,8756,14460,-41634,-15903
C00555=-25327,64786,8758,14459,-41635,-15903
C00556=-25328,64786,8760,14458,-41637,-15902
C00557=-25329,64785,8762,14458,-41638,-15901
C00558=-25329,64785,8764,14457,-41639,-15901
C00559=-25330,64784,8766,14456,-41640,-15900
C00560=-25331,64783,8768,14456,-41642,-15900
C00561=-25332,64783,8770,14455,-41643,-15899
C00562=-25332,64782,8771,14454,-41644,-15899
C00563=-25333,64781,8773,14454,-41646,-15898
C00564=-25334,64781,8775,14453,-41647,-15897
C00565=-25334,64780,8777,14452,-41648,-15897
C00566=-25335,64780,8779,14452,-41650,-15896
C00567=-25336,64779,8781,14451,-41651,-15896
C00568=-25337,64778,8783,14450,-41652,-15895
C00569=-25337,64778,8784,14450,-41654,-15895
C00570=-25338,64777,8786,14449,-41655,-15894
C00571=-25339,64777,8788,14448,-41656,-15894
C00572=-25340,64776,8790,14448,-41657,-15893
C00573=-25340,64775,8792,14447,-41659,-15892
C00574=-25341,64775,8794,14446,-41660,-15892
C00575=-25342,64774,8796,14446,-41662,-15891
C00576=-25343,64774,8798,14445,-41663,-15891
C00577=-25344,64773,8800,14444,-41664,-15890
C00578=-25344,64772,8802,14444,-41665,-15890
C00579=-25345,64772,8803,14443,-41667,-15889
C00580=-25346,64771,8805,14442,-41668,-15888
C00581=-25346,64771,8807,14442,-41669,-15888
C00582=-25347,64770,8809,14441,-41671,-15887
C00583=-25348,64769,8811,14440,-41672,-15887
C00584=-25349,64769,8813,14439,-41673,-15886
C00585=-25350,64768,8815,14439,-41675,-15886
C00586=-25350,64768,8817,14438,-41676,-15885
C00587=-25351,64767,8819,14438,-41677,-15884
C00588=-25352,64766,8821,14437,-41679,-15884
C00589=-25353,64766,8822,14436,-41680,-15883
C00590=-25353,64765,8825,14435,-41681,-15883
C00591=-25354,64765,8826,14435,-41683,-15882
C00592=-25355,64764,8828,14434,-41684,-15882
C00593=-25356,64763,8830,14433,-41685,-15881
C00594=-25356,64763,8832,14433,-41686,-15880
C00595=-25357,64762,8834,14432,-41688,-15880
C00596=-25358,64762,8836,14431,-41689,-15879
C00597=-25359,64761,8838,14431,-41690,-15879
C00598=-25359,64760,8840,14430,-41692,-15878
C00599=-25360,64760,8842,14429,-41693,-15878
C00600=-25361,64759,8843,14429,-41694,-15877
C00601=-25362,64759,8845,14428,-41696,-15876
C00602=-25362,64758,8847,14427,-41697,-15876
C00603=-25363,64757,8849,14427,-41698,-15875
C00604=-25364,64757,8851,14426,-41700,-15875
C00605=-25365,64756,8853,14425,-41701,-15874
C00606=-25365,64756,8855,14425,-41702,-15874
C00607=-25366,64755,8857,14424,-41704,-15873
C00608=-25367,64754,8859,14423,-41705,-15872
C00609=-25368,64754,8861,14423,-41706,-15872
C00610=-25368,64753,8862,14422,-41708,-15871
C00611=-25369,64753,8864,14421,-41709,-15871
C00612=-25370,64752,8866,14421,-41710,-15870
C00613=-25371,64751,8868,14420,-41712,-15870
C00614=-25371,64751,8870,14419,-41713,-15869
C00615=-25372,64750,8872,14419,-41714,-15868
C00616=-25373,64750,8874,14418,-41715,-15868
C00617=-25374,64749,8876,14417,-41717,-15867
C00618=-25374,64749,8878,14417,-41718,-15867
C00619=-25375,64748,8880,14416,-41719,-15866
C00620=-25376,64747,8881,14415,-41721,-15866
C00621=-25377,64747,8883,14415,-41722,-15865
C00622=-25377,64746,8885,14414,-41723,-15864
C00623=-25378,64746,8887,14413,-41724,-15864
C00624=-25379,64745,8889,14413,-41726,-15863
C00625=-25380,64744,8891,14412,-41727,-15863
C00626=-25380,64744,8893,14411,-41728,-15862
C00627=-25381,64743,8895,14411,-41730,-15862
C00628=-25382,64743,8897,14410,-41731,-15861
C00629=-25383,64742,8898,14409,-41732,-15861
C00630=-25383,64741,8900,14409,-41734,-15860
C00631=-25384,64741,8902,14408,-41735,-15859
C00632=-25385,64740,8904,14407,-41736,-15859
C00633=-25386,64740,8906,14407,-41738,-15858
C00634=-25386,64739,8908,14406,-41739,-15858
C00635=-25387,64738,8910,14405,-41740,-15857
C00636=-25388,64738,8912,14405,-41741,-15857
C00637=-25389,64737,8914,14404,-41743,-15856
C00638=-25389,64737,8915,14403,-41744,-15855
C00639=-25390,64736,8917,14403,-41745,-15855
C00640=-25391,64736,8919,14402,-41747,-15854
C00641=-25392,64735,8921,14401,-41748,-15854
C00642=-25392,64734,8923,14401,-41749,-15853
C00643=-25393,64734,8925,14400,-41751,-15853
C00644=-25394,64733,8927,14399,-41752,-15852
C00645=-25395,64733,8929,14399,-41753,-15851
C00646=-25395,64732,8931,14398,-41754,-15851
C00647=-25396,64731,8932,14397,-41756,-15850
C00648=-25397,64731,8934,14397,-41757,-15850
C00649=-25398,64730,8936,14396,-41758,-15849
C00650=-25398,64730,8938,14395,-41760,-15849
C00651=-25399,64729,8940,14395,-41761,-15848
C00652=-25400,64728,8942,14394,-41762,-15847
C00653=-25401,64728,8944,14393,-41764,-15847
C00654=-25401,64727,8946,14393,-41765,-15846
C00655=-25402,64727,8948,14392,-41766,-15846
C00656=-25403,64726,8949,14391,-41768,-15845
C00657=-25404,64725,8951,14391,-41769,-15845
C00658=-25404,64725,8953,14390,-41770,-15844
C00659=-25405,64724,8955,14389,-41771,-15844
C00660=-25406,64724,8957,14389,-41773,-15843
C00661=-25407,64723,8959,14388,-41774,-15842
C00662=-25407,64723,8961,14388,-41775,-15842
C00663=-25408,64722,8962,14387,-41777,-15841
C00664=-25409,64722,8964,14386,-41778,-15841
C00665=-25410,64721,8966,14386,-41779,-15840
C00666=-25410,64720,8968,14385,-41780,-15840
C00667=-25411,64720,8970,14384,-41782,-15839
C00668=-25412,64719,8972,14384,-41783,-15838
C00669=-25413,64719,8974,14383,-41784,-15838
C00670=-25413,64718,8976,14382,-41786,-15837
C00671=-25414,64718,8978,14382,-41787,-15837
C00672=-25415,64717,8980,14381,-41788,-15836
C00673=-25416,64716,8982,14380,-41790,-15836
C00674=-25416,64716,8983,14380,-41791,-15835
C00675=-25417,64715,8985,14379,-41792,-15835
C00676=-25418,64715,8987,14378,-41793,-15834
C00677=-25419,64714,8989,14378,-41795,-15833
C00678=-25420,64714,8991,14377,-41796,-15833
C00679=-25420,64713,8993,14376,-41797,-15832
C00680=-25421,64713,8995,14376,-41799,-15832
C00681=-25422,64712,8997,14375,-41800,-15831
C00682=-25423,64711,8999,14374,-41801,-15831
C00683=-25423,64711,9001,14374,-41803,-15830
C00684=-25424,64710,9003,14373,-41804,-15829
C00685=-25425,64710,9004,14372,-41805,-15829
C00686=-25426,64709,9006,14372,-41806,-15828
C00687=-25426,64709,9008,14371,-41808,-15828
C00688=-25427,64708,9010,14370,-41809,-15827
C00689=-25428,64708,9012,14370,-41810,-15827
C00690=-25429,64707,9014,14369,-41812,-15826
C00691=-25429,64706,9016,14368,-41813,-15825
C00692=-25430,64706,9018,14368,-41814,-15825
C00693=-25431,64705,9020,14367,-41815,-15824
C00694=-25432,64705,9022,14366,-41817,-15824
C00695=-25432,64704,9024,14366,-41818,-15823
C00696=-25433,64704,9025,14365,-41819,-15823
C00697=-25434,64703,9027,14364,-41821,-15822
C00698=-25435,64703,9029,14364,-41822,-15821
C00699=-25435,64702,9031,14363,-41823,-15821
C00700=-25436,64701,9033,14362,-41825,-15820
C00701=-25437,64701,9035,14362,-41826,-15820
C00702=-25438,64700,9037,14361,-41827,-15819
C00703=-25438,64700,9039,14360,-41828,-15819
C00704=-25439,64699,9041,14360,-41830,-15818
C00705=-25440,64699,9043,14359,-41831,-15818
C00706=-25441,64698,9045,14358,-41832,-15817
C00707=-25442,64697,9046,14358,-41834,-15816
C00708=-25442,64697,9048,14357,-41835,-15816
C00709=-25443,64696,9050,14356,-41836,-15815
C00710=-25444,64696,9052,14356,-41837,-15815
C00711=-25444,64695,9054,14355,-41839,-15814
C00712=-25445,64695,9056,14354,-41840,-15814
C00713=-25446,64694,9058,14354,-41841,-15813
C00714=-25447,64694,9059,14353,-41843,-15813
C00715=-25447,64693,9061,14352,-41844,-15812
C00716=-25448,64693,9063,14352,-41845,-15811
C00717=-25449,64692,9065,14351,-41846,-15811
C00718=-25450,64691,9067,14350,-41848,-15810
C00719=-25450,64691,9069,14350,-41849,-15810
C00720=-25451,64690,9071,14349,-41850,-15809
C00721=-25452,64690,9073,14349,-41851,-15809
C00722=-25453,64689,9074,14348,-41853,-15808
C00723=-25453,64689,9076,14347,-41854,-15808
C00724=-25454,64688,9078,14347,-41855,-15807
C00725=-25455,64688,9080,14346,-41857,-15806
C00726=-25456,64687,9082,14345,-41858,-15806
C00727=-25456,64686,9084,14345,-41859,-15805
C00728=-25457,64686,9086,14344,-41860,-15805
C00729=-25458,64685,9088,14343,-41862,-15804
C00730=-25459,64685,9089,14343,-41863,-15804
C00731=-25459,64684,9091,14342,-41864,-15803
C00732=-25460,64684,9093,14341,-41865,-15802
C00733=-25461,64683,9095,14341,-41867,-15802
C00734=-25462,64683,9097,14340,-41868,-15801
C00735=-25462,64682,9099,14339,-41869,-15801
C00736=-25463,64682,9101,14339,-41871,-15800
C00737=-25464,64681,9103,14338,-41872,-15800
C00738=-25465,64680,9104,14337,-41873,-15799
C00739=-25465,64680,9106,14337,-41874,-15799
C00740=-25466,64679,9108,14336,-41876,-15798
C00741=-25467,64679,9110,14336,-41877,-15797
C00742=-25468,64678,9112,14335,-41878,-15797
C00743=-25468,64678,9114,14334,-41879,-15796
C00744=-25469,64677,9116,14334,-41881,-15796
C00745=-25470,64677,9118,14333,-41882,-15795
C00746=-25471,64676,9119,14332,-41883,-15795
C00747=-25471,64676,9121,14332,-41885,-15794
C00748=-25472,64675,9123,14331,-41886,-15794
C00749=-25473,64674,9125,14330,-41887,-15793
C00750=-25474,64674,9127,14330,-41888,-15792
C00751=-25474,64673,9129,14329,-41890,-15792
C00752=-25475,64673,9130,14328,-41891,-15791
C00753=-25476,64672,9132,14328,-41892,-15791
C00754=-25476,64672,9134,14327,-41893,-15790
C00755=-25477,64671,9136,14326,-41895,-15790
C00756=-25478,64671,9138,14326,-41896,-15789
C00757=-25479,64670,9140,14325,-41897,-15789
C00758=-25479,64670,9142,14325,-41898,-15788
C00759=-25480,64669,9144,14324,-41900,-15788
C00760=-25481,64669,9145,14323,-41901,-15787
C00761=-25482,64668,9147,14323,-41902,-15786
C00762=-25482,64668,9149,14322,-41903,-15786
C00763=-25483,64667,9151,14321,-41905,-15785
C00764=-25484,64667,9153,14321,-41906,-15785
C00765=-25485,64666,9155,14320,-41907,-15784
C00766=-25485,64666,9157,14319,-41909,-15784
C00767=-25486,64665,9159,14319,-41910,-15783
C00768=-25487,64665,9161,14318,-41911,-15783
C00769=-25488,64664,9162,14317,-41912,-15782
C00770=-25488,64663,9164,14317,-41914,-15781
C00771=-25489,64663,9166,14316,-41915,-15781
C00772=-25490,64662,9168,14315,-41916,-15780
C00773=-25491,64662,9170,14315,-41918,-15780
C00774=-25492,64661,9172,14314,-41919,-15779
C00775=-25492,64661,9174,14313,-41920,-15779
C00776=-25493,64660,9176,14313,-41921,-15778
C00777=-25494,64660,9178,14312,-41923,-15777
C00778=-25495,64659,9179,14312,-41924,-15777
C00779=-25495,64659,9181,14311,-41925,-15776
C00780=-25496,64658,9183,14310,-41926,-15776
C00781=-25497,64658,9185,14310,-41928,-15775
C00782=-25498,64657,9187,14309,-41929,-15775
C00783=-25498,64657,9189,14308,-41930,-15774
C00784=-25499,64656,9191,14308,-41931,-15774
C00785=-25500,64656,9193,14307,-41933,-15773
C00786=-25501,64655,9195,14306,-41934,-15772
C00787=-25501,64655,9196,14306,-41935,-15772
C00788=-25502,64654,9198,14305,-41936,-15771
C00789=-25503,64654,9200,14304,-41938,-15771
C00790=-25504,64653,9202,14304,-41939,-15770
C00791=-25504,64653,9204,14303,-41940,-15770
C00792=-25505,64652,9206,14302,-41942,-15769
C00793=-25506,64652,9208,14302,-41943,-15769
C00794=-25507,64651,9210,14301,-41944,-15768
C00795=-25507,64651,9212,14300,-41945,-15767
C00796=-25508,64650,9213,14300,-41947,-15767
C00797=-25509,64650,9215,14299,-41948,-15766
C00798=-25510,64649,9217,14299,-41949,-15766
C00799=-25510,64648,9219,14298,-41950,-15765
C00800=-25511,64648,9221,14297,-41952,-15765
C00801=-25512,64647,9223,14297,-41953,-15764
C00802=-25513,64647,9225,14296,-41954,-15764
C00803=-25513,64646,9227,14295,-41956,-15763
C00804=-25514,64646,9228,14295,-41957,-15762
C00805=-25515,64645,9230,14294,-41958,-15762
C00806=-25516,64645,9232,14293,-41959,-15761
C00807=-25516,64644,9234,14293,-41961,-15761
C00808=-25517,64644,9236,14292,-41962,-15760
C00809=-25518,64643,9238,14291,-41963,-15760
C00810=-25519,64643,9240,14291,-41964,-15759
C00811=-25519,64642,9242,14290,-41966,-15759
C00812=-25520,64642,9243,14290,-41967,-15758
C00813=-25521,64641,9245,14289,-41968,-15757
C00814=-25522,64641,9247,14288,-41969,-15757
C00815=-25522,64640,9249,14288,-41971,-15756
C00816=-25523,64640,9251,14287,-41972,-15756
C00817=-25524,64639,9253,14286,-41973,-15755
C00818=-25525,64639,9255,14286,-41974,-15755
C00819=-25525,64638,9257,14285,-41976,-15754
C00820=-25526,64638,9258,14284,-41977,-15754
C00821=-25527,64637,9260,14284,-41978,-15753
C00822=-25528,64637,9262,14283,-41979,-15752
C00823=-25528,64636,9264,14282,-41981,-15752
C00824=-25529,64636,9266,14282,-41982,-15751
C00825=-25530,64635,9268,14281,-41983,-15751
C00826=-25531,64635,9270,14281,-41984,-15750
C00827=-25531,64634,9271,14280,-41986,-15750
C00828=-25532,64634,9273,14279,-41987,-15749
C00829=-25533,64633,9275,14279,-41988,-15749
C00830=-25534,64633,9277,14278,-41990,-15748
C00831=-25534,64632,9279,14277,-41991,-15748
C00832=-25535,64632,9281,14277,-41992,-15747
C00833=-25536,64631,9283,14276,-41993,-15746
C00834=-25536,64631,9285,14275,-41994,-15746
C00835=-25537,64630,9286,14275,-41996,-15745
C00836=-25538,64629,9288,14274,-41997,-15745
C00837=-25539,64629,9290,14273,-41998,-15744
C00838=-25539,64628,9292,14273,-42000,-15744
C00839=-25540,64628,9294,14272,-42001,-15743
C00840=-25541,64627,9296,14272,-42002,-15743
C00841=-25542,64627,9298,14271,-42003,-15742
C00842=-25542,64626,9300,14270,-42005,-15741
C00843=-25543,64626,9302,14270,-42006,-15741
C00844=-25544,64625,9303,14269,-42007,-15740
C00845=-25545,64625,9305,14268,-42008,-15740
C00846=-25545,64624,9307,14268,-42010,-15739
C00847=-25546,64624,9309,14267,-42011,-15739
C00848=-25547,64623,9311,14266,-42012,-15738
C00849=-25548,64623,9313,14266,-42013,-15738
C00850=-25548,64622,9314,14265,-42015,-15737
C00851=-25549,64622,9316,14264,-42016,-15737
C00852=-25550,64621,9318,14264,-42017,-15736
C00853=-25551,64621,9320,14263,-42018,-15735
C00854=-25551,64620,9322,14263,-42019,-15735
C00855=-25552,64620,9324,14262,-42021,-15734
C00856=-25553,64619,9326,14261,-42022,-15734
C00857=-25554,64619,9328,14261,-42023,-15733
C00858=-25554,64619,9330,14260,-42025,-15733
C00859=-25555,64618,9331,14259,-42026,-15732
C00860=-25556,64618,9333,14259,-42027,-15732
C00861=-25557,64617,9335,14258,-42028,-15731
C00862=-25557,64617,9337,14257,-42029,-15730
C00863=-25558,64616,9339,14257,-42031,-15730
C00864=-25559,64616,9341,14256,-42032,-15729
C00865=-25560,64615,9343,14255,-42033,-15729
C00866=-25560,64615,9345,14255,-42035,-15728
C00867=-25561,64614,9347,14254,-42036,-15728
C00868=-25562,64614,9348,14254,-42037,-15727
C00869=-25563,64613,9350,14253,-42038,-15727
C00870=-25564,64613,9352,14252,-42040,-15726
C00871=-25564,64612,9354,14252,-42041,-15725
C00872=-25565,64612,9356,14251,-42042,-15725
C00873=-25566,64611,9358,14250,-42043,-15724
C00874=-25567,64611,9360,14250,-42045,-15724
C00875=-25567,64610,9362,14249,-42046,-15723
C00876=-25568,64610,9363,14248,-42047,-15723
C00877=-25569,64609,9366,14248,-42048,-15722
C00878=-25570,64609,9367,14247,-42050,-15722
C00879=-25570,64608,9369,14247,-42051,-15721
C00880=-25571,64608,9371,14246,-42052,-15720
C00881=-25572,64607,9373,14245,-42053,-15720
C00882=-25573,64607,9375,14245,-42055,-15719
C00883=-25573,64606,9377,14244,-42056,-15719
C00884=-25574,64606,9379,14243,-42057,-15718
C00885=-25575,64605,9381,14243,-42058,-15718
C00886=-25576,64605,9382,14242,-42060,-15717
C00887=-25576,64605,9384,14241,-42061,-15717
C00888=-25577,64604,9386,14241,-42062,-15716
C00889=-25578,64604,9388,14240,-42063,-15715
C00890=-25579,64603,9390,14239,-42065,-15715
C00891=-25579,64603,9392,14239,-42066,-15714
C00892=-25580,64602,9394,14238,-42067,-15714
C00893=-25581,64602,9396,14238,-42068,-15713
C00894=-25582,64601,9398,14237,-42070,-15713
C00895=-25582,64601,9399,14236,-42071,-15712
C00896=-25583,64600,9401,14236,-42072,-15712
C00897=-25584,64600,9403,14235,-42073,-15711
C00898=-25585,64599,9405,14234,-42075,-15710
C00899=-25585,64599,9407,14234,-42076,-15710
C00900=-25586,64598,9409,14233,-42077,-15709
C00901=-25587,64598,9411,14232,-42078,-15709
C00902=-25588,64597,9413,14232,-42079,-15708
C00903=-25588,64597,9415,14231,-42081,-15708
C00904=-25589,64596,9416,14230,-42082,-15707
C00905=-25590,64596,9418,14230,-42083,-15707
C00906=-25591,64595,9420,14229,-42084,-15706
C00907=-25591,64595,9422,14229,-42086,-15706
C00908=-25592,64594,9424,14228,-42087,-15705
C00909=-25593,64594,9426,14227,-42088,-15704
C00910=-25594,64594,9428,14227,-42089,-15704
C00911=-25594,64593,9429,14226,-42091,-15703
C00912=-25595,64593,9431,14225,-42092,-15703
C00913=-25596,64592,9433,14225,-42093,-15702
C00914=-25597,64592,9435,14224,-42094,-15702
C00915=-25597,64591,9437,14223,-42096,-15701
C00916=-25598,64591,9439,14223,-42097,-15701
C00917=-25599,64590,9441,14222,-42098,-15700
C00918=-25600,64590,9443,14222,-42099,-15700
C00919=-25600,64589,9445,14221,-42101,-15699
C00920=-25601,64589,9446,14220,-42102,-15698
C00921=-25602,64588,9448,14220,-42103,-15698
C00922=-25603,64588,9450,14219,-42104,-15697
C00923=-25603,64587,9452,14218,-42106,-15697
C00924=-25604,64587,9454,14218,-42107,-15696
C00925=-25605,64586,9456,14217,-42108,-15696
C00926=-25606,64586,9458,14216,-42109,-15695
C00927=-25606,64585,9459,14216,-42111,-15695
C00928=-25607,64585,9461,14215,-42112,-15694
C00929=-25608,64584,9463,14215,-42113,-15693
C00930=-25609,64584,9465,14214,-42114,-15693
C00931=-25609,64583,9467,14213,-42116,-15692
C00932=-25610,64583,9469,14213,-42117,-15692
C00933=-25611,64583,9471,14212,-42118,-15691
C00934=-25612,64582,9473,14211,-42119,-15691
C00935=-25612,64582,9475,14211,-42121,-15690
C00936=-25613,64581,9476,14210,-42122,-15690
C00937=-25614,64581,9478,14209,-42123,-15689
C00938=-25615,64580,9480,14209,-42124,-15689
C00939=-25615,64580,9482,14208,-42125,-15688
C00940=-25616,64579,9484,14208,-42127,-15687
C00941=-25617,64579,9486,14207,-42128,-15687
C00942=-25618,64578,9488,14206,-42129,-15686
C00943=-25618,64578,9489,14206,-42130,-15686
C00944=-25619,64577,9491,14205,-42132,-15685
C00945=-25620,64577,9493,14204,-42133,-15685
C00946=-25621,64576,9495,14204,-42134,-15684
C00947=-25621,64576,9497,14203,-42135,-15684
C00948=-25622,64575,9499,14203,-42137,-15683
C00949=-25623,64575,9501,14202,-42138,-15683
C00950=-25624,64575,9502,14201,-42139,-15682
C00951=-25624,64574,9504,14201,-42140,-15681
C00952=-25625,64574,9506,14200,-42141,-15681
C00953=-25626,64573,9508,14199,-42143,-15680
C00954=-25627,64573,9510,14199,-42144,-15680
C00955=-25627,64572,9512,14198,-42145,-15679
C00956=-25628,64572,9514,14198,-42146,-15679
C00957=-25629,64571,9516,14197,-42148,-15678
C00958=-25630,64571,9518,14196,-42149,-15678
C00959=-25630,64571,9519,14196,-42150,-15677
C00960=-25631,64570,9521,14195,-42151,-15676
C00961=-25632,64570,9523,14194,-42153,-15676
C00962=-25633,64569,9525,14194,-42154,-15675
C00963=-25634,64569,9527,14193,-42155,-15675
C00964=-25634,64568,9529,14192,-42156,-15674
C00965=-25635,64568,9531,14192,-42157,-15674
C00966=-25636,64567,9533,14191,-42159,-15673
C00967=-25637,64567,9535,14191,-42160,-15673
C00968=-25637,64567,9537,14190,-42161,-15672
C00969=-25638,64566,9538,14189,-42162,-15672
C00970=-25639,64566,9540,14189,-42164,-15671
C00971=-25640,64565,9542,14188,-42165,-15670
C00972=-25640,64565,9544,14187,-42166,-15670
C00973=-25641,64564,9546,14187,-42167,-15669
C00974=-25642,64564,9548,14186,-42169,-15669
C00975=-25643,64563,9550,14185,-42170,-15668
C00976=-25643,64563,9552,14185,-42171,-15668
C00977=-25644,64563,9553,14184,-42172,-15667
C00978=-25645,64562,9555,14183,-42174,-15667
C00979=-25646,64562,9557,14183,-42175,-15666
C00980=-25646,64561,9559,14182,-42176,-15665
C00981=-25647,64561,9561,14182,-42177,-15665
C00982=-25648,64560,9563,14181,-42178,-15664
C00983=-25649,64560,9565,14180,-42180,-15664
C00984=-25649,64559,9567,14180,-42181,-15663
C00985=-25650,64559,9569,14179,-42182,-15663
C00986=-25651,64558,9571,14178,-42183,-15662
C00987=-25652,64558,9572,14178,-42185,-15662
C00988=-25652,64558,9574,14177,-42186,-15661
C00989=-25653,64557,9576,14177,-42187,-15660
C00990=-25654,64557,9578,14176,-42188,-15660
C00991=-25655,64556,9580,14175,-42190,-15659
C00992=-25656,64556,9582,14175,-42191,-15659
C00993=-25656,64555,9584,14174,-42192,-15658
C00994=-25657,64555,9586,14173,-42193,-15658
C00995=-25658,64554,9588,14173,-42195,-15657
C00996=-25659,64554,9589,14172,-42196,-15657
C00997=-25659,64554,9591,14171,-42197,-15656
C00998=-25660,64553,9593,14171,-42198,-15656
C00999=-25661,64553,9595,14170,-42199,-15655
C01000=-25661,64552,9597,14170,-42201,-15655
C01001=-25662,64552,9599,14169,-42202,-15654
C01002=-25663,64551,9600,14168,-42203,-15653
C01003=-25664,64551,9602,14168,-42204,-15653
C01004=-25665,64550,9604,14167,-42206,-15652
C01005=-25665,64550,9606,14166,-42207,-15652
C01006=-25666,64550,9608,14166,-42208,-15651
C01007=-25667,64549,9610,14165,-42209,-15651
C01008=-25667,64549,9612,14165,-42210,-15650
C01009=-25668,64548,9613,14164,-42211,-15650
C01010=-25669,64548,9615,14163,-42213,-15649
C01011=-25670,64547,9617,14163,-42214,-15649
C01012=-25670,64547,9619,14162,-42215,-15648
C01013=-25671,64547,9621,14162,-42216,-15647
C01014=-25672,64546,9623,14161,-42218,-15647
C01015=-25673,64546,9625,14160,-42219,-15646
C01016=-25673,64545,9626,14160,-42220,-15646
C01017=-25674,64545,9628,14159,-42221,-15645
C01018=-25675,64544,9630,14158,-42222,-15645
C01019=-25676,64544,9632,14158,-42224,-15644
C01020=-25676,64543,9634,14157,-42225,-15644
C01021=-25677,64543,9636,14157,-42226,-15643
C01022=-25678,64543,9638,14156,-42227,-15643
C01023=-25679,64542,9640,14155,-42229,-15642
C01024=-25679,64542,9641,14155,-42230,-15642
C01025=-25680,64541,9643,14154,-42231,-15641
C01026=-25681,64541,9645,14153,-42232,-15640
C01027=-25682,64540,9647,14153,-42233,-15640
C01028=-25682,64540,9649,14152,-42235,-15639
C01029=-25683,64540,9651,14152,-42236,-15639
C01030=-25684,64539,9653,14151,-42237,-15638
C01031=-25685,64539,9654,14150,-42238,-15638
C01032=-25685,64538,9656,14150,-42239,-15637
C01033=-25686,64538,9658,14149,-42241,-15637
C01034=-25687,64537,9660,14148,-42242,-15636
C01035=-25688,64537,9662,14148,-42243,-15636
C01036=-25688,64536,9664,14147,-42244,-15635
C01037=-25689,64536,9666,14147,-42246,-15635
C01038=-25690,64536,9667,14146,-42247,-15634
C01039=-25691,64535,9669,14145,-42248,-15633
C01040=-25691,64535,9671,14145,-42249,-15633
C01041=-25692,64534,9673,14144,-42250,-15632
C01042=-25693,64534,9675,14143,-42252,-15632
C01043=-25694,64533,9677,14143,-42253,-15631
C01044=-25694,64533,9678,14142,-42254,-15631
C01045=-25695,64533,9680,14142,-42255,-15630
C01046=-25696,64532,9682,14141,-42256,-15630
C01047=-25696,64532,9684,14140,-42258,-15629
C01048=-25697,64531,9686,14140,-42259,-15629
C01049=-25698,64531,9688,14139,-42260,-15628
C01050=-25699,64531,9690,14139,-42261,-15628
C01051=-25699,64530,9691,14138,-42262,-15627
C01052=-25700,64530,9693,14137,-42264,-15626
C01053=-25701,64529,9695,14137,-42265,-15626
C01054=-25702,64529,9697,14136,-42266,-15625
C01055=-25703,64528,9699,14135,-42267,-15625
C01056=-25703,64528,9701,14135,-42268,-15624
C01057=-25704,64528,9703,14134,-42270,-15624
C01058=-25705,64527,9705,14134,-42271,-15623
C01059=-25705,64527,9706,14133,-42272,-15623
C01060=-25706,64526,9708,14132,-42273,-15622
C01061=-25707,64526,9710,14132,-42274,-15622
C01062=-25708,64526,9712,14131,-42276,-15621
C01063=-25709,64525,9714,14130,-42277,-15620
C01064=-25709,64525,9716,14130,-42278,-15620
C01065=-25710,64524,9718,14129,-42279,-15619
C01066=-25711,64524,9720,14129,-42280,-15619
C01067=-25712,64524,9721,14128,-42282,-15618
C01068=-25712,64523,9723,14127,-42283,-15618
C01069=-25713,64523,9725,14127,-42284,-15617
C01070=-25714,64522,9727,14126,-42285,-15617
C01071=-25715,64522,9729,14125,-42286,-15616
C01072=-25715,64522,9731,14125,-42288,-15616
C01073=-25716,64521,9733,14124,-42289,-15615
C01074=-25717,64521,9734,14124,-42290,-15615
C01075=-25718,64520,9736,14123,-42291,-15614
C01076=-25718,64520,9738,14122,-42292,-15613
C01077=-25719,64519,9740,14122,-42294,-15613
C01078=-25720,64519,9742,14121,-42295,-15612
C01079=-25721,64519,9744,14120,-42296,-15612
C01080=-25721,64518,9746,14120,-42297,-15611
C01081=-25722,64518,9748,14119,-42299,-15611
C01082=-25723,64517,9749,14119,-42300,-15610
C01083=-25724,64517,9751,14118,-42301,-15610
C01084=-25724,64517,9753,14117,-42302,-15609
C01085=-25725,64516,9755,14117,-42303,-15609
C01086=-25726,64516,9757,14116,-42305,-15608
C01087=-25727,64515,9759,14116,-42306,-15607
C01088=-25727,64515,9761,14115,-42307,-15607
C01089=-25728,64515,9763,14114,-42308,-15606
C01090=-25729,64514,9764,14114,-42309,-15606
C01091=-25730,64514,9766,14113,-42311,-15605
C01092=-25730,64513,9768,14112,-42312,-15605
C01093=-25731,64513,9770,14112,-42313,-15604
C01094=-25732,64513,9772,14111,-42314,-15604
C01095=-25733,64512,9774,14111,-42315,-15603
C01096=-25733,64512,9776,14110,-42317,-15603
C01097=-25734,64511,9778,14109,-42318,-15602
C01098=-25735,64511,9779,14109,-42319,-15602
C01099=-25736,64511,9781,14108,-42320,-15601
C01100=-25736,64510,9783,14107,-42321,-15600
C01101=-25737,64510,9785,14107,-42323,-15600
C01102=-25738,64509,9787,14106,-42324,-15599
C01103=-25739,64509,9789,14106,-42325,-15599
C01104=-25739,64509,9791,14105,-42326,-15598
C01105=-25740,64508,9792,14104,-42327,-15598
C01106=-25741,64508,9794,14104,-42329,-15597
C01107=-25742,64507,9796,14103,-42330,-15597
C01108=-25742,64507,9798,14103,-42331,-15596
C01109=-25743,64506,9800,14102,-42332,-15596
C01110=-25744,64506,9802,14101,-42333,-15595
C01111=-25745,64506,9804,14101,-42335,-15595
C01112=-25745,64505,9805,14100,-42336,-15594
C01113=-25746,64505,9807,14099,-42337,-15593
C01114=-25747,64504,9809,14099,-42338,-15593
C01115=-25748,64504,9811,14098,-42339,-15592
C01116=-25748,64504,9813,14098,-42341,-15592
C01117=-25749,64503,9815,14097,-42342,-15591
C01118=-25750,64503,9816,14096,-42343,-15591
C01119=-25751,64502,9818,14096,-42344,-15590
C01120=-25751,64502,9820,14095,-42345,-15590
C01121=-25752,64502,9822,14095,-42347,-15589
C01122=-25753,64501,9824,14094,-42348,-15589
C01123=-25754,64501,9826,14093,-42349,-15588
C01124=-25754,64500,9828,14093,-42350,-15588
C01125=-25755,64500,9829,14092,-42351,-15587
C01126=-25756,64500,9831,14092,-42352,-15587
C01127=-25757,64499,9833,14091,-42354,-15586
C01128=-25757,64499,9835,14090,-42355,-15585
C01129=-25758,64498,9837,14090,-42356,-15585
C01130=-25759,64498,9839,14089,-42357,-15584
C01131=-25759,64498,9841,14088,-42358,-15584
C01132=-25760,64497,9842,14088,-42360,-15583
C01133=-25761,64497,9844,14087,-42361,-15583
C01134=-25762,64496,9846,14087,-42362,-15582
C01135=-25763,64496,9848,14086,-42363,-15582
C01136=-25763,64496,9850,14085,-42364,-15581
C01137=-25764,64495,9852,14085,-42366,-15581
C01138=-25765,64495,9854,14084,-42367,-15580
C01139=-25765,64494,9855,14083,-42368,-15580
C01140=-25766,64494,9857,14083,-42369,-15579
C01141=-25767,64493,9859,14082,-42371,-15578
C01142=-25768,64493,9861,14082,-42372,-15578
C01143=-25768,64493,9863,14081,-42373,-15577
C01144=-25769,64492,9865,14080,-42374,-15577
C01145=-25770,64492,9866,14080,-42375,-15576
C01146=-25771,64492,9868,14079,-42376,-15576
C01147=-25771,64491,9870,14079,-42378,-15575
C01148=-25772,64491,9872,14078,-42379,-15575
C01149=-25773,64490,9874,14077,-42380,-15574
C01150=-25774,64490,9876,14077,-42381,-15574
C01151=-25774,64490,9878,14076,-42382,-15573
C01152=-25775,64489,9880,14076,-42383,-15573
C01153=-25776,64489,9882,14075,-42385,-15572
C01154=-25777,64489,9883,14074,-42386,-15572
C01155=-25777,64488,9885,14074,-42387,-15571
C01156=-25778,64488,9887,14073,-42388,-15570
C01157=-25779,64487,9889,14072,-42389,-15570
C01158=-25780,64487,9891,14072,-42391,-15569
C01159=-25780,64487,9893,14071,-42392,-15569
C01160=-25781,64486,9895,14071,-42393,-15568
C01161=-25782,64486,9897,14070,-42394,-15568
C01162=-25783,64486,9898,14069,-42395,-15567
C01163=-25784,64485,9900,14069,-42397,-15567
C01164=-25784,64485,9902,14068,-42398,-15566
C01165=-25785,64484,9904,14068,-42399,-15566
C01166=-25786,64484,9906,14067,-42400,-15565
C01167=-25787,64484,9908,14066,-42401,-15565
C01168=-25787,64483,9910,14066,-42403,-15564
C01169=-25788,64483,9912,14065,-42404,-15563
C01170=-25789,64483,9913,14064,-42405,-15563
C01171=-25790,64482,9915,14064,-42406,-15562
C01172=-25790,64482,9917,14063,-42407,-15562
C01173=-25791,64481,9919,14063,-42409,-15561
C01174=-25792,64481,9921,14062,-42410,-15561
C01175=-25793,64481,9923,14061,-42411,-15560
C01176=-25793,64480,9925,14061,-42412,-15560
C01177=-25794,64480,9927,14060,-42413,-15559
C01178=-25795,64480,9928,14060,-42414,-15559
C01179=-25796,64479,9930,14059,-42416,-15558
C01180=-25796,64479,9932,14058,-42417,-15558
C01181=-25797,64478,9934,14058,-42418,-15557
C01182=-25798,64478,9936,14057,-42419,-15556
C01183=-25799,64478,9938,14056,-42420,-15556
C01184=-25799,64477,9940,14056,-42422,-15555
C01185=-25800,64477,9942,14055,-42423,-15555
C01186=-25801,64477,9943,14055,-42424,-15554
C01187=-25802,64476,9945,14054,-42425,-15554
C01188=-25802,64476,9947,14053,-42426,-15553
C01189=-25803,64475,9949,14053,-42428,-15553
C01190=-25804,64475,9951,14052,-42429,-15552
C01191=-25805,64475,9953,14052,-42430,-15552
C01192=-25805,64474,9955,14051,-42431,-15551
C01193=-25806,64474,9957,14050,-42432,-15551
C01194=-25807,64474,9959,14050,-42434,-15550
C01195=-25808,64473,9960,14049,-42435,-15549
C01196=-25808,64473,9962,14048,-42436,-15549
C01197=-25809,64472,9964,14048,-42437,-15548
C01198=-25810,64472,9966,14047,-42438,-15548
C01199=-25811,64472,9968,14047,-42439,-15547
C01200=-25811,64471,9969,14046,-42441,-15547
C01201=-25812,64471,9971,14045,-42442,-15546
C01202=-25813,64471,9973,14045,-42443,-15546
C01203=-25814,64470,9975,14044,-42444,-15545
C01204=-25814,64470,9977,14044,-42445,-15545
C01205=-25815,64469,9979,14043,-42447,-15544
C01206=-25816,64469,9981,14042,-42448,-15544
C01207=-25817,64469,9982,14042,-42449,-15543
C01208=-25817,64468,9984,14041,-42450,-15543
C01209=-25818,64468,9986,14041,-42451,-15542
C01210=-25819,64468,9988,14040,-42452,-15542
C01211=-25820,64467,9990,14039,-42453,-15541
C01212=-25820,64467,9992,14039,-42455,-15541
C01213=-25821,64467,9993,14038,-42456,-15540
C01214=-25822,64466,9995,14038,-42457,-15539
C01215=-25823,64466,9997,14037,-42458,-15539
C01216=-25823,64465,9999,14036,-42459,-15538
C01217=-25824,64465,10001,14036,-42461,-15538
C01218=-25825,64465,10003,14035,-42462,-15537
C01219=-25826,64464,10004,14035,-42463,-15537
C01220=-25826,64464,10006,14034,-42464,-15536
C01221=-25827,64464,10008,14033,-42465,-15536
C01222=-25828,64463,10010,14033,-42466,-15535
C01223=-25828,64463,10012,14032,-42467,-15535
C01224=-25829,64462,10014,14032,-42469,-15534
C01225=-25830,64462,10015,14031,-42470,-15534
C01226=-25831,64462,10017,14030,-42471,-15533
C01227=-25831,64461,10019,14030,-42472,-15533
C01228=-25832,64461,10021,14029,-42473,-15532
C01229=-25833,64461,10023,14029,-42475,-15532
C01230=-25834,64460,10025,14028,-42476,-15531
C01231=-25834,64460,10027,14027,-42477,-15530
C01232=-25835,64460,10028,14027,-42478,-15530
C01233=-25836,64459,10030,14026,-42479,-15529
C01234=-25837,64459,10032,14026,-42480,-15529
C01235=-25837,64458,10034,14025,-42482,-15528
C01236=-25838,64458,10036,14024,-42483,-15528
C01237=-25839,64458,10037,14024,-42484,-15527
C01238=-25840,64457,10039,14023,-42485,-15527
C01239=-25840,64457,10041,14023,-42486,-15526
C01240=-25841,64457,10043,14022,-42487,-15526
C01241=-25842,64456,10045,14021,-42489,-15525
C01242=-25843,64456,10047,14021,-42490,-15525
C01243=-25843,64455,10049,14020,-42491,-15524
C01244=-25844,64455,10050,14020,-42492,-15524
C01245=-25845,64455,10052,14019,-42493,-15523
C01246=-25845,64454,10054,14018,-42494,-15523
C01247=-25846,64454,10056,14018,-42495,-15522
C01248=-25847,64454,10058,14017,-42497,-15522
C01249=-25848,64453,10059,14017,-42498,-15521
C01250=-25849,64453,10062,14016,-42499,-15520
C01251=-25849,64453,10063,14015,-42500,-15520
C01252=-25850,64452,10065,14015,-42501,-15519
C01253=-25851,64452,10067,14014,-42502,-15519
C01254=-25851,64452,10069,14014,-42504,-15518
C01255=-25852,64451,10071,14013,-42505,-15518
C01256=-25853,64451,10073,14012,-42506,-15517
C01257=-25854,64451,10074,14012,-42507,-15517
C01258=-25854,64450,10076,14011,-42508,-15516
C01259=-25855,64450,10078,14011,-42509,-15516
C01260=-25856,64450,10080,14010,-42511,-15515
C01261=-25857,64449,10082,14009,-42512,-15515
C01262=-25858,64449,10084,14009,-42513,-15514
C01263=-25858,64449,10086,14008,-42514,-15514
C01264=-25859,64448,10087,14008,-42515,-15513
C01265=-25860,64448,10089,14007,-42516,-15513
C01266=-25861,64448,10091,14006,-42518,-15512
C01267=-25861,64447,10093,14006,-42519,-15511
C01268=-25862,64447,10095,14005,-42520,-15511
C01269=-25863,64447,10097,14005,-42521,-15510
C01270=-25863,64446,10099,14004,-42522,-15510
C01271=-25864,64446,10100,14003,-42523,-15509
C01272=-25865,64446,10102,14003,-42525,-15509
C01273=-25866,64445,10104,14002,-42526,-15508
C01274=-25867,64445,10106,14001,-42527,-15508
C01275=-25867,64445,10108,14001,-42528,-15507
C01276=-25868,64444,10110,14000,-42529,-15507
C01277=-25869,64444,10112,14000,-42530,-15506
C01278=-25870,64444,10113,13999,-42532,-15506
C01279=-25870,64443,10115,13999,-42533,-15505
C01280=-25871,64443,10117,13998,-42534,-15505
C01281=-25872,64443,10119,13997,-42535,-15504
C01282=-25872,64442,10121,13997,-42536,-15504
C01283=-25873,64442,10123,13996,-42537,-15503
C01284=-25874,64442,10125,13995,-42539,-15502
C01285=-25875,64441,10127,13995,-42540,-15502
C01286=-25876,64441,10128,13994,-42541,-15501
C01287=-25876,64440,10130,13994,-42542,-15501
C01288=-25877,64440,10132,13993,-42543,-15500
C01289=-25878,64440,10134,13992,-42544,-15500
C01290=-25879,64439,10136,13992,-42546,-15499
C01291=-25879,64439,10138,13991,-42547,-15499
C01292=-25880,64439,10139,13991,-42548,-15498
C01293=-25881,64438,10141,13990,-42549,-15498
C01294=-25882,64438,10143,13989,-42550,-15497
C01295=-25882,64438,10145,13989,-42552,-15497
C01296=-25883,64437,10147,13988,-42553,-15496
C01297=-25884,64437,10149,13988,-42554,-15496
C01298=-25885,64437,10151,13987,-42555,-15495
C01299=-25885,64436,10152,13986,-42556,-15495
C01300=-25886,64436,10154,13986,-42557,-15494
C01301=-25887,64436,10156,13985,-42558,-15493
C01302=-25887,64435,10158,13985,-42560,-15493
C01303=-25888,64435,10160,13984,-42561,-15492
C01304=-25889,64435,10162,13983,-42562,-15492
C01305=-25890,64434,10164,13983,-42563,-15491
C01306=-25890,64434,10165,13982,-42564,-15491
C01307=-25891,64434,10167,13982,-42565,-15490
C01308=-25892,64433,10169,13981,-42566,-15490
C01309=-25893,64433,10171,13980,-42568,-15489
C01310=-25893,64433,10173,13980,-42569,-15489
C01311=-25894,64432,10175,13979,-42570,-15488
C01312=-25895,64432,10176,13979,-42571,-15488
C01313=-25896,64432,10178,13978,-42572,-15487
C01314=-25896,64431,10180,13977,-42573,-15487
C01315=-25897,64431,10182,13977,-42575,-15486
C01316=-25898,64431,10184,13976,-42576,-15486
C01317=-25899,64430,10186,13976,-42577,-15485
C01318=-25899,64430,10187,13975,-42578,-15485
C01319=-25900,64430,10189,13975,-42579,-15484
C01320=-25901,64429,10191,13974,-42580,-15483
C01321=-25902,64429,10193,13973,-42582,-15483
C01322=-25902,64429,10195,13973,-42583,-15482
C01323=-25903,64428,10197,13972,-42584,-15482
C01324=-25904,64428,10199,13972,-42585,-15481
C01325=-25905,64428,10200,13971,-42586,-15481
C01326=-25905,64427,10202,13970,-42587,-15480
C01327=-25906,64427,10204,13970,-42588,-15480
C01328=-25907,64427,10206,13969,-42590,-15479
C01329=-25908,64426,10208,13969,-42591,-15479
C01330=-25908,64426,10210,13968,-42592,-15478
C01331=-25909,64426,10212,13967,-42593,-15478
C01332=-25910,64425,10213,13967,-42594,-15477
C01333=-25911,64425,10215,13966,-42595,-15477
C01334=-25911,64425,10217,13966,-42597,-15476
C01335=-25912,64424,10219,13965,-42598,-15476
C01336=-25913,64424,10221,13964,-42599,-15475
C01337=-25914,64424,10222,13964,-42600,-15475
C01338=-25914,64423,10224,13963,-42601,-15474
C01339=-25915,64423,10226,13963,-42602,-15473
C01340=-25916,64423,10228,13962,-42604,-15473
C01341=-25917,64422,10230,13961,-42605,-15472
C01342=-25917,64422,10232,13961,-42606,-15472
C01343=-25918,64422,10234,13960,-42607,-15471
C01344=-25919,64421,10235,13960,-42608,-15471
C01345=-25920,64421,10237,13959,-42609,-15470
C01346=-25920,64421,10239,13958,-42610,-15470
C01347=-25921,64420,10241,13958,-42612,-15469
C01348=-25922,64420,10243,13957,-42613,-15469
C01349=-25922,64420,10245,13957,-42614,-15468
C01350=-25923,64419,10246,13956,-42615,-15468
C01351=-25924,64419,10248,13955,-42616,-15467
C01352=-25925,64419,10250,13955,-42617,-15467
C01353=-25925,64418,10252,13954,-42618,-15466
C01354=-25926,64418,10254,13954,-42619,-15466
C01355=-25927,64418,10256,13953,-42621,-15465
C01356=-25928,64417,10258,13952,-42622,-15465
C01357=-25928,64417,10259,13952,-42623,-15464
C01358=-25929,64417,10261,13951,-42624,-15464
C01359=-25930,64417,10263,13951,-42625,-15463
C01360=-25931,64416,10265,13950,-42626,-15462
C01361=-25931,64416,10267,13950,-42628,-15462
C01362=-25932,64416,10269,13949,-42629,-15461
C01363=-25933,64415,10270,13948,-42630,-15461
C01364=-25934,64415,10272,13948,-42631,-15460
C01365=-25935,64415,10274,13947,-42632,-15460
C01366=-25935,64414,10276,13947,-42633,-15459
C01367=-25936,64414,10278,13946,-42635,-15459
C01368=-25937,64414,10280,13945,-42636,-15458
C01369=-25937,64413,10282,13945,-42637,-15458
C01370=-25938,64413,10283,13944,-42638,-15457
C01371=-25939,64413,10285,13944,-42639,-15457
C01372=-25940,64413,10287,13943,-42640,-15456
C01373=-25941,64412,10289,13942,-42641,-15456
C01374=-25941,64412,10291,13942,-42643,-15455
C01375=-25942,64412,10293,13941,-42644,-15455
C01376=-25943,64411,10295,13941,-42645,-15454
C01377=-25944,64411,10297,13940,-42646,-15454
C01378=-25944,64411,10298,13939,-42647,-15453
C01379=-25945,64410,10300,13939,-42648,-15452
C01380=-25946,64410,10302,13938,-42649,-15452
C01381=-25947,64410,10304,13938,-42651,-15451
C01382=-25947,64409,10306,13937,-42652,-15451
C01383=-25948,64409,10308,13936,-42653,-15450
C01384=-25949,64409,10310,13936,-42654,-15450
C01385=-25950,64409,10311,13935,-42655,-15449
C01386=-25950,64408,10313,13935,-42656,-15449
C01387=-25951,64408,10315,13934,-42657,-15448
C01388=-25952,64408,10317,13933,-42659,-15448
C01389=-25953,64407,10319,13933,-42660,-15447
C01390=-25953,64407,10321,13932,-42661,-15447
C01391=-25954,64407,10323,13932,-42662,-15446
C01392=-25955,64406,10324,13931,-42663,-15446
C01393=-25956,64406,10326,13930,-42664,-15445
C01394=-25956,64406,10328,13930,-42666,-15445
C01395=-25957,64405,10330,13929,-42667,-15444
C01396=-25958,64405,10332,13929,-42668,-15444
C01397=-25959,64405,10334,13928,-42669,-15443
C01398=-25959,64405,10336,13927,-42670,-15442
C01399=-25960,64404,10337,13927,-42671,-15442
C01400=-25961,64404,10339,13926,-42672,-15441
C01401=-25962,64404,10341,13926,-42674,-15441
C01402=-25962,64403,10343,13925,-42675,-15440
C01403=-25963,64403,10345,13925,-42676,-15440
C01404=-25964,64403,10347,13924,-42677,-15439
C01405=-25965,64402,10349,13923,-42678,-15439
C01406=-25965,64402,10350,13923,-42679,-15438
C01407=-25966,64402,10352,13922,-42680,-15438
C01408=-25967,64401,10354,13922,-42682,-15437
C01409=-25968,64401,10356,13921,-42683,-15437
C01410=-25968,64401,10358,13920,-42684,-15436
C01411=-25969,64401,10360,13920,-42685,-15436
C01412=-25970,64400,10361,13919,-42686,-15435
C01413=-25971,64400,10363,13919,-42687,-15435
C01414=-25971,64400,10365,13918,-42688,-15434
C01415=-25972,64399,10367,13917,-42690,-15434
C01416=-25973,64399,10369,13917,-42691,-15433
C01417=-25973,64399,10371,13916,-42692,-15433
C01418=-25974,64398,10373,13916,-42693,-15432
C01419=-25975,64398,10374,13915,-42694,-15431
C01420=-25976,64398,10376,13914,-42695,-15431
C01421=-25977,64398,10378,13914,-42696,-15430
C01422=-25977,64397,10380,13913,-42698,-15430
C01423=-25978,64397,10382,13913,-42699,-15429
C01424=-25979,64397,10384,13912,-42700,-15429
C01425=-25980,64396,10385,13911,-42701,-15428
C01426=-25980,64396,10387,13911,-42702,-15428
C01427=-25981,64396,10389,13910,-42703,-15427
C01428=-25982,64395,10391,13910,-42704,-15427
C01429=-25982,64395,10393,13909,-42706,-15426
C01430=-25983,64395,10395,13909,-42707,-15426
C01431=-25984,64394,10397,13908,-42708,-15425
C01432=-25985,64394,10398,13907,-42709,-15425
C01433=-25985,64394,10400,13907,-42710,-15424
C01434=-25986,64394,10402,13906,-42711,-15424
C01435=-25987,64393,10404,13906,-42712,-15423
C01436=-25988,64393,10406,13905,-42714,-15423
C01437=-25989,64393,10408,13904,-42715,-15422
C01438=-25989,64392,10409,13904,-42716,-15422
C01439=-25990,64392,10411,13903,-42717,-15421
C01440=-25991,64392,10413,13903,-42718,-15421
C01441=-25991,64391,10415,13902,-42719,-15420
C01442=-25992,64391,10417,13901,-42720,-15419
C01443=-25993,64391,10419,13901,-42722,-15419
C01444=-25994,64390,10421,13900,-42723,-15418
C01445=-25994,64390,10422,13900,-42724,-15418
C01446=-25995,64390,10424,13899,-42725,-15417
C01447=-25996,64390,10426,13898,-42726,-15417
C01448=-25997,64389,10428,13898,-42727,-15416
C01449=-25997,64389,10430,13897,-42728,-15416
C01450=-25998,64389,10431,13897,-42729,-15415
C01451=-25999,64388,10433,13896,-42731,-15415
C01452=-26000,64388,10435,13896,-42732,-15414
C01453=-26000,64388,10437,13895,-42733,-15414
C01454=-26001,64388,10439,13894,-42734,-15413
C01455=-26002,64387,10441,13894,-42735,-15413
C01456=-26003,64387,10442,13893,-42736,-15412
C01457=-26003,64387,10444,13893,-42737,-15412
C01458=-26004,64386,10446,13892,-42739,-15411
C01459=-26005,64386,10448,13891,-42740,-15411
C01460=-26006,64386,10450,13891,-42741,-15410
C01461=-26006,64386,10452,13890,-42742,-15410
C01462=-26007,64385,10454,13890,-42743,-15409
C01463=-26008,64385,10456,13889,-42744,-15409
C01464=-26009,64385,10457,13889,-42745,-15408
C01465=-26009,64384,10459,13888,-42747,-15407
C01466=-26010,64384,10461,13887,-42748,-15407
C01467=-26011,64384,10463,13887,-42749,-15406
C01468=-26012,64384,10465,13886,-42750,-15406
C01469=-26012,64383,10467,13886,-42751,-15405
C01470=-26013,64383,10469,13885,-42752,-15405
C01471=-26014,64383,10470,13884,-42753,-15404
C01472=-26015,64383,10472,13884,-42754,-15404
C01473=-26015,64382,10474,13883,-42756,-15403
C01474=-26016,64382,10476,13883,-42757,-15403
C01475=-26017,64382,10478,13882,-42758,-15402
C01476=-26018,64381,10480,13881,-42759,-15402
C01477=-26019,64381,10482,13881,-42760,-15401
C01478=-26019,64381,10483,13880,-42761,-15401
C01479=-26020,64381,10485,13880,-42762,-15400
C01480=-26021,64380,10487,13879,-42764,-15400
C01481=-26021,64380,10489,13879,-42765,-15399
C01482=-26022,64380,10491,13878,-42766,-15399
C01483=-26023,64379,10493,13877,-42767,-15398
C01484=-26024,64379,10495,13877,-42768,-15398
C01485=-26025,64379,10496,13876,-42769,-15397
C01486=-26025,64379,10498,13876,-42770,-15397
C01487=-26026,64378,10500,13875,-42771,-15396
C01488=-26027,64378,10502,13874,-42773,-15395
C01489=-26028,64378,10504,13874,-42774,-15395
C01490=-26028,64378,10506,13873,-42775,-15394
C01491=-26029,64377,10508,13873,-42776,-15394
C01492=-26030,64377,10509,13872,-42777,-15393
C01493=-26031,64377,10511,13871,-42778,-15393
C01494=-26031,64376,10513,13871,-42779,-15392
C01495=-26032,64376,10515,13870,-42781,-15392
C01496=-26033,64376,10517,13870,-42782,-15391
C01497=-26034,64376,10519,13869,-42783,-15391
C01498=-26034,64375,10521,13868,-42784,-15390
C01499=-26035,64375,10522,13868,-42785,-15390
C01500=-26036,64375,10524,13867,-42786,-15389
C01501=-26037,64375,10526,13867,-42787,-15389
C01502=-26037,64374,10528,13866,-42789,-15388
C01503=-26038,64374,10530,13866,-42790,-15388
C01504=-26039,64374,10532,13865,-42791,-15387
C01505=-26040,64373,10534,13864,-42792,-15387
C01506=-26040,64373,10535,13864,-42793,-15386
C01507=-26041,64373,10537,13863,-42794,-15386
C01508=-26042,64373,10539,13863,-42795,-15385
C01509=-26043,64372,10541,13862,-42796,-15385
C01510=-26043,64372,10543,13861,-42797,-15384
C01511=-26044,64372,10544,13861,-42799,-15384
C01512=-26045,64372,10546,13860,-42800,-15383
C01513=-26045,64371,10548,13860,-42801,-15382
C01514=-26046,64371,10550,13859,-42802,-15382
C01515=-26047,64371,10552,13859,-42803,-15381
C01516=-26048,64370,10554,13858,-42804,-15381
C01517=-26048,64370,10556,13857,-42805,-15380
C01518=-26049,64370,10557,13857,-42806,-15380
C01519=-26050,64370,10559,13856,-42808,-15379
C01520=-26051,64369,10561,13856,-42809,-15379
C01521=-26051,64369,10563,13855,-42810,-15378
C01522=-26052,64369,10565,13855,-42811,-15378
C01523=-26053,64369,10566,13854,-42812,-15377
C01524=-26054,64368,10568,13853,-42813,-15377
C01525=-26054,64368,10570,13853,-42814,-15376
C01526=-26055,64368,10572,13852,-42815,-15376
C01527=-26056,64367,10574,13852,-42816,-15375
C01528=-26057,64367,10576,13851,-42818,-15375
C01529=-26057,64367,10577,13850,-42819,-15374
C01530=-26058,64367,10579,13850,-42820,-15374
C01531=-26059,64366,10581,13849,-42821,-15373
C01532=-26060,64366,10583,13849,-42822,-15373
C01533=-26060,64366,10585,13848,-42823,-15372
C01534=-26061,64366,10586,13848,-42824,-15372
C01535=-26062,64365,10588,13847,-42825,-15371
C01536=-26063,64365,10590,13846,-42826,-15371
C01537=-26063,64365,10592,13846,-42828,-15370
C01538=-26064,64364,10594,13845,-42829,-15370
C01539=-26065,64364,10596,13845,-42830,-15369
C01540=-26066,64364,10598,13844,-42831,-15369
C01541=-26066,64364,10599,13844,-42832,-15368
C01542=-26067,64363,10601,13843,-42833,-15368
C01543=-26068,64363,10603,13842,-42834,-15367
C01544=-26068,64363,10605,13842,-42835,-15367
C01545=-26069,64363,10607,13841,-42837,-15366
C01546=-26070,64362,10608,13841,-42838,-15366
C01547=-26071,64362,10610,13840,-42839,-15365
C01548=-26071,64362,10612,13840,-42840,-15364
C01549=-26072,64361,10614,13839,-42841,-15364
C01550=-26073,64361,10616,13838,-42842,-15363
C01551=-26074,64361,10618,13838,-42843,-15363
C01552=-26074,64361,10619,13837,-42844,-15362
C01553=-26075,64360,10621,13837,-42845,-15362
C01554=-26076,64360,10623,13836,-42847,-15361
C01555=-26077,64360,10625,13835,-42848,-15361
C01556=-26077,64360,10627,13835,-42849,-15360
C01557=-26078,64359,10628,13834,-42850,-15360
C01558=-26079,64359,10630,13834,-42851,-15359
C01559=-26080,64359,10632,13833,-42852,-15359
C01560=-26080,64359,10634,13833,-42853,-15358
C01561=-26081,64358,10636,13832,-42854,-15358
C01562=-26082,64358,10638,13831,-42855,-15357
C01563=-26083,64358,10640,13831,-42857,-15357
C01564=-26083,64358,10641,13830,-42858,-15356
C01565=-26084,64357,10643,13830,-42859,-15356
C01566=-26085,64357,10645,13829,-42860,-15355
C01567=-26086,64357,10647,13829,-42861,-15355
C01568=-26086,64357,10649,13828,-42862,-15354
C01569=-26087,64356,10651,13827,-42863,-15354
C01570=-26088,64356,10652,13827,-42864,-15353
C01571=-26089,64356,10654,13826,-42865,-15353
C01572=-26089,64356,10656,13826,-42866,-15352
C01573=-26090,64355,10658,13825,-42868,-15352
C01574=-26091,64355,10660,13824,-42869,-15351
C01575=-26092,64355,10662,13824,-42870,-15351
C01576=-26092,64355,10664,13823,-42871,-15350
C01577=-26093,64354,10665,13823,-42872,-15350
C01578=-26094,64354,10667,13822,-42873,-15349
C01579=-26095,64354,10669,13822,-42874,-15349
C01580=-26095,64354,10671,13821,-42875,-15348
C01581=-26096,64353,10673,13820,-42876,-15348
C01582=-26097,64353,10674,13820,-42878,-15347
C01583=-26098,64353,10676,13819,-42879,-15346
C01584=-26098,64353,10678,13819,-42880,-15346
C01585=-26099,64352,10680,13818,-42881,-15345
C01586=-26100,64352,10682,13818,-42882,-15345
C01587=-26101,64352,10684,13817,-42883,-15344
C01588=-26101,64352,10686,13816,-42884,-15344
C01589=-26102,64351,10687,13816,-42885,-15343
C01590=-26103,64351,10689,13815,-42887,-15343
C01591=-26104,64351,10691,13815,-42888,-15342
C01592=-26104,64351,10693,13814,-42889,-15342
C01593=-26105,64351,10695,13814,-42890,-15341
C01594=-26106,64350,10697,13813,-42891,-15341
C01595=-26107,64350,10698,13812,-42892,-15340
C01596=-26107,64350,10700,13812,-42893,-15340
C01597=-26108,64350,10702,13811,-42894,-15339
C01598=-26109,64349,10704,13811,-42895,-15339
C01599=-26110,64349,10706,13810,-42897,-15338
C01600=-26110,64349,10708,13809,-42898,-15338
C01601=-26111,64349,10710,13809,-42899,-15337
C01602=-26112,64348,10711,13808,-42900,-15337
C01603=-26113,64348,10713,13808,-42901,-15336
C01604=-26113,64348,10715,13807,-42902,-15336
C01605=-26114,64348,10717,13807,-42903,-15335
C01606=-26115,64347,10719,13806,-42904,-15335
C01607=-26116,64347,10721,13805,-42905,-15334
C01608=-26116,64347,10723,13805,-42907,-15334
C01609=-26117,64347,10724,13804,-42908,-15333
C01610=-26118,64346,10726,13804,-42909,-15333
C01611=-26119,64346,10728,13803,-42910,-15332
C01612=-26119,64346,10730,13803,-42911,-15332
C01613=-26120,64346,10732,13802,-42912,-15331
C01614=-26121,64345,10733,13801,-42913,-15331
C01615=-26122,64345,10735,13801,-42914,-15330
C01616=-26122,64345,10737,13800,-42915,-15330
C01617=-26123,64345,10739,13800,-42917,-15329
C01618=-26124,64344,10741,13799,-42918,-15328
C01619=-26125,64344,10743,13799,-42919,-15328
C01620=-26125,64344,10744,13798,-42920,-15327
C01621=-26126,64344,10746,13797,-42921,-15327
C01622=-26127,64343,10748,13797,-42922,-15326
C01623=-26127,64343,10750,13796,-42923,-15326
C01624=-26128,64343,10752,13796,-42924,-15325
C01625=-26129,64343,10754,13795,-42925,-15325
C01626=-26130,64342,10755,13795,-42926,-15324
C01627=-26130,64342,10757,13794,-42928,-15324
C01628=-26131,64342,10759,13793,-42929,-15323
C01629=-26132,64342,10761,13793,-42930,-15323
C01630=-26133,64342,10763,13792,-42931,-15322
C01631=-26133,64341,10765,13792,-42932,-15322
C01632=-26134,64341,10766,13791,-42933,-15321
C01633=-26135,64341,10768,13790,-42934,-15321
C01634=-26136,64341,10770,13790,-42935,-15320
C01635=-26136,64340,10772,13789,-42936,-15320
C01636=-26137,64340,10774,13789,-42937,-15319
C01637=-26138,64340,10776,13788,-42939,-15319
C01638=-26139,64340,10777,13788,-42940,-15318
C01639=-26139,64339,10779,13787,-42941,-15318
C01640=-26140,64339,10781,13787,-42942,-15317
C01641=-26141,64339,10783,13786,-42943,-15317
C01642=-26142,64339,10785,13785,-42944,-15316
C01643=-26142,64338,10787,13785,-42945,-15316
C01644=-26143,64338,10788,13784,-42946,-15315
C01645=-26144,64338,10790,13784,-42947,-15315
C01646=-26145,64338,10792,13783,-42948,-15314
C01647=-26145,64337,10794,13783,-42950,-15314
C01648=-26146,64337,10796,13782,-42951,-15313
C01649=-26147,64337,10797,13781,-42952,-15313
C01650=-26148,64337,10799,13781,-42953,-15312
C01651=-26148,64336,10801,13780,-42954,-15312
C01652=-26149,64336,10803,13780,-42955,-15311
C01653=-26150,64336,10805,13779,-42956,-15311
C01654=-26151,64336,10807,13778,-42957,-15310
C01655=-26151,64335,10808,13778,-42958,-15310
C01656=-26152,64335,10810,13777,-42959,-15309
C01657=-26153,64335,10812,13777,-42961,-15309
C01658=-26154,64335,10814,13776,-42962,-15308
C01659=-26154,64334,10816,13776,-42963,-15307
C01660=-26155,64334,10818,13775,-42964,-15307
C01661=-26156,64334,10819,13774,-42965,-15306
C01662=-26156,64334,10821,13774,-42966,-15306
C01663=-26157,64334,10823,13773,-42967,-15306
C01664=-26158,64333,10825,13773,-42968,-15305
C01665=-26159,64333,10827,13772,-42969,-15305
C01666=-26159,64333,10829,13772,-42970,-15304
C01667=-26160,64333,10830,13771,-42971,-15303
C01668=-26161,64332,10832,13771,-42973,-15303
C01669=-26162,64332,10834,13770,-42974,-15302
C01670=-26162,64332,10836,13769,-42975,-15302
C01671=-26163,64332,10838,13769,-42976,-15301
C01672=-26164,64332,10839,13768,-42977,-15301
C01673=-26165,64331,10841,13768,-42978,-15300
C01674=-26165,64331,10843,13767,-42979,-15300
C01675=-26166,64331,10845,13766,-42980,-15299
C01676=-26167,64331,10847,13766,-42981,-15299
C01677=-26168,64331,10849,13765,-42982,-15298
C01678=-26168,64330,10851,13765,-42984,-15298
C01679=-26169,64330,10852,13764,-42985,-15297
C01680=-26170,64330,10854,13764,-42986,-15297
C01681=-26171,64330,10856,13763,-42987,-15296
C01682=-26171,64329,10858,13763,-42988,-15296
C01683=-26172,64329,10860,13762,-42989,-15295
C01684=-26173,64329,10862,13761,-42990,-15295
C01685=-26174,64329,10864,13761,-42991,-15294
C01686=-26174,64329,10865,13760,-42992,-15294
C01687=-26175,64328,10867,13760,-42993,-15293
C01688=-26176,64328,10869,13759,-42995,-15293
C01689=-26177,64328,10871,13759,-42996,-15292
C01690=-26177,64328,10873,13758,-42997,-15292
C01691=-26178,64328,10875,13757,-42998,-15291
C01692=-26179,64327,10877,13757,-42999,-15291
C01693=-26180,64327,10878,13756,-43000,-15290
C01694=-26180,64327,10880,13756,-43001,-15290
C01695=-26181,64327,10882,13755,-43002,-15289
C01696=-26182,64326,10884,13755,-43003,-15289
C01697=-26183,64326,10886,13754,-43004,-15288
C01698=-26183,64326,10887,13753,-43005,-15288
C01699=-26184,64326,10889,13753,-43007,-15287
C01700=-26185,64326,10891,13752,-43008,-15287
C01701=-26186,64325,10893,13752,-43009,-15286
C01702=-26186,64325,10895,13751,-43010,-15285
C01703=-26187,64325,10897,13750,-43011,-15285
C01704=-26188,64325,10899,13750,-43012,-15284
C01705=-26189,64325,10900,13749,-43013,-15284
C01706=-26189,64324,10902,13749,-43014,-15283
C01707=-26190,64324,10904,13748,-43015,-15283
C01708=-26191,64324,10906,13748,-43017,-15282
C01709=-26192,64324,10908,13747,-43018,-15282
C01710=-26193,64323,10910,13746,-43019,-15281
C01711=-26193,64323,10912,13746,-43020,-15281
C01712=-26194,64323,10913,13745,-43021,-15280
C01713=-26195,64323,10915,13745,-43022,-15280
C01714=-26195,64323,10917,13744,-43023,-15279
C01715=-26196,64322,10919,13744,-43024,-15279
C01716=-26197,64322,10921,13743,-43025,-15278
C01717=-26198,64322,10923,13742,-43026,-15278
C01718=-26198,64322,10924,13742,-43027,-15277
C01719=-26199,64322,10926,13741,-43029,-15277
C01720=-26200,64321,10928,13741,-43030,-15276
C01721=-26201,64321,10930,13740,-43031,-15276
C01722=-26202,64321,10932,13740,-43032,-15275
C01723=-26202,64321,10934,13739,-43033,-15275
C01724=-26203,64320,10935,13739,-43034,-15274
C01725=-26204,64320,10937,13738,-43035,-15274
C01726=-26204,64320,10939,13737,-43036,-15273
C01727=-26205,64320,10941,13737,-43037,-15273
C01728=-26206,64320,10943,13736,-43038,-15272
C01729=-26207,64319,10945,13736,-43039,-15272
C01730=-26207,64319,10946,13735,-43041,-15271
C01731=-26208,64319,10948,13735,-43042,-15271
C01732=-26209,64319,10950,13734,-43043,-15270
C01733=-26210,64319,10952,13733,-43044,-15270
C01734=-26210,64318,10954,13733,-43045,-15269
C01735=-26211,64318,10955,13732,-43046,-15269
C01736=-26212,64318,10957,13732,-43047,-15268
C01737=-26213,64318,10959,13731,-43048,-15268
C01738=-26213,64317,10961,13731,-43049,-15267
C01739=-26214,64317,10963,13730,-43050,-15267
C01740=-26215,64317,10965,13729,-43051,-15266
C01741=-26216,64317,10967,13729,-43052,-15266
C01742=-26216,64317,10968,13728,-43054,-15265
C01743=-26217,64316,10970,13728,-43055,-15265
C01744=-26218,64316,10972,13727,-43056,-15264
C01745=-26219,64316,10974,13727,-43057,-15264
C01746=-26219,64316,10976,13726,-43058,-15263
C01747=-26220,64316,10978,13725,-43059,-15263
C01748=-26221,64315,10979,13725,-43060,-15262
C01749=-26222,64315,10981,13724,-43061,-15262
C01750=-26222,64315,10983,13724,-43062,-15261
C01751=-26223,64315,10985,13723,-43063,-15261
C01752=-26224,64314,10987,13723,-43065,-15260
C01753=-26225,64314,10989,13722,-43066,-15260
C01754=-26225,64314,10990,13722,-43067,-15259
C01755=-26226,64314,10992,13721,-43068,-15259
C01756=-26227,64314,10994,13720,-43069,-15258
C01757=-26228,64313,10996,13720,-43070,-15257
C01758=-26228,64313,10998,13719,-43071,-15257
C01759=-26229,64313,11000,13719,-43072,-15256
C01760=-26230,64313,11001,13718,-43073,-15256
C01761=-26231,64313,11003,13718,-43074,-15255
C01762=-26231,64312,11005,13717,-43075,-15255
C01763=-26232,64312,11007,13716,-43077,-15254
C01764=-26233,64312,11009,13716,-43078,-15254
C01765=-26234,64312,11011,13715,-43079,-15253
C01766=-26234,64312,11012,13715,-43080,-15253
C01767=-26235,64311,11014,13714,-43081,-15252
C01768=-26236,64311,11016,13714,-43082,-15252
C01769=-26236,64311,11018,13713,-43083,-15251
C01770=-26237,64311,11020,13712,-43084,-15251
C01771=-26238,64311,11021,13712,-43085,-15250
C01772=-26239,64310,11023,13711,-43086,-15250
C01773=-26239,64310,11025,13711,-43087,-15249
C01774=-26240,64310,11027,13710,-43088,-15249
C01775=-26241,64310,11029,13710,-43089,-15248
C01776=-26242,64310,11031,13709,-43091,-15248
C01777=-26243,64309,11032,13708,-43092,-15247
C01778=-26243,64309,11034,13708,-43093,-15247
C01779=-26244,64309,11036,13707,-43094,-15246
C01780=-26245,64309,11038,13707,-43095,-15246
C01781=-26245,64309,11040,13706,-43096,-15245
C01782=-26246,64308,11042,13706,-43097,-15245
C01783=-26247,64308,11044,13705,-43098,-15244
C01784=-26248,64308,11045,13705,-43099,-15244
C01785=-26249,64308,11047,13704,-43100,-15243
C01786=-26249,64308,11049,13703,-43101,-15243
C01787=-26250,64308,11051,13703,-43102,-15242
C01788=-26251,64307,11053,13702,-43103,-15242
C01789=-26251,64307,11054,13702,-43105,-15241
C01790=-26252,64307,11056,13701,-43106,-15241
C01791=-26253,64307,11058,13701,-43107,-15240
C01792=-26254,64307,11060,13700,-43108,-15240
C01793=-26255,64306,11062,13699,-43109,-15239
C01794=-26255,64306,11064,13699,-43110,-15239
C01795=-26256,64306,11066,13698,-43111,-15238
C01796=-26257,64306,11068,13698,-43112,-15238
C01797=-26258,64306,11069,13697,-43113,-15237
C01798=-26258,64305,11071,13697,-43114,-15237
C01799=-26259,64305,11073,13696,-43115,-15236
C01800=-26260,64305,11075,13695,-43117,-15236
C01801=-26261,64305,11077,13695,-43118,-15235
C01802=-26261,64305,11079,13694,-43119,-15235
C01803=-26262,64305,11081,13694,-43120,-15234
C01804=-26263,64304,11082,13693,-43121,-15234
C01805=-26264,64304,11084,13693,-43122,-15233
C01806=-26264,64304,11086,13692,-43123,-15233
C01807=-26265,64304,11088,13692,-43124,-15232
C01808=-26266,64304,11090,13691,-43125,-15232
C01809=-26267,64303,11091,13690,-43126,-15231
C01810=-26267,64303,11093,13690,-43127,-15230
C01811=-26268,64303,11095,13689,-43128,-15230
C01812=-26269,64303,11097,13689,-43130,-15229
C01813=-26270,64303,11099,13688,-43131,-15229
C01814=-26270,64303,11101,13688,-43132,-15228
C01815=-26271,64302,11103,13687,-43133,-15228
C01816=-26272,64302,11104,13686,-43134,-15227
C01817=-26273,64302,11106,13686,-43135,-15227
C01818=-26273,64302,11108,13685,-43136,-15226
C01819=-26274,64302,11110,13685,-43137,-15226
C01820=-26275,64301,11112,13684,-43138,-15225
C01821=-26276,64301,11114,13684,-43139,-15225
C01822=-26276,64301,11115,13683,-43140,-15224
C01823=-26277,64301,11117,13682,-43142,-15224
C01824=-26278,64301,11119,13682,-43143,-15223
C01825=-26279,64300,11121,13681,-43144,-15223
C01826=-26279,64300,11123,13681,-43145,-15222
C01827=-26280,64300,11125,13680,-43146,-15222
C01828=-26281,64300,11126,13680,-43147,-15221
C01829=-26282,64300,11128,13679,-43148,-15221
C01830=-26282,64300,11130,13679,-43149,-15220
C01831=-26283,64299,11132,13678,-43150,-15220
C01832=-26284,64299,11134,13677,-43151,-15219
C01833=-26285,64299,11135,13677,-43152,-15219
C01834=-26285,64299,11137,13676,-43153,-15218
C01835=-26286,64299,11139,13676,-43154,-15218
C01836=-26287,64298,11141,13675,-43155,-15217
C01837=-26288,64298,11143,13675,-43156,-15217
C01838=-26288,64298,11145,13674,-43157,-15216
C01839=-26289,64298,11146,13674,-43159,-15216
C01840=-26290,64298,11148,13673,-43160,-15215
C01841=-26290,64298,11150,13672,-43161,-15215
C01842=-26291,64297,11152,13672,-43162,-15214
C01843=-26292,64297,11154,13671,-43163,-15214
C01844=-26293,64297,11155,13671,-43164,-15213
C01845=-26293,64297,11157,13670,-43165,-15213
C01846=-26294,64297,11159,13670,-43166,-15212
C01847=-26295,64296,11161,13669,-43167,-15212
C01848=-26296,64296,11163,13669,-43168,-15211
C01849=-26296,64296,11165,13668,-43169,-15211
C01850=-26297,64296,11166,13667,-43170,-15210
C01851=-26298,64296,11168,13667,-43171,-15210
C01852=-26299,64296,11170,13666,-43172,-15209
C01853=-26299,64295,11172,13666,-43173,-15209
C01854=-26300,64295,11174,13665,-43175,-15208
C01855=-26301,64295,11175,13665,-43176,-15208
C01856=-26302,64295,11177,13664,-43177,-15207
C01857=-26302,64295,11179,13664,-43178,-15207
C01858=-26303,64294,11181,13663,-43179,-15206
C01859=-26304,64294,11183,13662,-43180,-15206
C01860=-26305,64294,11185,13662,-43181,-15205
C01861=-26305,64294,11186,13661,-43182,-15205
C01862=-26306,64294,11188,13661,-43183,-15204
C01863=-26307,64294,11190,13660,-43184,-15204
C01864=-26307,64293,11192,13660,-43185,-15203
C01865=-26308,64293,11194,13659,-43186,-15203
C01866=-26309,64293,11195,13659,-43187,-15202
C01867=-26310,64293,11197,13658,-43188,-15202
C01868=-26310,64293,11199,13657,-43189,-15201
C01869=-26311,64292,11201,13657,-43190,-15201
C01870=-26312,64292,11203,13656,-43192,-15200
C01871=-26313,64292,11204,13656,-43193,-15200
C01872=-26313,64292,11206,13655,-43194,-15199
C01873=-26314,64292,11208,13655,-43195,-15199
C01874=-26315,64292,11210,13654,-43196,-15198
C01875=-26316,64291,11212,13654,-43197,-15198
C01876=-26316,64291,11214,13653,-43198,-15197
C01877=-26317,64291,11215,13652,-43199,-15197
C01878=-26318,64291,11217,13652,-43200,-15196
C01879=-26319,64291,11219,13651,-43201,-15196
C01880=-26319,64291,11221,13651,-43202,-15195
C01881=-26320,64290,11222,13650,-43203,-15195
C01882=-26321,64290,11224,13650,-43204,-15194
C01883=-26321,64290,11226,13649,-43205,-15194
C01884=-26322,64290,11228,13649,-43206,-15193
C01885=-26323,64290,11230,13648,-43207,-15193
C01886=-26324,64290,11232,13647,-43209,-15192
C01887=-26325,64289,11233,13647,-43210,-15192
C01888=-26325,64289,11235,13646,-43211,-15191
C01889=-26326,64289,11237,13646,-43212,-15191
C01890=-26327,64289,11239,13645,-43213,-15190
C01891=-26327,64289,11241,13645,-43214,-15190
C01892=-26328,64289,11243,13644,-43215,-15189
C01893=-26329,64288,11244,13644,-43216,-15189
C01894=-26330,64288,11246,13643,-43217,-15188
C01895=-26330,64288,11248,13643,-43218,-15188
C01896=-26331,64288,11250,13642,-43219,-15187
C01897=-26332,64288,11252,13641,-43220,-15187
C01898=-26333,64288,11254,13641,-43221,-15186
C01899=-26334,64288,11255,13640,-43222,-15186
C01900=-26334,64287,11257,13640,-43223,-15185
C01901=-26335,64287,11259,13639,-43224,-15185
C01902=-26336,64287,11261,13639,-43225,-15184
C01903=-26336,64287,11263,13638,-43227,-15184
C01904=-26337,64287,11265,13637,-43228,-15183
C01905=-26338,64287,11266,13637,-43229,-15183
C01906=-26339,64286,11268,13636,-43230,-15182
C01907=-26339,64286,11270,13636,-43231,-15182
C01908=-26340,64286,11272,13635,-43232,-15181
C01909=-26341,64286,11274,13635,-43233,-15181
C01910=-26342,64286,11276,13634,-43234,-15180
C01911=-26342,64286,11277,13634,-43235,-15180
C01912=-26343,64286,11279,13633,-43236,-15179
C01913=-26344,64285,11281,13632,-43237,-15179
C01914=-26345,64285,11283,13632,-43238,-15178
C01915=-26345,64285,11285,13631,-43239,-15178
C01916=-26346,64285,11287,13631,-43240,-15177
C01917=-26347,64285,11288,13630,-43241,-15177
C01918=-26348,64285,11290,13630,-43242,-15176
C01919=-26348,64284,11292,13629,-43243,-15176
C01920=-26349,64284,11294,13629,-43245,-15175
C01921=-26350,64284,11296,13628,-43246,-15175
C01922=-26351,64284,11298,13627,-43247,-15174
C01923=-26351,64284,11299,13627,-43248,-15174
C01924=-26352,64284,11301,13626,-43249,-15173
C01925=-26353,64283,11303,13626,-43250,-15173
C01926=-26354,64283,11305,13625,-43251,-15172
C01927=-26354,64283,11307,13625,-43252,-15172
C01928=-26355,64283,11308,13624,-43253,-15171
C01929=-26356,64283,11310,13624,-43254,-15171
C01930=-26357,64283,11312,13623,-43255,-15170
C01931=-26357,64283,11314,13622,-43256,-15170
C01932=-26358,64282,11316,13622,-43257,-15169
C01933=-26359,64282,11318,13621,-43258,-15169
C01934=-26360,64282,11320,13621,-43259,-15168
C01935=-26360,64282,11321,13620,-43261,-15168
C01936=-26361,64282,11323,13620,-43262,-15167
C01937=-26362,64282,11325,13619,-43263,-15167
C01938=-26363,64281,11327,13619,-43264,-15166
C01939=-26363,64281,11329,13618,-43265,-15166
C01940=-26364,64281,11330,13618,-43266,-15165
C01941=-26365,64281,11332,13617,-43267,-15165
C01942=-26366,64281,11334,13616,-43268,-15164
C01943=-26366,64281,11336,13616,-43269,-15164
C01944=-26367,64281,11338,13615,-43270,-15163
C01945=-26368,64280,11340,13615,-43271,-15163
C01946=-26369,64280,11341,13614,-43272,-15162
C01947=-26369,64280,11343,13614,-43273,-15162
C01948=-26370,64280,11345,13613,-43274,-15161
C01949=-26371,64280,11347,13613,-43275,-15161
C01950=-26372,64280,11348,13612,-43276,-15160
C01951=-26372,64279,11350,13611,-43277,-15160
C01952=-26373,64279,11352,13611,-43278,-15159
C01953=-26374,64279,11354,13610,-43280,-15159
C01954=-26375,64279,11356,13610,-43281,-15158
C01955=-26375,64279,11358,13609,-43282,-15158
C01956=-26376,64279,11359,13609,-43283,-15157
C01957=-26377,64279,11361,13608,-43284,-15157
C01958=-26377,64278,11363,13608,-43285,-15156
C01959=-26378,64278,11365,13607,-43286,-15156
C01960=-26379,64278,11367,13607,-43287,-15155
C01961=-26380,64278,11369,13606,-43288,-15155
C01962=-26380,64278,11370,13605,-43289,-15154
C01963=-26381,64278,11372,13605,-43290,-15154
C01964=-26382,64277,11374,13604,-43291,-15153
C01965=-26383,64277,11376,13604,-43292,-15153
C01966=-26383,64277,11378,13603,-43293,-15152
C01967=-26384,64277,11379,13603,-43294,-15152
C01968=-26385,64277,11381,13602,-43295,-15151
C01969=-26386,64277,11383,13602,-43296,-15151
C01970=-26386,64277,11385,13601,-43297,-15150
C01971=-26387,64276,11387,13600,-43298,-15150
C01972=-26388,64276,11389,13600,-43300,-15149
C01973=-26389,64276,11390,13599,-43301,-15149
C01974=-26389,64276,11392,13599,-43302,-15148
C01975=-26390,64276,11394,13598,-43303,-15148
C01976=-26391,64276,11396,13598,-43304,-15147
C01977=-26392,64275,11398,13597,-43305,-15147
C01978=-26392,64275,11399,13597,-43306,-15146
C01979=-26393,64275,11401,13596,-43307,-15146
C01980=-26394,64275,11403,13595,-43308,-15145
C01981=-26395,64275,11405,13595,-43309,-15145
C01982=-26395,64275,11407,13594,-43310,-15144
C01983=-26396,64275,11409,13594,-43311,-15144
C01984=-26397,64274,11410,13593,-43312,-15143
C01985=-26398,64274,11412,13593,-43313,-15143
C01986=-26398,64274,11414,13592,-43314,-15142
C01987=-26399,64274,11416,13592,-43315,-15142
C01988=-26400,64274,11418,13591,-43316,-15141
C01989=-26400,64274,11419,13591,-43317,-15141
C01990=-26401,64273,11421,13590,-43318,-15140
C01991=-26402,64273,11423,13589,-43319,-15140
C01992=-26403,64273,11425,13589,-43320,-15139
C01993=-26403,64273,11427,13588,-43321,-15139
C01994=-26404,64273,11428,13588,-43323,-15138
C01995=-26405,64273,11430,13587,-43324,-15138
C01996=-26406,64273,11432,13587,-43325,-15137
C01997=-26406,64273,11434,13586,-43326,-15137
C01998=-26407,64272,11436,13586,-43327,-15136
C01999=-26408,64272,11438,13585,-43328,-15136
C02000=-26409,64272,11439,13585,-43329,-15135
C02001=-26409,64272,11441,13584,-43330,-15135
C02002=-26410,64272,11443,13583,-43331,-15134
C02003=-26411,64272,11445,13583,-43332,-15134
C02004=-26412,64272,11447,13582,-43333,-15133
C02005=-26412,64272,11448,13582,-43334,-15133
C02006=-26413,64271,11450,13581,-43335,-15132
C02007=-26414,64271,11452,13581,-43336,-15132
C02008=-26415,64271,11454,13580,-43337,-15131
C02009=-26415,64271,11456,13580,-43338,-15131
C02010=-26416,64271,11458,13579,-43339,-15130
C02011=-26417,64271,11460,13578,-43340,-15130
C02012=-26418,64271,11461,13578,-43341,-15129
C02013=-26418,64271,11463,13577,-43342,-15129
C02014=-26419,64270,11465,13577,-43343,-15128
C02015=-26420,64270,11467,13576,-43344,-15128
C02016=-26421,64270,11469,13576,-43346,-15127
C02017=-26421,64270,11471,13575,-43347,-15127
C02018=-26422,64270,11472,13575,-43348,-15126
C02019=-26423,64270,11474,13574,-43349,-15126
C02020=-26424,64270,11476,13574,-43350,-15125
C02021=-26424,64270,11478,13573,-43351,-15125
C02022=-26425,64269,11480,13572,-43352,-15124
C02023=-26426,64269,11481,13572,-43353,-15124
C02024=-26427,64269,11483,13571,-43354,-15123
C02025=-26427,64269,11485,13571,-43355,-15123
C02026=-26428,64269,11487,13570,-43356,-15122
C02027=-26429,64269,11489,13570,-43357,-15122
C02028=-26430,64269,11491,13569,-43358,-15121
C02029=-26430,64269,11492,13569,-43359,-15121
C02030=-26431,64268,11494,13568,-43360,-15120
C02031=-26432,64268,11496,13567,-43361,-15120
C02032=-26433,64268,11498,13567,-43362,-15119
C02033=-26433,64268,11500,13566,-43363,-15119
C02034=-26434,64268,11502,13566,-43364,-15118
C02035=-26435,64268,11504,13565,-43366,-15118
C02036=-26436,64268,11505,13565,-43367,-15117
C02037=-26436,64267,11507,13564,-43368,-15117
C02038=-26437,64267,11509,13564,-43369,-15116
C02039=-26438,64267,11511,13563,-43370,-15116
C02040=-26439,64267,11513,13563,-43371,-15115
C02041=-26439,64267,11514,13562,-43372,-15115
C02042=-26440,64267,11516,13561,-43373,-15114
C02043=-26441,64267,11518,13561,-43374,-15114
C02044=-26442,64267,11520,13560,-43375,-15113
C02045=-26442,64266,11522,13560,-43376,-15113
C02046=-26443,64266,11524,13559,-43377,-15112
C02047=-26444,64266,11525,13559,-43378,-15112
C02048=-26445,64266,11527,13558,-43379,-15111
C02049=-26445,64266,11529,13558,-43380,-15111
C02050=-26446,64266,11531,13557,-43381,-15111
C02051=-26447,64266,11533,13557,-43382,-15110
C02052=-26448,64266,11535,13556,-43383,-15109
C02053=-26448,64265,11536,13555,-43384,-15109
C02054=-26449,64265,11538,13555,-43385,-15109
C02055=-26450,64265,11540,13554,-43386,-15108
C02056=-26451,64265,11542,13554,-43387,-15108
C02057=-26451,64265,11543,13553,-43388,-15107
C02058=-26452,64265,11545,13553,-43389,-15107
C02059=-26453,64265,11547,13552,-43391,-15106
C02060=-26454,64265,11549,13552,-43392,-15106
C02061=-26454,64264,11551,13551,-43393,-15105
C02062=-26455,64264,11553,13551,-43394,-15105
C02063=-26456,64264,11554,13550,-43395,-15104
C02064=-26457,64264,11556,13549,-43396,-15104
C02065=-26457,64264,11558,13549,-43397,-15103
C02066=-26458,64264,11560,13548,-43398,-15103
C02067=-26459,64264,11562,13548,-43399,-15102
C02068=-26460,64264,11564,13547,-43400,-15102
C02069=-26460,64263,11565,13547,-43401,-15101
C02070=-26461,64263,11567,13546,-43402,-15101
C02071=-26462,64263,11569,13546,-43403,-15100
C02072=-26462,64263,11571,13545,-43404,-15100
C02073=-26463,64263,11573,13545,-43405,-15099
C02074=-26464,64263,11575,13544,-43406,-15099
C02075=-26465,64263,11576,13543,-43407,-15098
C02076=-26465,64263,11578,13543,-43408,-15098
C02077=-26466,64262,11580,13542,-43409,-15097
C02078=-26467,64262,11582,13542,-43410,-15097
C02079=-26468,64262,11583,13541,-43411,-15096
C02080=-26468,64262,11585,13541,-43412,-15096
C02081=-26469,64262,11587,13540,-43413,-15095
C02082=-26470,64262,11589,13540,-43414,-15095
C02083=-26471,64262,11591,13539,-43416,-15094
C02084=-26471,64262,11593,13539,-43417,-15094
C02085=-26472,64261,11594,13538,-43418,-15093
C02086=-26473,64261,11596,13537,-43419,-15093
C02087=-26474,64261,11598,13537,-43420,-15092
C02088=-26474,64261,11600,13536,-43421,-15092
C02089=-26475,64261,11602,13536,-43422,-15091
C02090=-26476,64261,11604,13535,-43423,-15091
C02091=-26477,64261,11605,13535,-43424,-15090
C02092=-26477,64261,11607,13534,-43425,-15090
C02093=-26478,64260,11609,13534,-43426,-15089
C02094=-26479,64260,11611,13533,-43427,-15089
C02095=-26480,64260,11612,13533,-43428,-15088
C02096=-26480,64260,11614,13532,-43429,-15088
C02097=-26481,64260,11616,13531,-43430,-15087
C02098=-26482,64260,11618,13531,-43431,-15087
C02099=-26483,64260,11620,13530,-43432,-15086
C02100=-26483,64259,11622,13530,-43433,-15086
C02101=-26484,64259,11623,13529,-43434,-15085
C02102=-26485,64259,11625,13529,-43435,-15085
C02103=-26485,64259,11627,13528,-43436,-15084
C02104=-26486,64259,11629,13528,-43437,-15084
C02105=-26487,64259,11631,13527,-43438,-15083
C02106=-26488,64259,11632,13527,-43439,-15083
C02107=-26488,64259,11634,13526,-43440,-15082
C02108=-26489,64259,11636,13526,-43441,-15082
C02109=-26490,64259,11638,13525,-43442,-15081
C02110=-26491,64259,11640,13524,-43443,-15081
C02111=-26491,64258,11642,13524,-43444,-15080
C02112=-26492,64258,11644,13523,-43446,-15080
C02113=-26493,64258,11645,13523,-43447,-15079
C02114=-26494,64258,11647,13522,-43448,-15079
C02115=-26495,64258,11649,13522,-43449,-15078
C02116=-26495,64258,11651,13521,-43450,-15078
C02117=-26496,64258,11653,13521,-43451,-15077
C02118=-26497,64258,11654,13520,-43452,-15077
C02119=-26498,64258,11656,13519,-43453,-15076
C02120=-26498,64257,11658,13519,-43454,-15076
C02121=-26499,64257,11660,13518,-43455,-15075
C02122=-26500,64257,11662,13518,-43456,-15075
C02123=-26501,64257,11664,13517,-43457,-15074
C02124=-26501,64257,11665,13517,-43458,-15074
C02125=-26502,64257,11667,13516,-43459,-15073
C02126=-26503,64257,11669,13516,-43460,-15073
C02127=-26504,64257,11671,13515,-43461,-15072
C02128=-26504,64257,11673,13515,-43462,-15072
C02129=-26505,64257,11675,13514,-43463,-15071
C02130=-26506,64256,11676,13514,-43464,-15071
C02131=-26507,64256,11678,13513,-43465,-15070
C02132=-26507,64256,11680,13512,-43466,-15070
C02133=-26508,64256,11682,13512,-43467,-15069
C02134=-26509,64256,11684,13511,-43468,-15069
C02135=-26510,64256,11686,13511,-43469,-15068
C02136=-26510,64256,11687,13510,-43470,-15068
C02137=-26511,64256,11689,13510,-43471,-15067
C02138=-26512,64256,11691,13509,-43472,-15067
C02139=-26513,64256,11693,13509,-43473,-15066
C02140=-26513,64255,11695,13508,-43474,-15066
C02141=-26514,64255,11697,13508,-43475,-15065
C02142=-26515,64255,11699,13507,-43477,-15065
C02143=-26516,64255,11700,13506,-43478,-15064
C02144=-26516,64255,11702,13506,-43479,-15064
C02145=-26517,64255,11704,13505,-43480,-15063
C02146=-26518,64255,11706,13505,-43481,-15063
C02147=-26519,64255,11708,13504,-43482,-15062
C02148=-26519,64255,11709,13504,-43483,-15062
C02149=-26520,64255,11711,13503,-43484,-15061
C02150=-26521,64254,11713,13503,-43485,-15061
C02151=-26522,64254,11715,13502,-43486,-15060
C02152=-26522,64254,11717,13502,-43487,-15060
C02153=-26523,64254,11719,13501,-43488,-15059
C02154=-26524,64254,11720,13500,-43489,-15059
C02155=-26525,64254,11722,13500,-43490,-15058
C02156=-26525,64254,11724,13499,-43491,-15058
C02157=-26526,64254,11726,13499,-43492,-15057
C02158=-26527,64254,11728,13498,-43493,-15057
C02159=-26528,64254,11730,13498,-43494,-15056
C02160=-26528,64253,11731,13497,-43495,-15056
C02161=-26529,64253,11733,13497,-43496,-15056
C02162=-26530,64253,11735,13496,-43497,-15055
C02163=-26531,64253,11737,13496,-43498,-15054
C02164=-26531,64253,11739,13495,-43499,-15054
C02165=-26532,64253,11740,13495,-43500,-15054
C02166=-26533,64253,11742,13494,-43501,-15053
C02167=-26534,64253,11744,13493,-43502,-15053
C02168=-26534,64253,11746,13493,-43503,-15052
C02169=-26535,64253,11748,13492,-43504,-15052
C02170=-26536,64252,11750,13492,-43505,-15051
C02171=-26537,64252,11751,13491,-43507,-15051
C02172=-26537,64252,11753,13491,-43508,-15050
C02173=-26538,64252,11755,13490,-43509,-15050
C02174=-26539,64252,11757,13490,-43510,-15049
C02175=-26540,64252,11759,13489,-43511,-15049
C02176=-26540,64252,11761,13489,-43512,-15048
C02177=-26541,64252,11762,13488,-43513,-15048
C02178=-26542,64252,11764,13487,-43514,-15047
C02179=-26542,64252,11766,13487,-43515,-15047
C02180=-26543,64251,11768,13486,-43516,-15046
C02181=-26544,64251,11769,13486,-43517,-15046
C02182=-26545,64251,11771,13485,-43518,-15045
C02183=-26545,64251,11773,13485,-43519,-15045
C02184=-26546,64251,11775,13484,-43520,-15044
C02185=-26547,64251,11777,13484,-43521,-15044
C02186=-26548,64251,11779,13483,-43522,-15043
C02187=-26548,64251,11780,13483,-43523,-15043
C02188=-26549,64251,11782,13482,-43524,-15042
C02189=-26550,64251,11784,13482,-43525,-15042
C02190=-26551,64250,11786,13481,-43526,-15041
C02191=-26551,64250,11788,13480,-43527,-15041
C02192=-26552,64250,11790,13480,-43528,-15040
C02193=-26553,64250,11791,13479,-43529,-15040
C02194=-26554,64250,11793,13479,-43530,-15039
C02195=-26554,64250,11795,13478,-43531,-15039
C02196=-26555,64250,11797,13478,-43532,-15038
C02197=-26556,64250,11799,13477,-43533,-15038
