/JOB
//NAME AAA
//POS
///NPOS 30,0,30,0,0,0
///TOOL 12
///POSTYPE PULSE
///PULSE
C00000=-32851,72953,21070,10987,-43880,-12187
C00001=-32851,74186,19980,11252,-42599,-12351
C00002=-32577,74318,20140,11346,-42664,-12466
C00003=-32677,73427,19062,11353,-42449,-12449
C00004=-32851,74186,19980,11252,-42599,-12351
C00005=-33023,73215,21385,10913,-43918,-12106
C00006=-33023,74445,20294,11176,-42637,-12269
C00007=-32825,75054,21034,11219,-42801,-12336
C00008=-32556,75025,20998,11320,-42828,-12454
C00009=-32371,74374,20208,11420,-42703,-12553
C00010=-32378,73484,19131,11461,-42500,-12577
C00011=-32576,72877,18398,11418,-42338,-12510
C00012=-32848,72906,18433,11315,-42311,-12391
C00013=-33033,73555,19217,11215,-42434,-12291
C00014=-33023,74445,20294,11176,-42637,-12269
C00015=-33194,73479,21703,10839,-43956,-12025
C00016=-33194,74705,20610,11100,-42675,-12187
C00017=-33040,75360,21406,11125,-42845,-12234
C00018=-32814,75717,21840,11191,-42955,-12321
C00019=-32543,75678,21792,11292,-42980,-12440
C00020=-32327,75258,21280,11392,-42910,-12545
C00021=-32190,74561,20435,11476,-42768,-12626
C00022=-32166,73665,19349,11530,-42568,-12664
C00023=-32263,72907,18434,11532,-42385,-12644
C00024=-32477,72344,17756,11481,-42232,-12569
C00025=-32725,72189,17569,11396,-42166,-12465
C00026=-32968,72414,17839,11295,-42186,-12353
C00027=-33165,73035,18588,11191,-42300,-12249
C00028=-33242,73818,19535,11125,-42467,-12192
C00029=-33194,74705,20610,11100,-42675,-12187
EC00000=-29914,-222759
EC00001=-29914,-222759
EC00002=-29914,-222759
EC00003=-29914,-222759
EC00004=-29914,-222759
EC00005=-29914,-222759
EC00006=-29914,-222759
EC00007=-29914,-222759
EC00008=-29914,-222759
EC00009=-29914,-222759
EC00010=-29914,-222759
EC00011=-29914,-222759
EC00012=-29914,-222759
EC00013=-29914,-222759
EC00014=-29914,-222759
EC00015=-29914,-222759
EC00016=-29914,-222759
EC00017=-29914,-222759
EC00018=-29914,-222759
EC00019=-29914,-222759
EC00020=-29914,-222759
EC00021=-29914,-222759
EC00022=-29914,-222759
EC00023=-29914,-222759
EC00024=-29914,-222759
EC00025=-29914,-222759
EC00026=-29914,-222759
EC00027=-29914,-222759
EC00028=-29914,-222759
EC00029=-29914,-222759
//INST
///DATE 2023/05/24 19:59
///ATTR SC,RW
///GROUP1 RB1
///GROUP2 ST1
NOP
MOVL C00000 V=25.0 +MOVJ EC00000
MOVL C00001 V=10.0 +MOVJ EC00001
MOVL C00002 V=12.0 +MOVJ EC00002
MOVL C00003 V=12.0 +MOVJ EC00003
MOVL C00004 V=12.0 +MOVJ EC00004
MOVL C00005 V=25.0 +MOVJ EC00005
MOVL C00006 V=10.0 +MOVJ EC00006
MOVL C00007 V=12.0 +MOVJ EC00007
MOVL C00008 V=12.0 +MOVJ EC00008
MOVL C00009 V=12.0 +MOVJ EC00009
MOVL C00010 V=12.0 +MOVJ EC00010
MOVL C00011 V=12.0 +MOVJ EC00011
MOVL C00012 V=12.0 +MOVJ EC00012
MOVL C00013 V=12.0 +MOVJ EC00013
MOVL C00014 V=12.0 +MOVJ EC00014
MOVL C00015 V=25.0 +MOVJ EC00015
MOVL C00016 V=10.0 +MOVJ EC00016
MOVL C00017 V=12.0 +MOVJ EC00017
MOVL C00018 V=12.0 +MOVJ EC00018
MOVL C00019 V=12.0 +MOVJ EC00019
MOVL C00020 V=12.0 +MOVJ EC00020
MOVL C00021 V=12.0 +MOVJ EC00021
MOVL C00022 V=12.0 +MOVJ EC00022
MOVL C00023 V=12.0 +MOVJ EC00023
MOVL C00024 V=12.0 +MOVJ EC00024
MOVL C00025 V=12.0 +MOVJ EC00025
MOVL C00026 V=12.0 +MOVJ EC00026
MOVL C00027 V=12.0 +MOVJ EC00027
MOVL C00028 V=12.0 +MOVJ EC00028
MOVL C00029 V=12.0 +MOVJ EC00029
END
