/JOB
//NAME AAA
//POS
///NPOS 200,0,200,0,0,0
///TOOL 12
///POSTYPE PULSE
///PULSE
C00000=-28255,67289,8825,13761,-39981,-14842
C00001=-28171,67949,9611,13752,-40133,-14855
C00002=-28087,68612,10401,13742,-40287,-14868
C00003=-28003,69277,11196,13732,-40443,-14880
C00004=-27920,69946,11996,13721,-40600,-14892
C00005=-27837,70617,12801,13710,-40759,-14904
C00006=-27755,71291,13611,13698,-40919,-14915
C00007=-28154,68081,9768,13750,-40164,-14857
C00008=-28070,68745,10559,13740,-40318,-14870
C00009=-27986,69411,11355,13730,-40474,-14883
C00010=-27903,70080,12156,13719,-40632,-14894
C00011=-27821,70751,12962,13707,-40791,-14906
C00012=-28238,67421,8982,13759,-40011,-14844
C00013=-28154,68081,9768,13750,-40164,-14857
C00014=-28053,68878,10718,13738,-40349,-14873
C00015=-27970,69544,11515,13727,-40505,-14885
C00016=-27887,70214,12317,13717,-40663,-14897
C00017=-27804,70886,13124,13705,-40823,-14908
C00018=-28222,67548,9136,13757,-40042,-14847
C00019=-28138,68200,9918,13747,-40196,-14859
C00020=-28054,68857,10708,13736,-40353,-14872
C00021=-27954,69654,11667,13723,-40544,-14886
C00022=-27870,70323,12475,13711,-40706,-14897
C00023=-27787,70999,13293,13699,-40870,-14908
C00024=-28211,67600,9234,13752,-40076,-14846
C00025=-28126,68260,10025,13741,-40232,-14859
C00026=-28042,68925,10825,13731,-40391,-14871
C00027=-27957,69596,11633,13719,-40552,-14883
C00028=-27856,70409,12614,13705,-40748,-14897
C00029=-27772,71093,13441,13693,-40914,-14908
C00030=-28197,67682,9367,13746,-40117,-14846
C00031=-28110,68353,10172,13735,-40276,-14859
C00032=-28025,69030,10986,13724,-40438,-14871
C00033=-27939,69713,11808,13713,-40601,-14883
C00034=-27853,70402,12640,13701,-40767,-14895
C00035=-27744,71290,13715,13685,-40983,-14909
C00036=-28259,67167,8785,13749,-40017,-14834
C00037=-28178,67798,9540,13740,-40166,-14846
C00038=-28096,68434,10303,13730,-40316,-14858
C00039=-28015,69075,11074,13719,-40469,-14870
C00040=-27934,69721,11852,13708,-40624,-14882
C00041=-27837,70503,12797,13695,-40813,-14895
C00042=-27756,71161,13592,13683,-40973,-14905
C00043=-28206,67550,9280,13739,-40129,-14839
C00044=-28123,68192,10048,13729,-40281,-14852
C00045=-28025,68968,10981,13716,-40466,-14866
C00046=-27943,69620,11766,13706,-40622,-14878
C00047=-27861,70278,12559,13694,-40780,-14889
C00048=-27779,70941,13361,13682,-40941,-14900
C00049=-28220,67409,9147,13736,-40118,-14835
C00050=-28137,68056,9922,13726,-40271,-14847
C00051=-28053,68709,10705,13716,-40426,-14860
C00052=-27971,69366,11496,13705,-40583,-14872
C00053=-27871,70162,12456,13692,-40774,-14885
C00054=-27789,70832,13264,13680,-40936,-14896
C00055=-28253,67122,8838,13736,-40072,-14827
C00056=-28168,67780,9626,13726,-40227,-14840
C00057=-28067,68576,10579,13714,-40415,-14855
C00058=-27982,69243,11382,13703,-40575,-14868
C00059=-27898,69916,12192,13692,-40736,-14879
C00060=-27814,70593,13010,13680,-40899,-14891
C00061=-27801,70708,13159,13676,-40933,-14891
C00062=-28181,67651,9506,13723,-40218,-14836
C00063=-28095,68318,10306,13713,-40376,-14849
C00064=-28010,68990,11113,13702,-40536,-14861
C00065=-27908,69802,12090,13689,-40730,-14876
C00066=-27824,70484,12913,13677,-40894,-14887
C00067=-27740,71171,13744,13665,-41061,-14898
C00068=-28194,67514,9377,13721,-40207,-14831
C00069=-28091,68320,10343,13709,-40398,-14847
C00070=-28006,68997,11156,13698,-40559,-14860
C00071=-27920,69679,11976,13687,-40722,-14872
C00072=-27835,70365,12804,13675,-40887,-14883
C00073=-27722,71290,13922,13658,-41110,-14898
C00074=-28267,66923,8704,13725,-40089,-14818
C00075=-28185,67559,9464,13716,-40238,-14831
C00076=-28103,68199,10231,13706,-40390,-14843
C00077=-28021,68844,11005,13696,-40543,-14855
C00078=-27923,69623,11943,13683,-40729,-14869
C00079=-27842,70278,12732,13672,-40886,-14880
C00080=-27761,70937,13529,13660,-41046,-14891
C00081=-28246,67051,8893,13718,-40141,-14819
C00082=-28147,67825,9818,13707,-40323,-14834
C00083=-28064,68474,10597,13697,-40477,-14846
C00084=-27981,69129,11383,13687,-40632,-14858
C00085=-27899,69788,12176,13676,-40790,-14870
C00086=-27800,70585,13138,13662,-40982,-14883
C00087=-27719,71254,13948,13650,-41144,-14894
C00088=-28207,67324,9255,13710,-40227,-14822
C00089=-28123,67978,10037,13700,-40381,-14835
C00090=-28023,68769,10986,13688,-40569,-14850
C00091=-27939,69433,11784,13677,-40727,-14862
C00092=-27856,70102,12590,13666,-40887,-14874
C00093=-27773,70776,13404,13654,-41050,-14885
C00094=-28251,66956,8850,13711,-40162,-14813
C00095=-28166,67612,9633,13701,-40316,-14826
C00096=-28082,68272,10424,13691,-40472,-14839
C00097=-27998,68936,11222,13681,-40630,-14851
C00098=-27897,69740,12189,13668,-40822,-14866
C00099=-27814,70415,13003,13656,-40984,-14877
C00100=-27731,71095,13825,13644,-41148,-14888
C00101=-28228,67099,9057,13704,-40218,-14814
C00102=-28126,67897,10010,13692,-40405,-14830
C00103=-28041,68567,10813,13682,-40563,-14843
C00104=-27956,69241,11623,13672,-40724,-14855
C00105=-27871,69920,12441,13660,-40886,-14867
C00106=-27770,70742,13432,13646,-41084,-14881
C00107=-28256,66854,8799,13703,-40182,-14807
C00108=-28170,67524,9599,13694,-40339,-14821
C00109=-28083,68199,10406,13684,-40497,-14834
C00110=-27980,69014,11385,13671,-40691,-14849
C00111=-27895,69699,12208,13660,-40854,-14861
C00112=-27810,70389,13040,13648,-41020,-14873
C00113=-27700,71291,14130,13632,-41238,-14888
C00114=-28275,66679,8624,13701,-40162,-14802
C00115=-28192,67319,9388,13692,-40311,-14815
C00116=-28110,67963,10158,13683,-40463,-14828
C00117=-28027,68611,10935,13673,-40616,-14840
C00118=-27929,69394,11875,13660,-40802,-14854
C00119=-27848,70051,12667,13650,-40960,-14866
C00120=-27766,70712,13465,13638,-41119,-14877
C00121=-27754,70824,13607,13635,-41150,-14877
C00122=-28182,67365,9478,13687,-40344,-14814
C00123=-28099,68014,10255,13677,-40497,-14827
C00124=-28016,68668,11038,13667,-40651,-14839
C00125=-27934,69325,11828,13657,-40808,-14851
C00126=-27835,70120,12785,13644,-40998,-14865
C00127=-27753,70787,13590,13632,-41159,-14876
C00128=-28237,66921,8985,13688,-40262,-14803
C00129=-28173,67407,9564,13682,-40376,-14813
C00130=-28089,68062,10348,13672,-40530,-14826
C00131=-28006,68721,11138,13662,-40686,-14838
C00132=-27923,69384,11935,13652,-40844,-14850
C00133=-27823,70186,12900,13638,-41035,-14864
C00134=-27741,70859,13712,13627,-41198,-14875
C00135=-28265,66661,8709,13687,-40223,-14796
C00136=-28180,67320,9495,13678,-40377,-14810
C00137=-28079,68115,10446,13667,-40564,-14825
C00138=-27994,68783,11246,13657,-40722,-14838
C00139=-27910,69455,12053,13646,-40881,-14850
C00140=-27827,70130,12867,13635,-41043,-14861
C00141=-27727,70947,13853,13621,-41240,-14875
C00142=-28254,66712,8805,13682,-40257,-14795
C00143=-28169,67376,9597,13673,-40412,-14809
C00144=-28067,68178,10557,13661,-40600,-14825
C00145=-27982,68851,11363,13651,-40759,-14837
C00146=-27897,69529,12177,13640,-40921,-14849
C00147=-27813,70210,12998,13629,-41084,-14861
C00148=-27712,71034,13993,13615,-41282,-14874
C00149=-28227,66892,9053,13675,-40320,-14797
C00150=-28141,67562,9853,13666,-40476,-14811
C00151=-28056,68236,10659,13656,-40635,-14824
C00152=-27953,69050,11636,13644,-40828,-14839
C00153=-27868,69733,12457,13633,-40990,-14851
C00154=-27784,70421,13286,13621,-41155,-14863
C00155=-27677,71293,14339,13606,-41366,-14877
C00156=-28283,66436,8544,13677,-40235,-14786
C00157=-28200,67074,9305,13668,-40383,-14799
C00158=-28118,67717,10072,13659,-40534,-14812
C00159=-28036,68363,10846,13650,-40686,-14825
C00160=-27938,69145,11784,13638,-40871,-14839
C00161=-27856,69800,12572,13627,-41027,-14850
C00162=-27775,70461,13368,13616,-41186,-14862
C00163=-27694,71125,14171,13605,-41346,-14872
C00164=-28222,66875,9103,13667,-40359,-14793
C00165=-28139,67523,9876,13658,-40510,-14806
C00166=-28056,68175,10656,13648,-40663,-14819
C00167=-27956,68963,11601,13636,-40850,-14834
C00168=-27874,69625,12396,13626,-41007,-14846
C00169=-27792,70291,13198,13615,-41166,-14857
C00170=-27710,70961,14007,13603,-41328,-14868
C00171=-28243,66682,8909,13665,-40336,-14788
C00172=-28158,67336,9688,13656,-40488,-14801
C00173=-28075,67994,10475,13646,-40642,-14814
C00174=-27974,68789,11428,13635,-40830,-14829
C00175=-27891,69456,12229,13624,-40988,-14841
C00176=-27808,70128,13037,13613,-41149,-14852
C00177=-27726,70804,13853,13602,-41312,-14864
C00178=-28263,66498,8723,13663,-40314,-14782
C00179=-28178,67156,9508,13654,-40467,-14796
C00180=-28093,67819,10300,13645,-40622,-14809
C00181=-28009,68485,11097,13635,-40779,-14821
C00182=-27908,69289,12062,13622,-40970,-14836
C00183=-27825,69964,12874,13612,-41131,-14848
C00184=-27742,70642,13692,13600,-41293,-14859
C00185=-28281,66326,8554,13660,-40296,-14777
C00186=-28195,66989,9344,13652,-40450,-14790
C00187=-28110,67657,10141,13642,-40606,-14804
C00188=-28025,68328,10944,13633,-40763,-14817
C00189=-27923,69138,11915,13620,-40955,-14832
C00190=-27839,69817,12732,13610,-41117,-14844
C00191=-27755,70501,13556,13598,-41281,-14855
C00192=-27806,70113,13105,13601,-41198,-14846
C00193=-28199,66929,9307,13648,-40457,-14787
C00194=-28113,67599,10106,13639,-40613,-14801
C00195=-28028,68272,10912,13629,-40772,-14814
C00196=-27926,69085,11887,13617,-40964,-14829
C00197=-27842,69767,12706,13606,-41126,-14841
C00198=-27757,70453,13533,13595,-41290,-14852
C00199=-27655,71295,14549,13580,-41493,-14866
EC00000=59829,-181458
EC00001=59829,-181458
EC00002=59829,-181458
EC00003=59829,-181458
EC00004=59829,-181458
EC00005=59829,-181458
EC00006=59829,-181458
EC00007=59829,-98855
EC00008=59829,-98855
EC00009=59829,-98855
EC00010=59829,-98855
EC00011=59829,-98855
EC00012=59829,-16252
EC00013=59829,-16252
EC00014=59829,-16252
EC00015=59829,-16252
EC00016=59829,-16252
EC00017=59829,-16252
EC00018=59829,66350
EC00019=59829,66350
EC00020=59829,66350
EC00021=59829,66350
EC00022=59829,66350
EC00023=59829,66350
EC00024=59829,148953
EC00025=59829,148953
EC00026=59829,148953
EC00027=59829,148953
EC00028=59829,148953
EC00029=59829,148953
EC00030=59829,231556
EC00031=59829,231556
EC00032=59829,231556
EC00033=59829,231556
EC00034=59829,231556
EC00035=59829,231556
EC00036=59829,314158
EC00037=59829,314158
EC00038=59829,314158
EC00039=59829,314158
EC00040=59829,314158
EC00041=59829,314158
EC00042=59829,314158
EC00043=59829,396761
EC00044=59829,396761
EC00045=59829,396761
EC00046=59829,396761
EC00047=59829,396761
EC00048=59829,396761
EC00049=59829,479364
EC00050=59829,479364
EC00051=59829,479364
EC00052=59829,479364
EC00053=59829,479364
EC00054=59829,479364
EC00055=59829,561966
EC00056=59829,561966
EC00057=59829,561966
EC00058=59829,561966
EC00059=59829,561966
EC00060=59829,561966
EC00061=59829,572861
EC00062=59829,644569
EC00063=59829,644569
EC00064=59829,644569
EC00065=59829,644569
EC00066=59829,644569
EC00067=59829,644569
EC00068=59829,727172
EC00069=59829,727172
EC00070=59829,727172
EC00071=59829,727172
EC00072=59829,727172
EC00073=59829,727172
EC00074=59829,809774
EC00075=59829,809774
EC00076=59829,809774
EC00077=59829,809774
EC00078=59829,809774
EC00079=59829,809774
EC00080=59829,809774
EC00081=59829,892377
EC00082=59829,892377
EC00083=59829,892377
EC00084=59829,892377
EC00085=59829,892377
EC00086=59829,892377
EC00087=59829,892377
EC00088=59829,974980
EC00089=59829,974980
EC00090=59829,974980
EC00091=59829,974980
EC00092=59829,974980
EC00093=59829,974980
EC00094=59829,1057582
EC00095=59829,1057582
EC00096=59829,1057582
EC00097=59829,1057582
EC00098=59829,1057582
EC00099=59829,1057582
EC00100=59829,1057582
EC00101=59829,1140185
EC00102=59829,1140185
EC00103=59829,1140185
EC00104=59829,1140185
EC00105=59829,1140185
EC00106=59829,1140185
EC00107=59829,1222788
EC00108=59829,1222788
EC00109=59829,1222788
EC00110=59829,1222788
EC00111=59829,1222788
EC00112=59829,1222788
EC00113=59829,1222788
EC00114=59829,1305391
EC00115=59829,1305391
EC00116=59829,1305391
EC00117=59829,1305391
EC00118=59829,1305391
EC00119=59829,1305391
EC00120=59829,1305391
EC00121=59829,1314099
EC00122=59829,1387993
EC00123=59829,1387993
EC00124=59829,1387993
EC00125=59829,1387993
EC00126=59829,1387993
EC00127=59829,1387993
EC00128=59829,1465199
EC00129=59829,1470596
EC00130=59829,1470596
EC00131=59829,1470596
EC00132=59829,1470596
EC00133=59829,1470596
EC00134=59829,1470596
EC00135=59829,1553199
EC00136=59829,1553199
EC00137=59829,1553199
EC00138=59829,1553199
EC00139=59829,1553199
EC00140=59829,1553199
EC00141=59829,1553199
EC00142=59829,1635801
EC00143=59829,1635801
EC00144=59829,1635801
EC00145=59829,1635801
EC00146=59829,1635801
EC00147=59829,1635801
EC00148=59829,1635801
EC00149=59829,1718404
EC00150=59829,1718404
EC00151=59829,1718404
EC00152=59829,1718404
EC00153=59829,1718404
EC00154=59829,1718404
EC00155=59829,1718404
EC00156=59829,1801007
EC00157=59829,1801007
EC00158=59829,1801007
EC00159=59829,1801007
EC00160=59829,1801007
EC00161=59829,1801007
EC00162=59829,1801007
EC00163=59829,1801007
EC00164=59829,1883609
EC00165=59829,1883609
EC00166=59829,1883609
EC00167=59829,1883609
EC00168=59829,1883609
EC00169=59829,1883609
EC00170=59829,1883609
EC00171=59829,1966212
EC00172=59829,1966212
EC00173=59829,1966212
EC00174=59829,1966212
EC00175=59829,1966212
EC00176=59829,1966212
EC00177=59829,1966212
EC00178=59829,2048815
EC00179=59829,2048815
EC00180=59829,2048815
EC00181=59829,2048815
EC00182=59829,2048815
EC00183=59829,2048815
EC00184=59829,2048815
EC00185=59829,2131417
EC00186=59829,2131417
EC00187=59829,2131417
EC00188=59829,2131417
EC00189=59829,2131417
EC00190=59829,2131417
EC00191=59829,2131417
EC00192=59829,2150591
EC00193=59829,2214020
EC00194=59829,2214020
EC00195=59829,2214020
EC00196=59829,2214020
EC00197=59829,2214020
EC00198=59829,2214020
EC00199=59829,2214020
//INST
///DATE 2023/08/22 15:55
///ATTR SC,RW
///GROUP1 RB1
///GROUP2 ST1
NOP
MOVJ C00000 VJ=1.0 +MOVJ EC00000 VJ=10.0
MOVL C00001 V=5.0 +MOVJ EC00001 VJ=25.7
MOVL C00002 V=5.0 +MOVJ EC00002 VJ=27.0
MOVL C00003 V=5.0 +MOVJ EC00003 VJ=27.5
MOVL C00004 V=5.0 +MOVJ EC00004 VJ=27.0
MOVL C00005 V=5.0 +MOVJ EC00005 VJ=25.7
MOVL C00006 V=5.0 +MOVJ EC00006 VJ=23.8
MOVL C00007 V=27.3 +MOVJ EC00007 VJ=26.0
MOVL C00008 V=5.0 +MOVJ EC00008 VJ=27.2
MOVL C00009 V=5.0 +MOVJ EC00009 VJ=27.5
MOVL C00010 V=5.0 +MOVJ EC00010 VJ=26.8
MOVL C00011 V=5.0 +MOVJ EC00011 VJ=25.3
MOVL C00012 V=31.6 +MOVJ EC00012 VJ=24.2
MOVL C00013 V=5.0 +MOVJ EC00013 VJ=26.0
MOVL C00014 V=5.0 +MOVJ EC00014 VJ=27.3
MOVL C00015 V=5.0 +MOVJ EC00015 VJ=27.4
MOVL C00016 V=5.0 +MOVJ EC00016 VJ=26.5
MOVL C00017 V=5.0 +MOVJ EC00017 VJ=25.0
MOVL C00018 V=31.6 +MOVJ EC00018 VJ=24.6
MOVL C00019 V=5.0 +MOVJ EC00019 VJ=26.3
MOVL C00020 V=5.0 +MOVJ EC00020 VJ=27.3
MOVL C00021 V=5.0 +MOVJ EC00021 VJ=27.3
MOVL C00022 V=5.0 +MOVJ EC00022 VJ=26.3
MOVL C00023 V=5.0 +MOVJ EC00023 VJ=24.6
MOVL C00024 V=31.6 +MOVJ EC00024 VJ=25.0
MOVL C00025 V=5.0 +MOVJ EC00025 VJ=26.5
MOVL C00026 V=5.0 +MOVJ EC00026 VJ=27.4
MOVL C00027 V=5.0 +MOVJ EC00027 VJ=27.3
MOVL C00028 V=5.0 +MOVJ EC00028 VJ=26.0
MOVL C00029 V=5.0 +MOVJ EC00029 VJ=24.2
MOVL C00030 V=31.6 +MOVJ EC00030 VJ=25.3
MOVL C00031 V=5.0 +MOVJ EC00031 VJ=26.8
MOVL C00032 V=5.0 +MOVJ EC00032 VJ=27.5
MOVL C00033 V=5.0 +MOVJ EC00033 VJ=27.2
MOVL C00034 V=5.0 +MOVJ EC00034 VJ=26.0
MOVL C00035 V=5.0 +MOVJ EC00035 VJ=23.8
MOVJ C00036 VJ=1.0 +MOVJ EC00036 VJ=10.0
MOVL C00037 V=5.0 +MOVJ EC00037 VJ=24.1
MOVL C00038 V=5.0 +MOVJ EC00038 VJ=25.4
MOVL C00039 V=5.0 +MOVJ EC00039 VJ=25.9
MOVL C00040 V=5.0 +MOVJ EC00040 VJ=25.7
MOVL C00041 V=5.0 +MOVJ EC00041 VJ=24.4
MOVL C00042 V=5.0 +MOVJ EC00042 VJ=22.7
MOVL C00043 V=39.0 +MOVJ EC00043 VJ=23.6
MOVL C00044 V=5.0 +MOVJ EC00044 VJ=25.0
MOVL C00045 V=5.0 +MOVJ EC00045 VJ=25.9
MOVL C00046 V=5.0 +MOVJ EC00046 VJ=25.8
MOVL C00047 V=5.0 +MOVJ EC00047 VJ=24.8
MOVL C00048 V=5.0 +MOVJ EC00048 VJ=23.4
MOVL C00049 V=33.3 +MOVJ EC00049 VJ=23.3
MOVL C00050 V=5.0 +MOVJ EC00050 VJ=24.8
MOVL C00051 V=5.0 +MOVJ EC00051 VJ=25.7
MOVL C00052 V=5.0 +MOVJ EC00052 VJ=25.9
MOVL C00053 V=5.0 +MOVJ EC00053 VJ=25.0
MOVL C00054 V=5.0 +MOVJ EC00054 VJ=23.6
MOVL C00055 V=40.0 +MOVJ EC00055 VJ=22.7
MOVL C00056 V=5.0 +MOVJ EC00056 VJ=24.3
MOVL C00057 V=5.0 +MOVJ EC00057 VJ=25.6
MOVL C00058 V=5.0 +MOVJ EC00058 VJ=25.9
MOVL C00059 V=5.0 +MOVJ EC00059 VJ=25.4
MOVL C00060 V=5.0 +MOVJ EC00060 VJ=24.2
MOVL C00061 V=5.0 +MOVJ EC00061 VJ=22.5
MOVL C00062 V=34.5 +MOVJ EC00062 VJ=24.1
MOVL C00063 V=5.0 +MOVJ EC00063 VJ=25.3
MOVL C00064 V=5.0 +MOVJ EC00064 VJ=25.9
MOVL C00065 V=5.0 +MOVJ EC00065 VJ=25.5
MOVL C00066 V=5.0 +MOVJ EC00066 VJ=24.4
MOVL C00067 V=5.0 +MOVJ EC00067 VJ=22.8
MOVL C00068 V=33.3 +MOVJ EC00068 VJ=23.8
MOVL C00069 V=5.0 +MOVJ EC00069 VJ=25.4
MOVL C00070 V=5.0 +MOVJ EC00070 VJ=25.9
MOVL C00071 V=5.0 +MOVJ EC00071 VJ=25.7
MOVL C00072 V=5.0 +MOVJ EC00072 VJ=24.6
MOVL C00073 V=5.0 +MOVJ EC00073 VJ=22.5
MOVJ C00074 VJ=1.0 +MOVJ EC00074 VJ=10.0
MOVL C00075 V=5.0 +MOVJ EC00075 VJ=22.7
MOVL C00076 V=5.0 +MOVJ EC00076 VJ=23.9
MOVL C00077 V=5.0 +MOVJ EC00077 VJ=24.5
MOVL C00078 V=5.0 +MOVJ EC00078 VJ=24.3
MOVL C00079 V=5.0 +MOVJ EC00079 VJ=23.4
MOVL C00080 V=5.0 +MOVJ EC00080 VJ=22.1
MOVL C00081 V=41.7 +MOVJ EC00081 VJ=21.7
MOVL C00082 V=5.0 +MOVJ EC00082 VJ=23.4
MOVL C00083 V=5.0 +MOVJ EC00083 VJ=24.3
MOVL C00084 V=5.0 +MOVJ EC00084 VJ=24.5
MOVL C00085 V=5.0 +MOVJ EC00085 VJ=24.1
MOVL C00086 V=5.0 +MOVJ EC00086 VJ=22.8
MOVL C00087 V=5.0 +MOVJ EC00087 VJ=21.3
MOVL C00088 V=42.2 +MOVJ EC00088 VJ=22.4
MOVL C00089 V=5.0 +MOVJ EC00089 VJ=23.7
MOVL C00090 V=5.0 +MOVJ EC00090 VJ=24.5
MOVL C00091 V=5.0 +MOVJ EC00091 VJ=24.4
MOVL C00092 V=5.0 +MOVJ EC00092 VJ=23.7
MOVL C00093 V=5.0 +MOVJ EC00093 VJ=22.4
MOVL C00094 V=34.5 +MOVJ EC00094 VJ=21.6
MOVL C00095 V=5.0 +MOVJ EC00095 VJ=23.1
MOVL C00096 V=5.0 +MOVJ EC00096 VJ=24.1
MOVL C00097 V=5.0 +MOVJ EC00097 VJ=24.5
MOVL C00098 V=5.0 +MOVJ EC00098 VJ=24.1
MOVL C00099 V=5.0 +MOVJ EC00099 VJ=23.1
MOVL C00100 V=5.0 +MOVJ EC00100 VJ=21.7
MOVL C00101 V=42.1 +MOVJ EC00101 VJ=22.1
MOVL C00102 V=5.0 +MOVJ EC00102 VJ=23.6
MOVL C00103 V=5.0 +MOVJ EC00103 VJ=24.4
MOVL C00104 V=5.0 +MOVJ EC00104 VJ=24.5
MOVL C00105 V=5.0 +MOVJ EC00105 VJ=23.9
MOVL C00106 V=5.0 +MOVJ EC00106 VJ=22.5
MOVL C00107 V=35.0 +MOVJ EC00107 VJ=21.6
MOVL C00108 V=5.0 +MOVJ EC00108 VJ=23.0
MOVL C00109 V=5.0 +MOVJ EC00109 VJ=24.1
MOVL C00110 V=5.0 +MOVJ EC00110 VJ=24.5
MOVL C00111 V=5.0 +MOVJ EC00111 VJ=24.2
MOVL C00112 V=5.0 +MOVJ EC00112 VJ=23.2
MOVL C00113 V=5.0 +MOVJ EC00113 VJ=21.3
MOVJ C00114 VJ=1.0 +MOVJ EC00114 VJ=10.0
MOVL C00115 V=5.0 +MOVJ EC00115 VJ=21.5
MOVL C00116 V=5.0 +MOVJ EC00116 VJ=22.6
MOVL C00117 V=5.0 +MOVJ EC00117 VJ=23.2
MOVL C00118 V=5.0 +MOVJ EC00118 VJ=23.2
MOVL C00119 V=5.0 +MOVJ EC00119 VJ=22.5
MOVL C00120 V=5.0 +MOVJ EC00120 VJ=21.4
MOVL C00121 V=5.0 +MOVJ EC00121 VJ=20.2
MOVL C00122 V=33.6 +MOVJ EC00122 VJ=21.7
MOVL C00123 V=5.0 +MOVJ EC00123 VJ=22.7
MOVL C00124 V=5.0 +MOVJ EC00124 VJ=23.2
MOVL C00125 V=5.0 +MOVJ EC00125 VJ=23.2
MOVL C00126 V=5.0 +MOVJ EC00126 VJ=22.4
MOVL C00127 V=5.0 +MOVJ EC00127 VJ=21.2
MOVL C00128 V=43.0 +MOVJ EC00128 VJ=20.2
MOVL C00129 V=5.0 +MOVJ EC00129 VJ=21.8
MOVL C00130 V=5.0 +MOVJ EC00130 VJ=22.8
MOVL C00131 V=5.0 +MOVJ EC00131 VJ=23.3
MOVL C00132 V=5.0 +MOVJ EC00132 VJ=23.1
MOVL C00133 V=5.0 +MOVJ EC00133 VJ=22.3
MOVL C00134 V=5.0 +MOVJ EC00134 VJ=21.1
MOVL C00135 V=44.3 +MOVJ EC00135 VJ=20.4
MOVL C00136 V=5.0 +MOVJ EC00136 VJ=21.7
MOVL C00137 V=5.0 +MOVJ EC00137 VJ=22.9
MOVL C00138 V=5.0 +MOVJ EC00138 VJ=23.3
MOVL C00139 V=5.0 +MOVJ EC00139 VJ=23.1
MOVL C00140 V=5.0 +MOVJ EC00140 VJ=22.3
MOVL C00141 V=5.0 +MOVJ EC00141 VJ=20.9
MOVL C00142 V=43.7 +MOVJ EC00142 VJ=20.6
MOVL C00143 V=5.0 +MOVJ EC00143 VJ=21.9
MOVL C00144 V=5.0 +MOVJ EC00144 VJ=23.0
MOVL C00145 V=5.0 +MOVJ EC00145 VJ=23.3
MOVL C00146 V=5.0 +MOVJ EC00146 VJ=23.0
MOVL C00147 V=5.0 +MOVJ EC00147 VJ=22.2
MOVL C00148 V=5.0 +MOVJ EC00148 VJ=20.7
MOVL C00149 V=36.7 +MOVJ EC00149 VJ=21.0
MOVL C00150 V=5.0 +MOVJ EC00150 VJ=22.2
MOVL C00151 V=5.0 +MOVJ EC00151 VJ=23.0
MOVL C00152 V=5.0 +MOVJ EC00152 VJ=23.3
MOVL C00153 V=5.0 +MOVJ EC00153 VJ=22.8
MOVL C00154 V=5.0 +MOVJ EC00154 VJ=21.9
MOVL C00155 V=5.0 +MOVJ EC00155 VJ=20.2
MOVJ C00156 VJ=1.0 +MOVJ EC00156 VJ=10.0
MOVL C00157 V=5.0 +MOVJ EC00157 VJ=20.4
MOVL C00158 V=5.0 +MOVJ EC00158 VJ=21.4
MOVL C00159 V=5.0 +MOVJ EC00159 VJ=22.0
MOVL C00160 V=5.0 +MOVJ EC00160 VJ=22.1
MOVL C00161 V=5.0 +MOVJ EC00161 VJ=21.6
MOVL C00162 V=5.0 +MOVJ EC00162 VJ=20.7
MOVL C00163 V=5.0 +MOVJ EC00163 VJ=19.5
MOVL C00164 V=38.5 +MOVJ EC00164 VJ=20.1
MOVL C00165 V=5.0 +MOVJ EC00165 VJ=21.2
MOVL C00166 V=5.0 +MOVJ EC00166 VJ=21.9
MOVL C00167 V=5.0 +MOVJ EC00167 VJ=22.2
MOVL C00168 V=5.0 +MOVJ EC00168 VJ=21.8
MOVL C00169 V=5.0 +MOVJ EC00169 VJ=20.9
MOVL C00170 V=5.0 +MOVJ EC00170 VJ=19.8
MOVL C00171 V=38.5 +MOVJ EC00171 VJ=19.9
MOVL C00172 V=5.0 +MOVJ EC00172 VJ=21.0
MOVL C00173 V=5.0 +MOVJ EC00173 VJ=21.8
MOVL C00174 V=5.0 +MOVJ EC00174 VJ=22.2
MOVL C00175 V=5.0 +MOVJ EC00175 VJ=21.9
MOVL C00176 V=5.0 +MOVJ EC00176 VJ=21.2
MOVL C00177 V=5.0 +MOVJ EC00177 VJ=20.1
MOVL C00178 V=38.2 +MOVJ EC00178 VJ=19.6
MOVL C00179 V=5.0 +MOVJ EC00179 VJ=20.7
MOVL C00180 V=5.0 +MOVJ EC00180 VJ=21.6
MOVL C00181 V=5.0 +MOVJ EC00181 VJ=22.1
MOVL C00182 V=5.0 +MOVJ EC00182 VJ=22.0
MOVL C00183 V=5.0 +MOVJ EC00183 VJ=21.4
MOVL C00184 V=5.0 +MOVJ EC00184 VJ=20.4
MOVL C00185 V=37.8 +MOVJ EC00185 VJ=19.3
MOVL C00186 V=5.0 +MOVJ EC00186 VJ=20.5
MOVL C00187 V=5.0 +MOVJ EC00187 VJ=21.5
MOVL C00188 V=5.0 +MOVJ EC00188 VJ=22.0
MOVL C00189 V=5.0 +MOVJ EC00189 VJ=22.1
MOVL C00190 V=5.0 +MOVJ EC00190 VJ=21.6
MOVL C00191 V=5.0 +MOVJ EC00191 VJ=20.6
MOVL C00192 V=5.0 +MOVJ EC00192 VJ=19.2
MOVL C00193 V=38.5 +MOVJ EC00193 VJ=20.4
MOVL C00194 V=5.0 +MOVJ EC00194 VJ=21.4
MOVL C00195 V=5.0 +MOVJ EC00195 VJ=22.0
MOVL C00196 V=5.0 +MOVJ EC00196 VJ=22.1
MOVL C00197 V=5.0 +MOVJ EC00197 VJ=21.6
MOVL C00198 V=5.0 +MOVJ EC00198 VJ=20.7
MOVL C00199 V=5.0 +MOVJ EC00199 VJ=19.2
END
