/JOB
//NAME AAA
//POS
///NPOS 635,0,635,0,0,0
///TOOL 12
///POSTYPE PULSE
///PULSE
C00000=-28255,67289,8825,13761,-39981,-14842
C00001=-28255,67289,8825,13761,-39981,-14842
C00002=-28171,67949,9611,13752,-40133,-14855
C00003=-28087,68612,10401,13742,-40287,-14868
C00004=-28003,69277,11196,13732,-40443,-14880
C00005=-27920,69946,11996,13721,-40600,-14892
C00006=-27837,70617,12801,13710,-40759,-14904
C00007=-27755,71291,13611,13698,-40919,-14915
C00008=-28154,68081,9768,13750,-40164,-14857
C00009=-28070,68745,10559,13740,-40318,-14870
C00010=-27986,69411,11355,13730,-40474,-14883
C00011=-27903,70080,12156,13719,-40632,-14894
C00012=-27821,70751,12962,13707,-40791,-14906
C00013=-28238,67421,8982,13759,-40011,-14844
C00014=-28154,68081,9768,13750,-40164,-14857
C00015=-28053,68878,10718,13738,-40349,-14873
C00016=-27970,69544,11515,13727,-40505,-14885
C00017=-27887,70214,12317,13717,-40663,-14897
C00018=-27804,70886,13124,13705,-40823,-14908
C00019=-28222,67548,9136,13757,-40042,-14847
C00020=-28138,68200,9918,13747,-40196,-14859
C00021=-28054,68857,10708,13736,-40353,-14872
C00022=-27954,69654,11667,13723,-40544,-14886
C00023=-27870,70323,12475,13711,-40706,-14897
C00024=-27787,70999,13293,13699,-40870,-14908
C00025=-28211,67600,9234,13752,-40076,-14846
C00026=-28126,68260,10025,13741,-40232,-14859
C00027=-28042,68925,10825,13731,-40391,-14871
C00028=-27957,69596,11633,13719,-40552,-14883
C00029=-27856,70409,12614,13705,-40748,-14897
C00030=-27772,71093,13441,13693,-40914,-14908
C00031=-28197,67682,9367,13746,-40117,-14846
C00032=-28110,68353,10172,13735,-40276,-14859
C00033=-28025,69030,10986,13724,-40438,-14871
C00034=-27939,69713,11808,13713,-40601,-14883
C00035=-27853,70402,12640,13701,-40767,-14895
C00036=-27744,71290,13715,13685,-40983,-14909
C00037=-28259,67167,8785,13749,-40017,-14834
C00038=-28178,67798,9540,13740,-40166,-14846
C00039=-28096,68434,10303,13730,-40316,-14858
C00040=-28015,69075,11074,13719,-40469,-14870
C00041=-27934,69721,11852,13708,-40624,-14882
C00042=-27837,70503,12797,13695,-40813,-14895
C00043=-27756,71161,13592,13683,-40973,-14905
C00044=-28206,67550,9280,13739,-40129,-14839
C00045=-28123,68192,10048,13729,-40281,-14852
C00046=-28025,68968,10981,13716,-40466,-14866
C00047=-27943,69620,11766,13706,-40622,-14878
C00048=-27861,70278,12559,13694,-40780,-14889
C00049=-27779,70941,13361,13682,-40941,-14900
C00050=-28220,67409,9147,13736,-40118,-14835
C00051=-28137,68056,9922,13726,-40271,-14847
C00052=-28053,68709,10705,13716,-40426,-14860
C00053=-27971,69366,11496,13705,-40583,-14872
C00054=-27871,70162,12456,13692,-40774,-14885
C00055=-27789,70832,13264,13680,-40936,-14896
C00056=-28253,67122,8838,13736,-40072,-14827
C00057=-28168,67780,9626,13726,-40227,-14840
C00058=-28067,68576,10579,13714,-40415,-14855
C00059=-27982,69243,11382,13703,-40575,-14868
C00060=-27898,69916,12192,13692,-40736,-14879
C00061=-27814,70593,13010,13680,-40899,-14891
C00062=-27801,70708,13159,13676,-40933,-14891
C00063=-28181,67651,9506,13723,-40218,-14836
C00064=-28095,68318,10306,13713,-40376,-14849
C00065=-28010,68990,11113,13702,-40536,-14861
C00066=-27908,69802,12090,13689,-40730,-14876
C00067=-27824,70484,12913,13677,-40894,-14887
C00068=-27740,71171,13744,13665,-41061,-14898
C00069=-28194,67514,9377,13721,-40207,-14831
C00070=-28091,68320,10343,13709,-40398,-14847
C00071=-28006,68997,11156,13698,-40559,-14860
C00072=-27920,69679,11976,13687,-40722,-14872
C00073=-27835,70365,12804,13675,-40887,-14883
C00074=-27722,71290,13922,13658,-41110,-14898
C00075=-28267,66923,8704,13725,-40089,-14818
C00076=-28185,67559,9464,13716,-40238,-14831
C00077=-28103,68199,10231,13706,-40390,-14843
C00078=-28021,68844,11005,13696,-40543,-14855
C00079=-27923,69623,11943,13683,-40729,-14869
C00080=-27842,70278,12732,13672,-40886,-14880
C00081=-27761,70937,13529,13660,-41046,-14891
C00082=-28246,67051,8893,13718,-40141,-14819
C00083=-28147,67825,9818,13707,-40323,-14834
C00084=-28064,68474,10597,13697,-40477,-14846
C00085=-27981,69129,11383,13687,-40632,-14858
C00086=-27899,69788,12176,13676,-40790,-14870
C00087=-27800,70585,13138,13662,-40982,-14883
C00088=-27719,71254,13948,13650,-41144,-14894
C00089=-28207,67324,9255,13710,-40227,-14822
C00090=-28123,67978,10037,13700,-40381,-14835
C00091=-28023,68769,10986,13688,-40569,-14850
C00092=-27939,69433,11784,13677,-40727,-14862
C00093=-27856,70102,12590,13666,-40887,-14874
C00094=-27773,70776,13404,13654,-41050,-14885
C00095=-28251,66956,8850,13711,-40162,-14813
C00096=-28166,67612,9633,13701,-40316,-14826
C00097=-28082,68272,10424,13691,-40472,-14839
C00098=-27998,68936,11222,13681,-40630,-14851
C00099=-27897,69740,12189,13668,-40822,-14866
C00100=-27814,70415,13003,13656,-40984,-14877
C00101=-27731,71095,13825,13644,-41148,-14888
C00102=-28228,67099,9057,13704,-40218,-14814
C00103=-28126,67897,10010,13692,-40405,-14830
C00104=-28041,68567,10813,13682,-40563,-14843
C00105=-27956,69241,11623,13672,-40724,-14855
C00106=-27871,69920,12441,13660,-40886,-14867
C00107=-27770,70742,13432,13646,-41084,-14881
C00108=-28256,66854,8799,13703,-40182,-14807
C00109=-28170,67524,9599,13694,-40339,-14821
C00110=-28083,68199,10406,13684,-40497,-14834
C00111=-27980,69014,11385,13671,-40691,-14849
C00112=-27895,69699,12208,13660,-40854,-14861
C00113=-27810,70389,13040,13648,-41020,-14873
C00114=-27700,71291,14130,13632,-41238,-14888
C00115=-28275,66679,8624,13701,-40162,-14802
C00116=-28192,67319,9388,13692,-40311,-14815
C00117=-28110,67963,10158,13683,-40463,-14828
C00118=-28027,68611,10935,13673,-40616,-14840
C00119=-27929,69394,11875,13660,-40802,-14854
C00120=-27848,70051,12667,13650,-40960,-14866
C00121=-27766,70712,13465,13638,-41119,-14877
C00122=-27754,70824,13607,13635,-41150,-14877
C00123=-28182,67365,9478,13687,-40344,-14814
C00124=-28099,68014,10255,13677,-40497,-14827
C00125=-28016,68668,11038,13667,-40651,-14839
C00126=-27934,69325,11828,13657,-40808,-14851
C00127=-27835,70120,12785,13644,-40998,-14865
C00128=-27753,70787,13590,13632,-41159,-14876
C00129=-28237,66921,8985,13688,-40262,-14803
C00130=-28173,67407,9564,13682,-40376,-14813
C00131=-28089,68062,10348,13672,-40530,-14826
C00132=-28006,68721,11138,13662,-40686,-14838
C00133=-27923,69384,11935,13652,-40844,-14850
C00134=-27823,70186,12900,13638,-41035,-14864
C00135=-27741,70859,13712,13627,-41198,-14875
C00136=-28265,66661,8709,13687,-40223,-14796
C00137=-28180,67320,9495,13678,-40377,-14810
C00138=-28079,68115,10446,13667,-40564,-14825
C00139=-27994,68783,11246,13657,-40722,-14838
C00140=-27910,69455,12053,13646,-40881,-14850
C00141=-27827,70130,12867,13635,-41043,-14861
C00142=-27727,70947,13853,13621,-41240,-14875
C00143=-28254,66712,8805,13682,-40257,-14795
C00144=-28169,67376,9597,13673,-40412,-14809
C00145=-28067,68178,10557,13661,-40600,-14825
C00146=-27982,68851,11363,13651,-40759,-14837
C00147=-27897,69529,12177,13640,-40921,-14849
C00148=-27813,70210,12998,13629,-41084,-14861
C00149=-27712,71034,13993,13615,-41282,-14874
C00150=-28227,66892,9053,13675,-40320,-14797
C00151=-28141,67562,9853,13666,-40476,-14811
C00152=-28056,68236,10659,13656,-40635,-14824
C00153=-27953,69050,11636,13644,-40828,-14839
C00154=-27868,69733,12457,13633,-40990,-14851
C00155=-27784,70421,13286,13621,-41155,-14863
C00156=-27677,71293,14339,13606,-41366,-14877
C00157=-28283,66436,8544,13677,-40235,-14786
C00158=-28200,67074,9305,13668,-40383,-14799
C00159=-28118,67717,10072,13659,-40534,-14812
C00160=-28036,68363,10846,13650,-40686,-14825
C00161=-27938,69145,11784,13638,-40871,-14839
C00162=-27856,69800,12572,13627,-41027,-14850
C00163=-27775,70461,13368,13616,-41186,-14862
C00164=-27694,71125,14171,13605,-41346,-14872
C00165=-28222,66875,9103,13667,-40359,-14793
C00166=-28139,67523,9876,13658,-40510,-14806
C00167=-28056,68175,10656,13648,-40663,-14819
C00168=-27956,68963,11601,13636,-40850,-14834
C00169=-27874,69625,12396,13626,-41007,-14846
C00170=-27792,70291,13198,13615,-41166,-14857
C00171=-27710,70961,14007,13603,-41328,-14868
C00172=-28243,66682,8909,13665,-40336,-14788
C00173=-28158,67336,9688,13656,-40488,-14801
C00174=-28075,67994,10475,13646,-40642,-14814
C00175=-27974,68789,11428,13635,-40830,-14829
C00176=-27891,69456,12229,13624,-40988,-14841
C00177=-27808,70128,13037,13613,-41149,-14852
C00178=-27726,70804,13853,13602,-41312,-14864
C00179=-28263,66498,8723,13663,-40314,-14782
C00180=-28178,67156,9508,13654,-40467,-14796
C00181=-28093,67819,10300,13645,-40622,-14809
C00182=-28009,68485,11097,13635,-40779,-14821
C00183=-27908,69289,12062,13622,-40970,-14836
C00184=-27825,69964,12874,13612,-41131,-14848
C00185=-27742,70642,13692,13600,-41293,-14859
C00186=-28281,66326,8554,13660,-40296,-14777
C00187=-28195,66989,9344,13652,-40450,-14790
C00188=-28110,67657,10141,13642,-40606,-14804
C00189=-28025,68328,10944,13633,-40763,-14817
C00190=-27923,69138,11915,13620,-40955,-14832
C00191=-27839,69817,12732,13610,-41117,-14844
C00192=-27755,70501,13556,13598,-41281,-14855
C00193=-27806,70113,13105,13601,-41198,-14846
C00194=-28199,66929,9307,13648,-40457,-14787
C00195=-28113,67599,10106,13639,-40613,-14801
C00196=-28028,68272,10912,13629,-40772,-14814
C00197=-27926,69085,11887,13617,-40964,-14829
C00198=-27842,69767,12706,13606,-41126,-14841
C00199=-27757,70453,13533,13595,-41290,-14852
C00200=-27655,71295,14549,13580,-41493,-14866
C00201=-28290,66193,8465,13653,-40308,-14770
C00202=-28207,66840,9236,13645,-40458,-14784
C00203=-28123,67491,10012,13636,-40609,-14797
C00204=-28040,68145,10794,13627,-40763,-14810
C00205=-27958,68802,11581,13617,-40918,-14822
C00206=-27876,69463,12374,13607,-41075,-14834
C00207=-27794,70127,13174,13596,-41233,-14845
C00208=-27712,70795,13979,13585,-41394,-14856
C00209=-28269,66330,8663,13647,-40361,-14771
C00210=-28192,66925,9371,13639,-40499,-14784
C00211=-28108,67579,10153,13630,-40652,-14797
C00212=-28025,68237,10940,13621,-40806,-14810
C00213=-27925,69031,11892,13609,-40994,-14824
C00214=-27843,69697,12691,13598,-41152,-14836
C00215=-27761,70366,13497,13588,-41312,-14847
C00216=-27679,71039,14309,13576,-41474,-14858
C00217=-28243,66495,8895,13640,-40421,-14773
C00218=-28159,67151,9677,13632,-40573,-14787
C00219=-28075,67811,10464,13622,-40728,-14800
C00220=-27991,68474,11258,13613,-40883,-14812
C00221=-27908,69140,12057,13603,-41041,-14824
C00222=-27825,69810,12862,13592,-41201,-14836
C00223=-27743,70484,13673,13581,-41362,-14848
C00224=-27644,71297,14655,13567,-41557,-14861
C00225=-28210,66724,9202,13633,-40495,-14776
C00226=-28126,67381,9985,13624,-40648,-14789
C00227=-28042,68042,10775,13615,-40803,-14802
C00228=-27958,68708,11572,13605,-40960,-14815
C00229=-27875,69378,12376,13595,-41118,-14827
C00230=-27792,70052,13187,13584,-41279,-14839
C00231=-27709,70731,14006,13573,-41442,-14850
C00232=-28166,67072,9653,13623,-40598,-14780
C00233=-28199,66780,9304,13628,-40530,-14775
C00234=-28114,67443,10094,13619,-40684,-14789
C00235=-28029,68110,10892,13609,-40840,-14802
C00236=-27928,68917,11858,13598,-41031,-14817
C00237=-27844,69594,12671,13587,-41191,-14829
C00238=-27761,70275,13491,13576,-41354,-14841
C00239=-27677,70962,14319,13565,-41519,-14852
C00240=-28253,66331,8805,13629,-40448,-14764
C00241=-28167,67000,9601,13620,-40602,-14778
C00242=-28081,67673,10403,13611,-40759,-14792
C00243=-27996,68350,11213,13602,-40918,-14805
C00244=-27910,69031,12030,13591,-41079,-14817
C00245=-27825,69718,12854,13581,-41242,-14829
C00246=-27741,70409,13686,13570,-41407,-14841
C00247=-27633,71299,14760,13555,-41621,-14855
C00248=-28298,65951,8387,13629,-40381,-14754
C00249=-28216,66589,9146,13621,-40528,-14768
C00250=-28133,67231,9910,13613,-40677,-14781
C00251=-28051,67876,10681,13604,-40828,-14794
C00252=-27970,68526,11459,13595,-40981,-14806
C00253=-27888,69180,12243,13585,-41135,-14818
C00254=-27791,69971,13193,13572,-41324,-14832
C00255=-27710,70635,13993,13562,-41482,-14843
C00256=-27631,71284,14778,13551,-41639,-14853
C00257=-28227,66468,9038,13618,-40522,-14764
C00258=-28144,67115,9808,13610,-40672,-14777
C00259=-28062,67765,10584,13601,-40824,-14790
C00260=-27963,68552,11524,13590,-41008,-14805
C00261=-27881,69211,12315,13580,-41164,-14817
C00262=-27799,69875,13114,13570,-41322,-14828
C00263=-27717,70544,13919,13559,-41482,-14840
C00264=-27636,71217,14731,13547,-41644,-14850
C00265=-28241,66327,8905,13615,-40511,-14759
C00266=-28141,67109,9836,13605,-40693,-14775
C00267=-28058,67765,10619,13597,-40846,-14788
C00268=-27975,68425,11409,13587,-41001,-14801
C00269=-27892,69090,12205,13577,-41157,-14813
C00270=-27809,69759,13009,13567,-41316,-14825
C00271=-27727,70432,13819,13556,-41477,-14836
C00272=-27629,71246,14801,13543,-41672,-14849
C00273=-28241,66303,8911,13611,-40527,-14757
C00274=-28156,66964,9698,13603,-40680,-14770
C00275=-28071,67629,10491,13594,-40835,-14784
C00276=-27987,68297,11290,13585,-40992,-14796
C00277=-27903,68970,12095,13575,-41150,-14809
C00278=-27803,69782,13070,13562,-41343,-14823
C00279=-27720,70463,13890,13552,-41505,-14835
C00280=-27637,71148,14717,13540,-41670,-14846
C00281=-28254,66171,8790,13608,-40519,-14752
C00282=-28168,66836,9581,13600,-40672,-14766
C00283=-28083,67504,10377,13591,-40828,-14779
C00284=-27981,68312,11342,13580,-41016,-14795
C00285=-27897,68988,12153,13570,-41176,-14807
C00286=-27813,69669,12970,13560,-41337,-14820
C00287=-27729,70354,13794,13549,-41501,-14831
C00288=-27646,71044,14625,13538,-41666,-14842
C00289=-28251,66165,8817,13604,-40538,-14750
C00290=-28147,66968,9773,13594,-40724,-14767
C00291=-28062,67642,10576,13585,-40881,-14780
C00292=-27977,68319,11385,13576,-41039,-14793
C00293=-27892,69000,12201,13566,-41200,-14806
C00294=-27807,69686,13024,13555,-41362,-14818
C00295=-27723,70375,13853,13544,-41527,-14830
C00296=-27611,71303,14972,13529,-41749,-14845
C00297=-28306,65709,8310,13605,-40455,-14739
C00298=-28223,66351,9072,13598,-40602,-14752
C00299=-28140,66996,9839,13589,-40751,-14766
C00300=-28058,67645,10613,13581,-40902,-14779
C00301=-27976,68297,11393,13572,-41055,-14791
C00302=-27894,68953,12179,13562,-41209,-14803
C00303=-27796,69746,13130,13550,-41397,-14817
C00304=-27715,70412,13931,13540,-41556,-14829
C00305=-27634,71081,14738,13529,-41717,-14839
C00306=-28268,65968,8653,13598,-40536,-14742
C00307=-28185,66618,9425,13590,-40685,-14756
C00308=-28101,67270,10202,13581,-40837,-14769
C00309=-28002,68059,11143,13571,-41021,-14785
C00310=-27919,68720,11934,13561,-41176,-14797
C00311=-27837,69385,12731,13551,-41333,-14809
C00312=-27755,70054,13535,13541,-41492,-14821
C00313=-27673,70727,14346,13530,-41653,-14832
C00314=-28286,65804,8494,13595,-40520,-14737
C00315=-28212,66376,9172,13588,-40651,-14749
C00316=-28128,67033,9954,13580,-40803,-14763
C00317=-28044,67694,10743,13571,-40957,-14776
C00318=-27960,68359,11537,13562,-41113,-14789
C00319=-27877,69028,12338,13552,-41270,-14801
C00320=-27778,69836,13309,13540,-41462,-14815
C00321=-27695,70514,14124,13529,-41624,-14827
C00322=-27613,71197,14947,13518,-41787,-14838
C00323=-28255,66009,8771,13588,-40588,-14740
C00324=-28170,66670,9557,13580,-40740,-14754
C00325=-28069,67468,10508,13570,-40926,-14770
C00326=-27984,68138,11307,13561,-41082,-14783
C00327=-27900,68811,12113,13551,-41240,-14795
C00328=-27817,69489,12925,13541,-41400,-14808
C00329=-27733,70171,13745,13531,-41562,-14819
C00330=-27650,70857,14571,13520,-41727,-14830
C00331=-28281,65779,8533,13587,-40557,-14733
C00332=-28195,66445,9324,13579,-40710,-14747
C00333=-28110,67114,10120,13570,-40865,-14761
C00334=-28024,67788,10924,13561,-41022,-14774
C00335=-27940,68465,11733,13552,-41180,-14787
C00336=-27838,69283,12714,13540,-41373,-14802
C00337=-27754,69970,13538,13530,-41536,-14814
C00338=-27670,70661,14370,13519,-41701,-14826
C00339=-27604,71216,15042,13509,-41835,-14834
C00340=-28226,66177,9040,13578,-40670,-14740
C00341=-28140,66848,9838,13569,-40824,-14754
C00342=-28037,67659,10804,13559,-41013,-14770
C00343=-27952,68339,11616,13550,-41172,-14783
C00344=-27867,69023,12435,13540,-41333,-14796
C00345=-27782,69711,13261,13529,-41496,-14808
C00346=-27698,70404,14094,13518,-41661,-14820
C00347=-27589,71309,15185,13504,-41877,-14834
C00348=-28314,65468,8234,13581,-40528,-14723
C00349=-28231,66110,8995,13574,-40675,-14737
C00350=-28148,66756,9763,13566,-40824,-14750
C00351=-28065,67406,10536,13558,-40975,-14763
C00352=-27983,68059,11316,13549,-41127,-14776
C00353=-27885,68848,12260,13538,-41312,-14791
C00354=-27803,69509,13053,13528,-41468,-14803
C00355=-27722,70175,13853,13518,-41627,-14814
C00356=-27641,70844,14659,13507,-41787,-14825
C00357=-28296,65580,8403,13575,-40576,-14723
C00358=-28206,66274,9225,13568,-40735,-14738
C00359=-28122,66926,10001,13560,-40885,-14752
C00360=-28039,67583,10782,13551,-41037,-14765
C00361=-27956,68243,11570,13542,-41192,-14778
C00362=-27874,68906,12365,13533,-41347,-14790
C00363=-27775,69708,13326,13521,-41537,-14804
C00364=-27694,70381,14135,13510,-41697,-14816
C00365=-27612,71057,14950,13499,-41859,-14827
C00366=-28280,65664,8537,13570,-40616,-14724
C00367=-28179,66451,9470,13561,-40797,-14740
C00368=-28095,67110,10254,13553,-40949,-14754
C00369=-28011,67773,11045,13544,-41103,-14767
C00370=-27928,68440,11841,13535,-41259,-14780
C00371=-27845,69111,12645,13526,-41417,-14792
C00372=-27746,69921,13617,13513,-41609,-14806
C00373=-27663,70600,14435,13503,-41771,-14817
C00374=-27581,71284,15259,13491,-41935,-14828
C00375=-28253,65845,8786,13564,-40679,-14726
C00376=-28168,66504,9568,13556,-40830,-14740
C00377=-28067,67299,10514,13546,-41014,-14756
C00378=-27983,67966,11309,13537,-41169,-14769
C00379=-27900,68636,12110,13528,-41326,-14782
C00380=-27817,69310,12918,13518,-41485,-14794
C00381=-27734,69988,13732,13508,-41646,-14806
C00382=-27635,70806,14717,13495,-41841,-14819
C00383=-28274,65667,8611,13561,-40661,-14719
C00384=-28228,66008,9014,13558,-40738,-14727
C00385=-28143,66672,9802,13550,-40891,-14741
C00386=-28041,67473,10756,13540,-41076,-14758
C00387=-27957,68145,11558,13531,-41233,-14771
C00388=-27873,68820,12365,13521,-41391,-14783
C00389=-27790,69499,13179,13511,-41551,-14795
C00390=-27707,70182,14000,13501,-41714,-14807
C00391=-27607,71007,14994,13488,-41911,-14820
C00392=-28284,65549,8505,13558,-40654,-14716
C00393=-28197,66217,9296,13551,-40807,-14730
C00394=-28112,66888,10094,13543,-40962,-14744
C00395=-28026,67563,10898,13534,-41118,-14758
C00396=-27924,68378,11871,13523,-41309,-14773
C00397=-27840,69061,12689,13514,-41469,-14786
C00398=-27756,69748,13513,13503,-41632,-14798
C00399=-27672,70439,14344,13493,-41796,-14810
C00400=-27567,71315,15399,13478,-42006,-14824
C00401=-28322,65227,8158,13558,-40602,-14707
C00402=-28238,65872,8922,13550,-40749,-14721
C00403=-28155,66521,9692,13543,-40898,-14735
C00404=-28072,67173,10468,13535,-41049,-14748
C00405=-27989,67829,11249,13526,-41201,-14761
C00406=-27891,68620,12195,13516,-41386,-14776
C00407=-27809,69283,12989,13506,-41542,-14788
C00408=-27728,69950,13790,13496,-41700,-14800
C00409=-27647,70621,14597,13486,-41860,-14811
C00410=-27567,71286,15398,13475,-42020,-14821
C00411=-28241,65815,8889,13547,-40758,-14718
C00412=-28158,66467,9663,13539,-40907,-14732
C00413=-28074,67123,10443,13531,-41059,-14745
C00414=-27991,67782,11228,13523,-41212,-14758
C00415=-27909,68445,12020,13514,-41367,-14771
C00416=-27810,69245,12978,13502,-41555,-14786
C00417=-27728,69916,13783,13492,-41714,-14797
C00418=-27647,70590,14594,13482,-41874,-14808
C00419=-27566,71266,15408,13471,-42036,-14819
C00420=-28263,65620,8694,13544,-40735,-14712
C00421=-28161,66407,9627,13536,-40915,-14729
C00422=-28078,67067,10411,13528,-41067,-14742
C00423=-27994,67730,11201,13519,-41221,-14756
C00424=-27911,68396,11997,13510,-41377,-14768
C00425=-27828,69066,12799,13501,-41534,-14781
C00426=-27729,69875,13769,13489,-41726,-14795
C00427=-27647,70554,14585,13478,-41887,-14806
C00428=-27566,71236,15407,13467,-42050,-14817
C00429=-28267,65554,8650,13541,-40741,-14709
C00430=-28182,66215,9433,13533,-40892,-14723
C00431=-28081,67012,10381,13524,-41076,-14740
C00432=-27997,67681,11177,13515,-41231,-14753
C00433=-27913,68352,11979,13506,-41388,-14766
C00434=-27829,69027,12786,13497,-41546,-14778
C00435=-27746,69706,13600,13487,-41706,-14790
C00436=-27647,70525,14585,13474,-41901,-14804
C00437=-27565,71212,15413,13463,-42066,-14815
C00438=-28268,65516,8640,13537,-40754,-14706
C00439=-28183,66182,9429,13529,-40906,-14721
C00440=-28097,66850,10223,13522,-41060,-14735
C00441=-27996,67657,11184,13511,-41247,-14751
C00442=-27911,68334,11991,13502,-41405,-14764
C00443=-27827,69013,12804,13493,-41564,-14776
C00444=-27744,69697,13624,13483,-41726,-14788
C00445=-27661,70384,14450,13472,-41889,-14800
C00446=-27561,71214,15449,13459,-42087,-14813
C00447=-28255,65588,8760,13532,-40792,-14706
C00448=-28169,66257,9552,13524,-40945,-14721
C00449=-28084,66928,10350,13516,-41099,-14734
C00450=-27999,67603,11153,13508,-41255,-14748
C00451=-27897,68417,12125,13497,-41445,-14763
C00452=-27813,69099,12942,13488,-41605,-14776
C00453=-27730,69785,13765,13477,-41768,-14788
C00454=-27646,70475,14594,13467,-41932,-14800
C00455=-27545,71322,15614,13453,-42134,-14813
C00456=-28329,64986,8083,13534,-40676,-14691
C00457=-28245,65637,8852,13527,-40824,-14706
C00458=-28161,66290,9627,13520,-40974,-14720
C00459=-28078,66947,10407,13512,-41125,-14733
C00460=-27995,67606,11192,13504,-41277,-14746
C00461=-27912,68269,11982,13495,-41432,-14759
C00462=-27830,68935,12779,13486,-41588,-14771
C00463=-27732,69738,13742,13474,-41777,-14785
C00464=-27650,70411,14551,13464,-41937,-14797
C00465=-27569,71088,15366,13453,-42099,-14808
C00466=-28281,65329,8523,13526,-40776,-14697
C00467=-28197,65984,9298,13519,-40925,-14711
C00468=-28113,66642,10079,13511,-41076,-14725
C00469=-28029,67303,10865,13503,-41228,-14738
C00470=-27929,68100,11816,13493,-41414,-14754
C00471=-27847,68768,12614,13484,-41570,-14766
C00472=-27764,69440,13419,13474,-41728,-14778
C00473=-27683,70114,14229,13464,-41888,-14790
C00474=-27601,70793,15045,13454,-42050,-14801
C00475=-28312,65063,8244,13524,-40737,-14689
C00476=-28231,65684,8979,13518,-40878,-14703
C00477=-28130,66476,9918,13509,-41059,-14720
C00478=-28046,67140,10706,13501,-41212,-14733
C00479=-27962,67806,11500,13492,-41367,-14747
C00480=-27879,68476,12300,13483,-41523,-14759
C00481=-27796,69149,13105,13474,-41681,-14772
C00482=-27714,69825,13916,13464,-41841,-14783
C00483=-27632,70505,14733,13454,-42002,-14795
C00484=-27534,71326,15722,13441,-42198,-14808
C00485=-28248,65523,8822,13515,-40863,-14698
C00486=-28163,66184,9605,13508,-41013,-14712
C00487=-28079,66848,10393,13500,-41166,-14726
C00488=-27995,67516,11188,13492,-41320,-14739
C00489=-27911,68188,11989,13483,-41477,-14752
C00490=-27828,68863,12797,13474,-41635,-14765
C00491=-27728,69680,13775,13462,-41827,-14779
C00492=-27645,70364,14598,13452,-41990,-14791
C00493=-27563,71053,15427,13441,-42154,-14802
C00494=-28286,65204,8479,13514,-40811,-14689
C00495=-28200,65867,9264,13507,-40962,-14704
C00496=-28115,66534,10055,13500,-41115,-14718
C00497=-28030,67205,10852,13492,-41270,-14731
C00498=-27929,68015,11818,13481,-41458,-14747
C00499=-27845,68694,12629,13472,-41616,-14760
C00500=-27761,69377,13447,13462,-41777,-14772
C00501=-27678,70065,14272,13452,-41940,-14784
C00502=-27595,70757,15104,13442,-42104,-14795
C00503=-28045,67132,10807,13485,-41276,-14724
C00504=-28240,65527,8896,13506,-40906,-14694
C00505=-28137,66331,9849,13498,-41090,-14712
C00506=-28052,67005,10650,13490,-41245,-14726
C00507=-27966,67683,11457,13481,-41402,-14739
C00508=-27882,68365,12271,13472,-41561,-14752
C00509=-27797,69051,13091,13463,-41722,-14765
C00510=-27713,69741,13919,13453,-41884,-14777
C00511=-27630,70436,14753,13443,-42049,-14788
C00512=-27523,71330,15830,13428,-42263,-14803
C00513=-28337,64746,8009,13510,-40751,-14675
C00514=-28254,65387,8765,13504,-40896,-14690
C00515=-28171,66031,9528,13497,-41042,-14704
C00516=-28089,66679,10296,13489,-41191,-14717
C00517=-28007,67330,11071,13482,-41341,-14730
C00518=-27925,67985,11851,13473,-41493,-14743
C00519=-27844,68644,12638,13464,-41647,-14755
C00520=-27763,69307,13432,13455,-41803,-14767
C00521=-27666,70108,14392,13443,-41992,-14781
C00522=-27585,70779,15200,13433,-42152,-14792
C00523=-28149,66238,9817,13487,-41115,-14702
C00524=-28251,65383,8796,13499,-40916,-14688
C00525=-28167,66033,9565,13492,-41064,-14702
C00526=-28084,66687,10341,13485,-41214,-14716
C00527=-28001,67344,11122,13477,-41366,-14729
C00528=-27903,68138,12068,13467,-41550,-14744
C00529=-27820,68804,12864,13458,-41706,-14757
C00530=-27739,69473,13666,13449,-41863,-14768
C00531=-27657,70147,14474,13439,-42023,-14780
C00532=-27576,70825,15290,13428,-42184,-14791
C00533=-28280,65146,8554,13496,-40886,-14679
C00534=-28248,65375,8821,13495,-40936,-14686
C00535=-28164,66031,9597,13488,-41085,-14700
C00536=-28063,66823,10537,13479,-41267,-14717
C00537=-27980,67487,11327,13471,-41420,-14730
C00538=-27897,68154,12123,13462,-41575,-14743
C00539=-27814,68826,12926,13453,-41732,-14755
C00540=-27731,69502,13735,13444,-41891,-14767
C00541=-27649,70182,14551,13434,-42052,-14779
C00542=-27568,70867,15374,13423,-42215,-14790
C00543=-28314,64836,8219,13496,-40836,-14672
C00544=-28228,65493,8996,13490,-40985,-14687
C00545=-28143,66153,9780,13483,-41136,-14701
C00546=-28058,66817,10568,13475,-41289,-14715
C00547=-27973,67484,11363,13467,-41444,-14729
C00548=-27889,68155,12164,13459,-41601,-14742
C00549=-27805,68830,12972,13450,-41759,-14755
C00550=-27705,69645,13949,13438,-41952,-14769
C00551=-27622,70328,14770,13428,-42114,-14781
C00552=-27540,71015,15598,13418,-42279,-14792
C00553=-28306,64807,8232,13493,-40859,-14672
C00554=-28220,65469,9015,13486,-41009,-14687
C00555=-28134,66135,9804,13479,-41162,-14701
C00556=-28048,66804,10599,13472,-41316,-14715
C00557=-27963,67477,11400,13464,-41472,-14729
C00558=-27862,68289,12370,13453,-41661,-14745
C00559=-27777,68969,13184,13444,-41821,-14758
C00560=-27694,69654,14006,13435,-41983,-14770
C00561=-27610,70343,14833,13425,-42147,-14782
C00562=-27527,71035,15668,13414,-42313,-14793
C00563=-28297,64789,8257,13489,-40884,-14672
C00564=-28210,65456,9046,13483,-41036,-14687
C00565=-28107,66261,10001,13474,-41220,-14704
C00566=-28021,66936,10803,13467,-41376,-14718
C00567=-27935,67615,11611,13459,-41533,-14732
C00568=-27850,68297,12426,13450,-41692,-14745
C00569=-27765,68984,13247,13441,-41854,-14758
C00570=-27680,69674,14075,13431,-42017,-14770
C00571=-27596,70368,14909,13421,-42182,-14782
C00572=-27485,71302,16035,13406,-42405,-14797
C00573=-28328,64470,7925,13489,-40840,-14665
C00574=-28244,65116,8688,13483,-40987,-14680
C00575=-28160,65765,9457,13476,-41135,-14694
C00576=-28076,66418,10231,13469,-41284,-14708
C00577=-27993,67074,11011,13462,-41436,-14722
C00578=-27910,67733,11797,13454,-41589,-14735
C00579=-27827,68396,12588,13445,-41744,-14747
C00580=-27729,69195,13545,13434,-41932,-14762
C00581=-27647,69865,14350,13425,-42090,-14774
C00582=-27565,70539,15160,13415,-42251,-14785
C00583=-27485,71214,15973,13405,-42413,-14796
C00584=-28265,64863,8436,13482,-40959,-14674
C00585=-28181,65515,9207,13475,-41107,-14689
C00586=-28096,66170,9983,13469,-41257,-14703
C00587=-27996,66960,10923,13460,-41439,-14720
C00588=-27913,67623,11711,13452,-41593,-14733
C00589=-27830,68288,12506,13443,-41748,-14746
C00590=-27747,68957,13307,13434,-41905,-14758
C00591=-27665,69630,14113,13425,-42064,-14770
C00592=-27583,70306,14926,13415,-42225,-14782
C00593=-27501,70987,15745,13405,-42387,-14793
C00594=-28271,64734,8330,13479,-40959,-14672
C00595=-28186,65389,9104,13473,-41108,-14686
C00596=-28101,66047,9884,13466,-41258,-14701
C00597=-28017,66708,10669,13459,-41410,-14715
C00598=-27933,67373,11460,13451,-41564,-14728
C00599=-27849,68041,12257,13443,-41719,-14741
C00600=-27766,68713,13060,13434,-41877,-14754
C00601=-27667,69523,14031,13423,-42068,-14768
C00602=-27585,70203,14847,13413,-42229,-14780
C00603=-27503,70886,15670,13403,-42392,-14791
C00604=-28363,64583,8186,13449,-40937,-14634
C00605=-28447,65523,9271,13369,-41108,-14569
C00606=-28532,66465,10360,13290,-41282,-14504
C00607=-28633,67597,11675,13195,-41493,-14425
C00608=-28718,68543,12775,13116,-41671,-14360
C00609=-28803,69490,13882,13036,-41852,-14295
C00610=-28887,70440,14994,12957,-42035,-14229
C00611=-28972,71392,16112,12878,-42220,-14164
C00612=-29057,72346,17236,12800,-42408,-14099
C00613=-29142,73303,18366,12721,-42598,-14033
C00614=-30142,67404,11283,12680,-41166,-13795
C00615=-30224,68338,12368,12603,-41341,-13732
C00616=-30306,69275,13458,12527,-41517,-13669
C00617=-30389,70213,14553,12450,-41696,-13606
C00618=-30471,71153,15654,12374,-41877,-13543
C00619=-30553,72096,16761,12298,-42060,-13480
C00620=-30636,73040,17873,12222,-42246,-13417
C00621=-30735,74177,19216,12131,-42472,-13341
C00622=-30817,75128,20342,12055,-42662,-13277
C00623=-30900,76081,21475,11979,-42856,-13214
C00624=-31086,76340,21742,11893,-42864,-13123
C00625=-31985,70971,15249,11851,-41537,-12908
C00626=-32065,71902,16339,11777,-41716,-12847
C00627=-32145,72834,17434,11704,-41897,-12786
C00628=-32241,73956,18755,11616,-42118,-12712
C00629=-32321,74894,19863,11543,-42304,-12651
C00630=-32401,75834,20977,11470,-42493,-12590
C00631=-32482,76777,22098,11397,-42684,-12529
C00632=-32562,77723,23224,11324,-42878,-12468
C00633=-32642,78671,24358,11251,-43074,-12406
C00634=-32731,79870,25796,11163,-43327,-12334
EC00000=59829,9235247
EC00001=59829,9235247
EC00002=59829,9235247
EC00003=59829,9235247
EC00004=59829,9235247
EC00005=59829,9235247
EC00006=59829,9235247
EC00007=59829,9235247
EC00008=59829,9317850
EC00009=59829,9317850
EC00010=59829,9317850
EC00011=59829,9317850
EC00012=59829,9317850
EC00013=59829,9400452
EC00014=59829,9400452
EC00015=59829,9400452
EC00016=59829,9400452
EC00017=59829,9400452
EC00018=59829,9400452
EC00019=59829,9483055
EC00020=59829,9483055
EC00021=59829,9483055
EC00022=59829,9483055
EC00023=59829,9483055
EC00024=59829,9483055
EC00025=59829,9565658
EC00026=59829,9565658
EC00027=59829,9565658
EC00028=59829,9565658
EC00029=59829,9565658
EC00030=59829,9565658
EC00031=59829,9648260
EC00032=59829,9648260
EC00033=59829,9648260
EC00034=59829,9648260
EC00035=59829,9648260
EC00036=59829,9648260
EC00037=59829,9730863
EC00038=59829,9730863
EC00039=59829,9730863
EC00040=59829,9730863
EC00041=59829,9730863
EC00042=59829,9730863
EC00043=59829,9730863
EC00044=59829,9813466
EC00045=59829,9813466
EC00046=59829,9813466
EC00047=59829,9813466
EC00048=59829,9813466
EC00049=59829,9813466
EC00050=59829,9896068
EC00051=59829,9896068
EC00052=59829,9896068
EC00053=59829,9896068
EC00054=59829,9896068
EC00055=59829,9896068
EC00056=59829,9978671
EC00057=59829,9978671
EC00058=59829,9978671
EC00059=59829,9978671
EC00060=59829,9978671
EC00061=59829,9978671
EC00062=59829,9989566
EC00063=59829,10061274
EC00064=59829,10061274
EC00065=59829,10061274
EC00066=59829,10061274
EC00067=59829,10061274
EC00068=59829,10061274
EC00069=59829,10143877
EC00070=59829,10143877
EC00071=59829,10143877
EC00072=59829,10143877
EC00073=59829,10143877
EC00074=59829,10143877
EC00075=59829,10226479
EC00076=59829,10226479
EC00077=59829,10226479
EC00078=59829,10226479
EC00079=59829,10226479
EC00080=59829,10226479
EC00081=59829,10226479
EC00082=59829,10309082
EC00083=59829,10309082
EC00084=59829,10309082
EC00085=59829,10309082
EC00086=59829,10309082
EC00087=59829,10309082
EC00088=59829,10309082
EC00089=59829,10391685
EC00090=59829,10391685
EC00091=59829,10391685
EC00092=59829,10391685
EC00093=59829,10391685
EC00094=59829,10391685
EC00095=59829,10474287
EC00096=59829,10474287
EC00097=59829,10474287
EC00098=59829,10474287
EC00099=59829,10474287
EC00100=59829,10474287
EC00101=59829,10474287
EC00102=59829,10556890
EC00103=59829,10556890
EC00104=59829,10556890
EC00105=59829,10556890
EC00106=59829,10556890
EC00107=59829,10556890
EC00108=59829,10639493
EC00109=59829,10639493
EC00110=59829,10639493
EC00111=59829,10639493
EC00112=59829,10639493
EC00113=59829,10639493
EC00114=59829,10639493
EC00115=59829,10722095
EC00116=59829,10722095
EC00117=59829,10722095
EC00118=59829,10722095
EC00119=59829,10722095
EC00120=59829,10722095
EC00121=59829,10722095
EC00122=59829,10730804
EC00123=59829,10804698
EC00124=59829,10804698
EC00125=59829,10804698
EC00126=59829,10804698
EC00127=59829,10804698
EC00128=59829,10804698
EC00129=59829,10881904
EC00130=59829,10887301
EC00131=59829,10887301
EC00132=59829,10887301
EC00133=59829,10887301
EC00134=59829,10887301
EC00135=59829,10887301
EC00136=59829,10969903
EC00137=59829,10969903
EC00138=59829,10969903
EC00139=59829,10969903
EC00140=59829,10969903
EC00141=59829,10969903
EC00142=59829,10969903
EC00143=59829,11052506
EC00144=59829,11052506
EC00145=59829,11052506
EC00146=59829,11052506
EC00147=59829,11052506
EC00148=59829,11052506
EC00149=59829,11052506
EC00150=59829,11135109
EC00151=59829,11135109
EC00152=59829,11135109
EC00153=59829,11135109
EC00154=59829,11135109
EC00155=59829,11135109
EC00156=59829,11135109
EC00157=59829,11217711
EC00158=59829,11217711
EC00159=59829,11217711
EC00160=59829,11217711
EC00161=59829,11217711
EC00162=59829,11217711
EC00163=59829,11217711
EC00164=59829,11217711
EC00165=59829,11300314
EC00166=59829,11300314
EC00167=59829,11300314
EC00168=59829,11300314
EC00169=59829,11300314
EC00170=59829,11300314
EC00171=59829,11300314
EC00172=59829,11382917
EC00173=59829,11382917
EC00174=59829,11382917
EC00175=59829,11382917
EC00176=59829,11382917
EC00177=59829,11382917
EC00178=59829,11382917
EC00179=59829,11465519
EC00180=59829,11465519
EC00181=59829,11465519
EC00182=59829,11465519
EC00183=59829,11465519
EC00184=59829,11465519
EC00185=59829,11465519
EC00186=59829,11548122
EC00187=59829,11548122
EC00188=59829,11548122
EC00189=59829,11548122
EC00190=59829,11548122
EC00191=59829,11548122
EC00192=59829,11548122
EC00193=59829,11567296
EC00194=59829,11630725
EC00195=59829,11630725
EC00196=59829,11630725
EC00197=59829,11630725
EC00198=59829,11630725
EC00199=59829,11630725
EC00200=59829,11630725
EC00201=59829,11713327
EC00202=59829,11713327
EC00203=59829,11713327
EC00204=59829,11713327
EC00205=59829,11713327
EC00206=59829,11713327
EC00207=59829,11713327
EC00208=59829,11713327
EC00209=59829,11794997
EC00210=59829,11795930
EC00211=59829,11795930
EC00212=59829,11795930
EC00213=59829,11795930
EC00214=59829,11795930
EC00215=59829,11795930
EC00216=59829,11795930
EC00217=59829,11878533
EC00218=59829,11878533
EC00219=59829,11878533
EC00220=59829,11878533
EC00221=59829,11878533
EC00222=59829,11878533
EC00223=59829,11878533
EC00224=59829,11878533
EC00225=59829,11961135
EC00226=59829,11961135
EC00227=59829,11961135
EC00228=59829,11961135
EC00229=59829,11961135
EC00230=59829,11961135
EC00231=59829,11961135
EC00232=59829,12029618
EC00233=59829,12043738
EC00234=59829,12043738
EC00235=59829,12043738
EC00236=59829,12043738
EC00237=59829,12043738
EC00238=59829,12043738
EC00239=59829,12043738
EC00240=59829,12126341
EC00241=59829,12126341
EC00242=59829,12126341
EC00243=59829,12126341
EC00244=59829,12126341
EC00245=59829,12126341
EC00246=59829,12126341
EC00247=59829,12126341
EC00248=59829,12208943
EC00249=59829,12208943
EC00250=59829,12208943
EC00251=59829,12208943
EC00252=59829,12208943
EC00253=59829,12208943
EC00254=59829,12208943
EC00255=59829,12208943
EC00256=59829,12208943
EC00257=59829,12291546
EC00258=59829,12291546
EC00259=59829,12291546
EC00260=59829,12291546
EC00261=59829,12291546
EC00262=59829,12291546
EC00263=59829,12291546
EC00264=59829,12291546
EC00265=59829,12374149
EC00266=59829,12374149
EC00267=59829,12374149
EC00268=59829,12374149
EC00269=59829,12374149
EC00270=59829,12374149
EC00271=59829,12374149
EC00272=59829,12374149
EC00273=59829,12456751
EC00274=59829,12456751
EC00275=59829,12456751
EC00276=59829,12456751
EC00277=59829,12456751
EC00278=59829,12456751
EC00279=59829,12456751
EC00280=59829,12456751
EC00281=59829,12539354
EC00282=59829,12539354
EC00283=59829,12539354
EC00284=59829,12539354
EC00285=59829,12539354
EC00286=59829,12539354
EC00287=59829,12539354
EC00288=59829,12539354
EC00289=59829,12621957
EC00290=59829,12621957
EC00291=59829,12621957
EC00292=59829,12621957
EC00293=59829,12621957
EC00294=59829,12621957
EC00295=59829,12621957
EC00296=59829,12621957
EC00297=59829,12704559
EC00298=59829,12704559
EC00299=59829,12704559
EC00300=59829,12704559
EC00301=59829,12704559
EC00302=59829,12704559
EC00303=59829,12704559
EC00304=59829,12704559
EC00305=59829,12704559
EC00306=59829,12787162
EC00307=59829,12787162
EC00308=59829,12787162
EC00309=59829,12787162
EC00310=59829,12787162
EC00311=59829,12787162
EC00312=59829,12787162
EC00313=59829,12787162
EC00314=59829,12868544
EC00315=59829,12869765
EC00316=59829,12869765
EC00317=59829,12869765
EC00318=59829,12869765
EC00319=59829,12869765
EC00320=59829,12869765
EC00321=59829,12869765
EC00322=59829,12869765
EC00323=59829,12952367
EC00324=59829,12952367
EC00325=59829,12952367
EC00326=59829,12952367
EC00327=59829,12952367
EC00328=59829,12952367
EC00329=59829,12952367
EC00330=59829,12952367
EC00331=59829,13034970
EC00332=59829,13034970
EC00333=59829,13034970
EC00334=59829,13034970
EC00335=59829,13034970
EC00336=59829,13034970
EC00337=59829,13034970
EC00338=59829,13034970
EC00339=59829,13036266
EC00340=59829,13117573
EC00341=59829,13117573
EC00342=59829,13117573
EC00343=59829,13117573
EC00344=59829,13117573
EC00345=59829,13117573
EC00346=59829,13117573
EC00347=59829,13117573
EC00348=59829,13200175
EC00349=59829,13200175
EC00350=59829,13200175
EC00351=59829,13200175
EC00352=59829,13200175
EC00353=59829,13200175
EC00354=59829,13200175
EC00355=59829,13200175
EC00356=59829,13200175
EC00357=59829,13281568
EC00358=59829,13282778
EC00359=59829,13282778
EC00360=59829,13282778
EC00361=59829,13282778
EC00362=59829,13282778
EC00363=59829,13282778
EC00364=59829,13282778
EC00365=59829,13282778
EC00366=59829,13365381
EC00367=59829,13365381
EC00368=59829,13365381
EC00369=59829,13365381
EC00370=59829,13365381
EC00371=59829,13365381
EC00372=59829,13365381
EC00373=59829,13365381
EC00374=59829,13365381
EC00375=59829,13447983
EC00376=59829,13447983
EC00377=59829,13447983
EC00378=59829,13447983
EC00379=59829,13447983
EC00380=59829,13447983
EC00381=59829,13447983
EC00382=59829,13447983
EC00383=59829,13526416
EC00384=59829,13530586
EC00385=59829,13530586
EC00386=59829,13530586
EC00387=59829,13530586
EC00388=59829,13530586
EC00389=59829,13530586
EC00390=59829,13530586
EC00391=59829,13530586
EC00392=59829,13613189
EC00393=59829,13613189
EC00394=59829,13613189
EC00395=59829,13613189
EC00396=59829,13613189
EC00397=59829,13613189
EC00398=59829,13613189
EC00399=59829,13613189
EC00400=59829,13613189
EC00401=59829,13695791
EC00402=59829,13695791
EC00403=59829,13695791
EC00404=59829,13695791
EC00405=59829,13695791
EC00406=59829,13695791
EC00407=59829,13695791
EC00408=59829,13695791
EC00409=59829,13695791
EC00410=59829,13695791
EC00411=59829,13778394
EC00412=59829,13778394
EC00413=59829,13778394
EC00414=59829,13778394
EC00415=59829,13778394
EC00416=59829,13778394
EC00417=59829,13778394
EC00418=59829,13778394
EC00419=59829,13778394
EC00420=59829,13860997
EC00421=59829,13860997
EC00422=59829,13860997
EC00423=59829,13860997
EC00424=59829,13860997
EC00425=59829,13860997
EC00426=59829,13860997
EC00427=59829,13860997
EC00428=59829,13860997
EC00429=59829,13943599
EC00430=59829,13943599
EC00431=59829,13943599
EC00432=59829,13943599
EC00433=59829,13943599
EC00434=59829,13943599
EC00435=59829,13943599
EC00436=59829,13943599
EC00437=59829,13943599
EC00438=59829,14026202
EC00439=59829,14026202
EC00440=59829,14026202
EC00441=59829,14026202
EC00442=59829,14026202
EC00443=59829,14026202
EC00444=59829,14026202
EC00445=59829,14026202
EC00446=59829,14026202
EC00447=59829,14108805
EC00448=59829,14108805
EC00449=59829,14108805
EC00450=59829,14108805
EC00451=59829,14108805
EC00452=59829,14108805
EC00453=59829,14108805
EC00454=59829,14108805
EC00455=59829,14108805
EC00456=59829,14191407
EC00457=59829,14191407
EC00458=59829,14191407
EC00459=59829,14191407
EC00460=59829,14191407
EC00461=59829,14191407
EC00462=59829,14191407
EC00463=59829,14191407
EC00464=59829,14191407
EC00465=59829,14191407
EC00466=59829,14274010
EC00467=59829,14274010
EC00468=59829,14274010
EC00469=59829,14274010
EC00470=59829,14274010
EC00471=59829,14274010
EC00472=59829,14274010
EC00473=59829,14274010
EC00474=59829,14274010
EC00475=59829,14356148
EC00476=59829,14356613
EC00477=59829,14356613
EC00478=59829,14356613
EC00479=59829,14356613
EC00480=59829,14356613
EC00481=59829,14356613
EC00482=59829,14356613
EC00483=59829,14356613
EC00484=59829,14356613
EC00485=59829,14439215
EC00486=59829,14439215
EC00487=59829,14439215
EC00488=59829,14439215
EC00489=59829,14439215
EC00490=59829,14439215
EC00491=59829,14439215
EC00492=59829,14439215
EC00493=59829,14439215
EC00494=59829,14521818
EC00495=59829,14521818
EC00496=59829,14521818
EC00497=59829,14521818
EC00498=59829,14521818
EC00499=59829,14521818
EC00500=59829,14521818
EC00501=59829,14521818
EC00502=59829,14521818
EC00503=59829,14576600
EC00504=59829,14604421
EC00505=59829,14604421
EC00506=59829,14604421
EC00507=59829,14604421
EC00508=59829,14604421
EC00509=59829,14604421
EC00510=59829,14604421
EC00511=59829,14604421
EC00512=59829,14604421
EC00513=59829,14687024
EC00514=59829,14687024
EC00515=59829,14687024
EC00516=59829,14687024
EC00517=59829,14687024
EC00518=59829,14687024
EC00519=59829,14687024
EC00520=59829,14687024
EC00521=59829,14687024
EC00522=59829,14687024
EC00523=59829,14750426
EC00524=59829,14769626
EC00525=59829,14769626
EC00526=59829,14769626
EC00527=59829,14769626
EC00528=59829,14769626
EC00529=59829,14769626
EC00530=59829,14769626
EC00531=59829,14769626
EC00532=59829,14769626
EC00533=59829,14846815
EC00534=59829,14852229
EC00535=59829,14852229
EC00536=59829,14852229
EC00537=59829,14852229
EC00538=59829,14852229
EC00539=59829,14852229
EC00540=59829,14852229
EC00541=59829,14852229
EC00542=59829,14852229
EC00543=59829,14934832
EC00544=59829,14934832
EC00545=59829,14934832
EC00546=59829,14934832
EC00547=59829,14934832
EC00548=59829,14934832
EC00549=59829,14934832
EC00550=59829,14934832
EC00551=59829,14934832
EC00552=59829,14934832
EC00553=59829,15017434
EC00554=59829,15017434
EC00555=59829,15017434
EC00556=59829,15017434
EC00557=59829,15017434
EC00558=59829,15017434
EC00559=59829,15017434
EC00560=59829,15017434
EC00561=59829,15017434
EC00562=59829,15017434
EC00563=59829,15100037
EC00564=59829,15100037
EC00565=59829,15100037
EC00566=59829,15100037
EC00567=59829,15100037
EC00568=59829,15100037
EC00569=59829,15100037
EC00570=59829,15100037
EC00571=59829,15100037
EC00572=59829,15100037
EC00573=59829,15182640
EC00574=59829,15182640
EC00575=59829,15182640
EC00576=59829,15182640
EC00577=59829,15182640
EC00578=59829,15182640
EC00579=59829,15182640
EC00580=59829,15182640
EC00581=59829,15182640
EC00582=59829,15182640
EC00583=59829,15182640
EC00584=59829,15265242
EC00585=59829,15265242
EC00586=59829,15265242
EC00587=59829,15265242
EC00588=59829,15265242
EC00589=59829,15265242
EC00590=59829,15265242
EC00591=59829,15265242
EC00592=59829,15265242
EC00593=59829,15265242
EC00594=59829,15347845
EC00595=59829,15347845
EC00596=59829,15347845
EC00597=59829,15347845
EC00598=59829,15347845
EC00599=59829,15347845
EC00600=59829,15347845
EC00601=59829,15347845
EC00602=59829,15347845
EC00603=59829,15347845
EC00604=58851,15430448
EC00605=56405,15430448
EC00606=53960,15430448
EC00607=51025,15430448
EC00608=48580,15430448
EC00609=46135,15430448
EC00610=43689,15430448
EC00611=41244,15430448
EC00612=38798,15430448
EC00613=36353,15430448
EC00614=33419,15513050
EC00615=30973,15513050
EC00616=28528,15513050
EC00617=26082,15513050
EC00618=23637,15513050
EC00619=21191,15513050
EC00620=18746,15513050
EC00621=15812,15513050
EC00622=13366,15513050
EC00623=10921,15513050
EC00624=8475,15521495
EC00625=6030,15595653
EC00626=3585,15595653
EC00627=1139,15595653
EC00628=-1795,15595653
EC00629=-4241,15595653
EC00630=-6686,15595653
EC00631=-9132,15595653
EC00632=-11577,15595653
EC00633=-14022,15595653
EC00634=-16957,15595653
//INST
///DATE 2023/08/24 14:30
///ATTR SC,RW
///GROUP1 RB1
///GROUP2 ST1
NOP
MOVJ C00000 VJ=1.0 +MOVJ EC00000 VJ=10.0
ARCON ASF#(212)
MOVL C00001 V=23.1 +MOVJ EC00001 VJ=100.0
MOVL C00002 V=5.0 +MOVJ EC00002 VJ=100.0
MOVL C00003 V=5.0 +MOVJ EC00003 VJ=100.0
MOVL C00004 V=5.0 +MOVJ EC00004 VJ=100.0
MOVL C00005 V=5.0 +MOVJ EC00005 VJ=100.0
MOVL C00006 V=5.0 +MOVJ EC00006 VJ=100.0
MOVL C00007 V=5.0 +MOVJ EC00007 VJ=100.0
MOVL C00008 V=18.2 +MOVJ EC00008 VJ=100.0
MOVL C00009 V=5.0 +MOVJ EC00009 VJ=100.0
MOVL C00010 V=5.0 +MOVJ EC00010 VJ=100.0
MOVL C00011 V=5.0 +MOVJ EC00011 VJ=100.0
MOVL C00012 V=5.0 +MOVJ EC00012 VJ=100.0
MOVL C00013 V=21.1 +MOVJ EC00013 VJ=100.0
MOVL C00014 V=5.0 +MOVJ EC00014 VJ=100.0
MOVL C00015 V=5.0 +MOVJ EC00015 VJ=100.0
MOVL C00016 V=5.0 +MOVJ EC00016 VJ=100.0
MOVL C00017 V=5.0 +MOVJ EC00017 VJ=100.0
MOVL C00018 V=5.0 +MOVJ EC00018 VJ=100.0
MOVL C00019 V=21.1 +MOVJ EC00019 VJ=100.0
MOVL C00020 V=5.0 +MOVJ EC00020 VJ=100.0
MOVL C00021 V=5.0 +MOVJ EC00021 VJ=100.0
MOVL C00022 V=5.0 +MOVJ EC00022 VJ=100.0
MOVL C00023 V=5.0 +MOVJ EC00023 VJ=100.0
MOVL C00024 V=5.0 +MOVJ EC00024 VJ=100.0
MOVL C00025 V=21.1 +MOVJ EC00025 VJ=100.0
MOVL C00026 V=5.0 +MOVJ EC00026 VJ=100.0
MOVL C00027 V=5.0 +MOVJ EC00027 VJ=100.0
MOVL C00028 V=5.0 +MOVJ EC00028 VJ=100.0
MOVL C00029 V=5.0 +MOVJ EC00029 VJ=100.0
MOVL C00030 V=5.0 +MOVJ EC00030 VJ=100.0
MOVL C00031 V=21.1 +MOVJ EC00031 VJ=100.0
MOVL C00032 V=5.0 +MOVJ EC00032 VJ=100.0
MOVL C00033 V=5.0 +MOVJ EC00033 VJ=100.0
MOVL C00034 V=5.0 +MOVJ EC00034 VJ=100.0
MOVL C00035 V=5.0 +MOVJ EC00035 VJ=100.0
MOVL C00036 V=5.0 +MOVJ EC00036 VJ=100.0
MOVL C00037 V=28.7 +MOVJ EC00037 VJ=100.0
MOVL C00038 V=5.0 +MOVJ EC00038 VJ=100.0
MOVL C00039 V=5.0 +MOVJ EC00039 VJ=100.0
MOVL C00040 V=5.0 +MOVJ EC00040 VJ=100.0
MOVL C00041 V=5.0 +MOVJ EC00041 VJ=100.0
MOVL C00042 V=5.0 +MOVJ EC00042 VJ=100.0
MOVL C00043 V=5.0 +MOVJ EC00043 VJ=100.0
MOVL C00044 V=26.0 +MOVJ EC00044 VJ=100.0
MOVL C00045 V=5.0 +MOVJ EC00045 VJ=100.0
MOVL C00046 V=5.0 +MOVJ EC00046 VJ=100.0
MOVL C00047 V=5.0 +MOVJ EC00047 VJ=100.0
MOVL C00048 V=5.0 +MOVJ EC00048 VJ=100.0
MOVL C00049 V=5.0 +MOVJ EC00049 VJ=100.0
MOVL C00050 V=22.2 +MOVJ EC00050 VJ=100.0
MOVL C00051 V=5.0 +MOVJ EC00051 VJ=100.0
MOVL C00052 V=5.0 +MOVJ EC00052 VJ=100.0
MOVL C00053 V=5.0 +MOVJ EC00053 VJ=100.0
MOVL C00054 V=5.0 +MOVJ EC00054 VJ=100.0
MOVL C00055 V=5.0 +MOVJ EC00055 VJ=100.0
MOVL C00056 V=26.7 +MOVJ EC00056 VJ=100.0
MOVL C00057 V=5.0 +MOVJ EC00057 VJ=100.0
MOVL C00058 V=5.0 +MOVJ EC00058 VJ=100.0
MOVL C00059 V=5.0 +MOVJ EC00059 VJ=100.0
MOVL C00060 V=5.0 +MOVJ EC00060 VJ=100.0
MOVL C00061 V=5.0 +MOVJ EC00061 VJ=100.0
MOVL C00062 V=5.0 +MOVJ EC00062 VJ=100.0
MOVL C00063 V=23.0 +MOVJ EC00063 VJ=100.0
MOVL C00064 V=5.0 +MOVJ EC00064 VJ=100.0
MOVL C00065 V=5.0 +MOVJ EC00065 VJ=100.0
MOVL C00066 V=5.0 +MOVJ EC00066 VJ=100.0
MOVL C00067 V=5.0 +MOVJ EC00067 VJ=100.0
MOVL C00068 V=5.0 +MOVJ EC00068 VJ=100.0
MOVL C00069 V=22.2 +MOVJ EC00069 VJ=100.0
MOVL C00070 V=5.0 +MOVJ EC00070 VJ=100.0
MOVL C00071 V=5.0 +MOVJ EC00071 VJ=100.0
MOVL C00072 V=5.0 +MOVJ EC00072 VJ=100.0
MOVL C00073 V=5.0 +MOVJ EC00073 VJ=100.0
MOVL C00074 V=5.0 +MOVJ EC00074 VJ=100.0
MOVL C00075 V=30.1 +MOVJ EC00075 VJ=100.0
MOVL C00076 V=5.0 +MOVJ EC00076 VJ=100.0
MOVL C00077 V=5.0 +MOVJ EC00077 VJ=100.0
MOVL C00078 V=5.0 +MOVJ EC00078 VJ=100.0
MOVL C00079 V=5.0 +MOVJ EC00079 VJ=100.0
MOVL C00080 V=5.0 +MOVJ EC00080 VJ=100.0
MOVL C00081 V=5.0 +MOVJ EC00081 VJ=100.0
MOVL C00082 V=27.8 +MOVJ EC00082 VJ=100.0
MOVL C00083 V=5.0 +MOVJ EC00083 VJ=100.0
MOVL C00084 V=5.0 +MOVJ EC00084 VJ=100.0
MOVL C00085 V=5.0 +MOVJ EC00085 VJ=100.0
MOVL C00086 V=5.0 +MOVJ EC00086 VJ=100.0
MOVL C00087 V=5.0 +MOVJ EC00087 VJ=100.0
MOVL C00088 V=5.0 +MOVJ EC00088 VJ=100.0
MOVL C00089 V=28.1 +MOVJ EC00089 VJ=100.0
MOVL C00090 V=5.0 +MOVJ EC00090 VJ=100.0
MOVL C00091 V=5.0 +MOVJ EC00091 VJ=100.0
MOVL C00092 V=5.0 +MOVJ EC00092 VJ=100.0
MOVL C00093 V=5.0 +MOVJ EC00093 VJ=100.0
MOVL C00094 V=5.0 +MOVJ EC00094 VJ=100.0
MOVL C00095 V=23.0 +MOVJ EC00095 VJ=100.0
MOVL C00096 V=5.0 +MOVJ EC00096 VJ=100.0
MOVL C00097 V=5.0 +MOVJ EC00097 VJ=100.0
MOVL C00098 V=5.0 +MOVJ EC00098 VJ=100.0
MOVL C00099 V=5.0 +MOVJ EC00099 VJ=100.0
MOVL C00100 V=5.0 +MOVJ EC00100 VJ=100.0
MOVL C00101 V=5.0 +MOVJ EC00101 VJ=100.0
MOVL C00102 V=28.0 +MOVJ EC00102 VJ=100.0
MOVL C00103 V=5.0 +MOVJ EC00103 VJ=100.0
MOVL C00104 V=5.0 +MOVJ EC00104 VJ=100.0
MOVL C00105 V=5.0 +MOVJ EC00105 VJ=100.0
MOVL C00106 V=5.0 +MOVJ EC00106 VJ=100.0
MOVL C00107 V=5.0 +MOVJ EC00107 VJ=100.0
MOVL C00108 V=23.4 +MOVJ EC00108 VJ=100.0
MOVL C00109 V=5.0 +MOVJ EC00109 VJ=100.0
MOVL C00110 V=5.0 +MOVJ EC00110 VJ=100.0
MOVL C00111 V=5.0 +MOVJ EC00111 VJ=100.0
MOVL C00112 V=5.0 +MOVJ EC00112 VJ=100.0
MOVL C00113 V=5.0 +MOVJ EC00113 VJ=100.0
MOVL C00114 V=5.0 +MOVJ EC00114 VJ=100.0
MOVL C00115 V=31.5 +MOVJ EC00115 VJ=100.0
MOVL C00116 V=5.0 +MOVJ EC00116 VJ=100.0
MOVL C00117 V=5.0 +MOVJ EC00117 VJ=100.0
MOVL C00118 V=5.0 +MOVJ EC00118 VJ=100.0
MOVL C00119 V=5.0 +MOVJ EC00119 VJ=100.0
MOVL C00120 V=5.0 +MOVJ EC00120 VJ=100.0
MOVL C00121 V=5.0 +MOVJ EC00121 VJ=100.0
MOVL C00122 V=5.0 +MOVJ EC00122 VJ=100.0
MOVL C00123 V=22.4 +MOVJ EC00123 VJ=100.0
MOVL C00124 V=5.0 +MOVJ EC00124 VJ=100.0
MOVL C00125 V=5.0 +MOVJ EC00125 VJ=100.0
MOVL C00126 V=5.0 +MOVJ EC00126 VJ=100.0
MOVL C00127 V=5.0 +MOVJ EC00127 VJ=100.0
MOVL C00128 V=5.0 +MOVJ EC00128 VJ=100.0
MOVL C00129 V=28.7 +MOVJ EC00129 VJ=100.0
MOVL C00130 V=5.0 +MOVJ EC00130 VJ=100.0
MOVL C00131 V=5.0 +MOVJ EC00131 VJ=100.0
MOVL C00132 V=5.0 +MOVJ EC00132 VJ=100.0
MOVL C00133 V=5.0 +MOVJ EC00133 VJ=100.0
MOVL C00134 V=5.0 +MOVJ EC00134 VJ=100.0
MOVL C00135 V=5.0 +MOVJ EC00135 VJ=100.0
MOVL C00136 V=29.5 +MOVJ EC00136 VJ=100.0
MOVL C00137 V=5.0 +MOVJ EC00137 VJ=100.0
MOVL C00138 V=5.0 +MOVJ EC00138 VJ=100.0
MOVL C00139 V=5.0 +MOVJ EC00139 VJ=100.0
MOVL C00140 V=5.0 +MOVJ EC00140 VJ=100.0
MOVL C00141 V=5.0 +MOVJ EC00141 VJ=100.0
MOVL C00142 V=5.0 +MOVJ EC00142 VJ=100.0
MOVL C00143 V=29.2 +MOVJ EC00143 VJ=100.0
MOVL C00144 V=5.0 +MOVJ EC00144 VJ=100.0
MOVL C00145 V=5.0 +MOVJ EC00145 VJ=100.0
MOVL C00146 V=5.0 +MOVJ EC00146 VJ=100.0
MOVL C00147 V=5.0 +MOVJ EC00147 VJ=100.0
MOVL C00148 V=5.0 +MOVJ EC00148 VJ=100.0
MOVL C00149 V=5.0 +MOVJ EC00149 VJ=100.0
MOVL C00150 V=24.5 +MOVJ EC00150 VJ=100.0
MOVL C00151 V=5.0 +MOVJ EC00151 VJ=100.0
MOVL C00152 V=5.0 +MOVJ EC00152 VJ=100.0
MOVL C00153 V=5.0 +MOVJ EC00153 VJ=100.0
MOVL C00154 V=5.0 +MOVJ EC00154 VJ=100.0
MOVL C00155 V=5.0 +MOVJ EC00155 VJ=100.0
MOVL C00156 V=5.0 +MOVJ EC00156 VJ=100.0
MOVL C00157 V=27.7 +MOVJ EC00157 VJ=100.0
MOVL C00158 V=5.0 +MOVJ EC00158 VJ=100.0
MOVL C00159 V=5.0 +MOVJ EC00159 VJ=100.0
MOVL C00160 V=5.0 +MOVJ EC00160 VJ=100.0
MOVL C00161 V=5.0 +MOVJ EC00161 VJ=100.0
MOVL C00162 V=5.0 +MOVJ EC00162 VJ=100.0
MOVL C00163 V=5.0 +MOVJ EC00163 VJ=100.0
MOVL C00164 V=5.0 +MOVJ EC00164 VJ=100.0
MOVL C00165 V=25.7 +MOVJ EC00165 VJ=100.0
MOVL C00166 V=5.0 +MOVJ EC00166 VJ=100.0
MOVL C00167 V=5.0 +MOVJ EC00167 VJ=100.0
MOVL C00168 V=5.0 +MOVJ EC00168 VJ=100.0
MOVL C00169 V=5.0 +MOVJ EC00169 VJ=100.0
MOVL C00170 V=5.0 +MOVJ EC00170 VJ=100.0
MOVL C00171 V=5.0 +MOVJ EC00171 VJ=100.0
MOVL C00172 V=25.7 +MOVJ EC00172 VJ=100.0
MOVL C00173 V=5.0 +MOVJ EC00173 VJ=100.0
MOVL C00174 V=5.0 +MOVJ EC00174 VJ=100.0
MOVL C00175 V=5.0 +MOVJ EC00175 VJ=100.0
MOVL C00176 V=5.0 +MOVJ EC00176 VJ=100.0
MOVL C00177 V=5.0 +MOVJ EC00177 VJ=100.0
MOVL C00178 V=5.0 +MOVJ EC00178 VJ=100.0
MOVL C00179 V=25.5 +MOVJ EC00179 VJ=100.0
MOVL C00180 V=5.0 +MOVJ EC00180 VJ=100.0
MOVL C00181 V=5.0 +MOVJ EC00181 VJ=100.0
MOVL C00182 V=5.0 +MOVJ EC00182 VJ=100.0
MOVL C00183 V=5.0 +MOVJ EC00183 VJ=100.0
MOVL C00184 V=5.0 +MOVJ EC00184 VJ=100.0
MOVL C00185 V=5.0 +MOVJ EC00185 VJ=100.0
MOVL C00186 V=25.2 +MOVJ EC00186 VJ=100.0
MOVL C00187 V=5.0 +MOVJ EC00187 VJ=100.0
MOVL C00188 V=5.0 +MOVJ EC00188 VJ=100.0
MOVL C00189 V=5.0 +MOVJ EC00189 VJ=100.0
MOVL C00190 V=5.0 +MOVJ EC00190 VJ=100.0
MOVL C00191 V=5.0 +MOVJ EC00191 VJ=100.0
MOVL C00192 V=5.0 +MOVJ EC00192 VJ=100.0
MOVL C00193 V=5.0 +MOVJ EC00193 VJ=100.0
MOVL C00194 V=25.6 +MOVJ EC00194 VJ=100.0
MOVL C00195 V=5.0 +MOVJ EC00195 VJ=100.0
MOVL C00196 V=5.0 +MOVJ EC00196 VJ=100.0
MOVL C00197 V=5.0 +MOVJ EC00197 VJ=100.0
MOVL C00198 V=5.0 +MOVJ EC00198 VJ=100.0
MOVL C00199 V=5.0 +MOVJ EC00199 VJ=100.0
MOVL C00200 V=5.0 +MOVJ EC00200 VJ=100.0
MOVL C00201 V=28.8 +MOVJ EC00201 VJ=100.0
MOVL C00202 V=5.0 +MOVJ EC00202 VJ=100.0
MOVL C00203 V=5.0 +MOVJ EC00203 VJ=100.0
MOVL C00204 V=5.0 +MOVJ EC00204 VJ=100.0
MOVL C00205 V=5.0 +MOVJ EC00205 VJ=100.0
MOVL C00206 V=5.0 +MOVJ EC00206 VJ=100.0
MOVL C00207 V=5.0 +MOVJ EC00207 VJ=100.0
MOVL C00208 V=5.0 +MOVJ EC00208 VJ=100.0
MOVL C00209 V=26.8 +MOVJ EC00209 VJ=100.0
MOVL C00210 V=5.0 +MOVJ EC00210 VJ=100.0
MOVL C00211 V=5.0 +MOVJ EC00211 VJ=100.0
MOVL C00212 V=5.0 +MOVJ EC00212 VJ=100.0
MOVL C00213 V=5.0 +MOVJ EC00213 VJ=100.0
MOVL C00214 V=5.0 +MOVJ EC00214 VJ=100.0
MOVL C00215 V=5.0 +MOVJ EC00215 VJ=100.0
MOVL C00216 V=5.0 +MOVJ EC00216 VJ=100.0
MOVL C00217 V=26.8 +MOVJ EC00217 VJ=100.0
MOVL C00218 V=5.0 +MOVJ EC00218 VJ=100.0
MOVL C00219 V=5.0 +MOVJ EC00219 VJ=100.0
MOVL C00220 V=5.0 +MOVJ EC00220 VJ=100.0
MOVL C00221 V=5.0 +MOVJ EC00221 VJ=100.0
MOVL C00222 V=5.0 +MOVJ EC00222 VJ=100.0
MOVL C00223 V=5.0 +MOVJ EC00223 VJ=100.0
MOVL C00224 V=5.0 +MOVJ EC00224 VJ=100.0
MOVL C00225 V=26.8 +MOVJ EC00225 VJ=100.0
MOVL C00226 V=5.0 +MOVJ EC00226 VJ=100.0
MOVL C00227 V=5.0 +MOVJ EC00227 VJ=100.0
MOVL C00228 V=5.0 +MOVJ EC00228 VJ=100.0
MOVL C00229 V=5.0 +MOVJ EC00229 VJ=100.0
MOVL C00230 V=5.0 +MOVJ EC00230 VJ=100.0
MOVL C00231 V=5.0 +MOVJ EC00231 VJ=100.0
MOVL C00232 V=26.8 +MOVJ EC00232 VJ=100.0
MOVL C00233 V=5.0 +MOVJ EC00233 VJ=100.0
MOVL C00234 V=5.0 +MOVJ EC00234 VJ=100.0
MOVL C00235 V=5.0 +MOVJ EC00235 VJ=100.0
MOVL C00236 V=5.0 +MOVJ EC00236 VJ=100.0
MOVL C00237 V=5.0 +MOVJ EC00237 VJ=100.0
MOVL C00238 V=5.0 +MOVJ EC00238 VJ=100.0
MOVL C00239 V=5.0 +MOVJ EC00239 VJ=100.0
MOVL C00240 V=26.8 +MOVJ EC00240 VJ=100.0
MOVL C00241 V=5.0 +MOVJ EC00241 VJ=100.0
MOVL C00242 V=5.0 +MOVJ EC00242 VJ=100.0
MOVL C00243 V=5.0 +MOVJ EC00243 VJ=100.0
MOVL C00244 V=5.0 +MOVJ EC00244 VJ=100.0
MOVL C00245 V=5.0 +MOVJ EC00245 VJ=100.0
MOVL C00246 V=5.0 +MOVJ EC00246 VJ=100.0
MOVL C00247 V=5.0 +MOVJ EC00247 VJ=100.0
MOVL C00248 V=35.7 +MOVJ EC00248 VJ=100.0
MOVL C00249 V=5.0 +MOVJ EC00249 VJ=100.0
MOVL C00250 V=5.0 +MOVJ EC00250 VJ=100.0
MOVL C00251 V=5.0 +MOVJ EC00251 VJ=100.0
MOVL C00252 V=5.0 +MOVJ EC00252 VJ=100.0
MOVL C00253 V=5.0 +MOVJ EC00253 VJ=100.0
MOVL C00254 V=5.0 +MOVJ EC00254 VJ=100.0
MOVL C00255 V=5.0 +MOVJ EC00255 VJ=100.0
MOVL C00256 V=5.0 +MOVJ EC00256 VJ=100.0
MOVL C00257 V=31.4 +MOVJ EC00257 VJ=100.0
MOVL C00258 V=5.0 +MOVJ EC00258 VJ=100.0
MOVL C00259 V=5.0 +MOVJ EC00259 VJ=100.0
MOVL C00260 V=5.0 +MOVJ EC00260 VJ=100.0
MOVL C00261 V=5.0 +MOVJ EC00261 VJ=100.0
MOVL C00262 V=5.0 +MOVJ EC00262 VJ=100.0
MOVL C00263 V=5.0 +MOVJ EC00263 VJ=100.0
MOVL C00264 V=5.0 +MOVJ EC00264 VJ=100.0
MOVL C00265 V=33.2 +MOVJ EC00265 VJ=100.0
MOVL C00266 V=5.0 +MOVJ EC00266 VJ=100.0
MOVL C00267 V=5.0 +MOVJ EC00267 VJ=100.0
MOVL C00268 V=5.0 +MOVJ EC00268 VJ=100.0
MOVL C00269 V=5.0 +MOVJ EC00269 VJ=100.0
MOVL C00270 V=5.0 +MOVJ EC00270 VJ=100.0
MOVL C00271 V=5.0 +MOVJ EC00271 VJ=100.0
MOVL C00272 V=5.0 +MOVJ EC00272 VJ=100.0
MOVL C00273 V=33.6 +MOVJ EC00273 VJ=100.0
MOVL C00274 V=5.0 +MOVJ EC00274 VJ=100.0
MOVL C00275 V=5.0 +MOVJ EC00275 VJ=100.0
MOVL C00276 V=5.0 +MOVJ EC00276 VJ=100.0
MOVL C00277 V=5.0 +MOVJ EC00277 VJ=100.0
MOVL C00278 V=5.0 +MOVJ EC00278 VJ=100.0
MOVL C00279 V=5.0 +MOVJ EC00279 VJ=100.0
MOVL C00280 V=5.0 +MOVJ EC00280 VJ=100.0
MOVL C00281 V=33.7 +MOVJ EC00281 VJ=100.0
MOVL C00282 V=5.0 +MOVJ EC00282 VJ=100.0
MOVL C00283 V=5.0 +MOVJ EC00283 VJ=100.0
MOVL C00284 V=5.0 +MOVJ EC00284 VJ=100.0
MOVL C00285 V=5.0 +MOVJ EC00285 VJ=100.0
MOVL C00286 V=5.0 +MOVJ EC00286 VJ=100.0
MOVL C00287 V=5.0 +MOVJ EC00287 VJ=100.0
MOVL C00288 V=5.0 +MOVJ EC00288 VJ=100.0
MOVL C00289 V=27.9 +MOVJ EC00289 VJ=100.0
MOVL C00290 V=5.0 +MOVJ EC00290 VJ=100.0
MOVL C00291 V=5.0 +MOVJ EC00291 VJ=100.0
MOVL C00292 V=5.0 +MOVJ EC00292 VJ=100.0
MOVL C00293 V=5.0 +MOVJ EC00293 VJ=100.0
MOVL C00294 V=5.0 +MOVJ EC00294 VJ=100.0
MOVL C00295 V=5.0 +MOVJ EC00295 VJ=100.0
MOVL C00296 V=5.0 +MOVJ EC00296 VJ=100.0
MOVL C00297 V=36.6 +MOVJ EC00297 VJ=100.0
MOVL C00298 V=5.0 +MOVJ EC00298 VJ=100.0
MOVL C00299 V=5.0 +MOVJ EC00299 VJ=100.0
MOVL C00300 V=5.0 +MOVJ EC00300 VJ=100.0
MOVL C00301 V=5.0 +MOVJ EC00301 VJ=100.0
MOVL C00302 V=5.0 +MOVJ EC00302 VJ=100.0
MOVL C00303 V=5.0 +MOVJ EC00303 VJ=100.0
MOVL C00304 V=5.0 +MOVJ EC00304 VJ=100.0
MOVL C00305 V=5.0 +MOVJ EC00305 VJ=100.0
MOVL C00306 V=34.6 +MOVJ EC00306 VJ=100.0
MOVL C00307 V=5.0 +MOVJ EC00307 VJ=100.0
MOVL C00308 V=5.0 +MOVJ EC00308 VJ=100.0
MOVL C00309 V=5.0 +MOVJ EC00309 VJ=100.0
MOVL C00310 V=5.0 +MOVJ EC00310 VJ=100.0
MOVL C00311 V=5.0 +MOVJ EC00311 VJ=100.0
MOVL C00312 V=5.0 +MOVJ EC00312 VJ=100.0
MOVL C00313 V=5.0 +MOVJ EC00313 VJ=100.0
MOVL C00314 V=29.1 +MOVJ EC00314 VJ=100.0
MOVL C00315 V=5.0 +MOVJ EC00315 VJ=100.0
MOVL C00316 V=5.0 +MOVJ EC00316 VJ=100.0
MOVL C00317 V=5.0 +MOVJ EC00317 VJ=100.0
MOVL C00318 V=5.0 +MOVJ EC00318 VJ=100.0
MOVL C00319 V=5.0 +MOVJ EC00319 VJ=100.0
MOVL C00320 V=5.0 +MOVJ EC00320 VJ=100.0
MOVL C00321 V=5.0 +MOVJ EC00321 VJ=100.0
MOVL C00322 V=5.0 +MOVJ EC00322 VJ=100.0
MOVL C00323 V=34.0 +MOVJ EC00323 VJ=100.0
MOVL C00324 V=5.0 +MOVJ EC00324 VJ=100.0
MOVL C00325 V=5.0 +MOVJ EC00325 VJ=100.0
MOVL C00326 V=5.0 +MOVJ EC00326 VJ=100.0
MOVL C00327 V=5.0 +MOVJ EC00327 VJ=100.0
MOVL C00328 V=5.0 +MOVJ EC00328 VJ=100.0
MOVL C00329 V=5.0 +MOVJ EC00329 VJ=100.0
MOVL C00330 V=5.0 +MOVJ EC00330 VJ=100.0
MOVL C00331 V=29.0 +MOVJ EC00331 VJ=100.0
MOVL C00332 V=5.0 +MOVJ EC00332 VJ=100.0
MOVL C00333 V=5.0 +MOVJ EC00333 VJ=100.0
MOVL C00334 V=5.0 +MOVJ EC00334 VJ=100.0
MOVL C00335 V=5.0 +MOVJ EC00335 VJ=100.0
MOVL C00336 V=5.0 +MOVJ EC00336 VJ=100.0
MOVL C00337 V=5.0 +MOVJ EC00337 VJ=100.0
MOVL C00338 V=5.0 +MOVJ EC00338 VJ=100.0
MOVL C00339 V=5.0 +MOVJ EC00339 VJ=100.0
MOVL C00340 V=29.1 +MOVJ EC00340 VJ=100.0
MOVL C00341 V=5.0 +MOVJ EC00341 VJ=100.0
MOVL C00342 V=5.0 +MOVJ EC00342 VJ=100.0
MOVL C00343 V=5.0 +MOVJ EC00343 VJ=100.0
MOVL C00344 V=5.0 +MOVJ EC00344 VJ=100.0
MOVL C00345 V=5.0 +MOVJ EC00345 VJ=100.0
MOVL C00346 V=5.0 +MOVJ EC00346 VJ=100.0
MOVL C00347 V=5.0 +MOVJ EC00347 VJ=100.0
MOVL C00348 V=38.6 +MOVJ EC00348 VJ=100.0
MOVL C00349 V=5.0 +MOVJ EC00349 VJ=100.0
MOVL C00350 V=5.0 +MOVJ EC00350 VJ=100.0
MOVL C00351 V=5.0 +MOVJ EC00351 VJ=100.0
MOVL C00352 V=5.0 +MOVJ EC00352 VJ=100.0
MOVL C00353 V=5.0 +MOVJ EC00353 VJ=100.0
MOVL C00354 V=5.0 +MOVJ EC00354 VJ=100.0
MOVL C00355 V=5.0 +MOVJ EC00355 VJ=100.0
MOVL C00356 V=5.0 +MOVJ EC00356 VJ=100.0
MOVL C00357 V=36.4 +MOVJ EC00357 VJ=100.0
MOVL C00358 V=5.0 +MOVJ EC00358 VJ=100.0
MOVL C00359 V=5.0 +MOVJ EC00359 VJ=100.0
MOVL C00360 V=5.0 +MOVJ EC00360 VJ=100.0
MOVL C00361 V=5.0 +MOVJ EC00361 VJ=100.0
MOVL C00362 V=5.0 +MOVJ EC00362 VJ=100.0
MOVL C00363 V=5.0 +MOVJ EC00363 VJ=100.0
MOVL C00364 V=5.0 +MOVJ EC00364 VJ=100.0
MOVL C00365 V=5.0 +MOVJ EC00365 VJ=100.0
MOVL C00366 V=35.3 +MOVJ EC00366 VJ=100.0
MOVL C00367 V=5.0 +MOVJ EC00367 VJ=100.0
MOVL C00368 V=5.0 +MOVJ EC00368 VJ=100.0
MOVL C00369 V=5.0 +MOVJ EC00369 VJ=100.0
MOVL C00370 V=5.0 +MOVJ EC00370 VJ=100.0
MOVL C00371 V=5.0 +MOVJ EC00371 VJ=100.0
MOVL C00372 V=5.0 +MOVJ EC00372 VJ=100.0
MOVL C00373 V=5.0 +MOVJ EC00373 VJ=100.0
MOVL C00374 V=5.0 +MOVJ EC00374 VJ=100.0
MOVL C00375 V=36.6 +MOVJ EC00375 VJ=100.0
MOVL C00376 V=5.0 +MOVJ EC00376 VJ=100.0
MOVL C00377 V=5.0 +MOVJ EC00377 VJ=100.0
MOVL C00378 V=5.0 +MOVJ EC00378 VJ=100.0
MOVL C00379 V=5.0 +MOVJ EC00379 VJ=100.0
MOVL C00380 V=5.0 +MOVJ EC00380 VJ=100.0
MOVL C00381 V=5.0 +MOVJ EC00381 VJ=100.0
MOVL C00382 V=5.0 +MOVJ EC00382 VJ=100.0
MOVL C00383 V=36.0 +MOVJ EC00383 VJ=100.0
MOVL C00384 V=5.0 +MOVJ EC00384 VJ=100.0
MOVL C00385 V=5.0 +MOVJ EC00385 VJ=100.0
MOVL C00386 V=5.0 +MOVJ EC00386 VJ=100.0
MOVL C00387 V=5.0 +MOVJ EC00387 VJ=100.0
MOVL C00388 V=5.0 +MOVJ EC00388 VJ=100.0
MOVL C00389 V=5.0 +MOVJ EC00389 VJ=100.0
MOVL C00390 V=5.0 +MOVJ EC00390 VJ=100.0
MOVL C00391 V=5.0 +MOVJ EC00391 VJ=100.0
MOVL C00392 V=36.6 +MOVJ EC00392 VJ=100.0
MOVL C00393 V=5.0 +MOVJ EC00393 VJ=100.0
MOVL C00394 V=5.0 +MOVJ EC00394 VJ=100.0
MOVL C00395 V=5.0 +MOVJ EC00395 VJ=100.0
MOVL C00396 V=5.0 +MOVJ EC00396 VJ=100.0
MOVL C00397 V=5.0 +MOVJ EC00397 VJ=100.0
MOVL C00398 V=5.0 +MOVJ EC00398 VJ=100.0
MOVL C00399 V=5.0 +MOVJ EC00399 VJ=100.0
MOVL C00400 V=5.0 +MOVJ EC00400 VJ=100.0
MOVL C00401 V=39.7 +MOVJ EC00401 VJ=100.0
MOVL C00402 V=5.0 +MOVJ EC00402 VJ=100.0
MOVL C00403 V=5.0 +MOVJ EC00403 VJ=100.0
MOVL C00404 V=5.0 +MOVJ EC00404 VJ=100.0
MOVL C00405 V=5.0 +MOVJ EC00405 VJ=100.0
MOVL C00406 V=5.0 +MOVJ EC00406 VJ=100.0
MOVL C00407 V=5.0 +MOVJ EC00407 VJ=100.0
MOVL C00408 V=5.0 +MOVJ EC00408 VJ=100.0
MOVL C00409 V=5.0 +MOVJ EC00409 VJ=100.0
MOVL C00410 V=5.0 +MOVJ EC00410 VJ=100.0
MOVL C00411 V=31.4 +MOVJ EC00411 VJ=100.0
MOVL C00412 V=5.0 +MOVJ EC00412 VJ=100.0
MOVL C00413 V=5.0 +MOVJ EC00413 VJ=100.0
MOVL C00414 V=5.0 +MOVJ EC00414 VJ=100.0
MOVL C00415 V=5.0 +MOVJ EC00415 VJ=100.0
MOVL C00416 V=5.0 +MOVJ EC00416 VJ=100.0
MOVL C00417 V=5.0 +MOVJ EC00417 VJ=100.0
MOVL C00418 V=5.0 +MOVJ EC00418 VJ=100.0
MOVL C00419 V=5.0 +MOVJ EC00419 VJ=100.0
MOVL C00420 V=37.7 +MOVJ EC00420 VJ=100.0
MOVL C00421 V=5.0 +MOVJ EC00421 VJ=100.0
MOVL C00422 V=5.0 +MOVJ EC00422 VJ=100.0
MOVL C00423 V=5.0 +MOVJ EC00423 VJ=100.0
MOVL C00424 V=5.0 +MOVJ EC00424 VJ=100.0
MOVL C00425 V=5.0 +MOVJ EC00425 VJ=100.0
MOVL C00426 V=5.0 +MOVJ EC00426 VJ=100.0
MOVL C00427 V=5.0 +MOVJ EC00427 VJ=100.0
MOVL C00428 V=5.0 +MOVJ EC00428 VJ=100.0
MOVL C00429 V=37.3 +MOVJ EC00429 VJ=100.0
MOVL C00430 V=5.0 +MOVJ EC00430 VJ=100.0
MOVL C00431 V=5.0 +MOVJ EC00431 VJ=100.0
MOVL C00432 V=5.0 +MOVJ EC00432 VJ=100.0
MOVL C00433 V=5.0 +MOVJ EC00433 VJ=100.0
MOVL C00434 V=5.0 +MOVJ EC00434 VJ=100.0
MOVL C00435 V=5.0 +MOVJ EC00435 VJ=100.0
MOVL C00436 V=5.0 +MOVJ EC00436 VJ=100.0
MOVL C00437 V=5.0 +MOVJ EC00437 VJ=100.0
MOVL C00438 V=36.6 +MOVJ EC00438 VJ=100.0
MOVL C00439 V=5.0 +MOVJ EC00439 VJ=100.0
MOVL C00440 V=5.0 +MOVJ EC00440 VJ=100.0
MOVL C00441 V=5.0 +MOVJ EC00441 VJ=100.0
MOVL C00442 V=5.0 +MOVJ EC00442 VJ=100.0
MOVL C00443 V=5.0 +MOVJ EC00443 VJ=100.0
MOVL C00444 V=5.0 +MOVJ EC00444 VJ=100.0
MOVL C00445 V=5.0 +MOVJ EC00445 VJ=100.0
MOVL C00446 V=5.0 +MOVJ EC00446 VJ=100.0
MOVL C00447 V=31.4 +MOVJ EC00447 VJ=100.0
MOVL C00448 V=5.0 +MOVJ EC00448 VJ=100.0
MOVL C00449 V=5.0 +MOVJ EC00449 VJ=100.0
MOVL C00450 V=5.0 +MOVJ EC00450 VJ=100.0
MOVL C00451 V=5.0 +MOVJ EC00451 VJ=100.0
MOVL C00452 V=5.0 +MOVJ EC00452 VJ=100.0
MOVL C00453 V=5.0 +MOVJ EC00453 VJ=100.0
MOVL C00454 V=5.0 +MOVJ EC00454 VJ=100.0
MOVL C00455 V=5.0 +MOVJ EC00455 VJ=100.0
MOVL C00456 V=34.5 +MOVJ EC00456 VJ=100.0
MOVL C00457 V=5.0 +MOVJ EC00457 VJ=100.0
MOVL C00458 V=5.0 +MOVJ EC00458 VJ=100.0
MOVL C00459 V=5.0 +MOVJ EC00459 VJ=100.0
MOVL C00460 V=5.0 +MOVJ EC00460 VJ=100.0
MOVL C00461 V=5.0 +MOVJ EC00461 VJ=100.0
MOVL C00462 V=5.0 +MOVJ EC00462 VJ=100.0
MOVL C00463 V=5.0 +MOVJ EC00463 VJ=100.0
MOVL C00464 V=5.0 +MOVJ EC00464 VJ=100.0
MOVL C00465 V=5.0 +MOVJ EC00465 VJ=100.0
MOVL C00466 V=32.5 +MOVJ EC00466 VJ=100.0
MOVL C00467 V=5.0 +MOVJ EC00467 VJ=100.0
MOVL C00468 V=5.0 +MOVJ EC00468 VJ=100.0
MOVL C00469 V=5.0 +MOVJ EC00469 VJ=100.0
MOVL C00470 V=5.0 +MOVJ EC00470 VJ=100.0
MOVL C00471 V=5.0 +MOVJ EC00471 VJ=100.0
MOVL C00472 V=5.0 +MOVJ EC00472 VJ=100.0
MOVL C00473 V=5.0 +MOVJ EC00473 VJ=100.0
MOVL C00474 V=5.0 +MOVJ EC00474 VJ=100.0
MOVL C00475 V=32.5 +MOVJ EC00475 VJ=100.0
MOVL C00476 V=5.0 +MOVJ EC00476 VJ=100.0
MOVL C00477 V=5.0 +MOVJ EC00477 VJ=100.0
MOVL C00478 V=5.0 +MOVJ EC00478 VJ=100.0
MOVL C00479 V=5.0 +MOVJ EC00479 VJ=100.0
MOVL C00480 V=5.0 +MOVJ EC00480 VJ=100.0
MOVL C00481 V=5.0 +MOVJ EC00481 VJ=100.0
MOVL C00482 V=5.0 +MOVJ EC00482 VJ=100.0
MOVL C00483 V=5.0 +MOVJ EC00483 VJ=100.0
MOVL C00484 V=5.0 +MOVJ EC00484 VJ=100.0
MOVL C00485 V=32.5 +MOVJ EC00485 VJ=100.0
MOVL C00486 V=5.0 +MOVJ EC00486 VJ=100.0
MOVL C00487 V=5.0 +MOVJ EC00487 VJ=100.0
MOVL C00488 V=5.0 +MOVJ EC00488 VJ=100.0
MOVL C00489 V=5.0 +MOVJ EC00489 VJ=100.0
MOVL C00490 V=5.0 +MOVJ EC00490 VJ=100.0
MOVL C00491 V=5.0 +MOVJ EC00491 VJ=100.0
MOVL C00492 V=5.0 +MOVJ EC00492 VJ=100.0
MOVL C00493 V=5.0 +MOVJ EC00493 VJ=100.0
MOVL C00494 V=32.5 +MOVJ EC00494 VJ=100.0
MOVL C00495 V=5.0 +MOVJ EC00495 VJ=100.0
MOVL C00496 V=5.0 +MOVJ EC00496 VJ=100.0
MOVL C00497 V=5.0 +MOVJ EC00497 VJ=100.0
MOVL C00498 V=5.0 +MOVJ EC00498 VJ=100.0
MOVL C00499 V=5.0 +MOVJ EC00499 VJ=100.0
MOVL C00500 V=5.0 +MOVJ EC00500 VJ=100.0
MOVL C00501 V=5.0 +MOVJ EC00501 VJ=100.0
MOVL C00502 V=5.0 +MOVJ EC00502 VJ=100.0
MOVL C00503 V=32.5 +MOVJ EC00503 VJ=100.0
MOVL C00504 V=5.0 +MOVJ EC00504 VJ=100.0
MOVL C00505 V=5.0 +MOVJ EC00505 VJ=100.0
MOVL C00506 V=5.0 +MOVJ EC00506 VJ=100.0
MOVL C00507 V=5.0 +MOVJ EC00507 VJ=100.0
MOVL C00508 V=5.0 +MOVJ EC00508 VJ=100.0
MOVL C00509 V=5.0 +MOVJ EC00509 VJ=100.0
MOVL C00510 V=5.0 +MOVJ EC00510 VJ=100.0
MOVL C00511 V=5.0 +MOVJ EC00511 VJ=100.0
MOVL C00512 V=5.0 +MOVJ EC00512 VJ=100.0
MOVL C00513 V=42.9 +MOVJ EC00513 VJ=100.0
MOVL C00514 V=5.0 +MOVJ EC00514 VJ=100.0
MOVL C00515 V=5.0 +MOVJ EC00515 VJ=100.0
MOVL C00516 V=5.0 +MOVJ EC00516 VJ=100.0
MOVL C00517 V=5.0 +MOVJ EC00517 VJ=100.0
MOVL C00518 V=5.0 +MOVJ EC00518 VJ=100.0
MOVL C00519 V=5.0 +MOVJ EC00519 VJ=100.0
MOVL C00520 V=5.0 +MOVJ EC00520 VJ=100.0
MOVL C00521 V=5.0 +MOVJ EC00521 VJ=100.0
MOVL C00522 V=5.0 +MOVJ EC00522 VJ=100.0
MOVL C00523 V=39.3 +MOVJ EC00523 VJ=100.0
MOVL C00524 V=5.0 +MOVJ EC00524 VJ=100.0
MOVL C00525 V=5.0 +MOVJ EC00525 VJ=100.0
MOVL C00526 V=5.0 +MOVJ EC00526 VJ=100.0
MOVL C00527 V=5.0 +MOVJ EC00527 VJ=100.0
MOVL C00528 V=5.0 +MOVJ EC00528 VJ=100.0
MOVL C00529 V=5.0 +MOVJ EC00529 VJ=100.0
MOVL C00530 V=5.0 +MOVJ EC00530 VJ=100.0
MOVL C00531 V=5.0 +MOVJ EC00531 VJ=100.0
MOVL C00532 V=5.0 +MOVJ EC00532 VJ=100.0
MOVL C00533 V=40.0 +MOVJ EC00533 VJ=100.0
MOVL C00534 V=5.0 +MOVJ EC00534 VJ=100.0
MOVL C00535 V=5.0 +MOVJ EC00535 VJ=100.0
MOVL C00536 V=5.0 +MOVJ EC00536 VJ=100.0
MOVL C00537 V=5.0 +MOVJ EC00537 VJ=100.0
MOVL C00538 V=5.0 +MOVJ EC00538 VJ=100.0
MOVL C00539 V=5.0 +MOVJ EC00539 VJ=100.0
MOVL C00540 V=5.0 +MOVJ EC00540 VJ=100.0
MOVL C00541 V=5.0 +MOVJ EC00541 VJ=100.0
MOVL C00542 V=5.0 +MOVJ EC00542 VJ=100.0
MOVL C00543 V=33.5 +MOVJ EC00543 VJ=100.0
MOVL C00544 V=5.0 +MOVJ EC00544 VJ=100.0
MOVL C00545 V=5.0 +MOVJ EC00545 VJ=100.0
MOVL C00546 V=5.0 +MOVJ EC00546 VJ=100.0
MOVL C00547 V=5.0 +MOVJ EC00547 VJ=100.0
MOVL C00548 V=5.0 +MOVJ EC00548 VJ=100.0
MOVL C00549 V=5.0 +MOVJ EC00549 VJ=100.0
MOVL C00550 V=5.0 +MOVJ EC00550 VJ=100.0
MOVL C00551 V=5.0 +MOVJ EC00551 VJ=100.0
MOVL C00552 V=5.0 +MOVJ EC00552 VJ=100.0
MOVL C00553 V=40.8 +MOVJ EC00553 VJ=100.0
MOVL C00554 V=5.0 +MOVJ EC00554 VJ=100.0
MOVL C00555 V=5.0 +MOVJ EC00555 VJ=100.0
MOVL C00556 V=5.0 +MOVJ EC00556 VJ=100.0
MOVL C00557 V=5.0 +MOVJ EC00557 VJ=100.0
MOVL C00558 V=5.0 +MOVJ EC00558 VJ=100.0
MOVL C00559 V=5.0 +MOVJ EC00559 VJ=100.0
MOVL C00560 V=5.0 +MOVJ EC00560 VJ=100.0
MOVL C00561 V=5.0 +MOVJ EC00561 VJ=100.0
MOVL C00562 V=5.0 +MOVJ EC00562 VJ=100.0
MOVL C00563 V=40.9 +MOVJ EC00563 VJ=100.0
MOVL C00564 V=5.0 +MOVJ EC00564 VJ=100.0
MOVL C00565 V=5.0 +MOVJ EC00565 VJ=100.0
MOVL C00566 V=5.0 +MOVJ EC00566 VJ=100.0
MOVL C00567 V=5.0 +MOVJ EC00567 VJ=100.0
MOVL C00568 V=5.0 +MOVJ EC00568 VJ=100.0
MOVL C00569 V=5.0 +MOVJ EC00569 VJ=100.0
MOVL C00570 V=5.0 +MOVJ EC00570 VJ=100.0
MOVL C00571 V=5.0 +MOVJ EC00571 VJ=100.0
MOVL C00572 V=5.0 +MOVJ EC00572 VJ=100.0
MOVL C00573 V=44.3 +MOVJ EC00573 VJ=100.0
MOVL C00574 V=5.0 +MOVJ EC00574 VJ=100.0
MOVL C00575 V=5.0 +MOVJ EC00575 VJ=100.0
MOVL C00576 V=5.0 +MOVJ EC00576 VJ=100.0
MOVL C00577 V=5.0 +MOVJ EC00577 VJ=100.0
MOVL C00578 V=5.0 +MOVJ EC00578 VJ=100.0
MOVL C00579 V=5.0 +MOVJ EC00579 VJ=100.0
MOVL C00580 V=5.0 +MOVJ EC00580 VJ=100.0
MOVL C00581 V=5.0 +MOVJ EC00581 VJ=100.0
MOVL C00582 V=5.0 +MOVJ EC00582 VJ=100.0
MOVL C00583 V=5.0 +MOVJ EC00583 VJ=100.0
MOVL C00584 V=41.4 +MOVJ EC00584 VJ=100.0
MOVL C00585 V=5.0 +MOVJ EC00585 VJ=100.0
MOVL C00586 V=5.0 +MOVJ EC00586 VJ=100.0
MOVL C00587 V=5.0 +MOVJ EC00587 VJ=100.0
MOVL C00588 V=5.0 +MOVJ EC00588 VJ=100.0
MOVL C00589 V=5.0 +MOVJ EC00589 VJ=100.0
MOVL C00590 V=5.0 +MOVJ EC00590 VJ=100.0
MOVL C00591 V=5.0 +MOVJ EC00591 VJ=100.0
MOVL C00592 V=5.0 +MOVJ EC00592 VJ=100.0
MOVL C00593 V=5.0 +MOVJ EC00593 VJ=100.0
MOVL C00594 V=34.8 +MOVJ EC00594 VJ=100.0
MOVL C00595 V=5.0 +MOVJ EC00595 VJ=100.0
MOVL C00596 V=5.0 +MOVJ EC00596 VJ=100.0
MOVL C00597 V=5.0 +MOVJ EC00597 VJ=100.0
MOVL C00598 V=5.0 +MOVJ EC00598 VJ=100.0
MOVL C00599 V=5.0 +MOVJ EC00599 VJ=100.0
MOVL C00600 V=5.0 +MOVJ EC00600 VJ=100.0
MOVL C00601 V=5.0 +MOVJ EC00601 VJ=100.0
MOVL C00602 V=5.0 +MOVJ EC00602 VJ=100.0
MOVL C00603 V=5.0 +MOVJ EC00603 VJ=100.0
MOVL C00604 V=40.6 +MOVJ EC00604 VJ=100.0
MOVL C00605 V=5.0 +MOVJ EC00605 VJ=100.0
MOVL C00606 V=5.0 +MOVJ EC00606 VJ=100.0
MOVL C00607 V=5.0 +MOVJ EC00607 VJ=100.0
MOVL C00608 V=5.0 +MOVJ EC00608 VJ=100.0
MOVL C00609 V=5.0 +MOVJ EC00609 VJ=100.0
MOVL C00610 V=5.0 +MOVJ EC00610 VJ=100.0
MOVL C00611 V=5.0 +MOVJ EC00611 VJ=100.0
MOVL C00612 V=5.0 +MOVJ EC00612 VJ=100.0
MOVL C00613 V=5.0 +MOVJ EC00613 VJ=100.0
MOVL C00614 V=34.7 +MOVJ EC00614 VJ=100.0
MOVL C00615 V=5.0 +MOVJ EC00615 VJ=100.0
MOVL C00616 V=5.0 +MOVJ EC00616 VJ=100.0
MOVL C00617 V=5.0 +MOVJ EC00617 VJ=100.0
MOVL C00618 V=5.0 +MOVJ EC00618 VJ=100.0
MOVL C00619 V=5.0 +MOVJ EC00619 VJ=100.0
MOVL C00620 V=5.0 +MOVJ EC00620 VJ=100.0
MOVL C00621 V=5.0 +MOVJ EC00621 VJ=100.0
MOVL C00622 V=5.0 +MOVJ EC00622 VJ=100.0
MOVL C00623 V=5.0 +MOVJ EC00623 VJ=100.0
MOVL C00624 V=5.0 +MOVJ EC00624 VJ=100.0
MOVL C00625 V=42.3 +MOVJ EC00625 VJ=100.0
MOVL C00626 V=5.0 +MOVJ EC00626 VJ=100.0
MOVL C00627 V=5.0 +MOVJ EC00627 VJ=100.0
MOVL C00628 V=5.0 +MOVJ EC00628 VJ=100.0
MOVL C00629 V=5.0 +MOVJ EC00629 VJ=100.0
MOVL C00630 V=5.0 +MOVJ EC00630 VJ=100.0
MOVL C00631 V=5.0 +MOVJ EC00631 VJ=100.0
MOVL C00632 V=5.0 +MOVJ EC00632 VJ=100.0
MOVL C00633 V=5.0 +MOVJ EC00633 VJ=100.0
MOVL C00634 V=5.0 +MOVJ EC00634 VJ=100.0
ARCOF
END
