/JOB
//NAME AAA
//POS
///NPOS 186,0,186,0,0,0
///TOOL 12
///POSTYPE PULSE
///PULSE
C00000=-28098,66845,12498,13162,-42426,-14517
C00001=-28098,69158,10889,13732,-40305,-14860
C00002=-28068,69437,11232,13724,-40375,-14862
C00003=-28067,69446,11243,13724,-40378,-14861
C00004=-28068,69449,11248,13723,-40379,-14861
C00005=-28069,69450,11251,13723,-40380,-14860
C00006=-28070,69450,11253,13722,-40381,-14860
C00007=-28071,69448,11252,13722,-40381,-14859
C00008=-28072,69446,11250,13721,-40381,-14859
C00009=-28073,69442,11247,13721,-40381,-14859
C00010=-28073,69438,11242,13721,-40380,-14858
C00011=-28073,69434,11237,13721,-40379,-14859
C00012=-28073,69431,11232,13722,-40377,-14859
C00013=-28072,69429,11228,13722,-40376,-14859
C00014=-28071,69429,11226,13723,-40375,-14860
C00015=-28070,69430,11225,13724,-40374,-14861
C00016=-28069,69432,11226,13724,-40374,-14861
C00017=-28068,69437,11231,13724,-40375,-14862
C00018=-28028,69718,11560,13723,-40437,-14870
C00019=-28435,69836,12362,13457,-40799,-14622
C00020=-28476,69553,12033,13458,-40737,-14614
C00021=-28478,69549,12028,13457,-40736,-14613
C00022=-28479,69547,12027,13457,-40736,-14613
C00023=-28480,69546,12027,13456,-40736,-14612
C00024=-28481,69546,12029,13456,-40737,-14612
C00025=-28481,69548,12032,13455,-40738,-14611
C00026=-28482,69550,12037,13455,-40740,-14611
C00027=-28482,69554,12041,13454,-40741,-14610
C00028=-28482,69558,12046,13454,-40742,-14610
C00029=-28481,69561,12050,13454,-40742,-14611
C00030=-28480,69564,12053,13454,-40743,-14611
C00031=-28479,69566,12054,13455,-40743,-14611
C00032=-28478,69567,12054,13455,-40742,-14612
C00033=-28477,69567,12052,13456,-40741,-14613
C00034=-28476,69565,12048,13457,-40740,-14613
C00035=-28476,69562,12044,13457,-40739,-14614
C00036=-28476,69554,12033,13458,-40737,-14614
C00037=-28507,69272,11689,13465,-40667,-14611
C00038=-28877,69423,12413,13232,-40972,-14392
C00039=-28846,69709,12762,13225,-41042,-14395
C00040=-28846,69714,12769,13225,-41044,-14394
C00041=-28846,69717,12773,13225,-41045,-14394
C00042=-28847,69719,12776,13224,-41046,-14394
C00043=-28848,69719,12778,13223,-41047,-14393
C00044=-28849,69719,12779,13223,-41047,-14392
C00045=-28850,69716,12777,13222,-41047,-14392
C00046=-28851,69713,12774,13222,-41047,-14392
C00047=-28852,69710,12770,13222,-41046,-14391
C00048=-28852,69706,12766,13222,-41045,-14391
C00049=-28852,69703,12761,13223,-41044,-14392
C00050=-28852,69700,12756,13223,-41043,-14392
C00051=-28851,69698,12753,13224,-41042,-14393
C00052=-28850,69698,12751,13224,-41041,-14393
C00053=-28849,69699,12751,13225,-41041,-14394
C00054=-28848,69701,12752,13225,-41041,-14394
C00055=-28847,69705,12757,13225,-41041,-14395
C00056=-28805,69987,13087,13225,-41104,-14404
C00057=-29136,70156,13737,13025,-41362,-14212
C00058=-29178,69873,13405,13024,-41299,-14203
C00059=-29179,69869,13401,13024,-41298,-14202
C00060=-29180,69867,13399,13024,-41298,-14202
C00061=-29181,69866,13399,13023,-41298,-14201
C00062=-29182,69866,13401,13023,-41299,-14201
C00063=-29183,69868,13404,13022,-41300,-14200
C00064=-29183,69870,13408,13022,-41301,-14200
C00065=-29184,69873,13412,13021,-41302,-14199
C00066=-29183,69877,13417,13021,-41303,-14199
C00067=-29183,69880,13421,13021,-41304,-14199
C00068=-29182,69884,13424,13021,-41304,-14200
C00069=-29181,69886,13426,13021,-41305,-14200
C00070=-29180,69887,13427,13022,-41305,-14201
C00071=-29179,69888,13426,13022,-41304,-14201
C00072=-29178,69887,13424,13023,-41303,-14202
C00073=-29178,69885,13421,13024,-41302,-14202
C00074=-29177,69882,13416,13024,-41301,-14202
C00075=-29178,69873,13405,13024,-41299,-14203
C00076=-29209,69589,13059,13030,-41229,-14199
C00077=-29503,69760,13636,12855,-41449,-14031
C00078=-29472,70044,13983,12850,-41518,-14034
C00079=-29472,70053,13994,12850,-41520,-14034
C00080=-29472,70056,13998,12849,-41521,-14034
C00081=-29473,70058,14001,12849,-41522,-14033
C00082=-29473,70059,14004,12848,-41523,-14033
C00083=-29474,70059,14005,12848,-41524,-14032
C00084=-29475,70058,14005,12847,-41524,-14032
C00085=-29476,70056,14003,12847,-41524,-14032
C00086=-29477,70054,14000,12847,-41523,-14031
C00087=-29478,70050,13997,12847,-41523,-14031
C00088=-29478,70047,13993,12847,-41522,-14031
C00089=-29478,70044,13988,12847,-41521,-14031
C00090=-29478,70041,13984,12847,-41520,-14032
C00091=-29477,70039,13980,12848,-41519,-14032
C00092=-29476,70038,13978,12848,-41518,-14032
C00093=-29475,70037,13977,12849,-41518,-14033
C00094=-29474,70038,13977,12849,-41517,-14034
C00095=-29473,70040,13979,12850,-41517,-14034
C00096=-29472,70045,13983,12850,-41518,-14034
C00097=-29430,70327,14315,12850,-41582,-14044
C00098=-29691,70494,14830,12699,-41771,-13896
C00099=-29733,70212,14498,12698,-41707,-13887
C00100=-29734,70208,14493,12698,-41706,-13886
C00101=-29735,70206,14492,12697,-41706,-13886
C00102=-29736,70205,14492,12697,-41707,-13885
C00103=-29737,70205,14493,12696,-41707,-13885
C00104=-29738,70206,14495,12696,-41708,-13884
C00105=-29739,70208,14499,12695,-41709,-13884
C00106=-29739,70211,14503,12695,-41710,-13884
C00107=-29739,70215,14508,12695,-41711,-13883
C00108=-29739,70218,14512,12695,-41712,-13883
C00109=-29738,70221,14515,12695,-41712,-13884
C00110=-29738,70224,14518,12695,-41713,-13884
C00111=-29737,70226,14520,12695,-41713,-13884
C00112=-29736,70227,14520,12696,-41713,-13885
C00113=-29735,70227,14519,12696,-41712,-13885
C00114=-29734,70225,14516,12697,-41711,-13886
C00115=-29733,70223,14513,12697,-41710,-13886
C00116=-29733,70220,14508,12698,-41709,-13887
C00117=-29733,70211,14497,12698,-41707,-13887
C00118=-29765,69926,14151,12703,-41638,-13883
C00119=-29997,70084,14610,12569,-41802,-13753
C00120=-29965,70370,14957,12565,-41872,-13757
C00121=-29965,70379,14968,12564,-41874,-13757
C00122=-29965,70382,14972,12564,-41875,-13756
C00123=-29965,70384,14976,12564,-41876,-13756
C00124=-29966,70385,14978,12563,-41876,-13756
C00125=-29967,70386,14980,12563,-41877,-13755
C00126=-29968,70385,14980,12562,-41877,-13755
C00127=-29969,70384,14979,12562,-41877,-13754
C00128=-29970,70382,14977,12562,-41877,-13754
C00129=-29971,70379,14974,12561,-41876,-13754
C00130=-29971,70376,14970,12561,-41876,-13753
C00131=-29971,70372,14966,12562,-41875,-13754
C00132=-29971,70369,14962,12562,-41874,-13754
C00133=-29971,70367,14958,12562,-41873,-13754
C00134=-29970,70365,14955,12563,-41872,-13755
C00135=-29969,70364,14952,12563,-41871,-13755
C00136=-29968,70364,14951,12564,-41871,-13756
C00137=-29967,70365,14952,12564,-41871,-13756
C00138=-29966,70366,14953,12565,-41871,-13756
C00139=-29965,70371,14958,12565,-41872,-13757
C00140=-29923,70653,15292,12566,-41936,-13766
C00141=-30129,70802,15705,12448,-42082,-13651
C00142=-30172,70519,15371,12447,-42017,-13642
C00143=-30173,70515,15366,12447,-42016,-13641
C00144=-30174,70513,15364,12447,-42016,-13641
C00145=-30175,70512,15364,12446,-42016,-13640
C00146=-30176,70512,15365,12446,-42017,-13640
C00147=-30176,70513,15367,12445,-42017,-13639
C00148=-30177,70515,15370,12445,-42018,-13639
C00149=-30178,70518,15374,12444,-42019,-13639
C00150=-30178,70521,15378,12444,-42020,-13638
C00151=-30178,70524,15382,12444,-42021,-13638
C00152=-30177,70528,15386,12444,-42022,-13638
C00153=-30176,70530,15390,12444,-42022,-13639
C00154=-30176,70532,15392,12444,-42022,-13639
C00155=-30175,70534,15393,12445,-42023,-13639
C00156=-30174,70534,15392,12445,-42022,-13640
C00157=-30173,70534,15391,12446,-42022,-13641
C00158=-30172,70532,15388,12446,-42021,-13641
C00159=-30171,70530,15385,12447,-42020,-13641
C00160=-30171,70527,15380,12447,-42019,-13642
C00161=-30172,70518,15370,12447,-42017,-13642
C00162=-30204,70232,15022,12451,-41948,-13637
C00163=-30388,70368,15394,12347,-42077,-13535
C00164=-30356,70655,15741,12343,-42147,-13539
C00165=-30355,70664,15752,12343,-42149,-13539
C00166=-30356,70666,15756,12342,-42150,-13539
C00167=-30356,70669,15760,12342,-42151,-13539
C00168=-30357,70671,15762,12341,-42151,-13538
C00169=-30358,70671,15764,12341,-42152,-13538
C00170=-30359,70671,15765,12341,-42152,-13537
C00171=-30360,70670,15764,12340,-42152,-13537
C00172=-30361,70669,15762,12340,-42152,-13536
C00173=-30361,70666,15760,12340,-42152,-13536
C00174=-30362,70663,15756,12340,-42151,-13536
C00175=-30362,70660,15752,12340,-42150,-13536
C00176=-30362,70657,15748,12340,-42149,-13536
C00177=-30362,70654,15744,12340,-42148,-13536
C00178=-30361,70652,15741,12341,-42148,-13537
C00179=-30361,70650,15738,12341,-42147,-13537
C00180=-30360,70649,15737,12342,-42146,-13538
C00181=-30359,70649,15736,12342,-42146,-13538
C00182=-30358,70650,15736,12342,-42146,-13539
C00183=-30357,70652,15738,12343,-42146,-13539
C00184=-30356,70656,15743,12343,-42147,-13539
C00185=-30314,70939,16077,12344,-42212,-13549
EC00000=52795,-211430
EC00001=52795,-211430
EC00002=52795,-195611
EC00003=52795,-166194
EC00004=52795,-136565
EC00005=52795,-106936
EC00006=52795,-77306
EC00007=52795,-50371
EC00008=52795,-20742
EC00009=52795,8888
EC00010=52795,38517
EC00011=52795,68146
EC00012=52795,97775
EC00013=52795,124711
EC00014=52795,154340
EC00015=52795,183969
EC00016=52795,213599
EC00017=52795,243163
EC00018=52795,261528
EC00019=45570,261943
EC00020=45570,244251
EC00021=45570,215770
EC00022=45570,189822
EC00023=45570,161279
EC00024=45570,132735
EC00025=45570,106787
EC00026=45570,78243
EC00027=45570,52295
EC00028=45570,23752
EC00029=45570,-4792
EC00030=45570,-30740
EC00031=45570,-59283
EC00032=45570,-85232
EC00033=45570,-113775
EC00034=45570,-142319
EC00035=45570,-168267
EC00036=45570,-196606
EC00037=45570,-211845
EC00038=39287,-212231
EC00039=39287,-195164
EC00040=39287,-167690
EC00041=39287,-140156
EC00042=39287,-112622
EC00043=39287,-85088
EC00044=39287,-57554
EC00045=39287,-30019
EC00046=39287,-2485
EC00047=39287,25049
EC00048=39287,52583
EC00049=39287,80118
EC00050=39287,107652
EC00051=39287,135186
EC00052=39287,162720
EC00053=39287,190254
EC00054=39287,217789
EC00055=39287,245262
EC00056=39287,262329
EC00057=33845,262639
EC00058=33845,246074
EC00059=33845,219408
EC00060=33845,192684
EC00061=33845,168389
EC00062=33845,141665
EC00063=33845,114940
EC00064=33845,88216
EC00065=33845,63921
EC00066=33845,37197
EC00067=33845,10472
EC00068=33845,-16252
EC00069=33845,-40547
EC00070=33845,-67272
EC00071=33845,-93996
EC00072=33845,-120720
EC00073=33845,-145015
EC00074=33845,-171740
EC00075=33845,-198273
EC00076=33845,-212540
EC00077=29129,-212832
EC00078=29129,-198972
EC00079=29129,-173197
EC00080=29129,-149597
EC00081=29129,-123636
EC00082=29129,-100035
EC00083=29129,-74074
EC00084=29129,-50473
EC00085=29129,-24513
EC00086=29129,-912
EC00087=29129,25049
EC00088=29129,48650
EC00089=29129,74611
EC00090=29129,98211
EC00091=29129,124172
EC00092=29129,147773
EC00093=29129,173734
EC00094=29129,197335
EC00095=29129,223295
EC00096=29129,246839
EC00097=29129,262930
EC00098=25032,263206
EC00099=25032,247562
EC00100=25032,222378
EC00101=25032,197138
EC00102=25032,171898
EC00103=25032,148953
EC00104=25032,123713
EC00105=25032,98474
EC00106=25032,73234
EC00107=25032,47994
EC00108=25032,25049
EC00109=25032,-191
EC00110=25032,-25430
EC00111=25032,-50670
EC00112=25032,-75910
EC00113=25032,-98855
EC00114=25032,-124095
EC00115=25032,-149334
EC00116=25032,-174574
EC00117=25032,-199633
EC00118=25032,-213108
EC00119=21455,-213326
EC00120=21455,-200156
EC00121=21455,-175664
EC00122=21455,-153238
EC00123=21455,-128569
EC00124=21455,-106143
EC00125=21455,-81475
EC00126=21455,-59049
EC00127=21455,-34380
EC00128=21455,-11954
EC00129=21455,12715
EC00130=21455,35141
EC00131=21455,59809
EC00132=21455,82236
EC00133=21455,106904
EC00134=21455,129330
EC00135=21455,153999
EC00136=21455,176425
EC00137=21455,201094
EC00138=21455,223520
EC00139=21455,248134
EC00140=21455,263425
EC00141=18316,263633
EC00142=18316,248681
EC00143=18316,224611
EC00144=18316,200488
EC00145=18316,176365
EC00146=18316,154436
EC00147=18316,130313
EC00148=18316,106190
EC00149=18316,82067
EC00150=18316,60137
EC00151=18316,36014
EC00152=18316,11891
EC00153=18316,-12232
EC00154=18316,-34162
EC00155=18316,-58285
EC00156=18316,-82407
EC00157=18316,-106530
EC00158=18316,-128460
EC00159=18316,-152583
EC00160=18316,-176706
EC00161=18316,-200656
EC00162=18316,-213535
EC00163=15547,-213735
EC00164=15547,-201135
EC00165=15547,-177703
EC00166=15547,-156248
EC00167=15547,-132647
EC00168=15547,-111192
EC00169=15547,-87591
EC00170=15547,-66136
EC00171=15547,-42535
EC00172=15547,-21080
EC00173=15547,2521
EC00174=15547,23976
EC00175=15547,47577
EC00176=15547,69032
EC00177=15547,92633
EC00178=15547,114088
EC00179=15547,137689
EC00180=15547,159144
EC00181=15547,182745
EC00182=15547,204200
EC00183=15547,227801
EC00184=15547,249204
EC00185=15547,263833
//INST
///DATE 2023/05/27 15:29
///ATTR SC,RW
///GROUP1 RB1
///GROUP2 ST1
NOP
MOVL C00000 V=10.0 +MOVJ EC00000 VJ=10.0
MOVL C00001 V=10.0 +MOVJ EC00001 VJ=15.0
ARCON ASF#(300)
MOVL C00002 V=4.2 +MOVJ EC00002 VJ=24.3
MOVL C00003 V=0.1 +MOVJ EC00003 VJ=24.3
MOVL C00004 V=0.1 +MOVJ EC00004 VJ=24.3
MOVL C00005 V=0.1 +MOVJ EC00005 VJ=24.2
MOVL C00006 V=0.1 +MOVJ EC00006 VJ=24.2
MOVL C00007 V=0.1 +MOVJ EC00007 VJ=24.1
MOVL C00008 V=0.1 +MOVJ EC00008 VJ=24.1
MOVL C00009 V=0.1 +MOVJ EC00009 VJ=24.1
MOVL C00010 V=0.1 +MOVJ EC00010 VJ=24.1
MOVL C00011 V=0.1 +MOVJ EC00011 VJ=24.1
MOVL C00012 V=0.1 +MOVJ EC00012 VJ=24.1
MOVL C00013 V=0.1 +MOVJ EC00013 VJ=24.2
MOVL C00014 V=0.1 +MOVJ EC00014 VJ=24.2
MOVL C00015 V=0.1 +MOVJ EC00015 VJ=24.2
MOVL C00016 V=0.1 +MOVJ EC00016 VJ=24.3
MOVL C00017 V=0.1 +MOVJ EC00017 VJ=24.3
MOVL C00018 V=3.8 +MOVJ EC00018 VJ=24.3
ARCOF
MOVL C00019 V=10.0 +MOVJ EC00019 VJ=15.0
ARCON ASF#(300)
MOVL C00020 V=3.8 +MOVJ EC00020 VJ=23.4
MOVL C00021 V=0.1 +MOVJ EC00021 VJ=23.4
MOVL C00022 V=0.1 +MOVJ EC00022 VJ=23.3
MOVL C00023 V=0.1 +MOVJ EC00023 VJ=23.3
MOVL C00024 V=0.1 +MOVJ EC00024 VJ=23.3
MOVL C00025 V=0.1 +MOVJ EC00025 VJ=23.2
MOVL C00026 V=0.1 +MOVJ EC00026 VJ=23.2
MOVL C00027 V=0.1 +MOVJ EC00027 VJ=23.2
MOVL C00028 V=0.1 +MOVJ EC00028 VJ=23.2
MOVL C00029 V=0.1 +MOVJ EC00029 VJ=23.2
MOVL C00030 V=0.1 +MOVJ EC00030 VJ=23.2
MOVL C00031 V=0.1 +MOVJ EC00031 VJ=23.2
MOVL C00032 V=0.1 +MOVJ EC00032 VJ=23.3
MOVL C00033 V=0.1 +MOVJ EC00033 VJ=23.3
MOVL C00034 V=0.1 +MOVJ EC00034 VJ=23.3
MOVL C00035 V=0.1 +MOVJ EC00035 VJ=23.4
MOVL C00036 V=0.1 +MOVJ EC00036 VJ=23.4
MOVL C00037 V=4.2 +MOVJ EC00037 VJ=23.4
ARCOF
MOVL C00038 V=10.0 +MOVJ EC00038 VJ=15.0
ARCON ASF#(300)
MOVL C00039 V=3.8 +MOVJ EC00039 VJ=22.6
MOVL C00040 V=0.1 +MOVJ EC00040 VJ=22.6
MOVL C00041 V=0.1 +MOVJ EC00041 VJ=22.5
MOVL C00042 V=0.1 +MOVJ EC00042 VJ=22.5
MOVL C00043 V=0.1 +MOVJ EC00043 VJ=22.5
MOVL C00044 V=0.1 +MOVJ EC00044 VJ=22.4
MOVL C00045 V=0.1 +MOVJ EC00045 VJ=22.4
MOVL C00046 V=0.1 +MOVJ EC00046 VJ=22.4
MOVL C00047 V=0.1 +MOVJ EC00047 VJ=22.4
MOVL C00048 V=0.1 +MOVJ EC00048 VJ=22.4
MOVL C00049 V=0.1 +MOVJ EC00049 VJ=22.4
MOVL C00050 V=0.1 +MOVJ EC00050 VJ=22.4
MOVL C00051 V=0.1 +MOVJ EC00051 VJ=22.5
MOVL C00052 V=0.1 +MOVJ EC00052 VJ=22.5
MOVL C00053 V=0.1 +MOVJ EC00053 VJ=22.5
MOVL C00054 V=0.1 +MOVJ EC00054 VJ=22.6
MOVL C00055 V=0.1 +MOVJ EC00055 VJ=22.6
MOVL C00056 V=3.8 +MOVJ EC00056 VJ=22.6
ARCOF
MOVL C00057 V=10.0 +MOVJ EC00057 VJ=15.0
ARCON ASF#(300)
MOVL C00058 V=3.8 +MOVJ EC00058 VJ=21.9
MOVL C00059 V=0.1 +MOVJ EC00059 VJ=21.9
MOVL C00060 V=0.1 +MOVJ EC00060 VJ=21.9
MOVL C00061 V=0.1 +MOVJ EC00061 VJ=21.8
MOVL C00062 V=0.1 +MOVJ EC00062 VJ=21.8
MOVL C00063 V=0.1 +MOVJ EC00063 VJ=21.8
MOVL C00064 V=0.1 +MOVJ EC00064 VJ=21.7
MOVL C00065 V=0.1 +MOVJ EC00065 VJ=21.7
MOVL C00066 V=0.1 +MOVJ EC00066 VJ=21.7
MOVL C00067 V=0.1 +MOVJ EC00067 VJ=21.7
MOVL C00068 V=0.1 +MOVJ EC00068 VJ=21.7
MOVL C00069 V=0.1 +MOVJ EC00069 VJ=21.7
MOVL C00070 V=0.1 +MOVJ EC00070 VJ=21.8
MOVL C00071 V=0.1 +MOVJ EC00071 VJ=21.8
MOVL C00072 V=0.1 +MOVJ EC00072 VJ=21.8
MOVL C00073 V=0.1 +MOVJ EC00073 VJ=21.9
MOVL C00074 V=0.1 +MOVJ EC00074 VJ=21.9
MOVL C00075 V=0.1 +MOVJ EC00075 VJ=21.9
MOVL C00076 V=4.2 +MOVJ EC00076 VJ=21.9
ARCOF
MOVL C00077 V=10.0 +MOVJ EC00077 VJ=15.0
ARCON ASF#(300)
MOVL C00078 V=4.2 +MOVJ EC00078 VJ=21.3
MOVL C00079 V=0.1 +MOVJ EC00079 VJ=21.3
MOVL C00080 V=0.1 +MOVJ EC00080 VJ=21.2
MOVL C00081 V=0.1 +MOVJ EC00081 VJ=21.2
MOVL C00082 V=0.1 +MOVJ EC00082 VJ=21.2
MOVL C00083 V=0.1 +MOVJ EC00083 VJ=21.2
MOVL C00084 V=0.1 +MOVJ EC00084 VJ=21.1
MOVL C00085 V=0.1 +MOVJ EC00085 VJ=21.1
MOVL C00086 V=0.1 +MOVJ EC00086 VJ=21.1
MOVL C00087 V=0.1 +MOVJ EC00087 VJ=21.1
MOVL C00088 V=0.1 +MOVJ EC00088 VJ=21.1
MOVL C00089 V=0.1 +MOVJ EC00089 VJ=21.1
MOVL C00090 V=0.1 +MOVJ EC00090 VJ=21.1
MOVL C00091 V=0.1 +MOVJ EC00091 VJ=21.2
MOVL C00092 V=0.1 +MOVJ EC00092 VJ=21.2
MOVL C00093 V=0.1 +MOVJ EC00093 VJ=21.2
MOVL C00094 V=0.1 +MOVJ EC00094 VJ=21.2
MOVL C00095 V=0.1 +MOVJ EC00095 VJ=21.3
MOVL C00096 V=0.1 +MOVJ EC00096 VJ=21.3
MOVL C00097 V=3.8 +MOVJ EC00097 VJ=21.3
ARCOF
MOVL C00098 V=10.0 +MOVJ EC00098 VJ=15.0
ARCON ASF#(300)
MOVL C00099 V=3.8 +MOVJ EC00099 VJ=20.7
MOVL C00100 V=0.1 +MOVJ EC00100 VJ=20.7
MOVL C00101 V=0.1 +MOVJ EC00101 VJ=20.7
MOVL C00102 V=0.1 +MOVJ EC00102 VJ=20.7
MOVL C00103 V=0.1 +MOVJ EC00103 VJ=20.6
MOVL C00104 V=0.1 +MOVJ EC00104 VJ=20.6
MOVL C00105 V=0.1 +MOVJ EC00105 VJ=20.6
MOVL C00106 V=0.1 +MOVJ EC00106 VJ=20.6
MOVL C00107 V=0.1 +MOVJ EC00107 VJ=20.5
MOVL C00108 V=0.1 +MOVJ EC00108 VJ=20.5
MOVL C00109 V=0.1 +MOVJ EC00109 VJ=20.5
MOVL C00110 V=0.1 +MOVJ EC00110 VJ=20.6
MOVL C00111 V=0.1 +MOVJ EC00111 VJ=20.6
MOVL C00112 V=0.1 +MOVJ EC00112 VJ=20.6
MOVL C00113 V=0.1 +MOVJ EC00113 VJ=20.6
MOVL C00114 V=0.1 +MOVJ EC00114 VJ=20.7
MOVL C00115 V=0.1 +MOVJ EC00115 VJ=20.7
MOVL C00116 V=0.1 +MOVJ EC00116 VJ=20.7
MOVL C00117 V=0.1 +MOVJ EC00117 VJ=20.7
MOVL C00118 V=4.2 +MOVJ EC00118 VJ=20.7
ARCOF
MOVL C00119 V=10.0 +MOVJ EC00119 VJ=15.0
ARCON ASF#(300)
MOVL C00120 V=4.2 +MOVJ EC00120 VJ=20.2
MOVL C00121 V=0.1 +MOVJ EC00121 VJ=20.2
MOVL C00122 V=0.1 +MOVJ EC00122 VJ=20.2
MOVL C00123 V=0.1 +MOVJ EC00123 VJ=20.2
MOVL C00124 V=0.1 +MOVJ EC00124 VJ=20.2
MOVL C00125 V=0.1 +MOVJ EC00125 VJ=20.1
MOVL C00126 V=0.1 +MOVJ EC00126 VJ=20.1
MOVL C00127 V=0.1 +MOVJ EC00127 VJ=20.1
MOVL C00128 V=0.1 +MOVJ EC00128 VJ=20.1
MOVL C00129 V=0.1 +MOVJ EC00129 VJ=20.1
MOVL C00130 V=0.1 +MOVJ EC00130 VJ=20.1
MOVL C00131 V=0.1 +MOVJ EC00131 VJ=20.1
MOVL C00132 V=0.1 +MOVJ EC00132 VJ=20.1
MOVL C00133 V=0.1 +MOVJ EC00133 VJ=20.1
MOVL C00134 V=0.1 +MOVJ EC00134 VJ=20.1
MOVL C00135 V=0.1 +MOVJ EC00135 VJ=20.2
MOVL C00136 V=0.1 +MOVJ EC00136 VJ=20.2
MOVL C00137 V=0.1 +MOVJ EC00137 VJ=20.2
MOVL C00138 V=0.1 +MOVJ EC00138 VJ=20.2
MOVL C00139 V=0.1 +MOVJ EC00139 VJ=20.2
MOVL C00140 V=3.8 +MOVJ EC00140 VJ=20.2
ARCOF
MOVL C00141 V=10.0 +MOVJ EC00141 VJ=15.0
ARCON ASF#(300)
MOVL C00142 V=3.8 +MOVJ EC00142 VJ=19.8
MOVL C00143 V=0.1 +MOVJ EC00143 VJ=19.8
MOVL C00144 V=0.1 +MOVJ EC00144 VJ=19.8
MOVL C00145 V=0.1 +MOVJ EC00145 VJ=19.7
MOVL C00146 V=0.1 +MOVJ EC00146 VJ=19.7
MOVL C00147 V=0.1 +MOVJ EC00147 VJ=19.7
MOVL C00148 V=0.1 +MOVJ EC00148 VJ=19.7
MOVL C00149 V=0.1 +MOVJ EC00149 VJ=19.6
MOVL C00150 V=0.1 +MOVJ EC00150 VJ=19.6
MOVL C00151 V=0.1 +MOVJ EC00151 VJ=19.6
MOVL C00152 V=0.1 +MOVJ EC00152 VJ=19.6
MOVL C00153 V=0.1 +MOVJ EC00153 VJ=19.6
MOVL C00154 V=0.1 +MOVJ EC00154 VJ=19.6
MOVL C00155 V=0.1 +MOVJ EC00155 VJ=19.7
MOVL C00156 V=0.1 +MOVJ EC00156 VJ=19.7
MOVL C00157 V=0.1 +MOVJ EC00157 VJ=19.7
MOVL C00158 V=0.1 +MOVJ EC00158 VJ=19.7
MOVL C00159 V=0.1 +MOVJ EC00159 VJ=19.8
MOVL C00160 V=0.1 +MOVJ EC00160 VJ=19.8
MOVL C00161 V=0.1 +MOVJ EC00161 VJ=19.8
MOVL C00162 V=4.2 +MOVJ EC00162 VJ=19.8
ARCOF
MOVL C00163 V=10.0 +MOVJ EC00163 VJ=15.0
ARCON ASF#(300)
MOVL C00164 V=4.2 +MOVJ EC00164 VJ=19.4
MOVL C00165 V=0.1 +MOVJ EC00165 VJ=19.4
MOVL C00166 V=0.1 +MOVJ EC00166 VJ=19.4
MOVL C00167 V=0.1 +MOVJ EC00167 VJ=19.3
MOVL C00168 V=0.1 +MOVJ EC00168 VJ=19.3
MOVL C00169 V=0.1 +MOVJ EC00169 VJ=19.3
MOVL C00170 V=0.1 +MOVJ EC00170 VJ=19.3
MOVL C00171 V=0.1 +MOVJ EC00171 VJ=19.3
MOVL C00172 V=0.1 +MOVJ EC00172 VJ=19.2
MOVL C00173 V=0.1 +MOVJ EC00173 VJ=19.2
MOVL C00174 V=0.1 +MOVJ EC00174 VJ=19.2
MOVL C00175 V=0.1 +MOVJ EC00175 VJ=19.2
MOVL C00176 V=0.1 +MOVJ EC00176 VJ=19.2
MOVL C00177 V=0.1 +MOVJ EC00177 VJ=19.3
MOVL C00178 V=0.1 +MOVJ EC00178 VJ=19.3
MOVL C00179 V=0.1 +MOVJ EC00179 VJ=19.3
MOVL C00180 V=0.1 +MOVJ EC00180 VJ=19.3
MOVL C00181 V=0.1 +MOVJ EC00181 VJ=19.3
MOVL C00182 V=0.1 +MOVJ EC00182 VJ=19.4
MOVL C00183 V=0.1 +MOVJ EC00183 VJ=19.4
MOVL C00184 V=0.1 +MOVJ EC00184 VJ=19.4
MOVL C00185 V=3.8 +MOVJ EC00185 VJ=19.4
ARCOF
END
