/JOB
//NAME AAA
//POS
///NPOS 40,0,20,0,0,0
///TOOL 12
///POSTYPE PULSE
///PULSE
C00000=-31787,80937,28372,11292,-44397,-12593
C00001=-18047,64864,-30417,-68899,-78772,73229
C00002=-31877,80210,27475,11295,-44211,-12577
C00003=-17943,65212,-29582,-68915,-78852,73086
C00004=-31968,79489,26585,11298,-44026,-12561
C00005=-17840,65564,-28743,-68931,-78932,72943
C00006=-32068,78700,25616,11301,-43825,-12542
C00007=-17727,65953,-27814,-68947,-79020,72785
C00008=-32159,77988,24742,11303,-43645,-12525
C00009=-17626,66310,-26966,-68962,-79100,72641
C00010=-32261,77209,23789,11304,-43449,-12505
C00011=-17515,66706,-26027,-68977,-79188,72482
C00012=-32353,76506,22930,11305,-43274,-12486
C00013=-17416,67068,-25168,-68991,-79269,72336
C00014=-32455,75737,21992,11305,-43082,-12465
C00015=-17307,67470,-24218,-69005,-79358,72176
C00016=-32549,75041,21147,11305,-42911,-12446
C00017=-17210,67838,-23349,-69017,-79439,72029
C00018=-32653,74281,20225,11304,-42724,-12424
C00019=-17104,68246,-22387,-69031,-79528,71867
C00020=-32747,73593,19393,11302,-42556,-12403
C00021=-17008,68621,-21507,-69042,-79610,71720
C00022=-32852,72841,18484,11300,-42374,-12380
C00023=-16904,69036,-20533,-69054,-79700,71556
C00024=-32948,72161,17665,11298,-42210,-12359
C00025=-16810,69416,-19641,-69065,-79782,71407
C00026=-33054,71417,16770,11294,-42032,-12335
C00027=-16708,69838,-18654,-69076,-79873,71242
C00028=-33150,70744,15963,11290,-41872,-12312
C00029=-16615,70225,-17751,-69086,-79956,71091
C00030=-33258,70007,15081,11286,-41697,-12287
C00031=-16515,70654,-16751,-69096,-80047,70925
C00032=-33355,69340,14285,11281,-41541,-12263
C00033=-16425,71047,-15836,-69105,-80131,70772
C00034=-33464,68610,13416,11275,-41371,-12237
C00035=-16326,71483,-14821,-69115,-80224,70604
C00036=-33563,67949,12631,11269,-41217,-12212
C00037=-16237,71884,-13893,-69123,-80308,70450
C00038=-33673,67226,11774,11262,-41051,-12184
C00039=-16141,72328,-12864,-69131,-80402,70280
EC00000=-29914,123904
EC00001=-29914,123904
EC00002=-29914,123904
EC00003=-29914,123904
EC00004=-29914,123904
EC00005=-29914,123904
EC00006=-29914,123904
EC00007=-29914,123904
EC00008=-29914,123904
EC00009=-29914,123904
EC00010=-29914,123904
EC00011=-29914,123904
EC00012=-29914,123904
EC00013=-29914,123904
EC00014=-29914,123904
EC00015=-29914,123904
EC00016=-29914,123904
EC00017=-29914,123904
EC00018=-29914,123904
EC00019=-29914,123904
//INST
///DATE 2023/08/30 14:29
///ATTR SC,RW
///GROUP1 RB1,ST1
///GROUP2 RB2
NOP
MOVJ C00000 EC00000 VJ=1.0 +MOVJ C00001 VJ=1.0
ARCON ASF#(215)
DOUT OT#(21) ON
MOVL C00002 EC00001 V=5.0 +MOVL C00003 V=5.0
MOVL C00004 EC00002 V=5.0 +MOVL C00005 V=5.0
MOVL C00006 EC00003 V=5.0 +MOVL C00007 V=5.0
MOVL C00008 EC00004 V=5.0 +MOVL C00009 V=5.0
MOVL C00010 EC00005 V=5.0 +MOVL C00011 V=5.0
MOVL C00012 EC00006 V=5.0 +MOVL C00013 V=5.0
MOVL C00014 EC00007 V=5.0 +MOVL C00015 V=5.0
MOVL C00016 EC00008 V=5.0 +MOVL C00017 V=5.0
MOVL C00018 EC00009 V=5.0 +MOVL C00019 V=5.0
MOVL C00020 EC00010 V=5.0 +MOVL C00021 V=5.0
MOVL C00022 EC00011 V=5.0 +MOVL C00023 V=5.0
MOVL C00024 EC00012 V=5.0 +MOVL C00025 V=5.0
MOVL C00026 EC00013 V=5.0 +MOVL C00027 V=5.0
MOVL C00028 EC00014 V=5.0 +MOVL C00029 V=5.0
MOVL C00030 EC00015 V=5.0 +MOVL C00031 V=5.0
MOVL C00032 EC00016 V=5.0 +MOVL C00033 V=5.0
MOVL C00034 EC00017 V=5.0 +MOVL C00035 V=5.0
MOVL C00036 EC00018 V=5.0 +MOVL C00037 V=5.0
MOVL C00038 EC00019 V=5.0 +MOVL C00039 V=5.0
DOUT OT#(21) OFF
ARCOF
END
