/JOB
//NAME AAA
//POS
///NPOS 2059,0,2059,0,0,0
///TOOL 12
///POSTYPE PULSE
///PULSE
C00000=-35727,67036,11941,10427,-41003,-11251
C00001=-35639,67715,12744,10431,-41157,-11272
C00002=-35540,68382,13536,10440,-41310,-11298
C00003=-35431,69035,14312,10453,-41463,-11329
C00004=-35309,69668,15067,10471,-41614,-11365
C00005=-35176,70278,15795,10495,-41762,-11407
C00006=-35029,70859,16490,10525,-41906,-11456
C00007=-34871,71406,17146,10560,-42045,-11511
C00008=-34700,71914,17757,10602,-42178,-11571
C00009=-34480,72469,18424,10660,-42327,-11652
C00010=-34286,72881,18921,10714,-42443,-11725
C00011=-34084,73249,19365,10773,-42550,-11803
C00012=-33875,73574,19757,10835,-42648,-11884
C00013=-33661,73859,20101,10902,-42738,-11969
C00014=-33443,74107,20402,10971,-42821,-12056
C00015=-33222,74324,20665,11042,-42897,-12146
C00016=-32999,74515,20896,11115,-42968,-12237
C00017=-32730,74715,21138,11205,-43047,-12347
C00018=-32505,74864,21319,11280,-43110,-12440
C00019=-32279,75001,21486,11356,-43170,-12533
C00020=-32052,75132,21644,11432,-43228,-12627
C00021=-31826,75259,21798,11508,-43286,-12720
C00022=-31600,75387,21954,11583,-43345,-12813
C00023=-31374,75520,22116,11658,-43404,-12906
C00024=-31149,75662,22288,11732,-43466,-12998
C00025=-30880,75849,22516,11819,-43545,-13108
C00026=-30657,76024,22729,11890,-43615,-13197
C00027=-30436,76221,22968,11958,-43689,-13286
C00028=-30217,76442,23238,12025,-43770,-13372
C00029=-30001,76691,23542,12088,-43857,-13456
C00030=-29789,76973,23886,12149,-43951,-13538
C00031=-29580,77288,24271,12206,-44053,-13616
C00032=-29377,77638,24698,12259,-44162,-13691
C00033=-29140,78103,25268,12317,-44304,-13776
C00034=-24789,80690,21426,14751,-41356,-16197
C00035=-25002,79782,20677,14676,-41327,-16105
C00036=-25273,79009,20262,14542,-41422,-15964
C00037=-25638,78250,20045,14343,-41613,-15765
C00038=-26122,77543,20055,14074,-41897,-15497
C00039=-26662,76920,20146,13786,-42181,-15205
C00040=-27331,76282,20262,13450,-42469,-14856
C00041=-27889,75828,20332,13185,-42657,-14576
C00042=-28432,75425,20358,12940,-42796,-14311
C00043=-28950,75058,20329,12716,-42889,-14064
C00044=-29438,74710,20236,12515,-42940,-13838
C00045=-29893,74370,20081,12334,-42955,-13631
C00046=-30397,73959,19817,12143,-42934,-13408
C00047=-30784,73609,19538,12002,-42890,-13241
C00048=-31143,73250,19212,11875,-42827,-13088
C00049=-31477,72879,18846,11761,-42749,-12949
C00050=-31789,72496,18445,11659,-42659,-12821
C00051=-32136,72023,17925,11548,-42539,-12681
C00052=-32407,71619,17468,11464,-42433,-12573
C00053=-32665,71213,17000,11386,-42322,-12472
C00054=-32913,70809,16528,11312,-42210,-12375
C00055=-33023,70193,15794,11299,-42063,-12344
C00056=-33204,69681,15186,11255,-41932,-12280
C00057=-33388,69020,14400,11218,-41767,-12218
C00058=-33511,68429,13695,11199,-41625,-12181
C00059=-33604,67798,12944,11194,-41478,-12159
C00060=-33663,67129,12148,11203,-41327,-12152
C00061=-33687,66423,11309,11228,-41173,-12161
C00062=-33683,65562,10286,11271,-40990,-12188
C00063=-33661,64851,9443,11314,-40842,-12218
C00064=-33624,64149,8611,11362,-40698,-12255
C00065=-33573,63457,7792,11416,-40559,-12297
C00066=-33509,62777,6990,11474,-40425,-12345
C00067=-33436,62107,6200,11535,-40295,-12397
C00068=-33518,62134,6325,11489,-40347,-12352
C00069=-33586,62807,7119,11429,-40478,-12303
C00070=-33645,63491,7925,11373,-40613,-12257
C00071=-33692,64186,8747,11322,-40753,-12216
C00072=-33724,64891,9581,11275,-40898,-12182
C00073=-33741,65603,10425,11235,-41046,-12154
C00074=-33740,66464,11448,11194,-41230,-12130
C00075=-33707,67161,12276,11173,-41382,-12124
C00076=-33640,67819,13058,11168,-41531,-12135
C00077=-33540,68437,13793,11176,-41676,-12161
C00078=-33411,69016,14483,11198,-41817,-12201
C00079=-33220,69662,15251,11239,-41979,-12266
C00080=-33032,70161,15844,11286,-42108,-12334
C00081=-32915,70755,16550,11302,-42250,-12368
C00082=-32666,71156,17018,11377,-42362,-12466
C00083=-32405,71556,17478,11457,-42471,-12569
C00084=-32127,71950,17921,11544,-42575,-12680
C00085=-31770,72410,18422,11659,-42691,-12825
C00086=-31452,72783,18808,11765,-42778,-12956
C00087=-31111,73146,19160,11882,-42852,-13099
C00088=-30745,73498,19471,12012,-42911,-13255
C00089=-30351,73841,19734,12157,-42950,-13426
C00090=-29836,74242,19974,12355,-42962,-13656
C00091=-29369,74576,20106,12542,-42939,-13869
C00092=-28872,74922,20178,12749,-42878,-14101
C00093=-28348,75293,20194,12978,-42776,-14352
C00094=-27803,75705,20162,13226,-42629,-14619
C00095=-27248,76174,20094,13491,-42435,-14899
C00096=-26587,76834,19995,13825,-42145,-15245
C00097=-26060,77475,19930,14107,-41866,-15530
C00098=-25588,78197,19944,14370,-41588,-15792
C00099=-25228,78967,20173,14567,-41397,-15989
C00100=-24960,79748,20593,14700,-41301,-16128
C00101=-24751,80661,21347,14774,-41329,-16219
C00102=-24732,80613,21303,14782,-41330,-16228
C00103=-24933,79699,20531,14714,-41293,-16142
C00104=-25187,78916,20082,14590,-41375,-16012
C00105=-25531,78139,19821,14403,-41552,-15824
C00106=-25989,77403,19779,14147,-41823,-15569
C00107=-26501,76741,19813,13872,-42095,-15292
C00108=-27031,76158,19857,13602,-42333,-15014
C00109=-27685,75558,19918,13285,-42573,-14681
C00110=-28230,75129,19950,13035,-42729,-14412
C00111=-28759,74747,19945,12802,-42842,-14157
C00112=-29266,74397,19891,12588,-42914,-13918
C00113=-29745,74065,19783,12393,-42949,-13698
C00114=-30191,73737,19614,12219,-42951,-13498
C00115=-30602,73402,19381,12065,-42924,-13318
C00116=-31050,72982,19024,11904,-42860,-13125
C00117=-31392,72618,18675,11786,-42789,-12982
C00118=-31714,72245,18294,11678,-42705,-12849
C00119=-32019,71866,17889,11578,-42612,-12724
C00120=-32308,71481,17462,11486,-42511,-12607
C00121=-32579,71088,17015,11402,-42405,-12499
C00122=-32879,70612,16463,11311,-42274,-12381
C00123=-33114,70227,16014,11240,-42167,-12289
C00124=-33241,69678,15364,11218,-42036,-12249
C00125=-33431,69209,14809,11168,-41914,-12179
C00126=-33598,68709,14215,11129,-41787,-12120
C00127=-33741,68173,13579,11099,-41655,-12073
C00128=-33858,67597,12895,11082,-41518,-12038
C00129=-33960,66847,12004,11078,-41346,-12014
C00130=-34010,66174,11206,11091,-41197,-12011
C00131=-34028,65465,10366,11117,-41045,-12023
C00132=-34027,64749,9519,11151,-40894,-12043
C00133=-34012,64038,8679,11191,-40747,-12070
C00134=-33983,63334,7848,11236,-40604,-12103
C00135=-33944,62636,7026,11284,-40465,-12140
C00136=-33727,62266,6667,11375,-40461,-12240
C00137=-33782,62954,7477,11321,-40597,-12196
C00138=-33827,63651,8299,11270,-40736,-12157
C00139=-33858,64357,9134,11224,-40880,-12123
C00140=-33875,65071,9978,11184,-41028,-12095
C00141=-33877,65789,10829,11149,-41180,-12074
C00142=-33853,66492,11663,11125,-41332,-12064
C00143=-33776,67278,12595,11118,-41508,-12076
C00144=-33675,67886,13318,11127,-41650,-12103
C00145=-33544,68454,13993,11150,-41788,-12145
C00146=-33386,68983,14622,11185,-41920,-12199
C00147=-33202,69478,15208,11231,-42048,-12265
C00148=-33085,70064,15904,11248,-42187,-12300
C00149=-32832,70445,16347,11325,-42294,-12400
C00150=-32519,70914,16887,11422,-42423,-12524
C00151=-32249,71310,17334,11506,-42528,-12632
C00152=-31968,71706,17772,11595,-42628,-12744
C00153=-31671,72096,18189,11691,-42722,-12865
C00154=-31352,72473,18573,11798,-42805,-12997
C00155=-31006,72835,18913,11918,-42874,-13143
C00156=-30549,73248,19252,12084,-42931,-13340
C00157=-30131,73579,19471,12242,-42952,-13525
C00158=-29680,73907,19630,12419,-42945,-13728
C00159=-29197,74242,19731,12616,-42905,-13951
C00160=-28688,74597,19778,12833,-42827,-14191
C00161=-28157,74988,19781,13068,-42708,-14447
C00162=-27616,75430,19754,13318,-42549,-14716
C00163=-26969,76050,19711,13632,-42309,-15045
C00164=-26447,76650,19687,13899,-42073,-15320
C00165=-25951,77329,19690,14164,-41812,-15589
C00166=-25510,78078,19776,14409,-41559,-15832
C00167=-25177,78861,20069,14587,-41395,-16013
C00168=-24931,79648,20540,14705,-41323,-16138
C00169=-24738,80565,21332,14767,-41370,-16218
C00170=-24701,80536,21258,14789,-41346,-16239
C00171=-24887,79619,20455,14731,-41294,-16163
C00172=-25121,78829,19963,14620,-41357,-16045
C00173=-25440,78038,19645,14450,-41511,-15872
C00174=-25864,77274,19524,14215,-41754,-15638
C00175=-26337,76574,19480,13960,-42004,-15381
C00176=-26940,75832,19466,13653,-42275,-15064
C00177=-27466,75298,19481,13396,-42474,-14795
C00178=-27999,74834,19499,13147,-42639,-14529
C00179=-28528,74426,19500,12910,-42768,-14272
C00180=-29043,74063,19471,12687,-42860,-14027
C00181=-29537,73730,19400,12482,-42916,-13796
C00182=-30095,73349,19248,12259,-42939,-13543
C00183=-30525,73033,19059,12095,-42926,-13352
C00184=-30922,72708,18813,11948,-42888,-13179
C00185=-31290,72373,18517,11817,-42830,-13022
C00186=-31633,72027,18182,11698,-42757,-12878
C00187=-32018,71600,17738,11569,-42655,-12718
C00188=-32318,71235,17339,11472,-42560,-12596
C00189=-32598,70861,16916,11383,-42458,-12484
C00190=-32859,70484,16483,11302,-42353,-12380
C00191=-33107,70120,16059,11225,-42250,-12282
C00192=-33225,69547,15381,11207,-42114,-12246
C00193=-33453,68979,14708,11148,-41966,-12163
C00194=-33614,68467,14099,11111,-41837,-12106
C00195=-33749,67914,13443,11086,-41703,-12063
C00196=-33855,67318,12735,11074,-41563,-12033
C00197=-33929,66675,11972,11075,-41417,-12019
C00198=-33973,65846,10989,11097,-41236,-12023
C00199=-33979,65129,10141,11129,-41084,-12040
C00200=-33970,64416,9297,11166,-40935,-12064
C00201=-33947,63709,8462,11208,-40791,-12094
C00202=-33911,63009,7638,11255,-40650,-12130
C00203=-33865,62317,6823,11306,-40512,-12169
C00204=-34174,62834,7535,11147,-40644,-12010
C00205=-34197,63538,8364,11106,-40786,-11980
C00206=-34209,64248,9200,11068,-40932,-11955
C00207=-34208,64961,10042,11035,-41082,-11935
C00208=-34188,65665,10874,11010,-41232,-11925
C00209=-34136,66330,11662,10999,-41378,-11929
C00210=-34054,66952,12398,11002,-41520,-11948
C00211=-33917,67638,13212,11022,-41682,-11989
C00212=-33774,68160,13831,11053,-41810,-12037
C00213=-33605,68642,14402,11094,-41933,-12098
C00214=-33414,69088,14930,11146,-42050,-12169
C00215=-33272,69622,15561,11174,-42179,-12216
C00216=-33036,69977,15975,11247,-42279,-12310
C00217=-32790,70343,16397,11323,-42381,-12408
C00218=-32473,70789,16904,11423,-42502,-12534
C00219=-32188,71157,17313,11514,-42600,-12650
C00220=-31882,71519,17700,11615,-42690,-12775
C00221=-31557,71872,18060,11725,-42772,-12910
C00222=-31211,72217,18388,11845,-42841,-13056
C00223=-30839,72550,18672,11979,-42894,-13215
C00224=-30350,72934,18942,12162,-42929,-13430
C00225=-29906,73247,19102,12335,-42928,-13629
C00226=-29430,73564,19204,12528,-42896,-13847
C00227=-28927,73899,19255,12740,-42829,-14083
C00228=-28405,74268,19268,12968,-42725,-14333
C00229=-27876,74689,19262,13208,-42587,-14592
C00230=-27353,75174,19259,13454,-42419,-14855
C00231=-26744,75852,19280,13753,-42184,-15167
C00232=-26258,76497,19321,14004,-41960,-15424
C00233=-25800,77213,19397,14250,-41719,-15673
C00234=-25398,77987,19561,14472,-41493,-15895
C00235=-25095,78782,19916,14631,-41357,-16057
C00236=-24870,79573,20427,14735,-41303,-16169
C00237=-24689,80491,21241,14789,-41361,-16241
C00238=-24683,80442,21236,14785,-41383,-16241
C00239=-24853,79524,20397,14739,-41312,-16175
C00240=-25067,78731,19857,14643,-41352,-16071
C00241=-25358,77929,19475,14492,-41477,-15916
C00242=-25745,77143,19274,14280,-41688,-15703
C00243=-26183,76410,19154,14045,-41915,-15466
C00244=-26652,75744,19077,13804,-42130,-15218
C00245=-27249,75042,19035,13508,-42366,-14910
C00246=-27769,74539,19031,13261,-42540,-14648
C00247=-28295,74101,19032,13021,-42683,-14389
C00248=-28814,73717,19015,12792,-42792,-14139
C00249=-29317,73369,18964,12579,-42865,-13903
C00250=-29797,73046,18871,12383,-42905,-13681
C00251=-30250,72734,18729,12204,-42915,-13477
C00252=-30756,72361,18491,12012,-42891,-13253
C00253=-31146,72043,18238,11870,-42847,-13084
C00254=-31508,71714,17940,11741,-42785,-12930
C00255=-31844,71373,17601,11626,-42709,-12789
C00256=-32156,71020,17228,11522,-42622,-12661
C00257=-32445,70656,16828,11428,-42527,-12543
C00258=-32766,70213,16325,11327,-42406,-12415
C00259=-33017,69846,15903,11249,-42305,-12315
C00260=-33259,69492,15493,11174,-42205,-12219
C00261=-33412,68997,14910,11139,-42084,-12166
C00262=-33609,68562,14396,11084,-41969,-12091
C00263=-33784,68092,13840,11040,-41849,-12028
C00264=-33933,67582,13236,11007,-41723,-11976
C00265=-34078,66913,12443,10983,-41563,-11931
C00266=-34167,66303,11720,10977,-41424,-11909
C00267=-34224,65643,10939,10986,-41278,-11903
C00268=-34248,64940,10107,11009,-41127,-11911
C00269=-34252,64224,9263,11040,-40977,-11929
C00270=-34243,63513,8424,11077,-40831,-11953
C00271=-34223,62805,7592,11117,-40687,-11981
C00272=-34552,63305,8287,10953,-40815,-11813
C00273=-34547,64020,9126,10922,-40963,-11796
C00274=-34533,64736,9970,10895,-41113,-11783
C00275=-34498,65434,10794,10877,-41263,-11779
C00276=-34430,66073,11549,10874,-41405,-11792
C00277=-34336,66668,12252,10883,-41541,-11817
C00278=-34211,67199,12880,10906,-41668,-11858
C00279=-34026,67770,13557,10951,-41810,-11923
C00280=-33846,68202,14067,10999,-41923,-11990
C00281=-33644,68600,14537,11057,-42030,-12068
C00282=-33481,69040,15051,11100,-42139,-12127
C00283=-33227,69341,15398,11182,-42229,-12230
C00284=-32972,69679,15788,11263,-42325,-12333
C00285=-32711,70039,16199,11345,-42425,-12437
C00286=-32383,70478,16692,11450,-42542,-12569
C00287=-32091,70841,17086,11545,-42635,-12688
C00288=-31776,71193,17453,11650,-42719,-12818
C00289=-31436,71530,17781,11768,-42791,-12962
C00290=-31066,71854,18064,11901,-42848,-13120
C00291=-30666,72166,18298,12049,-42885,-13294
C00292=-30149,72535,18514,12248,-42899,-13524
C00293=-29688,72848,18640,12431,-42881,-13734
C00294=-29202,73177,18721,12632,-42832,-13959
C00295=-28695,73533,18763,12849,-42749,-14199
C00296=-28174,73931,18775,13081,-42632,-14452
C00297=-27649,74385,18775,13323,-42481,-14712
C00298=-27134,74908,18787,13570,-42302,-14972
C00299=-26549,75637,18852,13861,-42065,-15275
C00300=-26094,76324,18959,14097,-41855,-15516
C00301=-25673,77076,19115,14323,-41638,-15745
C00302=-25303,77875,19355,14525,-41441,-15947
C00303=-25025,78685,19768,14667,-41328,-16094
C00304=-24819,79483,20327,14757,-41296,-16194
C00305=-24655,80406,21181,14799,-41373,-16255
C00306=-24652,80352,21183,14792,-41400,-16252
C00307=-24808,79431,20313,14756,-41315,-16195
C00308=-25005,78634,19731,14673,-41334,-16102
C00309=-25269,77823,19288,14540,-41432,-15964
C00310=-25620,77016,19007,14351,-41611,-15773
C00311=-26021,76252,18810,14137,-41812,-15557
C00312=-26458,75549,18669,13911,-42013,-15325
C00313=-27023,74796,18568,13629,-42244,-15032
C00314=-27523,74250,18531,13388,-42420,-14778
C00315=-28040,73776,18520,13147,-42576,-14521
C00316=-28562,73366,18516,12912,-42704,-14266
C00317=-29079,73007,18498,12687,-42800,-14019
C00318=-29582,72684,18453,12476,-42865,-13784
C00319=-30064,72385,18366,12281,-42897,-13563
C00320=-30602,72033,18193,12071,-42897,-13321
C00321=-31012,71731,17981,11918,-42866,-13142
C00322=-31386,71412,17708,11783,-42813,-12981
C00323=-31726,71073,17382,11665,-42743,-12838
C00324=-32040,70720,17018,11559,-42661,-12708
C00325=-32336,70360,16630,11462,-42570,-12587
C00326=-32671,69930,16151,11354,-42456,-12451
C00327=-32940,69583,15758,11268,-42360,-12343
C00328=-33201,69259,15388,11184,-42267,-12237
C00329=-33458,68968,15053,11100,-42180,-12132
C00330=-33630,68547,14563,11054,-42075,-12068
C00331=-33840,68168,14116,10992,-41971,-11987
C00332=-34027,67756,13630,10939,-41862,-11916
C00333=-34222,67208,12981,10890,-41723,-11845
C00334=-34356,66695,12375,10862,-41599,-11801
C00335=-34457,66114,11688,10850,-41465,-11772
C00336=-34535,65495,10956,10848,-41326,-11754
C00337=-34583,64822,10162,10860,-41180,-11751
C00338=-34602,64106,9320,10885,-41029,-11762
C00339=-34611,63392,8480,10914,-40881,-11777
C00340=-35082,64589,10004,10663,-41142,-11528
C00341=-35010,65224,10751,10663,-41282,-11543
C00342=-34912,65790,11417,10676,-41411,-11571
C00343=-34794,66307,12026,10698,-41532,-11610
C00344=-34661,66793,12600,10728,-41649,-11655
C00345=-34516,67260,13151,10762,-41764,-11707
C00346=-34334,67622,13578,10815,-41861,-11777
C00347=-34088,68006,14029,10892,-41969,-11874
C00348=-33863,68296,14367,10964,-42055,-11965
C00349=-33658,68578,14689,11030,-42132,-12048
C00350=-33403,68839,14988,11115,-42212,-12153
C00351=-33144,69133,15323,11200,-42298,-12258
C00352=-32881,69456,15690,11285,-42390,-12365
C00353=-32610,69798,16074,11372,-42483,-12475
C00354=-32268,70218,16534,11484,-42593,-12614
C00355=-31962,70563,16899,11586,-42678,-12741
C00356=-31632,70899,17233,11700,-42753,-12879
C00357=-31275,71221,17525,11826,-42814,-13031
C00358=-30887,71529,17770,11968,-42858,-13199
C00359=-30469,71829,17964,12127,-42880,-13383
C00360=-29929,72188,18130,12339,-42872,-13627
C00361=-29451,72499,18217,12535,-42834,-13847
C00362=-28951,72835,18263,12746,-42763,-14082
C00363=-28436,73208,18281,12972,-42660,-14329
C00364=-27916,73633,18287,13208,-42525,-14584
C00365=-27403,74123,18300,13449,-42363,-14841
C00366=-26909,74687,18344,13689,-42181,-15093
C00367=-26356,75461,18463,13968,-41949,-15382
C00368=-25933,76182,18630,14188,-41754,-15607
C00369=-25548,76960,18859,14393,-41562,-15815
C00370=-25214,77776,19175,14572,-41397,-15996
C00371=-24963,78592,19647,14696,-41312,-16125
C00372=-24776,79391,20248,14772,-41302,-16212
C00373=-24626,80313,21133,14804,-41395,-16264
C00374=-24588,80282,21056,14826,-41370,-16286
C00375=-24732,79362,20165,14798,-41274,-16237
C00376=-24911,78563,19550,14727,-41276,-16155
C00377=-25151,77745,19058,14610,-41353,-16032
C00378=-25469,76922,18714,14440,-41507,-15860
C00379=-25837,76132,18455,14244,-41689,-15661
C00380=-26245,75395,18264,14031,-41880,-15444
C00381=-26785,74598,18125,13756,-42113,-15160
C00382=-27273,74015,18074,13516,-42301,-14910
C00383=-27784,73509,18062,13273,-42472,-14652
C00384=-28304,73071,18064,13034,-42617,-14395
C00385=-28821,72689,18055,12805,-42730,-14146
C00386=-29324,72347,18020,12590,-42810,-13908
C00387=-29806,72031,17946,12391,-42857,-13684
C00388=-30349,71668,17793,12175,-42873,-13438
C00389=-30767,71364,17605,12016,-42857,-13253
C00390=-31151,71048,17359,11874,-42817,-13086
C00391=-31503,70717,17061,11749,-42758,-12936
C00392=-31824,70369,16719,11639,-42685,-12801
C00393=-32123,70012,16347,11539,-42602,-12678
C00394=-32458,69581,15880,11430,-42495,-12542
C00395=-32724,69230,15493,11344,-42404,-12434
C00396=-32981,68897,15121,11261,-42316,-12330
C00397=-33231,68591,14778,11180,-42232,-12228
C00398=-33476,68317,14472,11098,-42154,-12127
C00399=-33719,68075,14201,11016,-42083,-12027
C00400=-33964,67863,13963,10932,-42017,-11924
C00401=-34259,67645,13717,10828,-41942,-11800
C00402=-34503,67488,13537,10742,-41884,-11697
C00403=-34607,66840,12766,10732,-41733,-11669
C00404=-34762,66408,12256,10692,-41624,-11613
C00405=-34910,65966,11734,10655,-41514,-11560
C00406=-35049,65508,11194,10622,-41402,-11510
C00407=-35178,65026,10624,10593,-41286,-11466
C00408=-35130,64691,10306,10617,-41268,-11490
C00409=-35033,65261,10978,10629,-41398,-11518
C00410=-34917,65783,11593,10651,-41520,-11556
C00411=-34785,66269,12167,10680,-41637,-11601
C00412=-34642,66733,12715,10714,-41751,-11651
C00413=-34489,67182,13244,10752,-41863,-11706
C00414=-34292,67507,13627,10813,-41954,-11784
C00415=-34072,67962,14160,10876,-42073,-11868
C00416=-33825,68152,14374,10962,-42137,-11972
C00417=-33572,68373,14624,11048,-42207,-12077
C00418=-33312,68621,14903,11136,-42282,-12185
C00419=-33044,68898,15213,11226,-42363,-12295
C00420=-32769,69202,15552,11317,-42448,-12408
C00421=-32487,69529,15909,11410,-42535,-12524
C00422=-32132,69935,16342,11528,-42637,-12670
C00423=-31818,70273,16688,11635,-42715,-12800
C00424=-31481,70603,17003,11752,-42783,-12942
C00425=-31116,70918,17274,11884,-42836,-13099
C00426=-30715,71218,17489,12033,-42868,-13275
C00427=-30279,71506,17643,12203,-42874,-13470
C00428=-29711,71853,17749,12432,-42841,-13729
C00429=-29210,72160,17786,12642,-42779,-13964
C00430=-28693,72502,17793,12866,-42684,-14210
C00431=-28173,72896,17792,13099,-42560,-14463
C00432=-27662,73354,17805,13335,-42413,-14716
C00433=-27170,73883,17848,13570,-42247,-14965
C00434=-26702,74485,17934,13801,-42068,-15205
C00435=-26184,75300,18117,14063,-41848,-15477
C00436=-25796,76049,18347,14265,-41673,-15683
C00437=-25443,76847,18643,14450,-41506,-15872
C00438=-25135,77676,19015,14613,-41364,-16037
C00439=-24901,78499,19526,14725,-41296,-16156
C00440=-24728,79301,20158,14792,-41301,-16234
C00441=-24591,80223,21067,14815,-41406,-16279
C00442=-24571,80115,20936,14829,-41385,-16291
C00443=-24705,79192,20023,14807,-41279,-16249
C00444=-24873,78389,19382,14744,-41269,-16174
C00445=-25097,77565,18853,14638,-41328,-16061
C00446=-25395,76731,18462,14482,-41464,-15901
C00447=-25738,75925,18150,14301,-41625,-15717
C00448=-26115,75169,17901,14105,-41796,-15517
C00449=-26618,74340,17698,13849,-42011,-15253
C00450=-27079,73727,17605,13620,-42193,-15014
C00451=-27568,73188,17562,13385,-42364,-14766
C00452=-28073,72718,17545,13149,-42516,-14515
C00453=-28584,72311,17538,12919,-42642,-14265
C00454=-29092,71954,17521,12697,-42739,-14022
C00455=-29585,71633,17477,12489,-42805,-13791
C00456=-30148,71274,17369,12261,-42844,-13533
C00457=-30585,70981,17224,12090,-42845,-13336
C00458=-30993,70685,17028,11935,-42821,-13157
C00459=-31370,70381,16785,11797,-42778,-12993
C00460=-31721,70067,16500,11672,-42718,-12843
C00461=-32048,69747,16185,11559,-42648,-12706
C00462=-32416,69360,15783,11434,-42553,-12553
C00463=-32705,69044,15443,11337,-42470,-12434
C00464=-32984,68746,15116,11244,-42388,-12319
C00465=-33256,68475,14815,11153,-42310,-12207
C00466=-33520,68233,14547,11063,-42237,-12097
C00467=-33778,68023,14313,10974,-42170,-11989
C00468=-34029,67846,14116,10886,-42110,-11883
C00469=-34325,67669,13920,10780,-42045,-11757
C00470=-34487,67192,13352,10741,-41924,-11700
C00471=-34647,66768,12852,10698,-41816,-11640
C00472=-34800,66333,12338,10659,-41707,-11585
C00473=-34942,65880,11804,10624,-41596,-11534
C00474=-35074,65400,11238,10595,-41480,-11489
C00475=-35191,64883,10627,10573,-41358,-11451
C00476=-35189,64937,10780,10560,-41424,-11444
C00477=-35063,65430,11363,10587,-41542,-11486
C00478=-34924,65891,11908,10620,-41655,-11535
C00479=-34775,66331,12427,10657,-41764,-11589
C00480=-34585,66841,13028,10707,-41893,-11659
C00481=-34472,67480,13788,10721,-42044,-11691
C00482=-34221,67616,13943,10811,-42099,-11798
C00483=-33968,67769,14113,10901,-42154,-11905
C00484=-33660,67990,14357,11009,-42228,-12035
C00485=-33395,68205,14595,11100,-42296,-12146
C00486=-33123,68452,14867,11193,-42369,-12259
C00487=-32788,68789,15235,11306,-42463,-12397
C00488=-32502,69097,15567,11402,-42544,-12516
C00489=-32205,69420,15907,11502,-42625,-12638
C00490=-31892,69747,16239,11609,-42700,-12769
C00491=-31488,70132,16602,11751,-42778,-12940
C00492=-31119,70438,16858,11885,-42826,-13099
C00493=-30716,70730,17059,12036,-42854,-13276
C00494=-30184,71068,17220,12244,-42853,-13515
C00495=-29704,71351,17288,12440,-42817,-13736
C00496=-29197,71651,17308,12654,-42749,-13974
C00497=-28675,71988,17298,12882,-42647,-14224
C00498=-28049,72466,17283,13165,-42489,-14530
C00499=-27545,72939,17299,13401,-42335,-14781
C00500=-27067,73485,17361,13631,-42170,-15024
C00501=-26533,74236,17508,13895,-41963,-15299
C00502=-26126,74935,17703,14101,-41792,-15512
C00503=-25759,75692,17974,14290,-41633,-15706
C00504=-25428,76497,18314,14462,-41487,-15883
C00505=-25077,77502,18807,14644,-41335,-16069
C00506=-24856,78332,19347,14748,-41280,-16180
C00507=-24692,79138,20001,14808,-41294,-16252
C00508=-24563,80063,20928,14825,-41407,-16291
C00509=-24545,80019,20896,14830,-41413,-16298
C00510=-24664,79094,19943,14821,-41286,-16266
C00511=-24812,78288,19252,14773,-41252,-16205
C00512=-25013,77457,18665,14685,-41283,-16107
C00513=-25336,76443,18112,14521,-41408,-15938
C00514=-25649,75623,17735,14359,-41542,-15772
C00515=-26003,74847,17440,14176,-41698,-15584
C00516=-26404,74127,17234,13971,-41872,-15373
C00517=-26936,73354,17087,13703,-42091,-15096
C00518=-27417,72791,17032,13468,-42268,-14850
C00519=-27923,72303,17023,13229,-42432,-14595
C00520=-28551,71809,17043,12942,-42601,-14287
C00521=-29074,71460,17057,12711,-42711,-14035
C00522=-29583,71150,17044,12494,-42788,-13794
C00523=-30069,70862,16986,12294,-42831,-13570
C00524=-30610,70524,16843,12081,-42842,-13326
C00525=-31021,70234,16658,11924,-42821,-13144
C00526=-31400,69934,16421,11785,-42779,-12979
C00527=-31820,69562,16085,11635,-42709,-12800
C00528=-32147,69250,15778,11522,-42640,-12662
C00529=-32459,68943,15463,11415,-42565,-12532
C00530=-32757,68650,15154,11313,-42488,-12408
C00531=-33102,68330,14809,11195,-42398,-12265
C00532=-33378,68096,14554,11100,-42328,-12149
C00533=-33644,67887,14326,11008,-42263,-12038
C00534=-33948,67660,14077,10901,-42190,-11909
C00535=-34196,67496,13896,10814,-42134,-11804
C00536=-34446,67360,13744,10724,-42081,-11698
C00537=-34696,67232,13595,10635,-42026,-11592
C00538=-34804,66403,12614,10630,-41838,-11567
C00539=-34964,65998,12136,10587,-41734,-11507
C00540=-35118,65585,11648,10546,-41630,-11450
C00541=-35266,65159,11145,10507,-41523,-11396
C00542=-35219,64915,10937,10526,-41526,-11417
C00543=-35077,65369,11475,10561,-41639,-11468
C00544=-34928,65806,11991,10598,-41748,-11522
C00545=-34773,66233,12495,10639,-41856,-11578
C00546=-34682,67128,13559,10634,-42057,-11594
C00547=-34420,67247,13698,10728,-42113,-11706
C00548=-34169,67394,13863,10817,-42169,-11812
C00549=-33926,67583,14075,10902,-42230,-11914
C00550=-33624,67825,14341,11007,-42306,-12041
C00551=-33356,68026,14558,11100,-42368,-12154
C00552=-33077,68247,14795,11197,-42435,-12271
C00553=-32727,68556,15124,11318,-42521,-12417
C00554=-32422,68842,15422,11423,-42596,-12545
C00555=-32102,69141,15724,11533,-42668,-12679
C00556=-31768,69446,16018,11650,-42734,-12820
C00557=-31344,69813,16341,11803,-42800,-13002
C00558=-30960,70109,16567,11945,-42838,-13169
C00559=-30540,70392,16734,12106,-42852,-13355
C00560=-29985,70721,16849,12327,-42831,-13608
C00561=-29486,71002,16878,12535,-42776,-13840
C00562=-28963,71309,16864,12760,-42686,-14088
C00563=-28430,71662,16827,12998,-42563,-14347
C00564=-27796,72167,16791,13292,-42380,-14661
C00565=-27291,72670,16798,13534,-42206,-14916
C00566=-26818,73250,16862,13767,-42025,-15160
C00567=-26303,74044,17035,14027,-41811,-15429
C00568=-25920,74778,17273,14223,-41646,-15631
C00569=-25583,75564,17601,14397,-41502,-15809
C00570=-25286,76389,18010,14549,-41381,-15966
C00571=-24976,77409,18592,14703,-41269,-16126
C00572=-24781,78244,19193,14788,-41243,-16220
C00573=-24635,79053,19890,14835,-41279,-16281
C00574=-24518,79981,20846,14843,-41406,-16312
C00575=-24496,79939,20809,14851,-41408,-16321
C00576=-24611,79012,19850,14844,-41280,-16292
C00577=-24751,78204,19143,14801,-41238,-16235
C00578=-24935,77371,18519,14725,-41251,-16149
C00579=-25226,76351,17900,14583,-41345,-15999
C00580=-25508,75520,17465,14440,-41454,-15851
C00581=-25829,74726,17109,14276,-41588,-15682
C00582=-26193,73981,16843,14088,-41744,-15490
C00583=-26689,73167,16638,13837,-41953,-15230
C00584=-27147,72567,16554,13610,-42133,-14994
C00585=-27640,72044,16532,13371,-42309,-14743
C00586=-28263,71514,16560,13079,-42501,-14431
C00587=-28793,71146,16598,12840,-42633,-14173
C00588=-29317,70827,16623,12611,-42734,-13922
C00589=-29822,70539,16610,12398,-42801,-13685
C00590=-30386,70210,16521,12169,-42836,-13427
C00591=-30816,69932,16378,12002,-42832,-13234
C00592=-31211,69644,16177,11854,-42803,-13061
C00593=-31650,69291,15884,11694,-42747,-12871
C00594=-31997,68999,15617,11570,-42688,-12723
C00595=-32330,68715,15341,11453,-42623,-12583
C00596=-32649,68445,15069,11342,-42554,-12448
C00597=-33012,68154,14767,11215,-42472,-12295
C00598=-33299,67941,14543,11115,-42409,-12174
C00599=-33568,67743,14331,11020,-42348,-12061
C00600=-33865,67502,14069,10917,-42275,-11936
C00601=-34104,67314,13862,10833,-42216,-11836
C00602=-34354,67168,13701,10744,-42163,-11730
C00603=-34615,67041,13553,10651,-42107,-11619
C00604=-34726,66197,12550,10646,-41913,-11593
C00605=-34883,65779,12058,10604,-41807,-11534
C00606=-35036,65353,11554,10565,-41700,-11479
C00607=-35182,64913,11033,10528,-41590,-11426
C00608=-35208,64938,11159,10505,-41651,-11407
C00609=-35052,65347,11646,10546,-41756,-11464
C00610=-34893,65751,12122,10590,-41860,-11524
C00611=-34730,66151,12594,10634,-41962,-11584
C00612=-34655,66900,13483,10630,-42130,-11597
C00613=-34384,67009,13611,10728,-42185,-11713
C00614=-34128,67141,13757,10820,-42237,-11822
C00615=-33840,67358,13992,10921,-42304,-11944
C00616=-33598,67562,14213,11005,-42364,-12045
C00617=-33341,67767,14430,11095,-42424,-12153
C00618=-33066,67979,14653,11191,-42486,-12269
C00619=-32773,68212,14895,11293,-42551,-12393
C00620=-32462,68467,15154,11402,-42618,-12524
C00621=-32133,68736,15416,11518,-42682,-12663
C00622=-31715,69069,15720,11667,-42751,-12842
C00623=-31348,69351,15953,11801,-42798,-13000
C00624=-30958,69632,16155,11947,-42829,-13171
C00625=-30539,69908,16310,12109,-42840,-13358
C00626=-30084,70177,16404,12290,-42823,-13564
C00627=-29593,70450,16435,12494,-42772,-13792
C00628=-28967,70805,16406,12764,-42664,-14090
C00629=-28432,71148,16353,13004,-42536,-14350
C00630=-27902,71553,16305,13250,-42381,-14613
C00631=-27393,72033,16292,13494,-42207,-14870
C00632=-26917,72590,16337,13728,-42026,-15115
C00633=-26482,73222,16457,13947,-41848,-15342
C00634=-26090,73921,16661,14146,-41681,-15547
C00635=-25680,74833,17026,14357,-41508,-15764
C00636=-25382,75642,17426,14508,-41390,-15920
C00637=-25119,76482,17898,14640,-41295,-16057
C00638=-24892,77335,18442,14748,-41231,-16172
C00639=-24718,78167,19085,14818,-41227,-16252
C00640=-24585,78972,19807,14855,-41278,-16304
C00641=-24477,79896,20777,14857,-41414,-16329
C00642=-24465,79781,20667,14863,-41408,-16336
C00643=-24566,78855,19678,14867,-41262,-16315
C00644=-24690,78049,18933,14837,-41200,-16270
C00645=-24855,77214,18267,14774,-41192,-16196
C00646=-25121,76184,17595,14648,-41262,-16062
C00647=-25382,75342,17118,14518,-41356,-15926
C00648=-25682,74532,16725,14365,-41478,-15768
C00649=-26026,73767,16427,14187,-41628,-15586
C00650=-26499,72924,16190,13944,-41835,-15336
C00651=-26940,72296,16082,13721,-42017,-15106
C00652=-27418,71743,16043,13486,-42199,-14860
C00653=-28031,71179,16063,13194,-42404,-14551
C00654=-28561,70787,16110,12950,-42552,-14290
C00655=-29092,70454,16155,12714,-42671,-14033
C00656=-29608,70160,16171,12492,-42757,-13788
C00657=-30192,69833,16125,12251,-42813,-13517
C00658=-30642,69565,16022,12072,-42825,-13314
C00659=-31061,69296,15870,11911,-42813,-13127
C00660=-31532,68975,15640,11734,-42774,-12921
C00661=-31904,68712,15423,11598,-42728,-12760
C00662=-32257,68454,15189,11471,-42671,-12609
C00663=-32587,68204,14947,11354,-42609,-12468
C00664=-32954,67924,14663,11225,-42534,-12314
C00665=-33236,67711,14443,11126,-42473,-12194
C00666=-33499,67506,14229,11034,-42414,-12083
C00667=-33796,67257,13962,10931,-42342,-11959
C00668=-34039,67068,13757,10845,-42284,-11857
C00669=-34297,66931,13608,10753,-42233,-11747
C00670=-34573,66827,13487,10653,-42179,-11628
C00671=-34698,66022,12530,10641,-41992,-11595
C00672=-34861,65613,12047,10597,-41887,-11535
C00673=-35020,65200,11559,10554,-41782,-11476
C00674=-35174,64778,11057,10514,-41673,-11419
C00675=-35137,64698,11061,10519,-41721,-11430
C00676=-34983,65118,11560,10560,-41828,-11487
C00677=-34823,65526,12042,10603,-41933,-11546
C00678=-34861,66582,13286,10544,-42147,-11502
C00679=-34534,66742,13484,10659,-42225,-11640
C00680=-34255,66838,13592,10760,-42275,-11760
C00681=-33992,66960,13721,10856,-42323,-11873
C00682=-33739,67126,13896,10946,-42375,-11980
C00683=-33431,67354,14135,11055,-42442,-12110
C00684=-33161,67555,14342,11150,-42500,-12225
C00685=-32875,67772,14563,11251,-42559,-12345
C00686=-32509,68058,14848,11380,-42633,-12500
C00687=-32181,68313,15092,11496,-42694,-12640
C00688=-31831,68574,15325,11622,-42747,-12790
C00689=-31459,68838,15537,11759,-42791,-12951
C00690=-30981,69155,15752,11939,-42824,-13161
C00691=-30552,69417,15885,12106,-42829,-13353
C00692=-30091,69678,15963,12291,-42807,-13564
C00693=-29494,70001,15981,12541,-42738,-13842
C00694=-28968,70297,15945,12769,-42641,-14093
C00695=-28431,70639,15885,13011,-42510,-14354
C00696=-27899,71042,15829,13259,-42351,-14619
C00697=-27289,71624,15808,13553,-42137,-14928
C00698=-26818,72194,15854,13787,-41950,-15172
C00699=-26387,72838,15976,14006,-41766,-15398
C00700=-25928,73698,16235,14244,-41563,-15641
C00701=-25597,74474,16555,14415,-41419,-15817
C00702=-25311,75292,16973,14561,-41306,-15967
C00703=-25063,76139,17475,14683,-41222,-16096
C00704=-24807,77174,18170,14802,-41162,-16223
C00705=-24647,78013,18848,14861,-41174,-16294
C00706=-24528,78821,19605,14888,-41242,-16336
C00707=-24431,79747,20603,14881,-41392,-16354
C00708=-24406,79706,20558,14892,-41389,-16366
C00709=-24499,78780,19550,14901,-41235,-16351
C00710=-24613,77972,18780,14879,-41160,-16312
C00711=-24764,77132,18083,14826,-41138,-16247
C00712=-25005,76094,17356,14718,-41183,-16129
C00713=-25240,75243,16828,14604,-41254,-16009
C00714=-25512,74419,16385,14466,-41357,-15866
C00715=-25829,73633,16040,14302,-41494,-15698
C00716=-26273,72757,15758,14071,-41695,-15462
C00717=-26695,72096,15625,13854,-41881,-15239
C00718=-27162,71510,15575,13619,-42074,-14996
C00719=-27771,70910,15601,13322,-42299,-14685
C00720=-28305,70495,15665,13071,-42468,-14418
C00721=-28844,70144,15733,12826,-42609,-14153
C00722=-29372,69839,15778,12594,-42714,-13900
C00723=-29973,69509,15771,12341,-42793,-13618
C00724=-30440,69247,15706,12151,-42822,-13404
C00725=-30876,68987,15590,11980,-42825,-13208
C00726=-31364,68675,15396,11795,-42800,-12993
C00727=-31743,68417,15198,11654,-42762,-12828
C00728=-32098,68160,14978,11525,-42712,-12675
C00729=-32429,67909,14745,11407,-42656,-12533
C00730=-32797,67623,14465,11276,-42585,-12377
C00731=-33083,67404,14245,11175,-42527,-12256
C00732=-33355,67200,14038,11079,-42471,-12141
C00733=-33668,66978,13809,10968,-42407,-12008
C00734=-33928,66824,13652,10874,-42358,-11897
C00735=-34199,66711,13537,10775,-42313,-11781
C00736=-34485,66620,13435,10671,-42263,-11658
C00737=-34816,66458,13235,10554,-42185,-11518
C00738=-35046,66226,12952,10478,-42104,-11424
C00739=-34931,64982,11496,10573,-41865,-11506
C00740=-35085,64559,10994,10533,-41757,-11449
C00741=-35041,64431,10938,10544,-41792,-11465
C00742=-34887,64857,11442,10584,-41901,-11521
C00743=-35010,66111,12911,10485,-42141,-11436
C00744=-34774,66335,13184,10564,-42221,-11533
C00745=-34436,66490,13375,10683,-42298,-11675
C00746=-34148,66588,13483,10788,-42348,-11799
C00747=-33878,66712,13610,10886,-42395,-11915
C00748=-33616,66865,13765,10981,-42443,-12027
C00749=-33296,67074,13974,11096,-42503,-12163
C00750=-33017,67265,14162,11196,-42555,-12282
C00751=-32721,67473,14364,11301,-42609,-12408
C00752=-32341,67748,14623,11437,-42675,-12570
C00753=-32001,67991,14839,11560,-42726,-12717
C00754=-31637,68242,15043,11694,-42770,-12874
C00755=-31250,68496,15224,11839,-42802,-13043
C00756=-30752,68801,15395,12031,-42817,-13265
C00757=-30303,69055,15485,12209,-42804,-13469
C00758=-29821,69312,15520,12408,-42761,-13691
C00759=-29203,69643,15492,12672,-42664,-13983
C00760=-28669,69958,15431,12910,-42545,-14242
C00761=-28131,70328,15361,13157,-42394,-14507
C00762=-27608,70767,15309,13407,-42220,-14771
C00763=-27015,71395,15307,13698,-41992,-15076
C00764=-26564,72002,15380,13927,-41801,-15312
C00765=-26159,72679,15540,14136,-41620,-15526
C00766=-25739,73570,15863,14355,-41434,-15750
C00767=-25442,74363,16241,14508,-41311,-15907
C00768=-25184,75191,16711,14636,-41220,-16040
C00769=-24960,76045,17263,14742,-41159,-16154
C00770=-24732,77084,18017,14842,-41127,-16264
C00771=-24587,77925,18730,14890,-41158,-16324
C00772=-24474,78736,19503,14912,-41232,-16363
C00773=-24379,79667,20508,14904,-41383,-16379
C00774=-24354,79626,20460,14915,-41380,-16391
C00775=-24440,78698,19435,14930,-41216,-16381
C00776=-24541,77891,18637,14918,-41126,-16351
C00777=-24673,77053,17895,14880,-41080,-16299
C00778=-24885,76012,17107,14791,-41094,-16199
C00779=-25099,75152,16538,14691,-41149,-16092
C00780=-25353,74315,16062,14563,-41242,-15959
C00781=-25652,73511,15690,14406,-41374,-15800
C00782=-26075,72607,15379,14183,-41573,-15573
C00783=-26480,71919,15223,13971,-41761,-15357
C00784=-26928,71301,15148,13742,-41957,-15121
C00785=-27513,70659,15141,13452,-42187,-14819
C00786=-28029,70206,15184,13205,-42364,-14558
C00787=-28561,69823,15249,12958,-42519,-14294
C00788=-29095,69499,15313,12719,-42644,-14035
C00789=-29716,69162,15352,12451,-42750,-13740
C00790=-30205,68904,15333,12248,-42801,-13513
C00791=-30663,68653,15260,12064,-42822,-13305
C00792=-31170,68354,15109,11867,-42814,-13078
C00793=-31563,68105,14942,11719,-42788,-12905
C00794=-31930,67857,14747,11584,-42748,-12746
C00795=-32272,67615,14537,11459,-42699,-12598
C00796=-32651,67339,14282,11323,-42636,-12436
C00797=-32947,67126,14078,11217,-42583,-12310
C00798=-33226,66931,13888,11117,-42532,-12191
C00799=-33550,66722,13683,11001,-42474,-12053
C00800=-33818,66576,13539,10904,-42428,-11938
C00801=-34097,66463,13428,10802,-42384,-11818
C00802=-34394,66376,13333,10693,-42335,-11690
C00803=-34739,66214,13133,10571,-42255,-11544
C00804=-34978,65973,12837,10492,-42170,-11447
C00805=-34847,64728,11381,10593,-41934,-11535
C00806=-35001,64300,10873,10553,-41824,-11479
C00807=-34973,64205,10853,10557,-41863,-11487
C00808=-34814,64625,11352,10598,-41971,-11545
C00809=-34961,65892,12831,10491,-42209,-11449
C00810=-34713,66123,13116,10573,-42294,-11551
C00811=-34352,66260,13288,10702,-42372,-11704
C00812=-34041,66325,13355,10817,-42416,-11839
C00813=-33750,66425,13449,10924,-42458,-11964
C00814=-33473,66566,13584,11026,-42502,-12084
C00815=-33143,66773,13783,11145,-42559,-12225
C00816=-32860,66967,13967,11246,-42607,-12346
C00817=-32563,67178,14164,11354,-42657,-12473
C00818=-32178,67449,14406,11493,-42715,-12639
C00819=-31830,67686,14602,11621,-42759,-12789
C00820=-31456,67929,14781,11760,-42793,-12952
C00821=-31058,68176,14935,11911,-42814,-13128
C00822=-30545,68476,15073,12112,-42814,-13359
C00823=-30085,68731,15138,12298,-42787,-13569
C00824=-29595,68995,15150,12503,-42730,-13798
C00825=-28971,69341,15103,12774,-42614,-14095
C00826=-28436,69676,15031,13017,-42479,-14357
C00827=-27902,70069,14956,13267,-42315,-14623
C00828=-27385,70535,14907,13518,-42128,-14887
C00829=-26805,71196,14917,13808,-41890,-15188
C00830=-26367,71830,15005,14035,-41693,-15419
C00831=-25976,72531,15182,14240,-41508,-15629
C00832=-25572,73446,15524,14454,-41320,-15846
C00833=-25289,74255,15923,14601,-41199,-15996
C00834=-25048,75094,16421,14721,-41116,-16121
C00835=-24843,75956,17008,14815,-41070,-16223
C00836=-24640,76998,17816,14897,-41065,-16317
C00837=-24513,77837,18568,14932,-41116,-16366
C00838=-24414,78647,19372,14943,-41209,-16395
C00839=-24329,79576,20402,14927,-41374,-16404
C00840=-24303,79459,20248,14946,-41344,-16421
C00841=-24384,78533,19213,14965,-41175,-16415
C00842=-24478,77726,18401,14957,-41078,-16389
C00843=-24601,76887,17643,14925,-41024,-16343
C00844=-24799,75845,16828,14846,-41025,-16252
C00845=-24996,74984,16231,14756,-41066,-16154
C00846=-25226,74145,15719,14643,-41142,-16035
C00847=-25498,73334,15307,14501,-41257,-15890
C00848=-25890,72412,14950,14293,-41443,-15679
C00849=-26270,71703,14762,14091,-41626,-15475
C00850=-26699,71058,14665,13868,-41824,-15247
C00851=-27270,70382,14650,13578,-42067,-14948
C00852=-27783,69904,14699,13327,-42261,-14685
C00853=-28314,69499,14775,13076,-42432,-14419
C00854=-28847,69153,14848,12833,-42573,-14157
C00855=-29467,68794,14898,12561,-42696,-13860
C00856=-29958,68524,14893,12354,-42761,-13630
C00857=-30424,68270,14845,12164,-42797,-13416
C00858=-30950,67978,14737,11955,-42808,-13178
C00859=-31362,67744,14612,11796,-42797,-12994
C00860=-31747,67514,14459,11651,-42770,-12825
C00861=-32104,67288,14284,11518,-42732,-12669
C00862=-32496,67028,14062,11375,-42679,-12500
C00863=-32799,66825,13878,11265,-42633,-12370
C00864=-33085,66636,13704,11162,-42587,-12248
C00865=-33416,66435,13517,11041,-42534,-12105
C00866=-33694,66301,13393,10939,-42494,-11985
C00867=-33986,66208,13311,10831,-42455,-11859
C00868=-34302,66154,13259,10713,-42414,-11722
C00869=-34670,66027,13101,10581,-42339,-11565
C00870=-34920,65798,12820,10498,-42255,-11462
C00871=-35140,65517,12474,10428,-42162,-11374
C00872=-34928,64112,10841,10565,-41908,-11502
C00873=-35243,64962,11912,10401,-42091,-11337
C00874=-35093,65425,12467,10437,-42210,-11390
C00875=-34872,65696,12799,10508,-42299,-11478
C00876=-34623,65922,13075,10592,-42381,-11581
C00877=-34252,66044,13224,10725,-42453,-11739
C00878=-33935,66095,13268,10844,-42493,-11877
C00879=-33643,66185,13344,10952,-42528,-12004
C00880=-33364,66317,13462,11055,-42567,-12124
C00881=-33026,66511,13637,11179,-42617,-12270
C00882=-32732,66690,13797,11286,-42660,-12397
C00883=-32423,66888,13968,11399,-42703,-12530
C00884=-32027,67148,14184,11544,-42753,-12701
C00885=-31671,67378,14360,11676,-42788,-12856
C00886=-31290,67615,14517,11821,-42814,-13024
C00887=-30881,67855,14644,11979,-42824,-13206
C00888=-30353,68147,14745,12189,-42808,-13446
C00889=-29881,68399,14778,12383,-42766,-13664
C00890=-29380,68666,14763,12596,-42692,-13900
C00891=-28750,69025,14691,12875,-42557,-14204
C00892=-28212,69377,14605,13122,-42406,-14469
C00893=-27679,69791,14522,13377,-42226,-14738
C00894=-27167,70281,14468,13630,-42025,-15002
C00895=-26598,70972,14482,13922,-41773,-15301
C00896=-26175,71629,14585,14144,-41571,-15528
C00897=-25802,72349,14782,14344,-41387,-15729
C00898=-25420,73281,15153,14547,-41204,-15935
C00899=-25157,74098,15581,14684,-41094,-16075
C00900=-24939,74939,16113,14790,-41027,-16187
C00901=-24753,75800,16734,14873,-40998,-16277
C00902=-24564,76845,17567,14945,-41006,-16363
C00903=-24443,77687,18332,14976,-41062,-16408
C00904=-24350,78497,19148,14983,-41160,-16433
C00905=-24271,79424,20189,14962,-41331,-16438
C00906=-24235,79393,20118,14982,-41311,-16458
C00907=-24310,78466,19069,15006,-41135,-16455
C00908=-24399,77656,18242,15003,-41031,-16434
C00909=-24513,76813,17463,14977,-40968,-16393
C00910=-24696,75764,16616,14908,-40955,-16311
C00911=-24881,74897,15993,14826,-40986,-16221
C00912=-25099,74049,15461,14718,-41056,-16109
C00913=-25359,73226,15030,14582,-41168,-15970
C00914=-25732,72286,14648,14382,-41350,-15767
C00915=-26096,71557,14438,14187,-41531,-15570
C00916=-26508,70890,14321,13968,-41731,-15349
C00917=-27063,70183,14288,13683,-41981,-15056
C00918=-27566,69677,14327,13432,-42183,-14796
C00919=-28091,69247,14401,13180,-42366,-14530
C00920=-28623,68881,14483,12933,-42522,-14266
C00921=-29252,68507,14556,12653,-42665,-13961
C00922=-29754,68232,14578,12437,-42746,-13724
C00923=-30231,67977,14555,12239,-42796,-13502
C00924=-30765,67683,14469,12025,-42820,-13259
C00925=-31178,67443,14354,11864,-42816,-13074
C00926=-31563,67207,14206,11717,-42796,-12904
C00927=-31921,66977,14039,11583,-42765,-12747
C00928=-32320,66715,13830,11436,-42719,-12574
C00929=-32630,66514,13660,11322,-42679,-12440
C00930=-32926,66331,13501,11214,-42638,-12312
C00931=-33273,66144,13339,11086,-42592,-12162
C00932=-33569,66028,13244,10976,-42557,-12034
C00933=-33879,65953,13187,10860,-42523,-11898
C00934=-34210,65912,13155,10736,-42484,-11754
C00935=-34593,65806,13026,10597,-42414,-11590
C00936=-34859,65614,12789,10506,-42336,-11480
C00937=-35096,65380,12499,10428,-42251,-11384
C00938=-35250,64929,11956,10390,-42133,-11328
C00939=-35238,64839,11934,10388,-42167,-11330
C00940=-35085,65297,12487,10425,-42287,-11384
C00941=-34847,65538,12785,10503,-42374,-11481
C00942=-34578,65727,13020,10595,-42452,-11592
C00943=-34183,65820,13135,10739,-42521,-11761
C00944=-33839,65847,13151,10868,-42558,-11912
C00945=-33518,65909,13189,10989,-42590,-12052
C00946=-33210,66009,13262,11105,-42621,-12187
C00947=-32844,66174,13391,11242,-42661,-12346
C00948=-32531,66340,13523,11358,-42696,-12482
C00949=-32207,66529,13670,11478,-42731,-12623
C00950=-31795,66781,13857,11632,-42769,-12803
C00951=-31428,67007,14007,11771,-42794,-12965
C00952=-31036,67241,14139,11921,-42807,-13139
C00953=-30619,67484,14244,12086,-42804,-13327
C00954=-30084,67787,14325,12302,-42773,-13571
C00955=-29610,68054,14347,12501,-42717,-13793
C00956=-29110,68342,14326,12717,-42629,-14031
C00957=-28484,68732,14253,12998,-42478,-14335
C00958=-27955,69113,14172,13246,-42316,-14599
C00959=-27434,69560,14102,13499,-42126,-14864
C00960=-26939,70082,14070,13748,-41919,-15122
C00961=-26395,70808,14117,14031,-41667,-15411
C00962=-25993,71490,14248,14245,-41467,-15628
C00963=-25640,72229,14474,14436,-41289,-15820
C00964=-25283,73177,14882,14628,-41116,-16013
C00965=-25037,74003,15336,14755,-41014,-16144
C00966=-24829,74852,15886,14856,-40952,-16251
C00967=-24653,75721,16523,14934,-40928,-16336
C00968=-24476,76772,17386,14998,-40948,-16414
C00969=-24365,77617,18173,15021,-41015,-16452
C00970=-24278,78429,19006,15023,-41121,-16473
C00971=-24202,79359,20056,15000,-41296,-16475
C00972=-24169,79247,19881,15026,-41253,-16499
C00973=-24242,78319,18829,15051,-41076,-16497
C00974=-24325,77509,17992,15051,-40967,-16479
C00975=-24430,76668,17195,15032,-40894,-16444
C00976=-24595,75622,16315,14976,-40863,-16374
C00977=-24762,74756,15666,14905,-40880,-16294
C00978=-24962,73906,15109,14808,-40939,-16192
C00979=-25203,73077,14654,14681,-41042,-16063
C00980=-25556,72122,14249,14489,-41220,-15870
C00981=-25907,71375,14027,14297,-41406,-15678
C00982=-26308,70686,13902,14080,-41614,-15460
C00983=-26849,69949,13859,13796,-41873,-15171
C00984=-27340,69418,13889,13547,-42084,-14914
C00985=-27857,68961,13960,13294,-42279,-14649
C00986=-28387,68574,14048,13043,-42449,-14383
C00987=-29023,68184,14147,12755,-42613,-14072
C00988=-29537,67904,14199,12530,-42713,-13826
C00989=-30027,67648,14208,12323,-42780,-13596
C00990=-30571,67355,14151,12101,-42819,-13346
C00991=-30985,67112,14048,11938,-42824,-13159
C00992=-31366,66868,13905,11791,-42811,-12990
C00993=-31721,66630,13741,11658,-42785,-12834
C00994=-32122,66363,13540,11508,-42747,-12660
C00995=-32444,66167,13388,11389,-42713,-12519
C00996=-32759,66001,13262,11271,-42681,-12382
C00997=-33134,65851,13156,11130,-42646,-12217
C00998=-33450,65770,13112,11010,-42622,-12079
C00999=-33776,65724,13097,10886,-42596,-11936
C01000=-34122,65703,13093,10755,-42562,-11784
C01001=-34520,65600,12968,10610,-42491,-11613
C01002=-34792,65401,12722,10518,-42411,-11501
C01003=-35036,65164,12426,10437,-42324,-11401
C01004=-35194,64710,11878,10398,-42203,-11345
C01005=-35187,64697,11955,10390,-42257,-11341
C01006=-35023,65132,12481,10432,-42375,-11401
C01007=-34765,65334,12737,10519,-42457,-11507
C01008=-34479,65501,12944,10619,-42532,-11627
C01009=-34064,65569,13025,10771,-42596,-11806
C01010=-33703,65570,13002,10908,-42625,-11964
C01011=-33358,65597,12991,11041,-42647,-12117
C01012=-33023,65658,13005,11170,-42666,-12265
C01013=-32628,65788,13075,11320,-42692,-12439
C01014=-32301,65945,13181,11444,-42718,-12583
C01015=-31972,66140,13322,11567,-42747,-12727
C01016=-31571,66415,13522,11717,-42781,-12902
C01017=-31221,66665,13692,11850,-42804,-13056
C01018=-30847,66921,13842,11994,-42815,-13223
C01019=-30439,67176,13951,12155,-42807,-13407
C01020=-29898,67481,14010,12377,-42762,-13657
C01021=-29408,67745,13996,12586,-42689,-13888
C01022=-28891,68033,13935,12814,-42580,-14137
C01023=-28253,68436,13829,13107,-42406,-14450
C01024=-27725,68838,13740,13359,-42228,-14717
C01025=-27214,69311,13675,13611,-42027,-14980
C01026=-26732,69859,13655,13858,-41814,-15234
C01027=-26203,70613,13715,14138,-41554,-15518
C01028=-25812,71315,13854,14351,-41348,-15731
C01029=-25470,72072,14089,14539,-41163,-15919
C01030=-25127,73036,14508,14727,-40988,-16108
C01031=-24894,73870,14973,14850,-40887,-16233
C01032=-24700,74723,15540,14944,-40831,-16332
C01033=-24538,75592,16200,15013,-40818,-16408
C01034=-24381,76639,17097,15063,-40857,-16473
C01035=-24283,77480,17909,15077,-40939,-16503
C01036=-24206,78288,18760,15071,-41056,-16518
C01037=-24137,79215,19822,15043,-41239,-16516
C01038=-24099,79189,19753,15064,-41217,-16537
C01039=-24166,78262,18683,15095,-41030,-16541
C01040=-24241,77453,17824,15103,-40909,-16529
C01041=-24335,76611,17002,15092,-40822,-16501
C01042=-24487,75561,16095,15045,-40780,-16439
C01043=-24646,74687,15431,14977,-40793,-16363
C01044=-24839,73828,14863,14883,-40851,-16265
C01045=-25070,72988,14396,14760,-40954,-16140
C01046=-25408,72018,13973,14574,-41131,-15954
C01047=-25742,71255,13729,14388,-41313,-15769
C01048=-26123,70545,13575,14180,-41517,-15560
C01049=-26638,69777,13495,13906,-41773,-15283
C01050=-27109,69215,13499,13663,-41986,-15034
C01051=-27610,68726,13550,13414,-42187,-14775
C01052=-28130,68308,13629,13164,-42367,-14512
C01053=-28761,67887,13728,12873,-42547,-14200
C01054=-29275,67586,13787,12644,-42662,-13952
C01055=-29766,67314,13806,12434,-42741,-13719
C01056=-30314,67006,13763,12207,-42796,-13465
C01057=-30734,66755,13675,12039,-42813,-13274
C01058=-31123,66510,13553,11887,-42811,-13099
C01059=-31490,66275,13412,11746,-42796,-12937
C01060=-31909,66018,13245,11587,-42770,-12752
C01061=-32248,65837,13127,11458,-42747,-12603
C01062=-32582,65691,13040,11331,-42726,-12455
C01063=-32981,65568,12982,11178,-42703,-12279
C01064=-33317,65508,12972,11049,-42685,-12130
C01065=-33662,65485,12991,10916,-42666,-11978
C01066=-34026,65496,13032,10777,-42641,-11817
C01067=-34446,65450,12980,10621,-42584,-11635
C01068=-34734,65296,12791,10520,-42513,-11514
C01069=-34992,65107,12554,10433,-42435,-11408
C01070=-35156,64685,12045,10390,-42321,-11348
C01071=-35145,64648,12092,10385,-42370,-11347
C01072=-34977,65056,12586,10430,-42482,-11409
C01073=-34709,65225,12801,10521,-42558,-11520
C01074=-34407,65356,12963,10628,-42626,-11648
C01075=-33973,65380,12986,10790,-42679,-11836
C01076=-33602,65358,12929,10933,-42700,-12000
C01077=-33248,65371,12894,11070,-42716,-12157
C01078=-32905,65423,12890,11203,-42730,-12310
C01079=-32505,65542,12937,11357,-42748,-12487
C01080=-32176,65692,13026,11482,-42768,-12632
C01081=-31843,65880,13149,11608,-42790,-12779
C01082=-31428,66140,13316,11766,-42814,-12962
C01083=-31062,66373,13450,11907,-42825,-13125
C01084=-30669,66614,13560,12062,-42823,-13302
C01085=-30242,66858,13630,12234,-42800,-13497
C01086=-29683,67159,13648,12467,-42735,-13757
C01087=-29184,67429,13610,12683,-42647,-13995
C01088=-28666,67732,13539,12916,-42525,-14246
C01089=-28039,68163,13439,13207,-42339,-14558
C01090=-27527,68591,13367,13455,-42157,-14818
C01091=-27035,69089,13327,13700,-41957,-15072
C01092=-26574,69658,13333,13939,-41746,-15317
C01093=-26067,70431,13420,14210,-41489,-15591
C01094=-25690,71145,13574,14418,-41284,-15798
C01095=-25359,71911,13816,14603,-41099,-15982
C01096=-25024,72883,14236,14789,-40919,-16167
C01097=-24792,73725,14696,14914,-40811,-16293
C01098=-24599,74586,15256,15010,-40747,-16394
C01099=-24443,75460,15918,15077,-40732,-16468
C01100=-24294,76509,16828,15123,-40776,-16528
C01101=-24202,77351,17649,15133,-40862,-16555
C01102=-24128,78160,18508,15125,-40982,-16567
C01103=-24063,79085,19577,15093,-41169,-16562
C01104=-24018,79070,19493,15121,-41134,-16589
C01105=-24081,78144,18417,15155,-40944,-16595
C01106=-24154,77332,17556,15163,-40823,-16584
C01107=-24249,76483,16736,15151,-40741,-16556
C01108=-24398,75426,15826,15105,-40701,-16495
C01109=-24551,74550,15158,15040,-40714,-16422
C01110=-24737,73686,14587,14947,-40774,-16325
C01111=-24961,72842,14116,14827,-40877,-16204
C01112=-25283,71865,13677,14647,-41050,-16025
C01113=-25601,71092,13415,14469,-41229,-15848
C01114=-25966,70369,13244,14266,-41431,-15646
C01115=-26466,69580,13149,13996,-41691,-15375
C01116=-26925,68997,13143,13756,-41909,-15130
C01117=-27414,68487,13183,13509,-42116,-14875
C01118=-27921,68044,13249,13263,-42302,-14616
C01119=-28537,67593,13333,12975,-42490,-14310
C01120=-29043,67270,13388,12747,-42612,-14063
C01121=-29532,66982,13411,12534,-42703,-13830
C01122=-30085,66663,13386,12302,-42773,-13571
C01123=-30513,66411,13322,12128,-42802,-13375
C01124=-30914,66170,13226,11968,-42813,-13193
C01125=-31293,65944,13116,11820,-42810,-13023
C01126=-31729,65701,12986,11652,-42797,-12829
C01127=-32081,65531,12898,11516,-42784,-12673
C01128=-32428,65401,12841,11382,-42771,-12519
C01129=-32843,65302,12826,11221,-42760,-12334
C01130=-33195,65264,12852,11084,-42751,-12177
C01131=-33558,65267,12909,10942,-42740,-12015
C01132=-33939,65306,12989,10795,-42722,-11846
C01133=-34381,65297,12987,10629,-42673,-11654
C01134=-34683,65162,12821,10523,-42604,-11526
C01135=-34952,64989,12601,10430,-42528,-11414
C01136=-35122,64583,12109,10385,-42415,-11352
C01137=-35115,64699,12355,10369,-42506,-11344
C01138=-34938,65072,12808,10419,-42613,-11411
C01139=-34654,65183,12952,10520,-42677,-11531
C01140=-34330,65245,13029,10638,-42731,-11670
C01141=-33934,65180,12943,10789,-42758,-11844
C01142=-33513,65063,12766,10955,-42761,-12032
C01143=-33123,65008,12638,11110,-42760,-12208
C01144=-32684,65026,12563,11284,-42760,-12405
C01145=-32331,65101,12557,11422,-42763,-12563
C01146=-31985,65226,12598,11557,-42769,-12718
C01147=-31640,65395,12681,11691,-42778,-12872
C01148=-31290,65599,12789,11827,-42787,-13028
C01149=-30926,65828,12906,11969,-42790,-13191
C01150=-30541,66073,13013,12121,-42782,-13365
C01151=-30048,66384,13110,12321,-42751,-13591
C01152=-29608,66658,13155,12505,-42701,-13796
C01153=-29144,66951,13164,12705,-42624,-14016
C01154=-28660,67272,13140,12920,-42517,-14250
C01155=-28164,67633,13093,13148,-42380,-14495
C01156=-27666,68045,13040,13385,-42214,-14746
C01157=-27083,68622,12993,13674,-41983,-15046
C01158=-26622,69176,12991,13912,-41775,-15290
C01159=-26193,69797,13041,14140,-41560,-15521
C01160=-25802,70482,13158,14354,-41348,-15735
C01161=-25454,71224,13352,14550,-41149,-15930
C01162=-25147,72013,13631,14725,-40971,-16102
C01163=-24883,72839,14002,14874,-40823,-16249
C01164=-24621,73866,14579,15017,-40698,-16393
C01165=-24445,74739,15175,15102,-40648,-16483
C01166=-24303,75622,15872,15159,-40646,-16548
C01167=-24188,76503,16652,15191,-40692,-16593
C01168=-24101,77347,17486,15197,-40782,-16616
C01169=-24034,78155,18357,15184,-40911,-16623
C01170=-23975,79077,19439,15147,-41106,-16614
C01171=-23949,79021,19369,15160,-41096,-16628
C01172=-24011,78096,18292,15195,-40905,-16635
C01173=-24080,77286,17423,15207,-40779,-16626
C01174=-24165,76442,16585,15202,-40686,-16605
C01175=-24274,75567,15797,15175,-40634,-16564
C01176=-24409,74690,15091,15123,-40628,-16503
C01177=-24575,73823,14485,15043,-40671,-16418
C01178=-24823,72803,13891,14910,-40784,-16284
C01179=-25074,71978,13501,14768,-40923,-16144
C01180=-25367,71185,13205,14601,-41094,-15979
C01181=-25705,70436,12996,14410,-41290,-15790
C01182=-26085,69739,12865,14199,-41501,-15580
C01183=-26504,69103,12803,13974,-41716,-15353
C01184=-26957,68534,12795,13738,-41928,-15113
C01185=-27536,67940,12840,13449,-42165,-14812
C01186=-28036,67516,12902,13208,-42341,-14558
C01187=-28542,67150,12967,12972,-42492,-14307
C01188=-29042,66830,13020,12747,-42613,-14064
C01189=-29526,66546,13049,12536,-42705,-13832
C01190=-29990,66288,13046,12340,-42769,-13614
C01191=-30512,66002,13000,12125,-42814,-13373
C01192=-30918,65779,12933,11962,-42832,-13188
C01193=-31300,65571,12849,11812,-42835,-13017
C01194=-31660,65382,12761,11672,-42830,-12856
C01195=-32006,65219,12684,11537,-42822,-12701
C01196=-32346,65091,12636,11405,-42814,-12550
C01197=-32688,65007,12630,11271,-42810,-12397
C01198=-33114,64977,12690,11103,-42808,-12206
C01199=-33491,65016,12800,10954,-42808,-12036
C01200=-33900,65114,12957,10794,-42804,-11854
C01201=-34288,65159,13022,10646,-42774,-11683
C01202=-34608,65076,12921,10530,-42718,-11546
C01203=-34883,64934,12742,10434,-42649,-11431
C01204=-35053,64537,12261,10388,-42539,-11368
C01205=-34994,64347,12128,10407,-42561,-11392
C01206=-34824,64738,12602,10453,-42670,-11455
C01207=-34549,64886,12787,10549,-42739,-11570
C01208=-34234,64993,12914,10662,-42800,-11704
C01209=-33848,64968,12871,10808,-42832,-11873
C01210=-33440,64881,12725,10969,-42837,-12056
C01211=-33066,64852,12624,11117,-42837,-12224
C01212=-32640,64886,12566,11285,-42838,-12415
C01213=-32288,64960,12555,11423,-42839,-12573
C01214=-31931,65069,12572,11563,-42839,-12733
C01215=-31567,65212,12613,11706,-42839,-12896
C01216=-31191,65387,12671,11855,-42835,-13066
C01217=-30798,65587,12732,12011,-42823,-13244
C01218=-30386,65808,12785,12178,-42799,-13432
C01219=-29863,66100,12823,12394,-42747,-13674
C01220=-29404,66367,12827,12590,-42678,-13891
C01221=-28925,66662,12804,12800,-42583,-14121
C01222=-28432,66993,12756,13023,-42459,-14362
C01223=-27932,67370,12695,13258,-42305,-14611
C01224=-27436,67804,12636,13498,-42126,-14864
C01225=-26864,68410,12595,13787,-41884,-15162
C01226=-26417,68989,12608,14021,-41670,-15400
C01227=-26006,69632,12678,14244,-41454,-15624
C01228=-25633,70334,12815,14452,-41244,-15831
C01229=-25301,71088,13027,14641,-41047,-16018
C01230=-25009,71886,13319,14810,-40870,-16183
C01231=-24758,72716,13700,14954,-40724,-16325
C01232=-24511,73741,14286,15090,-40604,-16460
C01233=-24348,74609,14890,15169,-40558,-16544
C01234=-24216,75485,15593,15220,-40563,-16604
C01235=-24110,76359,16382,15246,-40615,-16643
C01236=-24031,77198,17227,15246,-40714,-16661
C01237=-23969,78001,18106,15229,-40848,-16664
C01238=-23912,78920,19190,15190,-41046,-16654
C01239=-23844,78935,19056,15241,-40970,-16699
C01240=-23905,78010,17978,15276,-40778,-16707
C01241=-23974,77195,17111,15287,-40656,-16698
C01242=-24060,76343,16279,15280,-40570,-16674
C01243=-24170,75459,15497,15250,-40526,-16632
C01244=-24302,74577,14795,15198,-40525,-16572
C01245=-24459,73710,14182,15122,-40566,-16491
C01246=-24689,72689,13569,14998,-40671,-16366
C01247=-24919,71861,13155,14867,-40800,-16237
C01248=-25191,71059,12832,14710,-40963,-16083
C01249=-25510,70294,12601,14526,-41155,-15903
C01250=-25876,69576,12457,14319,-41370,-15698
C01251=-26288,68916,12390,14093,-41596,-15472
C01252=-26736,68321,12384,13854,-41821,-15230
C01253=-27310,67698,12431,13561,-42075,-14929
C01254=-27806,67252,12494,13318,-42263,-14675
C01255=-28310,66865,12565,13079,-42426,-14422
C01256=-28811,66530,12629,12850,-42561,-14175
C01257=-29302,66235,12676,12632,-42668,-13938
C01258=-29774,65972,12696,12429,-42747,-13715
C01259=-30308,65686,12680,12206,-42808,-13466
C01260=-30724,65466,12637,12037,-42837,-13275
C01261=-31113,65261,12574,11882,-42851,-13098
C01262=-31479,65074,12504,11737,-42854,-12934
C01263=-31828,64912,12442,11601,-42853,-12777
C01264=-32168,64779,12400,11467,-42851,-12625
C01265=-32509,64687,12393,11333,-42850,-12472
C01266=-32934,64640,12447,11165,-42853,-12281
C01267=-33313,64667,12553,11015,-42857,-12110
C01268=-33734,64765,12721,10848,-42857,-11921
C01269=-34143,64816,12800,10692,-42831,-11741
C01270=-34480,64743,12715,10569,-42776,-11596
C01271=-34769,64620,12561,10467,-42711,-11475
C01272=-34941,64231,12090,10420,-42603,-11410
C01273=-34872,64137,12086,10437,-42656,-11435
C01274=-34697,64518,12546,10486,-42763,-11501
C01275=-34409,64640,12695,10588,-42825,-11622
C01276=-34077,64718,12781,10709,-42877,-11765
C01277=-33664,64655,12681,10868,-42898,-11948
C01278=-33232,64537,12482,11040,-42890,-12142
C01279=-32849,64499,12356,11193,-42880,-12315
C01280=-32423,64540,12288,11362,-42872,-12508
C01281=-32074,64625,12278,11501,-42868,-12665
C01282=-31720,64745,12296,11641,-42863,-12824
C01283=-31358,64898,12335,11784,-42857,-12987
C01284=-30983,65079,12385,11934,-42846,-13158
C01285=-30585,65281,12431,12094,-42824,-13339
C01286=-30163,65503,12461,12268,-42788,-13534
C01287=-29624,65796,12465,12495,-42717,-13786
C01288=-29152,66070,12443,12700,-42632,-14011
C01289=-28663,66377,12396,12918,-42519,-14249
C01290=-28162,66726,12329,13150,-42376,-14496
C01291=-27656,67127,12252,13392,-42202,-14752
C01292=-27157,67588,12180,13640,-42002,-15010
C01293=-26585,68233,12132,13936,-41737,-15313
C01294=-26146,68847,12150,14173,-41509,-15551
C01295=-25749,69524,12237,14394,-41285,-15771
C01296=-25397,70255,12403,14595,-41074,-15969
C01297=-25090,71031,12651,14773,-40884,-16143
C01298=-24825,71842,12981,14929,-40721,-16295
C01299=-24597,72680,13397,15060,-40588,-16424
C01300=-24370,73712,14010,15186,-40477,-16549
C01301=-24215,74587,14623,15262,-40431,-16629
C01302=-24088,75473,15331,15312,-40434,-16687
C01303=-23985,76357,16125,15337,-40484,-16725
C01304=-23906,77207,16970,15339,-40578,-16744
C01305=-23842,78018,17848,15324,-40707,-16749
C01306=-23783,78942,18934,15285,-40904,-16739
C01307=-23746,78846,18752,15317,-40849,-16767
C01308=-23807,77920,17676,15352,-40659,-16774
C01309=-23875,77103,16809,15364,-40538,-16766
C01310=-23957,76251,15973,15359,-40451,-16745
C01311=-24060,75366,15186,15333,-40405,-16705
C01312=-24187,74480,14485,15281,-40407,-16646
C01313=-24340,73607,13877,15205,-40455,-16567
C01314=-24560,72581,13260,15084,-40561,-16446
C01315=-24779,71747,12836,14957,-40688,-16322
C01316=-25035,70938,12496,14806,-40848,-16175
C01317=-25333,70161,12240,14632,-41034,-16005
C01318=-25675,69426,12063,14436,-41241,-15812
C01319=-26060,68743,11960,14221,-41460,-15599
C01320=-26485,68119,11923,13991,-41684,-15367
C01321=-27041,67459,11950,13701,-41946,-15072
C01322=-27533,66983,12014,13454,-42150,-14816
C01323=-28038,66573,12096,13210,-42331,-14559
C01324=-28543,66217,12176,12974,-42484,-14308
C01325=-29036,65906,12235,12751,-42605,-14067
C01326=-29508,65626,12262,12545,-42696,-13842
C01327=-30040,65322,12253,12320,-42771,-13592
C01328=-30456,65090,12219,12148,-42810,-13399
C01329=-30852,64881,12175,11987,-42836,-13218
C01330=-31231,64698,12133,11835,-42852,-13045
C01331=-31600,64549,12109,11688,-42865,-12878
C01332=-31962,64438,12113,11543,-42876,-12714
C01333=-32325,64370,12154,11398,-42889,-12549
C01334=-32771,64352,12258,11218,-42905,-12347
C01335=-33167,64398,12401,11060,-42919,-12168
C01336=-33608,64521,12609,10884,-42929,-11969
C01337=-34035,64600,12731,10718,-42911,-11779
C01338=-34387,64555,12684,10589,-42863,-11628
C01339=-34691,64463,12568,10480,-42804,-11498
C01340=-34870,64093,12118,10430,-42698,-11431
C01341=-34799,64000,12114,10447,-42751,-11456
C01342=-34606,64341,12531,10504,-42853,-11530
C01343=-34285,64402,12607,10621,-42906,-11668
C01344=-33926,64436,12634,10754,-42948,-11824
C01345=-33493,64351,12496,10923,-42960,-12016
C01346=-33044,64222,12271,11103,-42944,-12220
C01347=-32645,64171,12113,11264,-42924,-12401
C01348=-32203,64191,12000,11443,-42902,-12602
C01349=-31844,64263,11957,11587,-42886,-12765
C01350=-31480,64375,11945,11734,-42869,-12931
C01351=-31101,64517,11948,11887,-42849,-13104
C01352=-30706,64690,11961,12048,-42822,-13285
C01353=-30293,64891,11974,12217,-42785,-13476
C01354=-29862,65118,11980,12398,-42733,-13677
C01355=-29317,65427,11964,12633,-42643,-13935
C01356=-28840,65718,11924,12844,-42541,-14165
C01357=-28349,66047,11865,13068,-42410,-14407
C01358=-27852,66425,11797,13303,-42252,-14656
C01359=-27361,66861,11737,13542,-42070,-14907
C01360=-26888,67360,11700,13782,-41869,-15154
C01361=-26354,68045,11706,14062,-41612,-15439
C01362=-25944,68684,11767,14286,-41392,-15663
C01363=-25570,69381,11885,14497,-41174,-15872
C01364=-25234,70128,12069,14692,-40965,-16063
C01365=-24938,70918,12325,14868,-40771,-16234
C01366=-24679,71741,12658,15023,-40601,-16383
C01367=-24458,72591,13073,15155,-40462,-16511
C01368=-24240,73631,13688,15279,-40347,-16633
C01369=-24096,74507,14309,15350,-40304,-16708
C01370=-23980,75389,15028,15394,-40313,-16760
C01371=-23888,76267,15835,15412,-40372,-16791
C01372=-23816,77112,16691,15408,-40474,-16805
C01373=-23757,77921,17576,15389,-40607,-16807
C01374=-23700,78843,18665,15349,-40806,-16796
C01375=-23646,78773,18449,15396,-40722,-16836
C01376=-23709,77845,17376,15431,-40534,-16843
C01377=-23774,77028,16507,15444,-40413,-16836
C01378=-23850,76176,15666,15443,-40323,-16818
C01379=-23946,75292,14874,15420,-40275,-16782
C01380=-24063,74409,14165,15374,-40273,-16729
C01381=-24202,73539,13544,15305,-40312,-16657
C01382=-24405,72511,12910,15192,-40413,-16545
C01383=-24610,71669,12474,15070,-40539,-16427
C01384=-24852,70848,12121,14925,-40698,-16286
C01385=-25134,70055,11845,14756,-40883,-16123
C01386=-25457,69300,11644,14567,-41088,-15939
C01387=-25820,68592,11512,14360,-41306,-15735
C01388=-26221,67938,11443,14138,-41528,-15514
C01389=-26748,67235,11430,13858,-41791,-15230
C01390=-27217,66721,11464,13618,-41998,-14983
C01391=-27704,66270,11524,13377,-42188,-14733
C01392=-28201,65880,11597,13140,-42355,-14482
C01393=-28698,65544,11672,12910,-42497,-14236
C01394=-29188,65253,11738,12690,-42613,-13998
C01395=-29755,64955,11797,12443,-42720,-13727
C01396=-30203,64738,11825,12253,-42784,-13516
C01397=-30625,64546,11834,12077,-42829,-13320
C01398=-31020,64375,11830,11916,-42860,-13139
C01399=-31391,64227,11823,11766,-42882,-12970
C01400=-31744,64105,11826,11624,-42899,-12809
C01401=-32091,64019,11856,11483,-42916,-12651
C01402=-32525,63983,11957,11308,-42940,-12453
C01403=-32928,64035,12125,11144,-42965,-12269
C01404=-33396,64187,12388,10955,-42989,-12056
C01405=-33853,64303,12569,10775,-42985,-11852
C01406=-34228,64292,12571,10635,-42947,-11689
C01407=-34557,64245,12513,10514,-42897,-11547
C01408=-34753,63912,12107,10457,-42796,-11471
C01409=-34736,63809,12068,10457,-42827,-11475
C01410=-34537,64145,12481,10516,-42930,-11552
C01411=-34198,64199,12551,10639,-42985,-11697
C01412=-33809,64205,12543,10785,-43024,-11867
C01413=-33325,64057,12320,10976,-43023,-12084
C01414=-32826,63868,12004,11179,-42989,-12312
C01415=-32319,63779,11753,11388,-42946,-12544
C01416=-31941,63789,11630,11543,-42914,-12718
C01417=-31576,63854,11557,11693,-42885,-12886
C01418=-31209,63963,11523,11842,-42857,-13054
C01419=-30835,64112,11516,11996,-42828,-13226
C01420=-30364,64330,11519,12190,-42783,-13444
C01421=-29946,64541,11512,12366,-42730,-13640
C01422=-29504,64777,11491,12555,-42659,-13849
C01423=-29043,65045,11452,12758,-42566,-14070
C01424=-28567,65351,11401,12973,-42450,-14302
C01425=-28084,65702,11343,13198,-42308,-14542
C01426=-27504,66192,11274,13477,-42107,-14836
C01427=-27029,66664,11228,13714,-41913,-15082
C01428=-26572,67199,11206,13952,-41702,-15325
C01429=-26140,67798,11222,14184,-41479,-15559
C01430=-25742,68457,11290,14406,-41252,-15780
C01431=-25316,69318,11456,14652,-40989,-16021
C01432=-25007,70084,11673,14836,-40786,-16199
C01433=-24740,70883,11966,14998,-40607,-16355
C01434=-24513,71705,12340,15135,-40457,-16487
C01435=-24324,72541,12797,15246,-40344,-16595
C01436=-24166,73389,13335,15334,-40269,-16682
C01437=-24006,74425,14080,15412,-40224,-16765
C01438=-23895,75303,14795,15454,-40231,-16815
C01439=-23803,76184,15589,15475,-40281,-16848
C01440=-23728,77034,16429,15476,-40371,-16865
C01441=-23662,77852,17291,15465,-40488,-16873
C01442=-23597,78782,18357,15432,-40671,-16868
C01443=-23544,78734,18161,15480,-40587,-16909
C01444=-23605,77803,17084,15516,-40399,-16916
C01445=-23668,76983,16212,15530,-40277,-16911
C01446=-23741,76126,15367,15530,-40189,-16894
C01447=-23833,75234,14573,15507,-40144,-16860
C01448=-23947,74342,13866,15461,-40147,-16806
C01449=-24081,73464,13243,15393,-40191,-16736
C01450=-24272,72431,12598,15285,-40289,-16629
C01451=-24462,71585,12143,15171,-40407,-16520
C01452=-24686,70757,11765,15034,-40558,-16388
C01453=-24950,69951,11465,14874,-40738,-16234
C01454=-25255,69177,11242,14691,-40941,-16057
C01455=-25603,68445,11090,14488,-41161,-15859
C01456=-25989,67764,11002,14269,-41387,-15643
C01457=-26498,67025,10966,13993,-41656,-15366
C01458=-26951,66479,10979,13757,-41868,-15125
C01459=-27422,65995,11017,13520,-42063,-14880
C01460=-27902,65570,11069,13287,-42236,-14635
C01461=-28383,65197,11121,13061,-42385,-14395
C01462=-28855,64870,11164,12846,-42507,-14164
C01463=-29400,64526,11193,12605,-42621,-13901
C01464=-29831,64272,11196,12420,-42691,-13697
C01465=-30238,64044,11184,12249,-42743,-13506
C01466=-30624,63841,11166,12089,-42782,-13328
C01467=-30992,63668,11155,11938,-42813,-13158
C01468=-31352,63535,11173,11790,-42843,-12992
C01469=-31718,63456,11243,11639,-42878,-12823
C01470=-32189,63453,11423,11443,-42927,-12605
C01471=-32635,63551,11678,11257,-42975,-12399
C01472=-33159,63765,12046,11041,-43024,-12158
C01473=-33672,63962,12343,10835,-43042,-11926
C01474=-34092,64031,12451,10674,-43022,-11740
C01475=-34462,64054,12478,10535,-42983,-11579
C01476=-34677,63759,12114,10469,-42887,-11495
C01477=-34674,63825,12291,10456,-42961,-11487
C01478=-34463,64122,12657,10520,-43057,-11570
C01479=-34098,64100,12632,10656,-43096,-11728
C01480=-33677,64016,12507,10819,-43113,-11915
C01481=-33158,63794,12177,11028,-43090,-12150
C01482=-32623,63553,11776,11249,-43035,-12396
C01483=-32077,63416,11439,11478,-42970,-12650
C01484=-31674,63402,11260,11646,-42921,-12837
C01485=-31297,63460,11156,11803,-42878,-13012
C01486=-30926,63572,11104,11957,-42839,-13184
C01487=-30547,63725,11080,12115,-42798,-13360
C01488=-30068,63950,11057,12317,-42737,-13584
C01489=-29643,64168,11031,12499,-42669,-13785
C01490=-29196,64418,10992,12694,-42583,-13999
C01491=-28733,64705,10942,12902,-42475,-14224
C01492=-28259,65035,10887,13120,-42344,-14458
C01493=-27782,65414,10833,13346,-42190,-14697
C01494=-27217,65943,10780,13623,-41978,-14987
C01495=-26760,66448,10757,13856,-41780,-15226
C01496=-26324,67015,10763,14087,-41567,-15460
C01497=-25914,67642,10809,14312,-41345,-15685
C01498=-25536,68326,10905,14526,-41120,-15897
C01499=-25132,69211,11099,14764,-40859,-16129
C01500=-24839,69991,11337,14942,-40659,-16299
C01501=-24589,70800,11651,15096,-40484,-16447
C01502=-24378,71626,12043,15226,-40341,-16571
C01503=-24203,72462,12515,15330,-40235,-16671
C01504=-24058,73306,13066,15410,-40168,-16751
C01505=-23915,74332,13829,15477,-40136,-16823
C01506=-23813,75203,14550,15514,-40149,-16868
C01507=-23726,76084,15345,15533,-40199,-16899
C01508=-23654,76935,16186,15532,-40288,-16915
C01509=-23591,77753,17052,15519,-40407,-16921
C01510=-23528,78683,18120,15485,-40590,-16916
C01511=-23491,78679,18053,15510,-40559,-16938
C01512=-23554,77746,16981,15544,-40374,-16945
C01513=-23616,76926,16111,15559,-40254,-16939
C01514=-23687,76072,15267,15560,-40165,-16924
C01515=-23773,75187,14471,15541,-40116,-16893
C01516=-23873,74313,13747,15505,-40103,-16849
C01517=-24012,73287,12978,15440,-40133,-16779
C01518=-24152,72443,12421,15362,-40198,-16702
C01519=-24320,71606,11941,15262,-40300,-16605
C01520=-24521,70779,11534,15138,-40436,-16487
C01521=-24759,69970,11200,14992,-40601,-16347
C01522=-25035,69185,10938,14823,-40791,-16185
C01523=-25419,68289,10712,14596,-41042,-15964
C01524=-25782,67591,10593,14388,-41261,-15760
C01525=-26180,66947,10529,14167,-41483,-15540
C01526=-26608,66361,10510,13938,-41699,-15309
C01527=-27058,65837,10525,13706,-41902,-15071
C01528=-27615,65285,10567,13430,-42120,-14784
C01529=-28083,64885,10608,13206,-42277,-14548
C01530=-28544,64533,10646,12992,-42409,-14319
C01531=-28995,64223,10676,12789,-42519,-14099
C01532=-29431,63952,10700,12596,-42608,-13889
C01533=-29850,63715,10720,12415,-42681,-13690
C01534=-30332,63479,10750,12210,-42752,-13463
C01535=-30722,63325,10794,12045,-42804,-13280
C01536=-31109,63219,10876,11882,-42855,-13100
C01537=-31505,63174,11015,11715,-42910,-12914
C01538=-31930,63207,11235,11535,-42971,-12716
C01539=-32512,63381,11638,11289,-43053,-12444
C01540=-33078,63656,12095,11053,-43119,-12182
C01541=-33622,63910,12470,10833,-43151,-11935
C01542=-34062,64028,12638,10662,-43141,-11739
C01543=-34448,64092,12714,10516,-43109,-11570
C01544=-34673,63823,12380,10445,-43016,-11481
C01545=-34128,63421,12078,10644,-43100,-11714
C01546=-33906,63663,12355,10717,-43173,-11805
C01547=-33533,63576,12207,10864,-43172,-11972
C01548=-33100,63434,11964,11038,-43149,-12168
C01549=-32571,63162,11513,11260,-43080,-12414
C01550=-32034,62903,11027,11491,-42985,-12667
C01551=-31570,62789,10697,11691,-42903,-12886
C01552=-31074,62789,10450,11904,-42819,-13120
C01553=-30691,62876,10339,12068,-42760,-13301
C01554=-30320,63025,10291,12225,-42706,-13475
C01555=-29949,63223,10284,12383,-42653,-13650
C01556=-29568,63460,10297,12546,-42594,-13829
C01557=-29174,63731,10314,12718,-42523,-14018
C01558=-28761,64033,10324,12900,-42436,-14217
C01559=-28243,64441,10320,13137,-42303,-14471
C01560=-27796,64825,10302,13347,-42165,-14695
C01561=-27342,65255,10278,13568,-42002,-14926
C01562=-26892,65738,10258,13794,-41816,-15161
C01563=-26454,66279,10258,14023,-41612,-15394
C01564=-26038,66879,10289,14248,-41395,-15620
C01565=-25577,67674,10384,14508,-41127,-15877
C01566=-25231,68392,10523,14710,-40907,-16074
C01567=-24925,69151,10726,14895,-40700,-16253
C01568=-24659,69941,11000,15059,-40512,-16409
C01569=-24433,70751,11347,15200,-40353,-16543
C01570=-24244,71574,11768,15316,-40225,-16654
C01571=-24087,72405,12261,15410,-40132,-16745
C01572=-23931,73414,12948,15494,-40065,-16830
C01573=-23820,74270,13597,15545,-40044,-16885
C01574=-23722,75148,14319,15582,-40054,-16929
C01575=-23635,76037,15111,15602,-40097,-16960
C01576=-23564,76898,15947,15604,-40180,-16978
C01577=-23501,77723,16809,15592,-40292,-16985
C01578=-23437,78657,17872,15560,-40471,-16980
C01579=-23412,78613,17801,15575,-40455,-16995
C01580=-23472,77684,16728,15612,-40269,-17003
C01581=-23529,76867,15856,15629,-40146,-17000
C01582=-23592,76020,15007,15635,-40052,-16989
C01583=-23669,75145,14203,15622,-39995,-16965
C01584=-23779,74107,13338,15584,-39979,-16917
C01585=-23888,73255,12702,15531,-40005,-16861
C01586=-24018,72411,12139,15458,-40068,-16789
C01587=-24175,71572,11648,15363,-40167,-16697
C01588=-24405,70574,11154,15218,-40331,-16560
C01589=-24636,69758,10817,15073,-40498,-16422
C01590=-24902,68966,10546,14908,-40688,-16265
C01591=-25205,68206,10337,14725,-40893,-16089
C01592=-25617,67348,10163,14485,-41152,-15854
C01593=-25999,66687,10079,14270,-41372,-15642
C01594=-26411,66081,10040,14047,-41587,-15417
C01595=-26846,65534,10035,13819,-41792,-15186
C01596=-27382,64953,10050,13550,-42011,-14907
C01597=-27828,64526,10063,13334,-42167,-14680
C01598=-28264,64142,10066,13130,-42298,-14463
C01599=-28685,63798,10058,12938,-42405,-14256
C01600=-29172,63432,10041,12722,-42509,-14021
C01601=-29564,63167,10031,12551,-42582,-13833
C01602=-29947,62943,10039,12385,-42646,-13651
C01603=-30328,62765,10080,12221,-42708,-13471
C01604=-30797,62630,10204,12020,-42788,-13249
C01605=-31213,62599,10394,11840,-42863,-13052
C01606=-31671,62665,10690,11641,-42949,-12834
C01607=-32197,62857,11123,11414,-43046,-12586
C01608=-32835,63146,11653,11144,-43140,-12288
C01609=-33261,63250,11870,10971,-43166,-12094
C01610=-33632,63291,11978,10826,-43166,-11928
C01611=-33852,63018,11674,10754,-43093,-11839
C01612=-33654,62821,11504,10828,-43113,-11925
C01613=-33442,63130,11843,10896,-43188,-12011
C01614=-33083,63142,11789,11036,-43193,-12170
C01615=-32661,63079,11614,11206,-43172,-12362
C01616=-32141,62882,11221,11424,-43099,-12604
C01617=-31606,62683,10773,11656,-42998,-12857
C01618=-31047,62604,10404,11899,-42889,-13123
C01619=-30619,62638,10202,12085,-42807,-13326
C01620=-30211,62744,10073,12262,-42730,-13520
C01621=-29811,62911,9998,12436,-42656,-13711
C01622=-29409,63127,9957,12612,-42578,-13903
C01623=-28914,63442,9925,12832,-42471,-14143
C01624=-28487,63748,9900,13026,-42363,-14352
C01625=-28047,64097,9873,13231,-42236,-14570
C01626=-27597,64491,9841,13446,-42085,-14797
C01627=-27145,64936,9812,13669,-41912,-15030
C01628=-26610,65545,9791,13944,-41675,-15312
C01629=-26181,66118,9799,14173,-41460,-15543
C01630=-25777,66751,9845,14397,-41234,-15767
C01631=-25405,67438,9940,14611,-41007,-15977
C01632=-25071,68173,10094,14810,-40786,-16169
C01633=-24778,68944,10314,14990,-40581,-16342
C01634=-24480,69902,10669,15177,-40364,-16519
C01635=-24274,70718,11041,15308,-40213,-16643
C01636=-24104,71540,11483,15414,-40096,-16744
C01637=-23965,72362,11997,15496,-40017,-16823
C01638=-23852,73184,12582,15555,-39975,-16884
C01639=-23738,74183,13371,15604,-39967,-16938
C01640=-23654,75037,14102,15630,-39991,-16972
C01641=-23579,75907,14899,15642,-40046,-16997
C01642=-23517,76751,15743,15636,-40139,-17007
C01643=-23460,77566,16610,15619,-40259,-17010
C01644=-23399,78496,17675,15585,-40440,-17003
C01645=-23383,78466,17652,15590,-40444,-17010
C01646=-23440,77542,16582,15628,-40258,-17020
C01647=-23493,76732,15711,15648,-40133,-17019
C01648=-23550,75896,14859,15658,-40033,-17012
C01649=-23616,75040,14048,15654,-39964,-16995
C01650=-23689,74201,13301,15638,-39924,-16969
C01651=-23771,73379,12619,15608,-39914,-16933
C01652=-23892,72399,11888,15549,-39945,-16871
C01653=-24018,71582,11354,15476,-40012,-16799
C01654=-24176,70761,10890,15378,-40119,-16706
C01655=-24370,69940,10499,15254,-40262,-16589
C01656=-24604,69130,10181,15105,-40437,-16449
C01657=-24878,68341,9933,14933,-40637,-16285
C01658=-25258,67439,9719,14702,-40898,-16064
C01659=-25614,66736,9604,14494,-41123,-15861
C01660=-26002,66084,9536,14276,-41348,-15644
C01661=-26417,65489,9508,14051,-41564,-15419
C01662=-26851,64953,9510,13824,-41767,-15187
C01663=-27295,64473,9530,13599,-41952,-14955
C01664=-27742,64048,9557,13381,-42115,-14727
C01665=-28270,63602,9590,13131,-42282,-14462
C01666=-28699,63279,9616,12934,-42398,-14251
C01667=-29116,62998,9646,12746,-42497,-14048
C01668=-29523,62758,9685,12566,-42585,-13851
C01669=-29923,62563,9746,12391,-42664,-13660
C01670=-30322,62420,9845,12216,-42741,-13469
C01671=-30818,62336,10050,11999,-42840,-13232
C01672=-31271,62362,10325,11801,-42933,-13016
C01673=-31782,62501,10724,11578,-43037,-12773
C01674=-32271,62632,11063,11371,-43113,-12544
C01675=-32661,62632,11185,11213,-43138,-12366
C01676=-32999,62563,11193,11081,-43135,-12215
C01677=-33202,62226,10833,11016,-43063,-12134
C01678=-32919,62063,10683,11122,-43090,-12257
C01679=-32720,62418,11054,11185,-43160,-12337
C01680=-32390,62512,11064,11314,-43159,-12485
C01681=-32003,62532,10949,11472,-43129,-12662
C01682=-31415,62387,10526,11725,-43023,-12940
C01683=-30922,62293,10159,11942,-42914,-13175
C01684=-30479,62305,9910,12137,-42817,-13388
C01685=-30065,62398,9747,12320,-42728,-13587
C01686=-29581,62593,9628,12534,-42625,-13819
C01687=-29176,62812,9567,12714,-42535,-14015
C01688=-28760,63074,9519,12901,-42433,-14218
C01689=-28331,63377,9473,13099,-42315,-14429
C01690=-27798,63802,9415,13351,-42145,-14697
C01691=-27346,64210,9366,13573,-41978,-14928
C01692=-26894,64674,9326,13801,-41790,-15164
C01693=-26453,65199,9306,14031,-41583,-15399
C01694=-25951,65907,9326,14304,-41318,-15673
C01695=-25564,66561,9391,14524,-41092,-15889
C01696=-25210,67266,9507,14731,-40865,-16092
C01697=-24892,68015,9679,14925,-40646,-16277
C01698=-24562,68957,9967,15132,-40403,-16474
C01699=-24331,69764,10282,15281,-40226,-16614
C01700=-24139,70579,10666,15405,-40081,-16730
C01701=-23983,71394,11120,15503,-39973,-16823
C01702=-23838,72364,11756,15588,-39894,-16906
C01703=-23744,73166,12362,15633,-39871,-16954
C01704=-23667,73970,13033,15660,-39884,-16987
C01705=-23599,74792,13767,15674,-39923,-17011
C01706=-23521,75812,14725,15681,-39999,-17033
C01707=-23465,76647,15570,15671,-40096,-17040
C01708=-23414,77452,16438,15650,-40221,-17039
C01709=-23358,78374,17505,15612,-40407,-17029
C01710=-23349,78257,17392,15618,-40399,-17035
C01711=-23401,77337,16317,15660,-40209,-17047
C01712=-23446,76537,15441,15685,-40077,-17052
C01713=-23498,75708,14590,15698,-39975,-17048
C01714=-23558,74863,13782,15697,-39904,-17034
C01715=-23622,74038,13034,15687,-39858,-17013
C01716=-23695,73232,12352,15663,-39840,-16983
C01717=-23800,72274,11613,15615,-39859,-16930
C01718=-23910,71473,11064,15553,-39912,-16869
C01719=-24048,70665,10578,15468,-40002,-16788
C01720=-24220,69853,10161,15357,-40128,-16684
C01721=-24433,69041,9816,15219,-40292,-16554
C01722=-24691,68239,9548,15054,-40489,-16399
C01723=-25061,67310,9324,14823,-40758,-16179
C01724=-25416,66580,9210,14610,-40997,-15974
C01725=-25803,65904,9146,14387,-41235,-15755
C01726=-26214,65287,9117,14159,-41462,-15528
C01727=-26641,64729,9113,13932,-41673,-15298
C01728=-27076,64229,9123,13709,-41864,-15069
C01729=-27600,63701,9149,13450,-42065,-14799
C01730=-28033,63317,9175,13243,-42210,-14581
C01731=-28455,62980,9203,13046,-42335,-14370
C01732=-28863,62685,9232,12859,-42442,-14170
C01733=-29256,62430,9265,12683,-42534,-13979
C01734=-29639,62218,9317,12513,-42618,-13794
C01735=-30102,62037,9442,12307,-42721,-13571
C01736=-30512,61966,9633,12125,-42816,-13373
C01737=-30966,61994,9940,11922,-42927,-13154
C01738=-31403,62018,10199,11732,-43013,-12946
C01739=-31757,61924,10253,11586,-43047,-12783
C01740=-32059,61762,10188,11467,-43051,-12647
C01741=-32245,61372,9791,11409,-42984,-12573
C01742=-32195,61372,9844,11420,-43022,-12590
C01743=-32002,61763,10238,11481,-43088,-12668
C01744=-31686,61923,10294,11606,-43082,-12810
C01745=-31314,62014,10229,11760,-43045,-12982
C01746=-30759,61976,9883,12002,-42929,-13246
C01747=-30293,61965,9577,12211,-42813,-13472
C01748=-29860,62043,9367,12405,-42706,-13682
C01749=-29365,62231,9208,12628,-42584,-13922
C01750=-28957,62451,9126,12812,-42482,-14121
C01751=-28541,62719,9063,13003,-42369,-14326
C01752=-28025,63100,8994,13245,-42211,-14584
C01753=-27585,63472,8942,13458,-42058,-14807
C01754=-27140,63898,8897,13679,-41884,-15037
C01755=-26696,64381,8864,13906,-41689,-15270
C01756=-26176,65041,8848,14184,-41430,-15551
C01757=-25763,65658,8868,14413,-41198,-15779
C01758=-25379,66333,8932,14636,-40961,-15997
C01759=-24967,67209,9087,14884,-40682,-16236
C01760=-24671,67980,9290,15068,-40467,-16412
C01761=-24419,68774,9564,15230,-40276,-16564
C01762=-24171,69741,9982,15391,-40086,-16715
C01763=-24004,70549,10403,15498,-39962,-16816
C01764=-23869,71354,10884,15583,-39871,-16896
C01765=-23759,72154,11424,15646,-39814,-16958
C01766=-23653,73109,12149,15698,-39788,-17012
C01767=-23583,73908,12821,15721,-39803,-17042
C01768=-23523,74720,13560,15730,-39849,-17061
C01769=-23457,75722,14530,15726,-39939,-17074
C01770=-23410,76543,15386,15709,-40048,-17074
C01771=-23367,77338,16265,15682,-40183,-17068
C01772=-23319,78252,17342,15638,-40377,-17053
C01773=-23310,78138,17233,15643,-40370,-17058
C01774=-23356,77225,16157,15688,-40176,-17074
C01775=-23398,76431,15279,15716,-40042,-17081
C01776=-23442,75613,14424,15735,-39932,-17082
C01777=-23493,74784,13605,15742,-39849,-17075
C01778=-23560,73812,12708,15735,-39787,-17056
C01779=-23629,73015,12034,15713,-39771,-17027
C01780=-23709,72224,11417,15677,-39783,-16987
C01781=-23805,71435,10852,15625,-39822,-16935
C01782=-23950,70484,10245,15537,-39910,-16851
C01783=-24104,69684,9805,15439,-40020,-16758
C01784=-24293,68881,9429,15316,-40164,-16643
C01785=-24522,68083,9121,15168,-40340,-16504
C01786=-24857,67147,8847,14957,-40588,-16304
C01787=-25186,66400,8699,14755,-40819,-16111
C01788=-25558,65699,8617,14535,-41060,-15897
C01789=-25962,65054,8585,14305,-41299,-15671
C01790=-26387,64470,8586,14073,-41526,-15438
C01791=-26909,63850,8610,13800,-41771,-15160
C01792=-27346,63396,8641,13580,-41951,-14932
C01793=-27780,62996,8679,13368,-42110,-14711
C01794=-28206,62647,8723,13165,-42249,-14496
C01795=-28703,62290,8785,12934,-42394,-14249
C01796=-29108,62044,8854,12749,-42501,-14051
C01797=-29514,61852,8962,12565,-42606,-13852
C01798=-29934,61728,9134,12375,-42714,-13648
C01799=-30478,61689,9462,12129,-42857,-13383
C01800=-30906,61651,9676,11941,-42948,-13178
C01801=-31247,61498,9677,11800,-42981,-13021
C01802=-31536,61279,9561,11686,-42983,-12890
C01803=-31715,60856,9136,11631,-42916,-12819
C01804=-31475,60774,9020,11724,-42919,-12926
C01805=-31291,61203,9445,11782,-42983,-13000
C01806=-30995,61434,9563,11899,-42977,-13134
C01807=-30649,61603,9565,12043,-42939,-13294
C01808=-30216,61660,9354,12234,-42842,-13502
C01809=-29752,61702,9068,12446,-42713,-13729
C01810=-29233,61860,8840,12684,-42568,-13985
C01811=-28811,62064,8712,12878,-42448,-14192
C01812=-28387,62323,8613,13076,-42319,-14404
C01813=-27954,62633,8530,13282,-42177,-14621
C01814=-27514,62998,8460,13496,-42017,-14846
C01815=-27073,63419,8406,13717,-41839,-15075
C01816=-26549,64004,8367,13988,-41603,-15352
C01817=-26124,64559,8359,14217,-41386,-15582
C01818=-25714,65175,8379,14446,-41155,-15809
C01819=-25328,65851,8438,14670,-40914,-16029
C01820=-24977,66579,8549,14883,-40674,-16233
C01821=-24667,67347,8726,15077,-40447,-16418
C01822=-24357,68301,9037,15276,-40208,-16605
C01823=-24149,69104,9378,15412,-40046,-16732
C01824=-23981,69906,9785,15522,-39918,-16835
C01825=-23844,70703,10251,15609,-39822,-16917
C01826=-23733,71493,10769,15676,-39757,-16981
C01827=-23644,72275,11341,15723,-39723,-17029
C01828=-23560,73210,12097,15757,-39722,-17069
C01829=-23501,73997,12789,15771,-39753,-17090
C01830=-23450,74800,13545,15772,-39812,-17102
C01831=-23405,75620,14368,15760,-39902,-17105
C01832=-23367,76425,15233,15735,-40023,-17099
C01833=-23330,77212,16117,15703,-40163,-17089
C01834=-23284,78126,17195,15657,-40358,-17072
C01835=-23276,78038,17121,15660,-40359,-17076
C01836=-23316,77131,16035,15711,-40157,-17097
C01837=-23348,76349,15144,15746,-40011,-17110
C01838=-23382,75548,14273,15775,-39885,-17119
C01839=-23426,74581,13273,15798,-39764,-17123
C01840=-23467,73799,12511,15805,-39692,-17118
C01841=-23520,73024,11821,15795,-39658,-17100
C01842=-23589,72244,11196,15766,-39661,-17067
C01843=-23698,71301,10521,15706,-39710,-17007
C01844=-23812,70507,10015,15635,-39784,-16939
C01845=-23953,69708,9561,15543,-39888,-16854
C01846=-24162,68744,9090,15405,-40052,-16725
C01847=-24376,67945,8763,15266,-40219,-16595
C01848=-24629,67158,8500,15102,-40412,-16441
C01849=-24927,66395,8307,14916,-40629,-16264
C01850=-25340,65528,8165,14666,-40910,-16024
C01851=-25725,64861,8109,14443,-41149,-15805
C01852=-26136,64252,8096,14213,-41380,-15578
C01853=-26561,63705,8110,13985,-41596,-15347
C01854=-27078,63129,8147,13718,-41829,-15074
C01855=-27506,62711,8190,13504,-42000,-14852
C01856=-27927,62347,8241,13299,-42151,-14637
C01857=-28419,61975,8314,13066,-42310,-14390
C01858=-28819,61719,8394,12880,-42429,-14192
C01859=-29218,61518,8512,12695,-42544,-13994
C01860=-29633,61386,8698,12504,-42665,-13790
C01861=-30110,61242,8886,12289,-42785,-13558
C01862=-30421,61008,8817,12160,-42819,-13414
C01863=-30678,60708,8622,12060,-42818,-13299
C01864=-30838,60240,8153,12012,-42749,-13236
C01865=-30504,60058,7819,12158,-42684,-13395
C01866=-30342,60536,8293,12206,-42751,-13458
C01867=-30087,60857,8502,12306,-42751,-13573
C01868=-29784,61118,8592,12433,-42715,-13715
C01869=-29403,61281,8483,12605,-42620,-13900
C01870=-28905,61469,8270,12836,-42467,-14147
C01871=-28501,61696,8153,13026,-42341,-14349
C01872=-28095,61977,8070,13219,-42209,-14553
C01873=-27682,62311,8007,13418,-42064,-14762
C01874=-27260,62696,7952,13627,-41901,-14980
C01875=-26745,63232,7898,13890,-41678,-15250
C01876=-26317,63745,7868,14117,-41470,-15480
C01877=-25900,64320,7865,14346,-41245,-15709
C01878=-25506,64955,7900,14570,-41011,-15930
C01879=-25144,65645,7988,14784,-40777,-16138
C01880=-24763,66529,8176,15018,-40511,-16362
C01881=-24491,67298,8406,15190,-40310,-16524
C01882=-24259,68086,8700,15341,-40131,-16665
C01883=-24063,68882,9053,15469,-39977,-16785
C01884=-23900,69681,9460,15577,-39850,-16885
C01885=-23742,70635,10016,15680,-39733,-16982
C01886=-23636,71423,10533,15745,-39667,-17044
C01887=-23552,72202,11101,15791,-39632,-17090
C01888=-23486,72973,11726,15818,-39632,-17121
C01889=-23437,73739,12413,15825,-39669,-17136
C01890=-23390,74673,13327,15815,-39756,-17141
C01891=-23352,75479,14154,15797,-39854,-17139
C01892=-23318,76280,15015,15771,-39973,-17132
C01893=-23284,77061,15896,15737,-40115,-17119
C01894=-23245,77966,16976,15687,-40314,-17099
C01895=-23240,77848,16881,15689,-40317,-17101
C01896=-23274,76952,15800,15742,-40114,-17124
C01897=-23301,76186,14912,15782,-39962,-17142
C01898=-23327,75405,14044,15816,-39829,-17156
C01899=-23365,74458,13056,15842,-39706,-17163
C01900=-23405,73683,12311,15847,-39641,-17156
C01901=-23460,72910,11640,15834,-39617,-17136
C01902=-23549,71971,10920,15789,-39640,-17090
C01903=-23647,71178,10383,15730,-39698,-17033
C01904=-23764,70382,9893,15655,-39782,-16962
C01905=-23929,69432,9356,15547,-39907,-16861
C01906=-24087,68649,8946,15444,-40025,-16765
C01907=-24270,67872,8576,15326,-40161,-16654
C01908=-24532,66952,8201,15160,-40352,-16497
C01909=-24794,66201,7957,14997,-40538,-16342
C01910=-25098,65476,7781,14812,-40745,-16165
C01911=-25518,64657,7659,14565,-41014,-15924
C01912=-25909,64031,7624,14342,-41244,-15705
C01913=-26327,63466,7640,14112,-41471,-15475
C01914=-26849,62872,7704,13836,-41726,-15195
C01915=-27284,62446,7774,13614,-41916,-14966
C01916=-27710,62078,7851,13402,-42084,-14746
C01917=-28213,61709,7969,13158,-42265,-14490
C01918=-28633,61465,8102,12958,-42407,-14279
C01919=-29059,61285,8284,12757,-42547,-14066
C01920=-29542,61079,8447,12535,-42681,-13828
C01921=-29859,60808,8366,12402,-42724,-13680
C01922=-30127,60483,8168,12295,-42732,-13558
C01923=-30298,60004,7703,12242,-42669,-13490
C01924=-29813,58881,7861,12264,-43395,-13604
C01925=-29813,59698,7071,12470,-42509,-13732
C01926=-29648,60206,7564,12520,-42573,-13797
C01927=-29392,60579,7811,12621,-42570,-13912
C01928=-29025,60960,7955,12777,-42517,-14086
C01929=-28628,61186,7853,12962,-42398,-14282
C01930=-28116,61476,7674,13208,-42219,-14541
C01931=-27694,61786,7569,13414,-42063,-14757
C01932=-27184,62236,7478,13668,-41859,-15021
C01933=-26746,62674,7405,13894,-41662,-15252
C01934=-26306,63177,7346,14129,-41443,-15489
C01935=-25814,63867,7347,14400,-41176,-15760
C01936=-25450,64506,7437,14605,-40967,-15963
C01937=-25131,65336,7781,14780,-40809,-16138
C01938=-24955,66054,8251,14865,-40761,-16228
C01939=-24841,66923,9012,14898,-40800,-16273
C01940=-23458,69801,9929,15659,-40142,-17034
C01941=-23458,70843,9415,15935,-39321,-17196
C01942=-23454,71562,10201,15899,-39432,-17175
C01943=-23431,72445,11096,15875,-39529,-17167
C01944=-23396,73344,11975,15861,-39611,-17167
C01945=-23350,74263,12856,15854,-39686,-17173
C01946=-23318,75045,13657,15836,-39779,-17170
C01947=-23284,75988,14681,15800,-39926,-17157
C01948=-23253,76908,15743,15753,-40105,-17136
C01949=-23219,77805,16827,15699,-40310,-17112
C01950=-23192,76709,17196,15464,-41077,-16978
C01951=-23192,77731,16697,15722,-40274,-17131
C01952=-23227,76677,15414,15789,-40028,-17163
C01953=-23254,75751,14342,15839,-39847,-17186
C01954=-23285,74801,13316,15875,-39704,-17200
C01955=-23318,73709,12167,15911,-39557,-17214
C01956=-23328,72813,11192,15954,-39421,-17236
C01957=-23326,71937,10205,16007,-39270,-17268
C01958=-25208,64866,9240,14429,-41901,-15911
C01959=-25208,65800,8593,14677,-41050,-16059
C01960=-25340,64956,7855,14637,-41010,-16006
C01961=-25531,64275,7412,14547,-41055,-15911
C01962=-25872,63509,7111,14368,-41204,-15728
C01963=-26264,62941,7084,14155,-41410,-15514
C01964=-26777,62349,7147,13881,-41665,-15238
C01965=-27210,61927,7230,13657,-41861,-15009
C01966=-27731,61504,7364,13396,-42076,-14738
C01967=-28168,61222,7516,13181,-42244,-14514
C01968=-28669,60924,7669,12942,-42414,-14262
C01969=-28989,60595,7568,12802,-42473,-14109
C01970=-29285,60115,7243,12685,-42477,-13974
C01971=-29442,59591,6732,12640,-42411,-13913
C01972=-28954,58682,7080,12654,-43144,-14024
C01973=-28954,59517,6307,12868,-42261,-14156
C01974=-28802,60061,6838,12911,-42328,-14215
C01975=-28507,60577,7183,13029,-42319,-14349
C01976=-28182,60941,7290,13175,-42247,-14507
C01977=-27691,61305,7174,13414,-42068,-14758
C01978=-27187,61725,7051,13667,-41858,-15020
C01979=-26775,62145,6992,13879,-41675,-15237
C01980=-26301,62734,6988,14128,-41450,-15491
C01981=-25999,63313,7193,14282,-41330,-15649
C01982=-25749,64082,7684,14395,-41279,-15772
C01983=-25600,64905,8397,14443,-41318,-15833
C01984=-23272,71448,11197,15744,-40109,-17126
C01985=-23272,72497,10698,16021,-39294,-17288
C01986=-23282,73361,11710,15958,-39465,-17249
C01987=-23282,74394,12904,15891,-39661,-17210
C01988=-23261,75473,14118,15835,-39851,-17182
C01989=-23230,76548,15353,15779,-40055,-17156
C01990=-23197,77596,16628,15712,-40299,-17124
C01991=-23152,76547,16980,15493,-41035,-17004
C01992=-23152,77572,16482,15752,-40231,-17158
C01993=-23179,76678,15390,15810,-40022,-17186
C01994=-23205,75761,14325,15861,-39840,-17210
C01995=-23221,74835,13262,15914,-39666,-17237
C01996=-23223,73928,12205,15974,-39487,-17272
C01997=-23215,73053,11174,16038,-39311,-17311
C01998=-26015,63153,8903,13970,-42430,-15457
C01999=-26015,64051,8213,14208,-41569,-15601
C02000=-26171,63253,7507,14160,-41521,-15538
C02001=-26435,62529,7045,14043,-41566,-15410
C02002=-26822,61910,6865,13851,-41709,-15210
C02003=-27234,61498,6928,13640,-41891,-14993
C02004=-27741,61077,7046,13386,-42097,-14730
C02005=-28154,60608,6936,13196,-42206,-14526
C02006=-28474,60073,6610,13064,-42232,-14378
C02007=-28638,59521,6088,13015,-42172,-14313
C02008=-28147,58771,6545,13027,-42893,-14424
C02009=-28147,59623,5789,13249,-42013,-14560
C02010=-27987,60194,6326,13296,-42072,-14623
C02011=-27682,60774,6694,13422,-42046,-14765
C02012=-27303,61306,6878,13598,-41947,-14953
C02013=-26918,61864,7046,13781,-41826,-15147
C02014=-26635,62531,7456,13905,-41780,-15283
C02015=-26462,63292,8121,13961,-41824,-15355
C02016=-23178,72445,12100,15763,-40167,-17158
C02017=-23178,73495,11608,16038,-39355,-17320
C02018=-23190,74374,12673,15966,-39550,-17275
C02019=-23192,75433,13952,15885,-39784,-17227
C02020=-23176,76489,15219,15814,-40014,-17189
C02021=-23144,77538,16496,15746,-40258,-17156
C02022=-23132,76372,16841,15498,-41043,-17012
C02023=-23132,77395,16342,15757,-40239,-17166
C02024=-23163,76208,14891,15837,-39961,-17206
C02025=-23174,75006,13442,15923,-39696,-17253
C02026=-23162,73816,11996,16019,-39429,-17312
C02027=-27168,61555,8900,13364,-43054,-14838
C02028=-27168,62412,8162,13588,-42182,-14976
C02029=-27305,61157,6787,13592,-41966,-14949
C02030=-27430,59941,5417,13604,-41736,-14929
C02031=-23125,73083,12780,15752,-40263,-17164
C02032=-23125,74132,12290,16026,-39453,-17325
C02033=-23135,75168,13561,15939,-39693,-17272
C02034=-23129,76203,14828,15860,-39932,-17227
C02035=-23104,77373,16276,15776,-40216,-17183
C02036=-23119,77201,16208,15756,-40259,-17168
C02037=-23150,75685,14350,15862,-39902,-17224
C02038=-23146,74309,12671,15971,-39588,-17288
C02039=-23124,74573,12979,15960,-39644,-17287
C02040=-23126,75790,14469,15865,-39924,-17230
C02041=-23101,77148,16151,15765,-40253,-17177
C02042=-23095,77040,16071,15765,-40261,-17179
C02043=-23118,75839,14587,15852,-39971,-17225
C02044=-23120,74784,13299,15933,-39730,-17272
C02045=-23092,75002,13530,15933,-39763,-17278
C02046=-23069,76936,15907,15789,-40219,-17199
C02047=-23059,76842,15831,15791,-40223,-17202
C02048=-23081,75153,13756,15916,-39825,-17271
C02049=-23077,75288,13991,15893,-39898,-17258
C02050=-23057,76737,15773,15787,-40240,-17200
C02051=-23059,76624,15724,15777,-40267,-17194
C02052=-23077,75407,14229,15865,-39980,-17242
C02053=-23026,75647,14400,15889,-39971,-17267
C02054=-23010,76650,15633,15816,-40208,-17228
C02055=-23037,76427,15550,15787,-40265,-17205
C02056=-23049,75687,14640,15840,-40090,-17233
C02057=-23017,75855,14809,15845,-40113,-17244
C02058=-23008,76367,15439,15808,-40234,-17224
EC00000=-29914,-209393
EC00001=-29914,-209393
EC00002=-29914,-209393
EC00003=-29914,-209393
EC00004=-29914,-209393
EC00005=-29914,-209393
EC00006=-29914,-209393
EC00007=-29914,-209393
EC00008=-29914,-209393
EC00009=-29914,-209393
EC00010=-29914,-209393
EC00011=-29914,-209393
EC00012=-29914,-209393
EC00013=-29914,-209393
EC00014=-29914,-209393
EC00015=-29914,-209393
EC00016=-29914,-209393
EC00017=-29914,-209393
EC00018=-29914,-209393
EC00019=-29914,-209393
EC00020=-29914,-209393
EC00021=-29914,-209393
EC00022=-29914,-209393
EC00023=-29914,-209393
EC00024=-29914,-209393
EC00025=-29914,-209393
EC00026=-29914,-209393
EC00027=-29914,-209393
EC00028=-29914,-209393
EC00029=-29914,-209393
EC00030=-29914,-209393
EC00031=-29914,-209393
EC00032=-29914,-209393
EC00033=-29914,-209393
EC00034=77124,-152432
EC00035=74397,-151256
EC00036=70472,-149662
EC00037=65066,-147461
EC00038=57980,-144619
EC00039=50338,-141809
EC00040=41222,-138838
EC00041=33888,-136739
EC00042=26936,-135002
EC00043=20439,-133647
EC00044=14435,-132683
EC00045=8931,-132112
EC00046=2958,-131944
EC00047=-1529,-132242
EC00048=-5602,-132948
EC00049=-9278,-134070
EC00050=-12573,-135618
EC00051=-16044,-138061
EC00052=-18555,-140616
EC00053=-20739,-143670
EC00054=-22617,-147216
EC00055=-22595,-149461
EC00056=-23678,-151399
EC00057=-24632,-153409
EC00058=-25177,-154762
EC00059=-25527,-155770
EC00060=-25713,-156388
EC00061=-25762,-156572
EC00062=-25762,-156572
EC00063=-25762,-156572
EC00064=-25762,-156572
EC00065=-25762,-156572
EC00066=-25762,-156572
EC00067=-25762,-156572
EC00068=-25926,-158103
EC00069=-25926,-158103
EC00070=-25926,-158103
EC00071=-25926,-158103
EC00072=-25926,-158103
EC00073=-25926,-158103
EC00074=-25926,-158103
EC00075=-25858,-157803
EC00076=-25656,-157044
EC00077=-25290,-155883
EC00078=-24727,-154378
EC00079=-23743,-152190
EC00080=-22623,-150103
EC00081=-22632,-147228
EC00082=-20734,-143674
EC00083=-18490,-140651
EC00084=-15884,-138109
EC00085=-12275,-135661
EC00086=-8869,-134109
EC00087=-5094,-132989
EC00088=-926,-132284
EC00089=3676,-131982
EC00090=9836,-132143
EC00091=15525,-132708
EC00092=21703,-133662
EC00093=28336,-135000
EC00094=35375,-136713
EC00095=42742,-138794
EC00096=51808,-141757
EC00097=59289,-144568
EC00098=66227,-147417
EC00099=71589,-149629
EC00100=75521,-151233
EC00101=78232,-152415
EC00102=78455,-153011
EC00103=75934,-151808
EC00104=72303,-150176
EC00105=67242,-147935
EC00106=60535,-145041
EC00107=53288,-142176
EC00108=46017,-139625
EC00109=37297,-137022
EC00110=30217,-135254
EC00111=23472,-133865
EC00112=17134,-132858
EC00113=11249,-132235
EC00114=5869,-132005
EC00115=1022,-132177
EC00116=-4122,-132930
EC00117=-7926,-134016
EC00118=-11375,-135506
EC00119=-14515,-137388
EC00120=-17329,-139702
EC00121=-19746,-142611
EC00122=-22024,-147271
EC00123=-23406,-152230
EC00124=-23249,-156156
EC00125=-24159,-158985
EC00126=-24819,-161535
EC00127=-25275,-163727
EC00128=-25574,-165460
EC00129=-25785,-166835
EC00130=-25867,-167399
EC00131=-25882,-167508
EC00132=-25882,-167508
EC00133=-25882,-167508
EC00134=-25882,-167508
EC00135=-25882,-167508
EC00136=-25861,-162815
EC00137=-25861,-162815
EC00138=-25861,-162815
EC00139=-25861,-162815
EC00140=-25861,-162815
EC00141=-25861,-162815
EC00142=-25819,-162584
EC00143=-25603,-161611
EC00144=-25248,-160318
EC00145=-24705,-158653
EC00146=-23945,-156663
EC00147=-22942,-154386
EC00148=-23010,-151494
EC00149=-21228,-147571
EC00150=-18724,-143517
EC00151=-16350,-140573
EC00152=-13690,-138042
EC00153=-10688,-135963
EC00154=-7283,-134349
EC00155=-3423,-133186
EC00156=1858,-132357
EC00157=6822,-132119
EC00158=12299,-132280
EC00159=18268,-132830
EC00160=24695,-133759
EC00161=31520,-135066
EC00162=38633,-136747
EC00163=47337,-139246
EC00164=54571,-141713
EC00165=61632,-144493
EC00166=68074,-147327
EC00167=72943,-149544
EC00168=76445,-151165
EC00169=78849,-152359
EC00170=79900,-152346
EC00171=77608,-151145
EC00172=74293,-149519
EC00173=69635,-147298
EC00174=63439,-144468
EC00175=56665,-141707
EC00176=48286,-138827
EC00177=41147,-136813
EC00178=34055,-135168
EC00179=27174,-133892
EC00180=20598,-132982
EC00181=14397,-132445
EC00182=7552,-132312
EC00183=2398,-132638
EC00184=-2248,-133374
EC00185=-6420,-134533
EC00186=-10172,-136113
EC00187=-14181,-138539
EC00188=-17104,-141026
EC00189=-19596,-144099
EC00190=-21613,-148030
EC00191=-23174,-152905
EC00192=-23032,-156113
EC00193=-24188,-159204
EC00194=-24863,-161460
EC00195=-25328,-163342
EC00196=-25627,-164754
EC00197=-25800,-165636
EC00198=-25873,-166019
EC00199=-25873,-166019
EC00200=-25873,-166019
EC00201=-25873,-166019
EC00202=-25873,-166019
EC00203=-25873,-166019
EC00204=-25938,-172892
EC00205=-25938,-172892
EC00206=-25938,-172892
EC00207=-25938,-172892
EC00208=-25916,-172759
EC00209=-25817,-172208
EC00210=-25624,-171186
EC00211=-25258,-169305
EC00212=-24812,-167179
EC00213=-24196,-164594
EC00214=-23360,-161630
EC00215=-23222,-158757
EC00216=-22054,-153617
EC00217=-20531,-148758
EC00218=-18076,-143915
EC00219=-15491,-140786
EC00220=-12472,-138307
EC00221=-9067,-136315
EC00222=-5272,-134736
EC00223=-1033,-133564
EC00224=4723,-132711
EC00225=10108,-132457
EC00226=16008,-132602
EC00227=22367,-133128
EC00228=29095,-134025
EC00229=36050,-135285
EC00230=43062,-136905
EC00231=51387,-139327
EC00232=58200,-141738
EC00233=64759,-144478
EC00234=70613,-147287
EC00235=74964,-149499
EC00236=78109,-151127
EC00237=80307,-152329
EC00238=80593,-152299
EC00239=78607,-151097
EC00240=75692,-149469
EC00241=71540,-147259
EC00242=65949,-144462
