/JOB
//NAME AAA
//POS
///NPOS 33,0,33,0,0,0
///TOOL 12
///POSTYPE PULSE
///PULSE
C00000=-32596,71722,21479,10909,-44781,-12189
C00001=-32596,71722,21479,10909,-44781,-12189
C00002=-32596,71722,21479,10909,-44781,-12189
C00003=-32596,71722,21479,10909,-44781,-12189
C00004=-32596,71722,21479,10909,-44781,-12189
C00005=-32596,71722,21479,10909,-44781,-12189
C00006=-32596,71722,21479,10909,-44781,-12189
C00007=-32596,71722,21479,10909,-44781,-12189
C00008=-32596,71722,21479,10909,-44781,-12189
C00009=-32596,71722,21479,10909,-44781,-12189
C00010=-32596,71722,21479,10909,-44781,-12189
C00011=-32596,71722,21479,10909,-44781,-12189
C00012=-32596,71722,21479,10909,-44781,-12189
C00013=-32596,71722,21479,10909,-44781,-12189
C00014=-32596,71722,21479,10909,-44781,-12189
C00015=-32596,71722,21479,10909,-44781,-12189
C00016=-32596,71722,21479,10909,-44781,-12189
C00017=-32596,71722,21479,10909,-44781,-12189
C00018=-32596,71722,21479,10909,-44781,-12189
C00019=-32596,71722,21479,10909,-44781,-12189
C00020=-32596,71722,21479,10909,-44781,-12189
C00021=-32596,71722,21479,10909,-44781,-12189
C00022=-32596,71722,21479,10909,-44781,-12189
C00023=-32596,71722,21479,10909,-44781,-12189
C00024=-32596,71722,21479,10909,-44781,-12189
C00025=-32596,71722,21479,10909,-44781,-12189
C00026=-32596,71722,21479,10909,-44781,-12189
C00027=-32596,71722,21479,10909,-44781,-12189
C00028=-32596,71722,21479,10909,-44781,-12189
C00029=-32596,71722,21479,10909,-44781,-12189
C00030=-32596,71722,21479,10909,-44781,-12189
C00031=-32596,71722,21479,10909,-44781,-12189
C00032=-32596,71722,21479,10909,-44781,-12189
EC00000=-15286,-253995
EC00001=-15286,-239332
EC00002=-15286,-223203
EC00003=-15286,-208539
EC00004=-15286,-192410
EC00005=-15286,-177747
EC00006=-15286,-161617
EC00007=-15286,-146954
EC00008=-15286,-130824
EC00009=-15286,-114695
EC00010=-15286,-100032
EC00011=-15286,-83902
EC00012=-15286,-69239
EC00013=-15286,-53110
EC00014=-15286,-38446
EC00015=-15286,-22317
EC00016=-15286,-6187
EC00017=-15286,8476
EC00018=-15286,24605
EC00019=-15286,39269
EC00020=-15286,55398
EC00021=-15286,70061
EC00022=-15286,86191
EC00023=-15286,100854
EC00024=-15286,116984
EC00025=-15286,133113
EC00026=-15286,147776
EC00027=-15286,163906
EC00028=-15286,178569
EC00029=-15286,194698
EC00030=-15286,209362
EC00031=-15286,225491
EC00032=-15286,241621
//INST
///DATE 2023/06/12 17:32
///ATTR SC,RW
///GROUP1 RB1
///GROUP2 ST1
NOP
MOVL C00000 V=10.0 +MOVJ EC00000 VJ=15.0
ARCON ASF#(410)
MOVL C00001 V=0.1 +MOVJ EC00001 VJ=10.6
MOVL C00002 V=0.1 +MOVJ EC00002 VJ=10.6
MOVL C00003 V=0.1 +MOVJ EC00003 VJ=10.6
MOVL C00004 V=0.1 +MOVJ EC00004 VJ=10.6
MOVL C00005 V=0.1 +MOVJ EC00005 VJ=10.6
MOVL C00006 V=0.1 +MOVJ EC00006 VJ=10.6
MOVL C00007 V=0.1 +MOVJ EC00007 VJ=10.6
MOVL C00008 V=0.1 +MOVJ EC00008 VJ=10.6
MOVL C00009 V=0.1 +MOVJ EC00009 VJ=10.6
MOVL C00010 V=0.1 +MOVJ EC00010 VJ=10.6
MOVL C00011 V=0.1 +MOVJ EC00011 VJ=10.6
MOVL C00012 V=0.1 +MOVJ EC00012 VJ=10.6
MOVL C00013 V=0.1 +MOVJ EC00013 VJ=10.6
MOVL C00014 V=0.1 +MOVJ EC00014 VJ=10.6
MOVL C00015 V=0.1 +MOVJ EC00015 VJ=10.6
MOVL C00016 V=0.1 +MOVJ EC00016 VJ=10.6
MOVL C00017 V=0.1 +MOVJ EC00017 VJ=10.6
MOVL C00018 V=0.1 +MOVJ EC00018 VJ=10.6
MOVL C00019 V=0.1 +MOVJ EC00019 VJ=10.6
MOVL C00020 V=0.1 +MOVJ EC00020 VJ=10.6
MOVL C00021 V=0.1 +MOVJ EC00021 VJ=10.6
MOVL C00022 V=0.1 +MOVJ EC00022 VJ=10.6
MOVL C00023 V=0.1 +MOVJ EC00023 VJ=10.6
MOVL C00024 V=0.1 +MOVJ EC00024 VJ=10.6
MOVL C00025 V=0.1 +MOVJ EC00025 VJ=10.6
MOVL C00026 V=0.1 +MOVJ EC00026 VJ=10.6
MOVL C00027 V=0.1 +MOVJ EC00027 VJ=10.6
MOVL C00028 V=0.1 +MOVJ EC00028 VJ=10.6
MOVL C00029 V=0.1 +MOVJ EC00029 VJ=10.6
MOVL C00030 V=0.1 +MOVJ EC00030 VJ=10.6
MOVL C00031 V=0.1 +MOVJ EC00031 VJ=10.6
MOVL C00032 V=0.1 +MOVJ EC00032 VJ=10.6
ARCOF
END
