/JOB
//NAME AAA
//POS
///NPOS 40,0,20,0,0,0
///TOOL 12
///POSTYPE PULSE
///PULSE
C00000=-33673,67293,11723,11276,-40986,-12193
C00001=-16141,72463,-12820,-69140,-80379,70312
C00002=-33563,68016,12581,11283,-41153,-12221
C00003=-16238,72020,-13849,-69132,-80285,70482
C00004=-33464,68677,13365,11289,-41306,-12245
C00005=-16326,71620,-14777,-69124,-80200,70636
C00006=-33355,69406,14235,11295,-41477,-12272
C00007=-16425,71184,-15791,-69115,-80108,70805
C00008=-33258,70073,15030,11300,-41633,-12295
C00009=-16515,70791,-16707,-69106,-80024,70957
C00010=-33150,70809,15912,11305,-41808,-12321
C00011=-16616,70363,-17707,-69096,-79932,71124
C00012=-33054,71482,16719,11308,-41968,-12343
C00013=-16708,69977,-18610,-69087,-79849,71275
C00014=-32948,72226,17614,11311,-42146,-12367
C00015=-16810,69556,-19597,-69076,-79758,71440
C00016=-32852,72906,18433,11314,-42310,-12389
C00017=-16904,69176,-20489,-69065,-79675,71590
C00018=-32747,73658,19341,11316,-42493,-12412
C00019=-17008,68761,-21463,-69053,-79585,71753
C00020=-32653,74345,20173,11317,-42660,-12432
C00021=-17104,68388,-22343,-69042,-79503,71901
C00022=-32549,75105,21095,11318,-42847,-12454
C00023=-17210,67980,-23305,-69029,-79414,72064
C00024=-32455,75800,21940,11318,-43019,-12474
C00025=-17308,67613,-24174,-69016,-79333,72210
C00026=-32353,76568,22877,11318,-43210,-12495
C00027=-17416,67212,-25124,-69002,-79244,72371
C00028=-32261,77271,23736,11317,-43386,-12513
C00029=-17515,66850,-25983,-68989,-79163,72517
C00030=-32159,78050,24689,11316,-43582,-12533
C00031=-17626,66455,-26922,-68974,-79074,72676
C00032=-32068,78761,25562,11314,-43762,-12550
C00033=-17727,66099,-27770,-68959,-78994,72820
C00034=-31968,79550,26532,11311,-43963,-12569
C00035=-17840,65710,-28699,-68943,-78906,72979
C00036=-31877,80271,27421,11308,-44148,-12585
C00037=-17943,65359,-29538,-68928,-78826,73122
C00038=-31787,80997,28317,11305,-44335,-12601
C00039=-18048,65011,-30373,-68912,-78746,73265
EC00000=-29914,123904
EC00001=-29914,123904
EC00002=-29914,123904
EC00003=-29914,123904
EC00004=-29914,123904
EC00005=-29914,123904
EC00006=-29914,123904
EC00007=-29914,123904
EC00008=-29914,123904
EC00009=-29914,123904
EC00010=-29914,123904
EC00011=-29914,123904
EC00012=-29914,123904
EC00013=-29914,123904
EC00014=-29914,123904
EC00015=-29914,123904
EC00016=-29914,123904
EC00017=-29914,123904
EC00018=-29914,123904
EC00019=-29914,123904
//INST
///DATE 2023/09/07 14:47
///ATTR SC,RW
///GROUP1 RB1,ST1
///GROUP2 RB2
NOP
MOVJ C00000 EC00000 VJ=1.0 +MOVJ C00001 VJ=1.0
MOVL C00002 EC00001 V=5.0 +MOVL C00003 V=5.0
MOVL C00004 EC00002 V=5.0 +MOVL C00005 V=5.0
MOVL C00006 EC00003 V=5.0 +MOVL C00007 V=5.0
MOVL C00008 EC00004 V=5.0 +MOVL C00009 V=5.0
MOVL C00010 EC00005 V=5.0 +MOVL C00011 V=5.0
MOVL C00012 EC00006 V=5.0 +MOVL C00013 V=5.0
MOVL C00014 EC00007 V=5.0 +MOVL C00015 V=5.0
MOVL C00016 EC00008 V=5.0 +MOVL C00017 V=5.0
MOVL C00018 EC00009 V=5.0 +MOVL C00019 V=5.0
MOVL C00020 EC00010 V=5.0 +MOVL C00021 V=5.0
MOVL C00022 EC00011 V=5.0 +MOVL C00023 V=5.0
MOVL C00024 EC00012 V=5.0 +MOVL C00025 V=5.0
MOVL C00026 EC00013 V=5.0 +MOVL C00027 V=5.0
MOVL C00028 EC00014 V=5.0 +MOVL C00029 V=5.0
MOVL C00030 EC00015 V=5.0 +MOVL C00031 V=5.0
MOVL C00032 EC00016 V=5.0 +MOVL C00033 V=5.0
MOVL C00034 EC00017 V=5.0 +MOVL C00035 V=5.0
MOVL C00036 EC00018 V=5.0 +MOVL C00037 V=5.0
MOVL C00038 EC00019 V=5.0 +MOVL C00039 V=5.0
END
