/JOB
//NAME AAA
//POS
///NPOS 40,0,20,0,0,0
///TOOL 12
///POSTYPE PULSE
///PULSE
C00000=-33673,66626,12237,11132,-41633,-12107
C00001=-20229,75337,-10382,-68421,-80408,70815
C00002=-33563,67353,13095,11140,-41799,-12135
C00003=-20331,74898,-11421,-68411,-80307,70989
C00004=-33464,68017,13882,11147,-41951,-12160
C00005=-20424,74503,-12358,-68401,-80215,71147
C00006=-33355,68751,14753,11154,-42120,-12186
C00007=-20528,74072,-13381,-68389,-80115,71320
C00008=-33257,69421,15550,11159,-42276,-12210
C00009=-20623,73685,-14305,-68378,-80025,71476
C00010=-33150,70161,16433,11165,-42450,-12236
C00011=-20729,73262,-15313,-68366,-79926,71647
C00012=-33053,70838,17242,11170,-42609,-12259
C00013=-20826,72882,-16223,-68354,-79836,71801
C00014=-32948,71586,18139,11174,-42786,-12283
C00015=-20934,72467,-17218,-68341,-79738,71971
C00016=-32852,72270,18960,11177,-42950,-12305
C00017=-21033,72093,-18115,-68328,-79649,72124
C00018=-32747,73026,19870,11180,-43131,-12329
C00019=-21142,71686,-19096,-68314,-79551,72291
C00020=-32652,73717,20704,11183,-43298,-12349
C00021=-21243,71319,-19982,-68301,-79463,72443
C00022=-32549,74481,21629,11185,-43484,-12372
C00023=-21355,70919,-20950,-68286,-79366,72609
C00024=-32455,75180,22476,11186,-43655,-12391
C00025=-21458,70558,-21824,-68271,-79278,72759
C00026=-32353,75953,23416,11187,-43846,-12413
C00027=-21571,70165,-22780,-68255,-79182,72924
C00028=-32261,76660,24277,11187,-44021,-12431
C00029=-21676,69811,-23644,-68240,-79094,73073
C00030=-32159,77443,25232,11186,-44216,-12452
C00031=-21792,69425,-24587,-68222,-78998,73236
C00032=-32068,78159,26109,11185,-44396,-12469
C00033=-21899,69077,-25440,-68206,-78911,73384
C00034=-31968,78952,27081,11184,-44596,-12488
C00035=-22017,68697,-26373,-68187,-78816,73546
C00036=-31877,79678,27973,11181,-44780,-12505
C00037=-22126,68354,-27216,-68170,-78729,73693
C00038=-31787,80408,28872,11179,-44967,-12521
C00039=-22236,68015,-28054,-68152,-78643,73839
EC00000=-29914,123904
EC00001=-29914,123904
EC00002=-29914,123904
EC00003=-29914,123904
EC00004=-29914,123904
EC00005=-29914,123904
EC00006=-29914,123904
EC00007=-29914,123904
EC00008=-29914,123904
EC00009=-29914,123904
EC00010=-29914,123904
EC00011=-29914,123904
EC00012=-29914,123904
EC00013=-29914,123904
EC00014=-29914,123904
EC00015=-29914,123904
EC00016=-29914,123904
EC00017=-29914,123904
EC00018=-29914,123904
EC00019=-29914,123904
//INST
///DATE 2023/07/25 16:07
///ATTR SC,RW
///GROUP1 RB1,ST1
///GROUP2 RB2
NOP
MOVJ C00000 EC00000 VJ=1.0 +MOVJ C00001 VJ=1.0
MOVL C00002 EC00001 V=5.0 +MOVL C00003 V=5.0
MOVL C00004 EC00002 V=5.0 +MOVL C00005 V=5.0
MOVL C00006 EC00003 V=5.0 +MOVL C00007 V=5.0
MOVL C00008 EC00004 V=5.0 +MOVL C00009 V=5.0
MOVL C00010 EC00005 V=5.0 +MOVL C00011 V=5.0
MOVL C00012 EC00006 V=5.0 +MOVL C00013 V=5.0
MOVL C00014 EC00007 V=5.0 +MOVL C00015 V=5.0
MOVL C00016 EC00008 V=5.0 +MOVL C00017 V=5.0
MOVL C00018 EC00009 V=5.0 +MOVL C00019 V=5.0
MOVL C00020 EC00010 V=5.0 +MOVL C00021 V=5.0
MOVL C00022 EC00011 V=5.0 +MOVL C00023 V=5.0
MOVL C00024 EC00012 V=5.0 +MOVL C00025 V=5.0
MOVL C00026 EC00013 V=5.0 +MOVL C00027 V=5.0
MOVL C00028 EC00014 V=5.0 +MOVL C00029 V=5.0
MOVL C00030 EC00015 V=5.0 +MOVL C00031 V=5.0
MOVL C00032 EC00016 V=5.0 +MOVL C00033 V=5.0
MOVL C00034 EC00017 V=5.0 +MOVL C00035 V=5.0
MOVL C00036 EC00018 V=5.0 +MOVL C00037 V=5.0
MOVL C00038 EC00019 V=5.0 +MOVL C00039 V=5.0
END
