/JOB
//NAME AAA
//POS
///NPOS 2243,0,2243,0,0,0
///TOOL 12
///POSTYPE PULSE
///PULSE
C00000=-37373,76505,38562,8099,-52206,-9419
C00001=-37373,76505,38562,8099,-52206,-9419
C00002=-37373,76505,38562,8099,-52206,-9419
C00003=-37373,76505,38562,8099,-52206,-9419
C00004=-37373,76505,38562,8099,-52206,-9419
C00005=-37373,76505,38562,8099,-52206,-9419
C00006=-37373,76505,38562,8099,-52206,-9419
C00007=-37373,76505,38562,8099,-52206,-9419
C00008=-37373,76505,38562,8099,-52206,-9419
C00009=-37373,76505,38562,8099,-52206,-9419
C00010=-37373,76505,38562,8099,-52206,-9419
C00011=-37373,76505,38562,8099,-52206,-9419
C00012=-37373,76505,38562,8099,-52206,-9419
C00013=-37373,76505,38562,8099,-52206,-9419
C00014=-37373,76505,38562,8099,-52206,-9419
C00015=-37373,76505,38562,8099,-52206,-9419
C00016=-37373,76505,38562,8099,-52206,-9419
C00017=-37373,76505,38562,8099,-52206,-9419
C00018=-37373,76505,38562,8099,-52206,-9419
C00019=-37373,76505,38562,8099,-52206,-9419
C00020=-37373,76505,38562,8099,-52206,-9419
C00021=-37373,76505,38562,8099,-52206,-9419
C00022=-37373,76505,38562,8099,-52206,-9419
C00023=-37373,76505,38562,8099,-52206,-9419
C00024=-37373,76505,38562,8099,-52206,-9419
C00025=-37373,76505,38562,8099,-52206,-9419
C00026=-37373,76505,38562,8099,-52206,-9419
C00027=-37373,76505,38562,8099,-52206,-9419
C00028=-37373,76505,38562,8099,-52206,-9419
C00029=-37373,76505,38562,8099,-52206,-9419
C00030=-37373,76505,38562,8099,-52206,-9419
C00031=-37373,76505,38562,8099,-52206,-9419
C00032=-37373,76505,38562,8099,-52206,-9419
C00033=-37373,76505,38562,8099,-52206,-9419
C00034=-37373,76505,38562,8099,-52206,-9419
C00035=-37373,76505,38562,8099,-52206,-9419
C00036=-37373,76505,38562,8099,-52206,-9419
C00037=-37373,76505,38562,8099,-52206,-9419
C00038=-37373,76505,38562,8099,-52206,-9419
C00039=-37373,76505,38562,8099,-52206,-9419
C00040=-37373,76505,38562,8099,-52206,-9419
C00041=-37373,76505,38562,8099,-52206,-9419
C00042=-37373,76505,38562,8099,-52206,-9419
C00043=-37373,76505,38562,8099,-52206,-9419
C00044=-37373,76505,38562,8099,-52206,-9419
C00045=-37373,76505,38562,8099,-52206,-9419
C00046=-37373,76505,38562,8099,-52206,-9419
C00047=-37373,76505,38562,8099,-52206,-9419
C00048=-37373,76505,38562,8099,-52206,-9419
C00049=-37373,76505,38562,8099,-52206,-9419
C00050=-37373,76505,38562,8099,-52206,-9419
C00051=-37373,76505,38562,8099,-52206,-9419
C00052=-37373,76505,38562,8099,-52206,-9419
C00053=-37373,76505,38562,8099,-52206,-9419
C00054=-37373,76505,38562,8099,-52206,-9419
C00055=-37373,76505,38562,8099,-52206,-9419
C00056=-37373,76505,38562,8099,-52206,-9419
C00057=-37373,76505,38562,8099,-52206,-9419
C00058=-37373,76505,38562,8099,-52206,-9419
C00059=-37373,76505,38562,8099,-52206,-9419
C00060=-37373,76505,38562,8099,-52206,-9419
C00061=-37373,76505,38562,8099,-52206,-9419
C00062=-37373,76505,38562,8099,-52206,-9419
C00063=-37373,76505,38562,8099,-52206,-9419
C00064=-37373,76505,38562,8099,-52206,-9419
C00065=-37373,76505,38562,8099,-52206,-9419
C00066=-37373,76505,38562,8099,-52206,-9419
C00067=-37373,76505,38562,8099,-52206,-9419
C00068=-37373,76505,38562,8099,-52206,-9419
C00069=-37373,76505,38562,8099,-52206,-9419
C00070=-37373,76505,38562,8099,-52206,-9419
C00071=-37373,76505,38562,8099,-52206,-9419
C00072=-37373,76505,38562,8099,-52206,-9419
C00073=-37373,76505,38562,8099,-52206,-9419
C00074=-37373,76505,38562,8099,-52206,-9419
C00075=-37373,76505,38562,8099,-52206,-9419
C00076=-37373,76505,38562,8099,-52206,-9419
C00077=-37373,76505,38562,8099,-52206,-9419
C00078=-37373,76505,38562,8099,-52206,-9419
C00079=-37373,76505,38562,8099,-52206,-9419
C00080=-37373,76505,38562,8099,-52206,-9419
C00081=-37373,76505,38562,8099,-52206,-9419
C00082=-37373,76505,38562,8099,-52206,-9419
C00083=-37373,76505,38562,8099,-52206,-9419
C00084=-37373,76505,38562,8099,-52206,-9419
C00085=-37373,76505,38562,8099,-52206,-9419
C00086=-37373,76505,38562,8099,-52206,-9419
C00087=-37373,76505,38562,8099,-52206,-9419
C00088=-37373,76505,38562,8099,-52206,-9419
C00089=-37373,76505,38562,8099,-52206,-9419
C00090=-37373,76505,38562,8099,-52206,-9419
C00091=-37373,76505,38562,8099,-52206,-9419
C00092=-37373,76505,38562,8099,-52206,-9419
C00093=-37373,76505,38562,8099,-52206,-9419
C00094=-37373,76506,38564,8099,-52206,-9419
C00095=-37374,76508,38566,8099,-52206,-9419
C00096=-37375,76509,38567,8098,-52206,-9418
C00097=-37375,76511,38569,8098,-52207,-9418
C00098=-37376,76512,38571,8098,-52207,-9418
C00099=-37377,76513,38573,8098,-52207,-9417
C00100=-37377,76515,38575,8097,-52208,-9417
C00101=-37378,76516,38576,8097,-52208,-9417
C00102=-37379,76517,38578,8097,-52208,-9416
C00103=-37379,76519,38580,8096,-52209,-9416
C00104=-37380,76520,38582,8096,-52209,-9416
C00105=-37381,76521,38583,8096,-52209,-9416
C00106=-37381,76523,38585,8096,-52210,-9415
C00107=-37382,76524,38587,8095,-52210,-9415
C00108=-37383,76526,38589,8095,-52210,-9415
C00109=-37383,76527,38590,8095,-52211,-9414
C00110=-37384,76528,38592,8095,-52211,-9414
C00111=-37385,76530,38594,8094,-52211,-9414
C00112=-37385,76531,38596,8094,-52212,-9413
C00113=-37386,76532,38598,8094,-52212,-9413
C00114=-37387,76534,38599,8094,-52212,-9413
C00115=-37387,76535,38601,8093,-52213,-9413
C00116=-37388,76537,38603,8093,-52213,-9412
C00117=-37389,76538,38605,8093,-52213,-9412
C00118=-37389,76539,38606,8093,-52214,-9412
C00119=-37390,76541,38608,8092,-52214,-9411
C00120=-37391,76542,38610,8092,-52214,-9411
C00121=-37391,76543,38612,8092,-52215,-9411
C00122=-37392,76545,38614,8091,-52215,-9410
C00123=-37393,76546,38615,8091,-52215,-9410
C00124=-37393,76547,38617,8091,-52216,-9410
C00125=-37394,76549,38619,8091,-52216,-9410
C00126=-37395,76550,38621,8090,-52216,-9409
C00127=-37395,76552,38623,8090,-52217,-9409
C00128=-37396,76553,38624,8090,-52217,-9409
C00129=-37397,76554,38626,8090,-52217,-9408
C00130=-37397,76556,38628,8089,-52217,-9408
C00131=-37398,76557,38630,8089,-52218,-9408
C00132=-37399,76558,38632,8089,-52218,-9407
C00133=-37399,76560,38633,8089,-52218,-9407
C00134=-37400,76561,38635,8088,-52219,-9407
C00135=-37401,76562,38637,8088,-52219,-9407
C00136=-37401,76564,38639,8088,-52219,-9406
C00137=-37402,76565,38640,8087,-52220,-9406
C00138=-37403,76567,38642,8087,-52220,-9406
C00139=-37403,76568,38644,8087,-52220,-9405
C00140=-37404,76569,38646,8087,-52221,-9405
C00141=-37405,76571,38647,8086,-52221,-9405
C00142=-37405,76572,38649,8086,-52221,-9404
C00143=-37406,76573,38651,8086,-52222,-9404
C00144=-37407,76575,38653,8086,-52222,-9404
C00145=-37407,76576,38655,8085,-52222,-9404
C00146=-37408,76577,38656,8085,-52223,-9403
C00147=-37409,76579,38658,8085,-52223,-9403
C00148=-37409,76580,38660,8085,-52223,-9403
C00149=-37410,76582,38662,8084,-52224,-9402
C00150=-37411,76583,38663,8084,-52224,-9402
C00151=-37411,76584,38665,8084,-52224,-9402
C00152=-37412,76586,38667,8084,-52225,-9401
C00153=-37413,76587,38669,8083,-52225,-9401
C00154=-37413,76588,38671,8083,-52225,-9401
C00155=-37414,76590,38672,8083,-52226,-9401
C00156=-37415,76591,38674,8082,-52226,-9400
C00157=-37415,76593,38676,8082,-52226,-9400
C00158=-37416,76594,38678,8082,-52227,-9400
C00159=-37417,76595,38679,8082,-52227,-9399
C00160=-37417,76597,38681,8081,-52227,-9399
C00161=-37418,76598,38683,8081,-52228,-9399
C00162=-37419,76599,38685,8081,-52228,-9398
C00163=-37419,76601,38686,8081,-52228,-9398
C00164=-37420,76602,38688,8080,-52228,-9398
C00165=-37421,76603,38690,8080,-52229,-9398
C00166=-37421,76605,38692,8080,-52229,-9397
C00167=-37422,76606,38694,8080,-52229,-9397
C00168=-37423,76608,38695,8079,-52230,-9397
C00169=-37423,76609,38697,8079,-52230,-9396
C00170=-37424,76610,38699,8079,-52230,-9396
C00171=-37425,76612,38701,8078,-52231,-9396
C00172=-37425,76613,38702,8078,-52231,-9395
C00173=-37426,76614,38704,8078,-52231,-9395
C00174=-37427,76616,38706,8078,-52232,-9395
C00175=-37427,76617,38708,8077,-52232,-9395
C00176=-37428,76618,38710,8077,-52232,-9394
C00177=-37429,76620,38711,8077,-52233,-9394
C00178=-37429,76621,38713,8077,-52233,-9394
C00179=-37430,76623,38715,8076,-52233,-9393
C00180=-37431,76624,38717,8076,-52234,-9393
C00181=-37431,76625,38718,8076,-52234,-9393
C00182=-37432,76627,38720,8076,-52234,-9392
C00183=-37433,76628,38722,8075,-52235,-9392
C00184=-37433,76629,38724,8075,-52235,-9392
C00185=-37434,76631,38726,8075,-52235,-9392
C00186=-37435,76632,38727,8075,-52236,-9391
C00187=-37435,76633,38729,8074,-52236,-9391
C00188=-37436,76635,38731,8074,-52236,-9391
C00189=-37437,76636,38733,8074,-52237,-9390
C00190=-37437,76638,38735,8073,-52237,-9390
C00191=-37438,76639,38736,8073,-52237,-9390
C00192=-37439,76640,38738,8073,-52238,-9389
C00193=-37439,76642,38740,8073,-52238,-9389
C00194=-37440,76643,38742,8072,-52238,-9389
C00195=-37441,76644,38743,8072,-52239,-9389
C00196=-37441,76646,38745,8072,-52239,-9388
C00197=-37442,76647,38747,8072,-52239,-9388
C00198=-37443,76648,38749,8071,-52240,-9388
C00199=-37443,76650,38751,8071,-52240,-9387
C00200=-37444,76651,38752,8071,-52240,-9387
C00201=-37445,76653,38754,8071,-52241,-9387
C00202=-37445,76654,38756,8070,-52241,-9386
C00203=-37446,76655,38758,8070,-52241,-9386
C00204=-37447,76657,38759,8070,-52241,-9386
C00205=-37447,76658,38761,8070,-52242,-9386
C00206=-37448,76659,38763,8069,-52242,-9385
C00207=-37449,76661,38765,8069,-52242,-9385
C00208=-37449,76662,38767,8069,-52243,-9385
C00209=-37450,76664,38768,8068,-52243,-9384
C00210=-37451,76665,38770,8068,-52243,-9384
C00211=-37451,76666,38772,8068,-52244,-9384
C00212=-37452,76668,38774,8068,-52244,-9383
C00213=-37453,76669,38775,8067,-52244,-9383
C00214=-37453,76670,38777,8067,-52245,-9383
C00215=-37454,76672,38779,8067,-52245,-9383
C00216=-37455,76673,38781,8067,-52245,-9382
C00217=-37455,76674,38783,8066,-52246,-9382
C00218=-37456,76676,38784,8066,-52246,-9382
C00219=-37457,76677,38786,8066,-52246,-9381
C00220=-37457,76679,38788,8066,-52247,-9381
C00221=-37458,76680,38790,8065,-52247,-9381
C00222=-37459,76681,38791,8065,-52247,-9380
C00223=-37459,76683,38793,8065,-52248,-9380
C00224=-37460,76684,38795,8064,-52248,-9380
C00225=-37461,76685,38797,8064,-52248,-9380
C00226=-37461,76687,38798,8064,-52249,-9379
C00227=-37462,76688,38800,8064,-52249,-9379
C00228=-37463,76689,38802,8063,-52249,-9379
C00229=-37463,76691,38804,8063,-52250,-9378
C00230=-37464,76692,38806,8063,-52250,-9378
C00231=-37465,76694,38807,8063,-52250,-9378
C00232=-37465,76695,38809,8062,-52251,-9377
C00233=-37466,76696,38811,8062,-52251,-9377
C00234=-37467,76698,38813,8062,-52251,-9377
C00235=-37467,76699,38814,8062,-52252,-9377
C00236=-37468,76700,38816,8061,-52252,-9376
C00237=-37469,76702,38818,8061,-52252,-9376
C00238=-37469,76703,38820,8061,-52253,-9376
C00239=-37470,76704,38822,8061,-52253,-9375
C00240=-37471,76706,38823,8060,-52253,-9375
C00241=-37471,76707,38825,8060,-52253,-9375
C00242=-37472,76709,38827,8060,-52254,-9374
C00243=-37473,76710,38829,8059,-52254,-9374
C00244=-37473,76711,38830,8059,-52254,-9374
C00245=-37474,76713,38832,8059,-52255,-9374
C00246=-37475,76714,38834,8059,-52255,-9373
C00247=-37475,76715,38836,8058,-52255,-9373
C00248=-37476,76717,38838,8058,-52256,-9373
C00249=-37477,76718,38839,8058,-52256,-9372
C00250=-37477,76720,38841,8058,-52256,-9372
C00251=-37478,76721,38843,8057,-52257,-9372
C00252=-37479,76722,38845,8057,-52257,-9371
C00253=-37479,76724,38847,8057,-52257,-9371
C00254=-37480,76725,38848,8057,-52258,-9371
C00255=-37481,76726,38850,8056,-52258,-9371
C00256=-37481,76728,38852,8056,-52258,-9370
C00257=-37482,76729,38854,8056,-52259,-9370
C00258=-37483,76730,38855,8056,-52259,-9370
C00259=-37483,76732,38857,8055,-52259,-9369
C00260=-37484,76733,38859,8055,-52260,-9369
C00261=-37485,76735,38861,8055,-52260,-9369
C00262=-37485,76736,38863,8054,-52260,-9368
C00263=-37486,76737,38864,8054,-52261,-9368
C00264=-37487,76739,38866,8054,-52261,-9368
C00265=-37487,76740,38868,8054,-52261,-9368
C00266=-37488,76741,38870,8053,-52262,-9367
C00267=-37489,76743,38871,8053,-52262,-9367
C00268=-37489,76744,38873,8053,-52262,-9367
C00269=-37490,76745,38875,8053,-52263,-9366
C00270=-37491,76747,38877,8052,-52263,-9366
C00271=-37491,76748,38879,8052,-52263,-9366
C00272=-37492,76750,38880,8052,-52264,-9365
C00273=-37493,76751,38882,8052,-52264,-9365
C00274=-37493,76752,38884,8051,-52264,-9365
C00275=-37494,76754,38886,8051,-52265,-9365
C00276=-37495,76755,38887,8051,-52265,-9364
C00277=-37495,76756,38889,8050,-52265,-9364
C00278=-37496,76758,38891,8050,-52265,-9364
C00279=-37497,76759,38893,8050,-52266,-9363
C00280=-37497,76760,38894,8050,-52266,-9363
C00281=-37498,76762,38896,8049,-52266,-9363
C00282=-37499,76763,38898,8049,-52267,-9362
C00283=-37499,76764,38900,8049,-52267,-9362
C00284=-37500,76766,38901,8049,-52267,-9362
C00285=-37501,76767,38903,8048,-52268,-9362
C00286=-37501,76769,38905,8048,-52268,-9361
C00287=-37502,76770,38907,8048,-52268,-9361
C00288=-37503,76771,38909,8048,-52269,-9361
C00289=-37503,76773,38910,8047,-52269,-9360
C00290=-37504,76774,38912,8047,-52269,-9360
C00291=-37505,76775,38914,8047,-52270,-9360
C00292=-37505,76777,38916,8047,-52270,-9360
C00293=-37506,76778,38918,8046,-52270,-9359
C00294=-37507,76780,38919,8046,-52271,-9359
C00295=-37507,76781,38921,8046,-52271,-9359
C00296=-37508,76782,38923,8046,-52271,-9358
C00297=-37509,76784,38925,8045,-52272,-9358
C00298=-37509,76785,38926,8045,-52272,-9358
C00299=-37510,76786,38928,8045,-52272,-9357
C00300=-37511,76788,38930,8044,-52273,-9357
C00301=-37511,76789,38932,8044,-52273,-9357
C00302=-37512,76791,38934,8044,-52273,-9357
C00303=-37513,76792,38935,8044,-52273,-9356
C00304=-37513,76793,38937,8043,-52274,-9356
C00305=-37514,76795,38939,8043,-52274,-9356
C00306=-37515,76796,38941,8043,-52274,-9355
C00307=-37515,76797,38942,8043,-52275,-9355
C00308=-37516,76799,38944,8042,-52275,-9355
C00309=-37517,76800,38946,8042,-52275,-9354
C00310=-37517,76802,38948,8042,-52276,-9354
C00311=-37518,76803,38950,8042,-52276,-9354
C00312=-37519,76804,38951,8041,-52276,-9354
C00313=-37519,76806,38953,8041,-52277,-9353
C00314=-37520,76807,38955,8041,-52277,-9353
C00315=-37521,76808,38957,8041,-52277,-9353
C00316=-37521,76810,38958,8040,-52278,-9352
C00317=-37522,76811,38960,8040,-52278,-9352
C00318=-37523,76813,38962,8040,-52278,-9352
C00319=-37523,76814,38964,8039,-52279,-9351
C00320=-37524,76815,38965,8039,-52279,-9351
C00321=-37525,76817,38967,8039,-52279,-9351
C00322=-37525,76818,38969,8039,-52280,-9351
C00323=-37526,76819,38971,8038,-52280,-9350
C00324=-37527,76821,38973,8038,-52280,-9350
C00325=-37527,76822,38974,8038,-52281,-9350
C00326=-37528,76824,38976,8038,-52281,-9349
C00327=-37529,76825,38978,8037,-52281,-9349
C00328=-37529,76826,38980,8037,-52281,-9349
C00329=-37530,76828,38981,8037,-52282,-9348
C00330=-37531,76829,38983,8037,-52282,-9348
C00331=-37531,76831,38985,8036,-52282,-9348
C00332=-37532,76832,38987,8036,-52283,-9348
C00333=-37533,76833,38989,8036,-52283,-9347
C00334=-37533,76835,38990,8036,-52283,-9347
C00335=-37534,76836,38992,8035,-52284,-9347
C00336=-37535,76837,38994,8035,-52284,-9346
C00337=-37535,76839,38996,8035,-52284,-9346
C00338=-37536,76840,38998,8034,-52285,-9346
C00339=-37537,76841,38999,8034,-52285,-9345
C00340=-37537,76843,39001,8034,-52285,-9345
C00341=-37538,76844,39003,8034,-52286,-9345
C00342=-37539,76846,39005,8033,-52286,-9345
C00343=-37539,76847,39007,8033,-52286,-9344
C00344=-37540,76848,39008,8033,-52287,-9344
C00345=-37541,76850,39010,8033,-52287,-9344
C00346=-37541,76851,39012,8032,-52287,-9343
C00347=-37542,76852,39014,8032,-52288,-9343
C00348=-37543,76854,39015,8032,-52288,-9343
C00349=-37543,76855,39017,8032,-52288,-9342
C00350=-37544,76857,39019,8031,-52289,-9342
C00351=-37545,76858,39021,8031,-52289,-9342
C00352=-37545,76859,39023,8031,-52289,-9342
C00353=-37546,76861,39024,8030,-52290,-9341
C00354=-37547,76862,39026,8030,-52290,-9341
C00355=-37547,76864,39028,8030,-52290,-9341
C00356=-37548,76865,39030,8030,-52290,-9340
C00357=-37549,76866,39031,8029,-52291,-9340
C00358=-37549,76868,39033,8029,-52291,-9340
C00359=-37550,76869,39035,8029,-52291,-9340
C00360=-37551,76870,39037,8029,-52292,-9339
C00361=-37551,76872,39038,8028,-52292,-9339
C00362=-37552,76873,39040,8028,-52292,-9339
C00363=-37553,76875,39042,8028,-52293,-9338
C00364=-37553,76876,39044,8028,-52293,-9338
C00365=-37554,76877,39046,8027,-52293,-9338
C00366=-37555,76879,39047,8027,-52294,-9337
C00367=-37555,76880,39049,8027,-52294,-9337
C00368=-37556,76881,39051,8027,-52294,-9337
C00369=-37557,76883,39053,8026,-52295,-9337
C00370=-37557,76884,39054,8026,-52295,-9336
C00371=-37558,76885,39056,8026,-52295,-9336
C00372=-37559,76887,39058,8025,-52296,-9336
C00373=-37559,76888,39060,8025,-52296,-9335
C00374=-37560,76890,39062,8025,-52296,-9335
C00375=-37561,76891,39063,8025,-52297,-9335
C00376=-37561,76892,39065,8024,-52297,-9334
C00377=-37562,76894,39067,8024,-52297,-9334
C00378=-37563,76895,39069,8024,-52298,-9334
C00379=-37563,76896,39070,8024,-52298,-9334
C00380=-37564,76898,39072,8023,-52298,-9333
C00381=-37565,76899,39074,8023,-52298,-9333
C00382=-37565,76901,39076,8023,-52299,-9333
C00383=-37566,76902,39078,8023,-52299,-9332
C00384=-37567,76903,39079,8022,-52299,-9332
C00385=-37567,76905,39081,8022,-52300,-9332
C00386=-37568,76906,39083,8022,-52300,-9331
C00387=-37569,76907,39085,8022,-52300,-9331
C00388=-37569,76909,39086,8021,-52301,-9331
C00389=-37570,76910,39088,8021,-52301,-9331
C00390=-37570,76911,39090,8021,-52301,-9330
C00391=-37571,76913,39092,8021,-52302,-9330
C00392=-37572,76914,39093,8020,-52302,-9330
C00393=-37573,76916,39095,8020,-52302,-9329
C00394=-37573,76917,39097,8020,-52303,-9329
C00395=-37574,76918,39099,8019,-52303,-9329
C00396=-37575,76920,39101,8019,-52303,-9328
C00397=-37575,76921,39102,8019,-52304,-9328
C00398=-37576,76923,39104,8019,-52304,-9328
C00399=-37576,76924,39106,8018,-52304,-9328
C00400=-37577,76925,39108,8018,-52305,-9327
C00401=-37578,76927,39109,8018,-52305,-9327
C00402=-37578,76928,39111,8018,-52305,-9327
C00403=-37579,76929,39113,8017,-52305,-9326
C00404=-37580,76931,39115,8017,-52306,-9326
C00405=-37580,76932,39116,8017,-52306,-9326
C00406=-37581,76933,39118,8017,-52306,-9326
C00407=-37582,76935,39120,8016,-52307,-9325
C00408=-37582,76936,39122,8016,-52307,-9325
C00409=-37583,76938,39124,8016,-52307,-9325
C00410=-37584,76939,39125,8016,-52308,-9324
C00411=-37584,76940,39127,8015,-52308,-9324
C00412=-37585,76942,39129,8015,-52308,-9324
C00413=-37586,76943,39131,8015,-52309,-9323
C00414=-37586,76944,39133,8015,-52309,-9323
C00415=-37587,76946,39134,8014,-52309,-9323
C00416=-37588,76947,39136,8014,-52310,-9323
C00417=-37588,76949,39138,8014,-52310,-9322
C00418=-37589,76950,39140,8013,-52310,-9322
C00419=-37590,76951,39141,8013,-52311,-9322
C00420=-37590,76953,39143,8013,-52311,-9321
C00421=-37591,76954,39145,8013,-52311,-9321
C00422=-37592,76955,39147,8012,-52312,-9321
C00423=-37592,76957,39148,8012,-52312,-9320
C00424=-37593,76958,39150,8012,-52312,-9320
C00425=-37594,76959,39152,8012,-52312,-9320
C00426=-37594,76961,39154,8011,-52313,-9320
C00427=-37595,76962,39155,8011,-52313,-9319
C00428=-37596,76964,39157,8011,-52313,-9319
C00429=-37596,76965,39159,8011,-52314,-9319
C00430=-37597,76966,39161,8010,-52314,-9318
C00431=-37598,76968,39162,8010,-52314,-9318
C00432=-37598,76969,39164,8010,-52315,-9318
C00433=-37599,76970,39166,8010,-52315,-9317
C00434=-37600,76972,39168,8009,-52315,-9317
C00435=-37600,76973,39170,8009,-52316,-9317
C00436=-37601,76975,39171,8009,-52316,-9317
C00437=-37602,76976,39173,8008,-52316,-9316
C00438=-37602,76977,39175,8008,-52317,-9316
C00439=-37603,76979,39177,8008,-52317,-9316
C00440=-37604,76980,39179,8008,-52317,-9315
C00441=-37604,76981,39180,8007,-52318,-9315
C00442=-37605,76983,39182,8007,-52318,-9315
C00443=-37606,76984,39184,8007,-52318,-9314
C00444=-37606,76985,39186,8007,-52319,-9314
C00445=-37607,76987,39187,8006,-52319,-9314
C00446=-37608,76988,39189,8006,-52319,-9314
C00447=-37608,76990,39191,8006,-52320,-9313
C00448=-37609,76991,39193,8006,-52320,-9313
C00449=-37610,76992,39194,8005,-52320,-9313
C00450=-37610,76994,39196,8005,-52320,-9312
C00451=-37611,76995,39198,8005,-52321,-9312
C00452=-37612,76996,39200,8005,-52321,-9312
C00453=-37612,76998,39201,8004,-52321,-9312
C00454=-37613,76999,39203,8004,-52322,-9311
C00455=-37614,77000,39205,8004,-52322,-9311
C00456=-37614,77002,39207,8004,-52322,-9311
C00457=-37615,77003,39209,8003,-52323,-9310
C00458=-37616,77005,39210,8003,-52323,-9310
C00459=-37616,77006,39212,8003,-52323,-9310
C00460=-37617,77007,39214,8002,-52324,-9309
C00461=-37618,77009,39216,8002,-52324,-9309
C00462=-37618,77010,39217,8002,-52324,-9309
C00463=-37619,77011,39219,8002,-52325,-9309
C00464=-37620,77013,39221,8001,-52325,-9308
C00465=-37620,77014,39223,8001,-52325,-9308
C00466=-37621,77015,39224,8001,-52326,-9308
C00467=-37621,77017,39226,8001,-52326,-9307
C00468=-37622,77018,39228,8000,-52326,-9307
C00469=-37623,77020,39230,8000,-52326,-9307
C00470=-37623,77021,39231,8000,-52327,-9307
C00471=-37624,77022,39233,8000,-52327,-9306
C00472=-37625,77024,39235,7999,-52327,-9306
C00473=-37625,77025,39237,7999,-52328,-9306
C00474=-37626,77026,39238,7999,-52328,-9305
C00475=-37627,77028,39240,7999,-52328,-9305
C00476=-37627,77029,39242,7998,-52329,-9305
C00477=-37628,77031,39244,7998,-52329,-9304
C00478=-37629,77032,39246,7998,-52329,-9304
C00479=-37629,77033,39247,7998,-52330,-9304
C00480=-37630,77035,39249,7997,-52330,-9304
C00481=-37631,77036,39251,7997,-52330,-9303
C00482=-37631,77038,39253,7997,-52331,-9303
C00483=-37632,77039,39255,7996,-52331,-9303
C00484=-37633,77040,39256,7996,-52331,-9302
C00485=-37633,77042,39258,7996,-52332,-9302
C00486=-37634,77043,39260,7996,-52332,-9302
C00487=-37635,77044,39262,7995,-52332,-9301
C00488=-37635,77046,39263,7995,-52332,-9301
C00489=-37636,77047,39265,7995,-52333,-9301
C00490=-37637,77049,39267,7995,-52333,-9301
C00491=-37637,77050,39269,7994,-52333,-9300
C00492=-37638,77051,39270,7994,-52334,-9300
C00493=-37639,77053,39272,7994,-52334,-9300
C00494=-37639,77054,39274,7994,-52334,-9299
C00495=-37640,77055,39276,7993,-52335,-9299
C00496=-37641,77057,39277,7993,-52335,-9299
C00497=-37641,77058,39279,7993,-52335,-9298
C00498=-37642,77060,39281,7993,-52336,-9298
C00499=-37643,77061,39283,7992,-52336,-9298
C00500=-37643,77062,39285,7992,-52336,-9298
C00501=-37644,77064,39286,7992,-52337,-9297
C00502=-37645,77065,39288,7992,-52337,-9297
C00503=-37645,77067,39290,7991,-52337,-9297
C00504=-37646,77068,39292,7991,-52338,-9296
C00505=-37647,77069,39294,7991,-52338,-9296
C00506=-37647,77071,39295,7990,-52338,-9296
C00507=-37648,77072,39297,7990,-52338,-9296
C00508=-37649,77073,39299,7990,-52339,-9295
C00509=-37649,77075,39301,7990,-52339,-9295
C00510=-37650,77076,39302,7989,-52339,-9295
C00511=-37651,77078,39304,7989,-52340,-9294
C00512=-37651,77079,39306,7989,-52340,-9294
C00513=-37652,77080,39308,7989,-52340,-9294
C00514=-37653,77082,39309,7988,-52341,-9293
C00515=-37653,77083,39311,7988,-52341,-9293
C00516=-37654,77084,39313,7988,-52341,-9293
C00517=-37655,77086,39315,7988,-52342,-9293
C00518=-37655,77087,39317,7987,-52342,-9292
C00519=-37656,77089,39318,7987,-52342,-9292
C00520=-37657,77090,39320,7987,-52343,-9292
C00521=-37657,77091,39322,7987,-52343,-9291
C00522=-37658,77093,39324,7986,-52343,-9291
C00523=-37659,77094,39325,7986,-52344,-9291
C00524=-37659,77096,39327,7986,-52344,-9290
C00525=-37660,77097,39329,7986,-52344,-9290
C00526=-37661,77098,39331,7985,-52344,-9290
C00527=-37661,77100,39333,7985,-52345,-9290
C00528=-37662,77101,39334,7985,-52345,-9289
C00529=-37662,77102,39336,7984,-52345,-9289
C00530=-37663,77104,39338,7984,-52346,-9289
C00531=-37664,77105,39340,7984,-52346,-9288
C00532=-37664,77107,39341,7984,-52346,-9288
C00533=-37665,77108,39343,7983,-52347,-9288
C00534=-37666,77109,39345,7983,-52347,-9288
C00535=-37666,77111,39347,7983,-52347,-9287
C00536=-37667,77112,39348,7983,-52348,-9287
C00537=-37668,77113,39350,7982,-52348,-9287
C00538=-37668,77115,39352,7982,-52348,-9286
C00539=-37669,77116,39354,7982,-52349,-9286
C00540=-37670,77118,39356,7982,-52349,-9286
C00541=-37670,77119,39357,7981,-52349,-9285
C00542=-37671,77120,39359,7981,-52350,-9285
C00543=-37672,77122,39361,7981,-52350,-9285
C00544=-37672,77123,39363,7981,-52350,-9285
C00545=-37673,77125,39364,7980,-52350,-9284
C00546=-37674,77126,39366,7980,-52351,-9284
C00547=-37674,77127,39368,7980,-52351,-9284
C00548=-37675,77129,39370,7980,-52351,-9283
C00549=-37676,77130,39372,7979,-52352,-9283
C00550=-37676,77131,39373,7979,-52352,-9283
C00551=-37677,77133,39375,7979,-52352,-9283
C00552=-37678,77134,39377,7979,-52353,-9282
C00553=-37678,77136,39379,7978,-52353,-9282
C00554=-37679,77137,39380,7978,-52353,-9282
C00555=-37680,77138,39382,7978,-52354,-9281
C00556=-37680,77140,39384,7977,-52354,-9281
C00557=-37681,77141,39386,7977,-52354,-9281
C00558=-37682,77142,39387,7977,-52355,-9280
C00559=-37682,77144,39389,7977,-52355,-9280
C00560=-37683,77145,39391,7976,-52355,-9280
C00561=-37684,77147,39393,7976,-52356,-9280
C00562=-37684,77148,39395,7976,-52356,-9279
C00563=-37685,77149,39396,7976,-52356,-9279
C00564=-37686,77151,39398,7975,-52356,-9279
C00565=-37686,77152,39400,7975,-52357,-9278
C00566=-37687,77154,39402,7975,-52357,-9278
C00567=-37688,77155,39404,7975,-52357,-9278
C00568=-37688,77156,39405,7974,-52358,-9277
C00569=-37689,77158,39407,7974,-52358,-9277
C00570=-37690,77159,39409,7974,-52358,-9277
C00571=-37690,77160,39411,7974,-52359,-9277
C00572=-37691,77162,39412,7973,-52359,-9276
C00573=-37692,77163,39414,7973,-52359,-9276
C00574=-37692,77165,39416,7973,-52360,-9276
C00575=-37693,77166,39418,7973,-52360,-9275
C00576=-37694,77167,39419,7972,-52360,-9275
C00577=-37694,77169,39421,7972,-52361,-9275
C00578=-37695,77170,39423,7972,-52361,-9274
C00579=-37696,77172,39425,7971,-52361,-9274
C00580=-37696,77173,39427,7971,-52362,-9274
C00581=-37697,77174,39428,7971,-52362,-9274
C00582=-37698,77176,39430,7971,-52362,-9273
C00583=-37698,77177,39432,7970,-52362,-9273
C00584=-37699,77178,39434,7970,-52363,-9273
C00585=-37700,77180,39435,7970,-52363,-9272
C00586=-37700,77181,39437,7970,-52363,-9272
C00587=-37701,77183,39439,7969,-52364,-9272
C00588=-37702,77184,39441,7969,-52364,-9272
C00589=-37702,77185,39443,7969,-52364,-9271
C00590=-37703,77187,39444,7969,-52365,-9271
C00591=-37704,77188,39446,7968,-52365,-9271
C00592=-37704,77189,39448,7968,-52365,-9270
C00593=-37705,77191,39450,7968,-52366,-9270
C00594=-37705,77192,39451,7968,-52366,-9270
C00595=-37706,77194,39453,7967,-52366,-9269
C00596=-37707,77195,39455,7967,-52367,-9269
C00597=-37708,77196,39457,7967,-52367,-9269
C00598=-37708,77198,39459,7966,-52367,-9269
C00599=-37709,77199,39460,7966,-52368,-9268
C00600=-37710,77201,39462,7966,-52368,-9268
C00601=-37710,77202,39464,7966,-52368,-9268
C00602=-37711,77203,39466,7965,-52368,-9267
C00603=-37711,77205,39467,7965,-52369,-9267
C00604=-37712,77206,39469,7965,-52369,-9267
C00605=-37713,77207,39471,7965,-52369,-9266
C00606=-37713,77209,39473,7964,-52370,-9266
C00607=-37714,77210,39474,7964,-52370,-9266
C00608=-37715,77212,39476,7964,-52370,-9266
C00609=-37715,77213,39478,7964,-52371,-9265
C00610=-37716,77214,39480,7963,-52371,-9265
C00611=-37717,77216,39482,7963,-52371,-9265
C00612=-37717,77217,39483,7963,-52372,-9264
C00613=-37718,77218,39485,7963,-52372,-9264
C00614=-37719,77220,39487,7962,-52372,-9264
C00615=-37719,77221,39489,7962,-52373,-9264
C00616=-37720,77223,39491,7962,-52373,-9263
C00617=-37721,77224,39492,7962,-52373,-9263
C00618=-37721,77225,39494,7961,-52374,-9263
C00619=-37722,77227,39496,7961,-52374,-9262
C00620=-37723,77228,39498,7961,-52374,-9262
C00621=-37723,77230,39499,7960,-52374,-9262
C00622=-37724,77231,39501,7960,-52375,-9261
C00623=-37725,77232,39503,7960,-52375,-9261
C00624=-37725,77234,39505,7960,-52375,-9261
C00625=-37726,77235,39506,7959,-52376,-9261
C00626=-37727,77236,39508,7959,-52376,-9260
C00627=-37727,77238,39510,7959,-52376,-9260
C00628=-37728,77239,39512,7959,-52377,-9260
C00629=-37729,77241,39513,7958,-52377,-9259
C00630=-37729,77242,39515,7958,-52377,-9259
C00631=-37730,77243,39517,7958,-52378,-9259
C00632=-37731,77245,39519,7958,-52378,-9258
C00633=-37731,77246,39521,7957,-52378,-9258
C00634=-37732,77248,39523,7957,-52379,-9258
C00635=-37733,77249,39524,7957,-52379,-9258
C00636=-37733,77250,39526,7957,-52379,-9257
C00637=-37734,77252,39528,7956,-52380,-9257
C00638=-37735,77253,39530,7956,-52380,-9257
C00639=-37735,77254,39531,7956,-52380,-9256
C00640=-37736,77256,39533,7956,-52380,-9256
C00641=-37737,77257,39535,7955,-52381,-9256
C00642=-37737,77259,39537,7955,-52381,-9256
C00643=-37738,77260,39538,7955,-52381,-9255
C00644=-37739,77261,39540,7954,-52382,-9255
C00645=-37739,77263,39542,7954,-52382,-9255
C00646=-37740,77264,39544,7954,-52382,-9254
C00647=-37741,77265,39545,7954,-52383,-9254
C00648=-37741,77267,39547,7953,-52383,-9254
C00649=-37742,77268,39549,7953,-52383,-9253
C00650=-37743,77270,39551,7953,-52384,-9253
C00651=-37743,77271,39553,7953,-52384,-9253
C00652=-37744,77272,39554,7952,-52384,-9253
C00653=-37745,77274,39556,7952,-52385,-9252
C00654=-37745,77275,39558,7952,-52385,-9252
C00655=-37746,77276,39560,7952,-52385,-9252
C00656=-37747,77278,39561,7951,-52385,-9251
C00657=-37747,77279,39563,7951,-52386,-9251
C00658=-37748,77281,39565,7951,-52386,-9251
C00659=-37748,77282,39567,7951,-52386,-9251
C00660=-37749,77283,39568,7950,-52387,-9250
C00661=-37750,77285,39570,7950,-52387,-9250
C00662=-37750,77286,39572,7950,-52387,-9250
C00663=-37751,77287,39574,7950,-52388,-9249
C00664=-37752,77289,39575,7949,-52388,-9249
C00665=-37752,77290,39577,7949,-52388,-9249
C00666=-37753,77292,39579,7949,-52389,-9248
C00667=-37754,77293,39581,7949,-52389,-9248
C00668=-37754,77294,39583,7948,-52389,-9248
C00669=-37755,77296,39584,7948,-52389,-9248
C00670=-37756,77297,39586,7948,-52390,-9247
C00671=-37756,77299,39588,7948,-52390,-9247
C00672=-37757,77300,39590,7947,-52390,-9247
C00673=-37758,77301,39592,7947,-52391,-9246
C00674=-37758,77303,39593,7947,-52391,-9246
C00675=-37759,77304,39595,7946,-52391,-9246
C00676=-37760,77306,39597,7946,-52392,-9245
C00677=-37760,77307,39599,7946,-52392,-9245
C00678=-37761,77308,39600,7946,-52392,-9245
C00679=-37762,77310,39602,7945,-52393,-9245
C00680=-37762,77311,39604,7945,-52393,-9244
C00681=-37763,77313,39606,7945,-52393,-9244
C00682=-37764,77314,39607,7945,-52394,-9244
C00683=-37764,77315,39609,7944,-52394,-9243
C00684=-37765,77317,39611,7944,-52394,-9243
C00685=-37766,77318,39613,7944,-52394,-9243
C00686=-37766,77319,39615,7944,-52395,-9243
C00687=-37767,77321,39616,7943,-52395,-9242
C00688=-37768,77322,39618,7943,-52395,-9242
C00689=-37768,77324,39620,7943,-52396,-9242
C00690=-37769,77325,39622,7943,-52396,-9241
C00691=-37770,77327,39624,7942,-52396,-9241
C00692=-37770,77328,39625,7942,-52397,-9241
C00693=-37771,77329,39627,7942,-52397,-9240
C00694=-37772,77331,39629,7942,-52397,-9240
C00695=-37772,77332,39631,7941,-52398,-9240
C00696=-37773,77333,39632,7941,-52398,-9240
C00697=-37774,77335,39634,7941,-52398,-9239
C00698=-37774,77336,39636,7940,-52399,-9239
C00699=-37775,77338,39638,7940,-52399,-9239
C00700=-37776,77339,39639,7940,-52399,-9238
C00701=-37776,77340,39641,7940,-52399,-9238
C00702=-37777,77342,39643,7939,-52400,-9238
C00703=-37778,77343,39645,7939,-52400,-9238
C00704=-37778,77345,39646,7939,-52400,-9237
C00705=-37779,77346,39648,7939,-52401,-9237
C00706=-37779,77347,39650,7938,-52401,-9237
C00707=-37780,77349,39652,7938,-52401,-9236
C00708=-37781,77350,39654,7938,-52402,-9236
C00709=-37782,77352,39655,7938,-52402,-9236
C00710=-37782,77353,39657,7937,-52402,-9235
C00711=-37783,77354,39659,7937,-52403,-9235
C00712=-37784,77356,39661,7937,-52403,-9235
C00713=-37784,77357,39663,7937,-52403,-9235
C00714=-37785,77358,39664,7936,-52404,-9234
C00715=-37785,77360,39666,7936,-52404,-9234
C00716=-37786,77361,39668,7936,-52404,-9234
C00717=-37787,77363,39670,7936,-52404,-9233
C00718=-37787,77364,39671,7935,-52405,-9233
C00719=-37788,77365,39673,7935,-52405,-9233
C00720=-37789,77367,39675,7935,-52405,-9232
C00721=-37789,77368,39677,7935,-52406,-9232
C00722=-37790,77370,39678,7934,-52406,-9232
C00723=-37791,77371,39680,7934,-52406,-9232
C00724=-37791,77372,39682,7934,-52407,-9231
C00725=-37792,77374,39684,7933,-52407,-9231
C00726=-37793,77375,39686,7933,-52407,-9231
C00727=-37793,77376,39687,7933,-52408,-9230
C00728=-37794,77378,39689,7933,-52408,-9230
C00729=-37795,77379,39691,7932,-52408,-9230
C00730=-37795,77381,39693,7932,-52409,-9230
C00731=-37796,77382,39695,7932,-52409,-9229
C00732=-37797,77384,39696,7932,-52409,-9229
C00733=-37797,77385,39698,7931,-52409,-9229
C00734=-37798,77386,39700,7931,-52410,-9228
C00735=-37799,77388,39702,7931,-52410,-9228
C00736=-37799,77389,39703,7931,-52410,-9228
C00737=-37800,77390,39705,7930,-52411,-9227
C00738=-37801,77392,39707,7930,-52411,-9227
C00739=-37801,77393,39709,7930,-52411,-9227
C00740=-37802,77395,39710,7930,-52412,-9227
C00741=-37803,77396,39712,7929,-52412,-9226
C00742=-37803,77397,39714,7929,-52412,-9226
C00743=-37804,77399,39716,7929,-52413,-9226
C00744=-37805,77400,39717,7929,-52413,-9225
C00745=-37805,77402,39719,7928,-52413,-9225
C00746=-37806,77403,39721,7928,-52414,-9225
C00747=-37807,77404,39723,7928,-52414,-9224
C00748=-37807,77406,39725,7927,-52414,-9224
C00749=-37808,77407,39727,7927,-52414,-9224
C00750=-37809,77409,39728,7927,-52415,-9224
C00751=-37809,77410,39730,7927,-52415,-9223
C00752=-37810,77411,39732,7926,-52415,-9223
C00753=-37811,77413,39734,7926,-52416,-9223
C00754=-37811,77414,39735,7926,-52416,-9222
C00755=-37812,77416,39737,7926,-52416,-9222
C00756=-37813,77417,39739,7925,-52417,-9222
C00757=-37813,77418,39741,7925,-52417,-9222
C00758=-37814,77420,39742,7925,-52417,-9221
C00759=-37815,77421,39744,7925,-52418,-9221
C00760=-37815,77422,39746,7924,-52418,-9221
C00761=-37816,77424,39748,7924,-52418,-9220
C00762=-37816,77425,39749,7924,-52418,-9220
C00763=-37817,77427,39751,7924,-52419,-9220
C00764=-37818,77428,39753,7923,-52419,-9219
C00765=-37819,77429,39755,7923,-52419,-9219
C00766=-37819,77431,39757,7923,-52420,-9219
C00767=-37820,77432,39758,7923,-52420,-9219
C00768=-37820,77434,39760,7922,-52420,-9218
C00769=-37821,77435,39762,7922,-52421,-9218
C00770=-37822,77436,39764,7922,-52421,-9218
C00771=-37822,77438,39766,7922,-52421,-9217
C00772=-37823,77439,39767,7921,-52422,-9217
C00773=-37824,77441,39769,7921,-52422,-9217
C00774=-37824,77442,39771,7921,-52422,-9217
C00775=-37825,77443,39773,7920,-52423,-9216
C00776=-37826,77445,39774,7920,-52423,-9216
C00777=-37826,77446,39776,7920,-52423,-9216
C00778=-37827,77447,39778,7920,-52423,-9215
C00779=-37828,77449,39780,7919,-52424,-9215
C00780=-37828,77450,39782,7919,-52424,-9215
C00781=-37829,77452,39783,7919,-52424,-9214
C00782=-37830,77453,39785,7919,-52425,-9214
C00783=-37830,77455,39787,7918,-52425,-9214
C00784=-37831,77456,39789,7918,-52425,-9214
C00785=-37832,77457,39790,7918,-52426,-9213
C00786=-37832,77459,39792,7918,-52426,-9213
C00787=-37833,77460,39794,7917,-52426,-9213
C00788=-37834,77461,39796,7917,-52427,-9212
C00789=-37834,77463,39798,7917,-52427,-9212
C00790=-37835,77464,39799,7917,-52427,-9212
C00791=-37836,77466,39801,7916,-52428,-9212
C00792=-37836,77467,39803,7916,-52428,-9211
C00793=-37837,77468,39805,7916,-52428,-9211
C00794=-37838,77470,39806,7916,-52428,-9211
C00795=-37838,77471,39808,7915,-52429,-9210
C00796=-37839,77473,39810,7915,-52429,-9210
C00797=-37840,77474,39812,7915,-52429,-9210
C00798=-37840,77475,39814,7915,-52430,-9209
C00799=-37841,77477,39815,7914,-52430,-9209
C00800=-37842,77478,39817,7914,-52430,-9209
C00801=-37842,77480,39819,7914,-52431,-9209
C00802=-37843,77481,39821,7913,-52431,-9208
C00803=-37844,77482,39822,7913,-52431,-9208
C00804=-37844,77484,39824,7913,-52432,-9208
C00805=-37845,77485,39826,7913,-52432,-9207
C00806=-37846,77487,39828,7912,-52432,-9207
C00807=-37846,77488,39829,7912,-52433,-9207
C00808=-37847,77489,39831,7912,-52433,-9206
C00809=-37848,77491,39833,7912,-52433,-9206
C00810=-37848,77492,39835,7911,-52433,-9206
C00811=-37849,77493,39837,7911,-52434,-9206
C00812=-37850,77495,39838,7911,-52434,-9205
C00813=-37850,77496,39840,7911,-52434,-9205
C00814=-37851,77498,39842,7910,-52435,-9205
C00815=-37852,77499,39844,7910,-52435,-9204
C00816=-37852,77500,39846,7910,-52435,-9204
C00817=-37853,77502,39847,7910,-52436,-9204
C00818=-37854,77503,39849,7909,-52436,-9204
C00819=-37854,77505,39851,7909,-52436,-9203
C00820=-37855,77506,39853,7909,-52437,-9203
C00821=-37856,77507,39854,7909,-52437,-9203
C00822=-37856,77509,39856,7908,-52437,-9202
C00823=-37857,77510,39858,7908,-52438,-9202
C00824=-37857,77512,39860,7908,-52438,-9202
C00825=-37858,77513,39861,7908,-52438,-9201
C00826=-37859,77514,39863,7907,-52438,-9201
C00827=-37859,77516,39865,7907,-52439,-9201
C00828=-37860,77517,39867,7907,-52439,-9201
C00829=-37861,77518,39869,7906,-52439,-9200
C00830=-37861,77520,39870,7906,-52440,-9200
C00831=-37862,77521,39872,7906,-52440,-9200
C00832=-37863,77523,39874,7906,-52440,-9199
C00833=-37863,77524,39876,7905,-52441,-9199
C00834=-37864,77526,39878,7905,-52441,-9199
C00835=-37865,77527,39879,7905,-52441,-9198
C00836=-37865,77528,39881,7905,-52442,-9198
C00837=-37866,77530,39883,7904,-52442,-9198
C00838=-37867,77531,39885,7904,-52442,-9198
C00839=-37867,77532,39886,7904,-52443,-9197
C00840=-37868,77534,39888,7904,-52443,-9197
C00841=-37869,77535,39890,7903,-52443,-9197
C00842=-37869,77537,39892,7903,-52444,-9196
C00843=-37870,77539,39894,7903,-52444,-9196
C00844=-37871,77540,39896,7903,-52444,-9196
C00845=-37871,77542,39898,7902,-52445,-9196
C00846=-37872,77543,39900,7902,-52445,-9195
C00847=-37872,77545,39902,7902,-52445,-9195
C00848=-37873,77547,39904,7902,-52446,-9195
C00849=-37874,77548,39906,7901,-52446,-9194
C00850=-37874,77550,39908,7901,-52446,-9194
C00851=-37875,77552,39910,7901,-52447,-9194
C00852=-37876,77553,39913,7901,-52447,-9194
C00853=-37876,77555,39915,7900,-52447,-9193
C00854=-37877,77556,39917,7900,-52448,-9193
C00855=-37877,77558,39919,7900,-52448,-9193
C00856=-37878,77560,39921,7900,-52449,-9192
C00857=-37879,77561,39923,7899,-52449,-9192
C00858=-37879,77563,39925,7899,-52449,-9192
C00859=-37880,77564,39927,7899,-52450,-9192
C00860=-37881,77566,39929,7899,-52450,-9191
C00861=-37881,77568,39931,7898,-52450,-9191
C00862=-37882,77569,39933,7898,-52451,-9191
C00863=-37883,77571,39935,7898,-52451,-9190
C00864=-37883,77572,39937,7898,-52451,-9190
C00865=-37884,77574,39939,7897,-52452,-9190
C00866=-37884,77576,39941,7897,-52452,-9190
C00867=-37885,77577,39943,7897,-52453,-9189
C00868=-37886,77579,39945,7896,-52453,-9189
C00869=-37886,77581,39947,7896,-52453,-9189
C00870=-37887,77582,39949,7896,-52454,-9188
C00871=-37888,77584,39951,7896,-52454,-9188
C00872=-37888,77585,39953,7895,-52454,-9188
C00873=-37889,77587,39955,7895,-52455,-9188
C00874=-37889,77589,39957,7895,-52455,-9187
C00875=-37890,77590,39959,7895,-52455,-9187
C00876=-37891,77592,39961,7894,-52456,-9187
C00877=-37891,77593,39963,7894,-52456,-9186
C00878=-37892,77595,39965,7894,-52456,-9186
C00879=-37893,77597,39967,7894,-52457,-9186
C00880=-37893,77598,39969,7893,-52457,-9186
C00881=-37894,77600,39971,7893,-52458,-9185
C00882=-37895,77602,39974,7893,-52458,-9185
C00883=-37895,77603,39976,7893,-52458,-9185
C00884=-37896,77605,39978,7892,-52459,-9184
C00885=-37896,77606,39980,7892,-52459,-9184
C00886=-37897,77608,39982,7892,-52459,-9184
C00887=-37898,77610,39984,7892,-52460,-9184
C00888=-37898,77611,39986,7891,-52460,-9183
C00889=-37899,77613,39988,7891,-52460,-9183
C00890=-37900,77614,39990,7891,-52461,-9183
C00891=-37900,77616,39992,7891,-52461,-9182
C00892=-37901,77618,39994,7890,-52461,-9182
C00893=-37901,77619,39996,7890,-52462,-9182
C00894=-37902,77621,39998,7890,-52462,-9182
C00895=-37903,77622,40000,7890,-52463,-9181
C00896=-37903,77624,40002,7889,-52463,-9181
C00897=-37904,77626,40004,7889,-52463,-9181
C00898=-37905,77627,40006,7889,-52464,-9180
C00899=-37905,77629,40008,7889,-52464,-9180
C00900=-37906,77631,40010,7888,-52464,-9180
C00901=-37907,77632,40012,7888,-52465,-9180
C00902=-37907,77634,40014,7888,-52465,-9179
C00903=-37908,77635,40016,7888,-52465,-9179
C00904=-37908,77637,40018,7887,-52466,-9179
C00905=-37909,77639,40020,7887,-52466,-9178
C00906=-37910,77640,40022,7887,-52467,-9178
C00907=-37910,77642,40024,7887,-52467,-9178
C00908=-37911,77643,40026,7886,-52467,-9178
C00909=-37912,77645,40028,7886,-52468,-9177
C00910=-37912,77647,40030,7886,-52468,-9177
C00911=-37913,77648,40032,7886,-52468,-9177
C00912=-37913,77650,40034,7885,-52469,-9176
C00913=-37914,77651,40036,7885,-52469,-9176
C00914=-37915,77653,40038,7885,-52469,-9176
C00915=-37915,77655,40040,7885,-52470,-9176
C00916=-37916,77656,40043,7884,-52470,-9175
C00917=-37917,77658,40045,7884,-52470,-9175
C00918=-37917,77660,40047,7884,-52471,-9175
C00919=-37918,77661,40049,7884,-52471,-9174
C00920=-37919,77663,40051,7883,-52472,-9174
C00921=-37919,77664,40053,7883,-52472,-9174
C00922=-37920,77666,40055,7883,-52472,-9174
C00923=-37920,77668,40057,7883,-52473,-9173
C00924=-37921,77669,40059,7882,-52473,-9173
C00925=-37922,77671,40061,7882,-52473,-9173
C00926=-37922,77672,40063,7882,-52474,-9172
C00927=-37923,77674,40065,7881,-52474,-9172
C00928=-37924,77676,40067,7881,-52474,-9172
C00929=-37924,77677,40069,7881,-52475,-9172
C00930=-37925,77679,40071,7881,-52475,-9171
C00931=-37936,77605,39981,7879,-52457,-9168
C00932=-37962,77413,39748,7875,-52410,-9161
C00933=-37990,77195,39485,7871,-52358,-9154
C00934=-37890,77959,40412,7886,-52543,-9180
C00935=-37917,77766,40177,7881,-52496,-9173
C00936=-37929,77689,40083,7879,-52477,-9169
C00937=-37929,77690,40085,7879,-52478,-9169
C00938=-37930,77692,40087,7879,-52478,-9169
C00939=-37931,77693,40089,7878,-52478,-9169
C00940=-37931,77695,40091,7878,-52479,-9168
C00941=-37932,77697,40093,7878,-52479,-9168
C00942=-37932,77698,40095,7878,-52479,-9168
C00943=-37933,77700,40097,7877,-52480,-9167
C00944=-37934,77701,40099,7877,-52480,-9167
C00945=-37934,77703,40101,7877,-52480,-9167
C00946=-37935,77705,40103,7877,-52481,-9167
C00947=-37936,77706,40105,7876,-52481,-9166
C00948=-37936,77708,40107,7876,-52482,-9166
C00949=-37937,77710,40110,7876,-52482,-9166
C00950=-37938,77711,40112,7876,-52482,-9165
C00951=-37938,77713,40114,7875,-52483,-9165
C00952=-37939,77714,40116,7875,-52483,-9165
C00953=-37939,77716,40118,7875,-52483,-9165
C00954=-37940,77718,40120,7875,-52484,-9164
C00955=-37941,77719,40122,7874,-52484,-9164
C00956=-37941,77721,40124,7874,-52484,-9164
C00957=-37942,77722,40126,7874,-52485,-9163
C00958=-37943,77724,40128,7874,-52485,-9163
C00959=-37943,77726,40130,7873,-52486,-9163
C00960=-37944,77727,40132,7873,-52486,-9163
C00961=-37944,77729,40134,7873,-52486,-9162
C00962=-37945,77730,40136,7873,-52487,-9162
C00963=-37946,77732,40138,7872,-52487,-9162
C00964=-37946,77734,40140,7872,-52487,-9161
C00965=-37947,77735,40142,7872,-52488,-9161
C00966=-37948,77737,40144,7872,-52488,-9161
C00967=-37948,77739,40146,7871,-52488,-9161
C00968=-37949,77740,40148,7871,-52489,-9160
C00969=-37950,77742,40150,7871,-52489,-9160
C00970=-37950,77743,40152,7871,-52489,-9160
C00971=-37951,77745,40154,7870,-52490,-9159
C00972=-37951,77747,40156,7870,-52490,-9159
C00973=-37952,77748,40158,7870,-52491,-9159
C00974=-37953,77750,40160,7870,-52491,-9159
C00975=-37953,77751,40162,7869,-52491,-9158
C00976=-37954,77753,40164,7869,-52492,-9158
C00977=-37955,77755,40166,7869,-52492,-9158
C00978=-37955,77756,40168,7869,-52492,-9157
C00979=-37956,77758,40170,7868,-52493,-9157
C00980=-37957,77760,40173,7868,-52493,-9157
C00981=-37957,77761,40175,7868,-52493,-9157
C00982=-37958,77763,40177,7867,-52494,-9156
C00983=-37958,77764,40179,7867,-52494,-9156
C00984=-37959,77766,40181,7867,-52495,-9156
C00985=-37960,77768,40183,7867,-52495,-9155
C00986=-37960,77769,40185,7866,-52495,-9155
C00987=-37961,77771,40187,7866,-52496,-9155
C00988=-37962,77772,40189,7866,-52496,-9155
C00989=-37962,77774,40191,7866,-52496,-9154
C00990=-37963,77776,40193,7865,-52497,-9154
C00991=-37963,77777,40195,7865,-52497,-9154
C00992=-37964,77779,40197,7865,-52497,-9153
C00993=-37965,77780,40199,7865,-52498,-9153
C00994=-37965,77782,40201,7864,-52498,-9153
C00995=-37966,77784,40203,7864,-52498,-9153
C00996=-37967,77785,40205,7864,-52499,-9152
C00997=-37967,77787,40207,7864,-52499,-9152
C00998=-37968,77789,40209,7863,-52500,-9152
C00999=-37969,77790,40211,7863,-52500,-9151
C01000=-37969,77792,40213,7863,-52500,-9151
C01001=-37970,77793,40215,7863,-52501,-9151
C01002=-37970,77795,40217,7862,-52501,-9151
C01003=-37971,77797,40219,7862,-52501,-9150
C01004=-37972,77798,40221,7862,-52502,-9150
C01005=-37972,77800,40223,7862,-52502,-9150
C01006=-37973,77801,40225,7861,-52502,-9149
C01007=-37974,77803,40227,7861,-52503,-9149
C01008=-37974,77805,40229,7861,-52503,-9149
C01009=-37975,77806,40231,7861,-52503,-9149
C01010=-37975,77808,40233,7860,-52504,-9148
C01011=-37976,77809,40236,7860,-52504,-9148
C01012=-37977,77811,40238,7860,-52505,-9148
C01013=-37977,77813,40240,7860,-52505,-9147
C01014=-37978,77814,40242,7859,-52505,-9147
C01015=-37979,77816,40244,7859,-52506,-9147
C01016=-37979,77818,40246,7859,-52506,-9147
C01017=-37980,77819,40248,7859,-52506,-9146
C01018=-37981,77821,40250,7858,-52507,-9146
C01019=-37981,77822,40252,7858,-52507,-9146
C01020=-37982,77824,40254,7858,-52507,-9145
C01021=-37982,77826,40256,7858,-52508,-9145
C01022=-37983,77827,40258,7857,-52508,-9145
C01023=-37984,77829,40260,7857,-52509,-9145
C01024=-37984,77830,40262,7857,-52509,-9144
C01025=-37985,77832,40264,7857,-52509,-9144
C01026=-37986,77834,40266,7856,-52510,-9144
C01027=-37986,77835,40268,7856,-52510,-9143
C01028=-37987,77836,40270,7856,-52510,-9143
C01029=-37988,77838,40271,7856,-52511,-9143
C01030=-37988,77839,40273,7855,-52511,-9143
C01031=-37989,77841,40275,7855,-52511,-9142
C01032=-37989,77842,40277,7855,-52511,-9142
C01033=-37990,77843,40279,7855,-52512,-9142
C01034=-37991,77845,40280,7854,-52512,-9141
C01035=-37991,77846,40282,7854,-52512,-9141
C01036=-37992,77848,40284,7854,-52513,-9141
C01037=-37993,77849,40286,7853,-52513,-9140
C01038=-37993,77850,40287,7853,-52513,-9140
C01039=-37994,77852,40289,7853,-52514,-9140
C01040=-37995,77853,40291,7853,-52514,-9140
C01041=-37995,77855,40293,7852,-52514,-9139
C01042=-37996,77856,40294,7852,-52514,-9139
C01043=-37997,77858,40296,7852,-52515,-9139
C01044=-37997,77859,40298,7852,-52515,-9138
C01045=-37998,77860,40300,7851,-52515,-9138
C01046=-37999,77862,40302,7851,-52516,-9138
C01047=-37999,77863,40304,7851,-52516,-9138
C01048=-38000,77865,40305,7851,-52516,-9137
C01049=-38001,77866,40307,7850,-52517,-9137
C01050=-38001,77867,40309,7850,-52517,-9137
C01051=-38002,77869,40311,7850,-52517,-9136
C01052=-38003,77870,40312,7850,-52518,-9136
C01053=-38003,77872,40314,7849,-52518,-9136
C01054=-38004,77873,40316,7849,-52518,-9135
C01055=-38005,77875,40318,7849,-52518,-9135
C01056=-38005,77876,40319,7849,-52519,-9135
C01057=-38006,77877,40321,7848,-52519,-9135
C01058=-38007,77879,40323,7848,-52519,-9134
C01059=-38007,77880,40325,7848,-52520,-9134
C01060=-38008,77882,40327,7848,-52520,-9134
C01061=-38009,77883,40328,7847,-52520,-9133
C01062=-38009,77885,40330,7847,-52521,-9133
C01063=-38010,77886,40332,7847,-52521,-9133
C01064=-38011,77887,40334,7847,-52521,-9133
C01065=-38011,77889,40336,7846,-52521,-9132
C01066=-38012,77890,40337,7846,-52522,-9132
C01067=-38013,77892,40339,7846,-52522,-9132
C01068=-38013,77893,40341,7845,-52522,-9131
C01069=-38014,77894,40343,7845,-52523,-9131
C01070=-38015,77896,40344,7845,-52523,-9131
C01071=-38015,77897,40346,7845,-52523,-9130
C01072=-38016,77899,40348,7844,-52524,-9130
C01073=-38016,77900,40350,7844,-52524,-9130
C01074=-38017,77902,40352,7844,-52524,-9130
C01075=-38018,77903,40353,7844,-52525,-9129
C01076=-38018,77904,40355,7843,-52525,-9129
C01077=-38019,77906,40357,7843,-52525,-9129
C01078=-38020,77907,40359,7843,-52525,-9128
C01079=-38020,77909,40361,7843,-52526,-9128
C01080=-38021,77910,40362,7842,-52526,-9128
C01081=-38022,77911,40364,7842,-52526,-9128
C01082=-38022,77913,40366,7842,-52527,-9127
C01083=-38023,77914,40368,7842,-52527,-9127
C01084=-38024,77916,40369,7841,-52527,-9127
C01085=-38024,77917,40371,7841,-52528,-9126
C01086=-38025,77918,40373,7841,-52528,-9126
C01087=-38026,77920,40375,7841,-52528,-9126
C01088=-38026,77921,40376,7840,-52528,-9125
C01089=-38027,77923,40378,7840,-52529,-9125
C01090=-38028,77924,40380,7840,-52529,-9125
C01091=-38028,77926,40382,7840,-52529,-9125
C01092=-38029,77927,40384,7839,-52530,-9124
C01093=-38030,77928,40386,7839,-52530,-9124
C01094=-38030,77930,40387,7839,-52530,-9124
C01095=-38031,77931,40389,7839,-52531,-9123
C01096=-38032,77933,40391,7838,-52531,-9123
C01097=-38032,77934,40393,7838,-52531,-9123
C01098=-38033,77935,40394,7838,-52532,-9123
C01099=-38034,77937,40396,7838,-52532,-9122
C01100=-38034,77938,40398,7837,-52532,-9122
C01101=-38035,77940,40400,7837,-52532,-9122
C01102=-38036,77941,40401,7837,-52533,-9121
C01103=-38036,77942,40403,7836,-52533,-9121
C01104=-38037,77944,40405,7836,-52533,-9121
C01105=-38038,77945,40407,7836,-52534,-9120
C01106=-38038,77947,40409,7836,-52534,-9120
C01107=-38039,77948,40410,7835,-52534,-9120
C01108=-38040,77950,40412,7835,-52535,-9120
C01109=-38040,77951,40414,7835,-52535,-9119
C01110=-38041,77952,40416,7835,-52535,-9119
C01111=-38042,77954,40418,7834,-52536,-9119
C01112=-38042,77955,40419,7834,-52536,-9118
C01113=-38043,77957,40421,7834,-52536,-9118
C01114=-38044,77958,40423,7834,-52536,-9118
C01115=-38044,77959,40425,7833,-52537,-9118
C01116=-38045,77961,40426,7833,-52537,-9117
C01117=-38045,77962,40428,7833,-52537,-9117
C01118=-38067,77808,40241,7829,-52500,-9111
C01119=-38119,77419,39769,7821,-52405,-9097
C01120=-38174,76989,39248,7813,-52301,-9082
C01121=-37973,78511,41094,7844,-52671,-9136
C01122=-38028,78125,40626,7835,-52577,-9121
C01123=-38049,77971,40439,7831,-52539,-9115
C01124=-38050,77972,40441,7831,-52539,-9115
C01125=-38051,77974,40443,7831,-52540,-9115
C01126=-38051,77975,40444,7831,-52540,-9114
C01127=-38052,77976,40446,7830,-52540,-9114
C01128=-38053,77978,40448,7830,-52541,-9114
C01129=-38053,77979,40450,7830,-52541,-9113
C01130=-38054,77981,40451,7830,-52541,-9113
C01131=-38055,77982,40453,7829,-52542,-9113
C01132=-38055,77983,40455,7829,-52542,-9113
C01133=-38056,77985,40457,7829,-52542,-9112
C01134=-38057,77986,40459,7828,-52543,-9112
C01135=-38057,77988,40460,7828,-52543,-9112
C01136=-38058,77989,40462,7828,-52543,-9111
C01137=-38059,77991,40464,7828,-52543,-9111
C01138=-38059,77992,40466,7827,-52544,-9111
C01139=-38060,77993,40468,7827,-52544,-9111
C01140=-38061,77995,40469,7827,-52544,-9110
C01141=-38061,77996,40471,7827,-52545,-9110
C01142=-38062,77998,40473,7826,-52545,-9110
C01143=-38063,77999,40475,7826,-52545,-9109
C01144=-38063,78000,40476,7826,-52546,-9109
C01145=-38064,78002,40478,7826,-52546,-9109
C01146=-38065,78003,40480,7825,-52546,-9108
C01147=-38065,78005,40482,7825,-52546,-9108
C01148=-38066,78006,40483,7825,-52547,-9108
C01149=-38067,78008,40485,7825,-52547,-9108
C01150=-38067,78009,40487,7824,-52547,-9107
C01151=-38068,78010,40489,7824,-52548,-9107
C01152=-38069,78012,40491,7824,-52548,-9107
C01153=-38069,78013,40493,7824,-52548,-9106
C01154=-38070,78015,40494,7823,-52549,-9106
C01155=-38071,78016,40496,7823,-52549,-9106
C01156=-38071,78018,40498,7823,-52549,-9106
C01157=-38072,78019,40500,7823,-52550,-9105
C01158=-38073,78020,40501,7822,-52550,-9105
C01159=-38073,78022,40503,7822,-52550,-9105
C01160=-38074,78023,40505,7822,-52550,-9104
C01161=-38075,78025,40507,7822,-52551,-9104
C01162=-38075,78026,40508,7821,-52551,-9104
C01163=-38076,78027,40510,7821,-52551,-9103
C01164=-38076,78029,40512,7821,-52552,-9103
C01165=-38077,78030,40514,7821,-52552,-9103
C01166=-38078,78032,40516,7820,-52552,-9103
C01167=-38079,78033,40518,7820,-52553,-9102
C01168=-38079,78035,40519,7820,-52553,-9102
C01169=-38080,78036,40521,7819,-52553,-9102
C01170=-38080,78037,40523,7819,-52554,-9101
C01171=-38081,78039,40525,7819,-52554,-9101
C01172=-38082,78040,40526,7819,-52554,-9101
C01173=-38082,78042,40528,7818,-52554,-9101
C01174=-38083,78043,40530,7818,-52555,-9100
C01175=-38084,78044,40532,7818,-52555,-9100
C01176=-38084,78046,40533,7818,-52555,-9100
C01177=-38085,78047,40535,7817,-52556,-9099
C01178=-38086,78049,40537,7817,-52556,-9099
C01179=-38086,78050,40539,7817,-52556,-9099
C01180=-38087,78051,40541,7817,-52557,-9098
C01181=-38088,78053,40542,7816,-52557,-9098
C01182=-38088,78054,40544,7816,-52557,-9098
C01183=-38089,78056,40546,7816,-52557,-9098
C01184=-38090,78057,40548,7816,-52558,-9097
C01185=-38090,78059,40550,7815,-52558,-9097
C01186=-38091,78060,40551,7815,-52558,-9097
C01187=-38092,78061,40553,7815,-52559,-9096
C01188=-38092,78063,40555,7815,-52559,-9096
C01189=-38093,78064,40557,7814,-52559,-9096
C01190=-38094,78066,40558,7814,-52560,-9096
C01191=-38094,78067,40560,7814,-52560,-9095
C01192=-38095,78068,40562,7814,-52560,-9095
C01193=-38096,78070,40564,7813,-52561,-9095
C01194=-38096,78071,40566,7813,-52561,-9094
C01195=-38097,78073,40567,7813,-52561,-9094
C01196=-38098,78074,40569,7813,-52561,-9094
C01197=-38098,78075,40571,7812,-52562,-9093
C01198=-38099,78077,40573,7812,-52562,-9093
C01199=-38100,78078,40575,7812,-52562,-9093
C01200=-38100,78080,40576,7811,-52563,-9093
C01201=-38101,78081,40578,7811,-52563,-9092
C01202=-38102,78083,40580,7811,-52563,-9092
C01203=-38102,78084,40582,7811,-52564,-9092
C01204=-38103,78085,40583,7810,-52564,-9091
C01205=-38104,78087,40585,7810,-52564,-9091
C01206=-38104,78088,40587,7810,-52564,-9091
C01207=-38105,78090,40589,7810,-52565,-9091
C01208=-38106,78091,40591,7809,-52565,-9090
C01209=-38106,78093,40592,7809,-52565,-9090
C01210=-38107,78094,40594,7809,-52566,-9090
C01211=-38107,78095,40596,7809,-52566,-9089
C01212=-38108,78097,40598,7808,-52566,-9089
C01213=-38109,78098,40599,7808,-52567,-9089
C01214=-38109,78100,40601,7808,-52567,-9088
C01215=-38110,78101,40603,7808,-52567,-9088
C01216=-38111,78102,40605,7807,-52568,-9088
C01217=-38111,78104,40607,7807,-52568,-9088
C01218=-38112,78105,40608,7807,-52568,-9087
C01219=-38113,78107,40610,7807,-52568,-9087
C01220=-38113,78108,40612,7806,-52569,-9087
C01221=-38114,78109,40614,7806,-52569,-9086
C01222=-38115,78111,40615,7806,-52569,-9086
C01223=-38115,78112,40617,7806,-52570,-9086
C01224=-38116,78114,40619,7805,-52570,-9086
C01225=-38117,78115,40621,7805,-52570,-9085
C01226=-38117,78117,40623,7805,-52571,-9085
C01227=-38118,78118,40624,7805,-52571,-9085
C01228=-38119,78119,40626,7804,-52571,-9084
C01229=-38119,78121,40628,7804,-52571,-9084
C01230=-38120,78122,40630,7804,-52572,-9084
C01231=-38121,78124,40632,7804,-52572,-9084
C01232=-38121,78125,40633,7803,-52572,-9083
C01233=-38122,78127,40635,7803,-52573,-9083
C01234=-38123,78128,40637,7803,-52573,-9083
C01235=-38123,78129,40639,7802,-52573,-9082
C01236=-38124,78131,40640,7802,-52574,-9082
C01237=-38125,78132,40642,7802,-52574,-9082
C01238=-38125,78134,40644,7802,-52574,-9081
C01239=-38126,78135,40646,7801,-52574,-9081
C01240=-38127,78137,40648,7801,-52575,-9081
C01241=-38127,78138,40649,7801,-52575,-9081
C01242=-38128,78139,40651,7801,-52575,-9080
C01243=-38128,78141,40653,7800,-52576,-9080
C01244=-38129,78142,40655,7800,-52576,-9080
C01245=-38130,78144,40657,7800,-52576,-9079
C01246=-38130,78145,40658,7800,-52577,-9079
C01247=-38131,78147,40660,7799,-52577,-9079
C01248=-38132,78148,40662,7799,-52577,-9079
C01249=-38132,78149,40664,7799,-52577,-9078
C01250=-38133,78151,40665,7799,-52578,-9078
C01251=-38134,78152,40667,7798,-52578,-9078
C01252=-38134,78154,40669,7798,-52578,-9077
C01253=-38135,78155,40671,7798,-52579,-9077
C01254=-38136,78156,40673,7798,-52579,-9077
C01255=-38136,78158,40674,7797,-52579,-9077
C01256=-38137,78159,40676,7797,-52580,-9076
C01257=-38138,78161,40678,7797,-52580,-9076
C01258=-38138,78162,40680,7797,-52580,-9076
C01259=-38139,78164,40681,7796,-52580,-9075
C01260=-38140,78165,40683,7796,-52581,-9075
C01261=-38140,78167,40685,7796,-52581,-9075
C01262=-38141,78168,40687,7796,-52581,-9074
C01263=-38142,78169,40689,7795,-52582,-9074
C01264=-38142,78171,40690,7795,-52582,-9074
C01265=-38143,78172,40692,7795,-52582,-9074
C01266=-38144,78174,40694,7795,-52583,-9073
C01267=-38144,78175,40696,7794,-52583,-9073
C01268=-38145,78176,40698,7794,-52583,-9073
C01269=-38146,78178,40699,7794,-52583,-9072
C01270=-38146,78179,40701,7794,-52584,-9072
C01271=-38147,78181,40703,7793,-52584,-9072
C01272=-38148,78182,40705,7793,-52584,-9072
C01273=-38148,78184,40706,7793,-52585,-9071
C01274=-38149,78185,40708,7792,-52585,-9071
C01275=-38150,78186,40710,7792,-52585,-9071
C01276=-38150,78188,40712,7792,-52586,-9070
C01277=-38151,78189,40714,7792,-52586,-9070
C01278=-38152,78191,40715,7791,-52586,-9070
C01279=-38152,78192,40717,7791,-52587,-9069
C01280=-38153,78194,40719,7791,-52587,-9069
C01281=-38154,78195,40721,7791,-52587,-9069
C01282=-38154,78196,40723,7790,-52587,-9069
C01283=-38155,78198,40724,7790,-52588,-9068
C01284=-38155,78199,40726,7790,-52588,-9068
C01285=-38156,78201,40728,7790,-52588,-9068
C01286=-38157,78202,40730,7789,-52589,-9067
C01287=-38157,78204,40731,7789,-52589,-9067
C01288=-38158,78205,40733,7789,-52589,-9067
C01289=-38159,78206,40735,7789,-52589,-9067
C01290=-38159,78208,40737,7788,-52590,-9066
C01291=-38160,78209,40738,7788,-52590,-9066
C01292=-38161,78211,40740,7788,-52590,-9066
C01293=-38161,78212,40742,7788,-52591,-9065
C01294=-38162,78214,40744,7787,-52591,-9065
C01295=-38163,78215,40746,7787,-52591,-9065
C01296=-38163,78216,40748,7787,-52592,-9065
C01297=-38164,78218,40749,7787,-52592,-9064
C01298=-38165,78219,40751,7786,-52592,-9064
C01299=-38165,78221,40753,7786,-52593,-9064
C01300=-38166,78222,40755,7786,-52593,-9063
C01301=-38167,78223,40756,7786,-52593,-9063
C01302=-38167,78225,40758,7785,-52593,-9063
C01303=-38168,78226,40760,7785,-52594,-9062
C01304=-38169,78228,40762,7785,-52594,-9062
C01305=-38190,78073,40574,7781,-52556,-9056
C01306=-38242,77683,40101,7773,-52461,-9042
C01307=-38298,77253,39579,7765,-52357,-9028
C01308=-38096,78777,41430,7796,-52729,-9082
C01309=-38151,78391,40960,7787,-52634,-9066
C01310=-38173,78236,40773,7783,-52596,-9060
C01311=-38173,78238,40774,7783,-52596,-9060
C01312=-38174,78239,40776,7783,-52596,-9060
C01313=-38175,78241,40778,7782,-52597,-9060
C01314=-38175,78242,40780,7782,-52597,-9059
C01315=-38176,78243,40781,7782,-52597,-9059
C01316=-38177,78245,40783,7782,-52598,-9059
C01317=-38177,78246,40785,7781,-52598,-9058
C01318=-38178,78248,40787,7781,-52598,-9058
C01319=-38178,78249,40789,7781,-52599,-9058
C01320=-38179,78251,40790,7781,-52599,-9057
C01321=-38180,78252,40792,7780,-52599,-9057
C01322=-38181,78254,40794,7780,-52599,-9057
C01323=-38181,78255,40796,7780,-52600,-9057
C01324=-38182,78256,40798,7780,-52600,-9056
C01325=-38182,78258,40799,7779,-52600,-9056
C01326=-38183,78259,40801,7779,-52601,-9056
C01327=-38184,78261,40803,7779,-52601,-9055
C01328=-38184,78262,40805,7779,-52601,-9055
C01329=-38185,78263,40806,7778,-52602,-9055
C01330=-38186,78265,40808,7778,-52602,-9055
C01331=-38186,78266,40810,7778,-52602,-9054
C01332=-38187,78268,40812,7778,-52602,-9054
C01333=-38188,78269,40814,7777,-52603,-9054
C01334=-38188,78271,40815,7777,-52603,-9053
C01335=-38189,78272,40817,7777,-52603,-9053
C01336=-38190,78273,40819,7777,-52604,-9053
C01337=-38190,78275,40821,7776,-52604,-9052
C01338=-38191,78276,40823,7776,-52604,-9052
C01339=-38192,78278,40824,7776,-52605,-9052
C01340=-38192,78279,40826,7776,-52605,-9052
C01341=-38193,78281,40828,7775,-52605,-9051
C01342=-38194,78282,40830,7775,-52605,-9051
C01343=-38194,78283,40831,7775,-52606,-9051
C01344=-38195,78285,40833,7775,-52606,-9050
C01345=-38196,78286,40835,7774,-52606,-9050
C01346=-38196,78288,40837,7774,-52607,-9050
C01347=-38197,78289,40839,7774,-52607,-9050
C01348=-38198,78290,40840,7773,-52607,-9049
C01349=-38198,78292,40842,7773,-52608,-9049
C01350=-38199,78293,40844,7773,-52608,-9049
C01351=-38200,78295,40846,7773,-52608,-9048
C01352=-38200,78296,40848,7772,-52609,-9048
C01353=-38201,78298,40849,7772,-52609,-9048
C01354=-38202,78299,40851,7772,-52609,-9048
C01355=-38202,78301,40853,7772,-52609,-9047
C01356=-38203,78302,40855,7771,-52610,-9047
C01357=-38204,78303,40856,7771,-52610,-9047
C01358=-38204,78305,40858,7771,-52610,-9046
C01359=-38205,78306,40860,7771,-52611,-9046
C01360=-38206,78308,40862,7770,-52611,-9046
C01361=-38206,78309,40864,7770,-52611,-9045
C01362=-38207,78310,40865,7770,-52612,-9045
C01363=-38207,78312,40867,7770,-52612,-9045
C01364=-38208,78313,40869,7769,-52612,-9045
C01365=-38209,78315,40871,7769,-52612,-9044
C01366=-38209,78316,40873,7769,-52613,-9044
C01367=-38210,78318,40874,7769,-52613,-9044
C01368=-38211,78319,40876,7768,-52613,-9043
C01369=-38211,78321,40878,7768,-52614,-9043
C01370=-38212,78322,40880,7768,-52614,-9043
C01371=-38213,78323,40881,7768,-52614,-9043
C01372=-38213,78325,40883,7767,-52615,-9042
C01373=-38214,78326,40885,7767,-52615,-9042
C01374=-38215,78328,40887,7767,-52615,-9042
C01375=-38215,78329,40889,7767,-52615,-9041
C01376=-38216,78330,40890,7766,-52616,-9041
C01377=-38217,78332,40892,7766,-52616,-9041
C01378=-38217,78333,40894,7766,-52616,-9041
C01379=-38218,78335,40896,7766,-52617,-9040
C01380=-38219,78336,40898,7765,-52617,-9040
C01381=-38219,78338,40899,7765,-52617,-9040
C01382=-38220,78339,40901,7765,-52618,-9039
C01383=-38221,78340,40903,7764,-52618,-9039
C01384=-38221,78342,40905,7764,-52618,-9039
C01385=-38222,78343,40906,7764,-52618,-9038
C01386=-38223,78345,40908,7764,-52619,-9038
C01387=-38223,78346,40910,7763,-52619,-9038
C01388=-38224,78348,40912,7763,-52619,-9038
C01389=-38225,78349,40914,7763,-52620,-9037
C01390=-38225,78350,40915,7763,-52620,-9037
C01391=-38226,78352,40917,7762,-52620,-9037
C01392=-38227,78353,40919,7762,-52621,-9036
C01393=-38227,78355,40921,7762,-52621,-9036
C01394=-38228,78356,40923,7762,-52621,-9036
C01395=-38229,78358,40924,7761,-52621,-9036
C01396=-38229,78359,40926,7761,-52622,-9035
C01397=-38230,78360,40928,7761,-52622,-9035
C01398=-38231,78362,40930,7761,-52622,-9035
C01399=-38231,78363,40931,7760,-52623,-9034
C01400=-38232,78365,40933,7760,-52623,-9034
C01401=-38232,78366,40935,7760,-52623,-9034
C01402=-38233,78367,40937,7760,-52624,-9034
C01403=-38234,78369,40938,7759,-52624,-9033
C01404=-38234,78370,40940,7759,-52624,-9033
C01405=-38235,78372,40942,7759,-52624,-9033
C01406=-38236,78373,40944,7759,-52625,-9032
C01407=-38236,78375,40945,7758,-52625,-9032
C01408=-38237,78376,40947,7758,-52625,-9032
C01409=-38238,78378,40949,7758,-52626,-9031
C01410=-38238,78379,40951,7758,-52626,-9031
C01411=-38239,78380,40953,7757,-52626,-9031
C01412=-38240,78382,40955,7757,-52627,-9031
C01413=-38240,78383,40956,7757,-52627,-9030
C01414=-38241,78385,40958,7757,-52627,-9030
C01415=-38242,78386,40960,7756,-52627,-9030
C01416=-38242,78388,40962,7756,-52628,-9029
C01417=-38243,78389,40963,7756,-52628,-9029
C01418=-38244,78390,40965,7756,-52628,-9029
C01419=-38244,78392,40967,7755,-52629,-9029
C01420=-38245,78393,40969,7755,-52629,-9028
C01421=-38246,78395,40971,7755,-52629,-9028
C01422=-38246,78396,40972,7755,-52629,-9028
C01423=-38247,78398,40974,7754,-52630,-9027
C01424=-38248,78399,40976,7754,-52630,-9027
C01425=-38248,78401,40978,7754,-52630,-9027
C01426=-38249,78402,40980,7754,-52631,-9027
C01427=-38250,78403,40981,7753,-52631,-9026
C01428=-38250,78405,40983,7753,-52631,-9026
C01429=-38251,78406,40985,7753,-52632,-9026
C01430=-38252,78408,40987,7752,-52632,-9025
C01431=-38252,78409,40988,7752,-52632,-9025
C01432=-38253,78411,40990,7752,-52632,-9025
C01433=-38253,78412,40992,7752,-52633,-9024
C01434=-38254,78413,40994,7751,-52633,-9024
C01435=-38255,78415,40996,7751,-52633,-9024
C01436=-38255,78416,40997,7751,-52634,-9024
C01437=-38256,78418,40999,7751,-52634,-9023
C01438=-38257,78419,41001,7750,-52634,-9023
C01439=-38257,78421,41003,7750,-52635,-9023
C01440=-38258,78422,41005,7750,-52635,-9022
C01441=-38259,78424,41006,7750,-52635,-9022
C01442=-38259,78425,41008,7749,-52635,-9022
C01443=-38260,78426,41010,7749,-52636,-9022
C01444=-38261,78428,41012,7749,-52636,-9021
C01445=-38261,78429,41014,7749,-52636,-9021
C01446=-38262,78431,41015,7748,-52637,-9021
C01447=-38263,78432,41017,7748,-52637,-9020
C01448=-38263,78433,41019,7748,-52637,-9020
C01449=-38264,78435,41021,7748,-52638,-9020
C01450=-38265,78436,41022,7747,-52638,-9020
C01451=-38265,78438,41024,7747,-52638,-9019
C01452=-38266,78439,41026,7747,-52638,-9019
C01453=-38267,78441,41028,7747,-52639,-9019
C01454=-38267,78442,41030,7746,-52639,-9018
C01455=-38268,78444,41031,7746,-52639,-9018
C01456=-38269,78445,41033,7746,-52640,-9018
C01457=-38269,78446,41035,7746,-52640,-9017
C01458=-38270,78448,41037,7745,-52640,-9017
C01459=-38271,78449,41039,7745,-52641,-9017
C01460=-38271,78451,41040,7745,-52641,-9017
C01461=-38272,78452,41042,7745,-52641,-9016
C01462=-38273,78454,41044,7744,-52641,-9016
C01463=-38273,78455,41046,7744,-52642,-9016
C01464=-38274,78456,41047,7744,-52642,-9015
C01465=-38274,78458,41049,7744,-52642,-9015
C01466=-38275,78459,41051,7743,-52643,-9015
C01467=-38276,78461,41053,7743,-52643,-9015
C01468=-38277,78462,41055,7743,-52643,-9014
C01469=-38277,78464,41057,7743,-52644,-9014
C01470=-38278,78465,41058,7742,-52644,-9014
C01471=-38278,78467,41060,7742,-52644,-9013
C01472=-38279,78468,41062,7742,-52644,-9013
C01473=-38280,78469,41064,7741,-52645,-9013
C01474=-38280,78471,41065,7741,-52645,-9013
C01475=-38281,78472,41067,7741,-52645,-9012
C01476=-38282,78474,41069,7741,-52646,-9012
C01477=-38282,78475,41071,7740,-52646,-9012
C01478=-38283,78477,41073,7740,-52646,-9011
C01479=-38284,78478,41074,7740,-52646,-9011
C01480=-38284,78480,41076,7740,-52647,-9011
C01481=-38285,78481,41078,7739,-52647,-9010
C01482=-38286,78482,41080,7739,-52647,-9010
C01483=-38286,78484,41082,7739,-52648,-9010
C01484=-38287,78485,41083,7739,-52648,-9010
C01485=-38288,78487,41085,7738,-52648,-9009
C01486=-38288,78488,41087,7738,-52649,-9009
C01487=-38289,78490,41089,7738,-52649,-9009
C01488=-38290,78491,41090,7738,-52649,-9008
C01489=-38290,78492,41092,7737,-52649,-9008
C01490=-38291,78494,41094,7737,-52650,-9008
C01491=-38292,78495,41096,7737,-52650,-9008
C01492=-38313,78340,40908,7733,-52612,-9002
C01493=-38365,77950,40433,7725,-52517,-8988
C01494=-38421,77518,39910,7717,-52412,-8973
C01495=-38219,79046,41766,7748,-52785,-9027
C01496=-38274,78659,41295,7739,-52690,-9012
C01497=-38296,78504,41107,7735,-52652,-9006
C01498=-38296,78505,41108,7735,-52652,-9005
C01499=-38297,78507,41110,7735,-52652,-9005
C01500=-38298,78508,41112,7735,-52653,-9005
C01501=-38298,78510,41114,7734,-52653,-9005
C01502=-38299,78511,41115,7734,-52653,-9004
C01503=-38300,78513,41117,7734,-52654,-9004
C01504=-38300,78514,41119,7734,-52654,-9004
C01505=-38301,78515,41121,7733,-52654,-9003
C01506=-38301,78517,41123,7733,-52655,-9003
C01507=-38302,78518,41124,7733,-52655,-9003
C01508=-38303,78520,41126,7733,-52655,-9003
C01509=-38303,78521,41128,7732,-52655,-9002
C01510=-38304,78523,41130,7732,-52656,-9002
C01511=-38305,78524,41132,7732,-52656,-9002
C01512=-38305,78526,41133,7732,-52656,-9001
C01513=-38306,78527,41135,7731,-52657,-9001
C01514=-38307,78528,41137,7731,-52657,-9001
C01515=-38307,78530,41139,7731,-52657,-9001
C01516=-38308,78531,41141,7730,-52658,-9000
C01517=-38309,78533,41142,7730,-52658,-9000
C01518=-38309,78534,41144,7730,-52658,-9000
C01519=-38310,78536,41146,7730,-52658,-8999
C01520=-38311,78537,41148,7729,-52659,-8999
C01521=-38311,78538,41149,7729,-52659,-8999
C01522=-38312,78540,41151,7729,-52659,-8999
C01523=-38313,78541,41153,7729,-52660,-8998
C01524=-38313,78543,41155,7728,-52660,-8998
C01525=-38314,78544,41157,7728,-52660,-8998
C01526=-38315,78546,41158,7728,-52660,-8997
C01527=-38315,78547,41160,7728,-52661,-8997
C01528=-38316,78549,41162,7727,-52661,-8997
C01529=-38317,78550,41164,7727,-52661,-8996
C01530=-38317,78551,41166,7727,-52662,-8996
C01531=-38318,78553,41167,7727,-52662,-8996
C01532=-38319,78554,41169,7726,-52662,-8996
C01533=-38319,78556,41171,7726,-52663,-8995
C01534=-38320,78557,41173,7726,-52663,-8995
C01535=-38321,78559,41174,7726,-52663,-8995
C01536=-38321,78560,41176,7725,-52663,-8994
C01537=-38322,78561,41178,7725,-52664,-8994
C01538=-38323,78563,41180,7725,-52664,-8994
C01539=-38323,78564,41182,7725,-52664,-8994
C01540=-38324,78566,41184,7724,-52665,-8993
C01541=-38325,78567,41185,7724,-52665,-8993
C01542=-38325,78569,41187,7724,-52665,-8993
C01543=-38326,78570,41189,7724,-52666,-8992
C01544=-38326,78572,41191,7723,-52666,-8992
C01545=-38327,78573,41192,7723,-52666,-8992
C01546=-38328,78574,41194,7723,-52666,-8991
C01547=-38328,78576,41196,7723,-52667,-8991
C01548=-38329,78577,41198,7722,-52667,-8991
C01549=-38330,78579,41200,7722,-52667,-8991
C01550=-38330,78580,41201,7722,-52668,-8990
C01551=-38331,78582,41203,7722,-52668,-8990
C01552=-38332,78583,41205,7721,-52668,-8990
C01553=-38332,78585,41207,7721,-52669,-8989
C01554=-38333,78586,41209,7721,-52669,-8989
C01555=-38334,78587,41210,7721,-52669,-8989
C01556=-38334,78589,41212,7720,-52669,-8989
C01557=-38335,78590,41214,7720,-52670,-8988
C01558=-38336,78592,41216,7720,-52670,-8988
C01559=-38336,78593,41217,7719,-52670,-8988
C01560=-38337,78595,41219,7719,-52671,-8987
C01561=-38338,78596,41221,7719,-52671,-8987
C01562=-38338,78597,41223,7719,-52671,-8987
C01563=-38339,78599,41225,7718,-52672,-8987
C01564=-38340,78600,41226,7718,-52672,-8986
C01565=-38340,78602,41228,7718,-52672,-8986
C01566=-38341,78603,41230,7718,-52672,-8986
C01567=-38342,78605,41232,7717,-52673,-8985
C01568=-38342,78606,41234,7717,-52673,-8985
C01569=-38343,78608,41235,7717,-52673,-8985
C01570=-38344,78609,41237,7717,-52674,-8984
C01571=-38344,78610,41239,7716,-52674,-8984
C01572=-38345,78612,41241,7716,-52674,-8984
C01573=-38346,78613,41242,7716,-52674,-8984
C01574=-38346,78615,41244,7716,-52675,-8983
C01575=-38347,78616,41246,7715,-52675,-8983
C01576=-38347,78618,41248,7715,-52675,-8983
C01577=-38348,78619,41250,7715,-52676,-8982
C01578=-38349,78620,41251,7715,-52676,-8982
C01579=-38349,78622,41253,7714,-52676,-8982
C01580=-38350,78623,41255,7714,-52677,-8982
C01581=-38351,78625,41257,7714,-52677,-8981
C01582=-38351,78626,41259,7714,-52677,-8981
C01583=-38352,78628,41260,7713,-52677,-8981
C01584=-38353,78629,41262,7713,-52678,-8980
C01585=-38353,78630,41264,7713,-52678,-8980
C01586=-38354,78632,41266,7713,-52678,-8980
C01587=-38355,78633,41268,7712,-52679,-8980
C01588=-38355,78635,41269,7712,-52679,-8979
C01589=-38356,78636,41271,7712,-52679,-8979
C01590=-38357,78638,41273,7712,-52680,-8979
C01591=-38357,78639,41274,7711,-52680,-8978
C01592=-38358,78640,41276,7711,-52680,-8978
C01593=-38359,78642,41278,7711,-52680,-8978
C01594=-38359,78643,41280,7711,-52681,-8978
C01595=-38360,78645,41282,7710,-52681,-8977
C01596=-38361,78646,41284,7710,-52681,-8977
C01597=-38361,78648,41285,7710,-52682,-8977
C01598=-38362,78649,41287,7710,-52682,-8976
C01599=-38363,78651,41289,7709,-52682,-8976
C01600=-38363,78652,41291,7709,-52682,-8976
C01601=-38364,78653,41292,7709,-52683,-8975
C01602=-38365,78655,41294,7709,-52683,-8975
C01603=-38365,78656,41296,7708,-52683,-8975
C01604=-38366,78658,41298,7708,-52684,-8975
C01605=-38366,78659,41300,7708,-52684,-8974
C01606=-38367,78661,41301,7708,-52684,-8974
C01607=-38368,78662,41303,7707,-52685,-8974
C01608=-38368,78664,41305,7707,-52685,-8973
C01609=-38369,78665,41307,7707,-52685,-8973
C01610=-38370,78667,41309,7706,-52685,-8973
C01611=-38370,78668,41310,7706,-52686,-8973
C01612=-38371,78669,41312,7706,-52686,-8972
C01613=-38372,78671,41314,7706,-52686,-8972
C01614=-38372,78672,41316,7705,-52687,-8972
C01615=-38373,78674,41318,7705,-52687,-8971
C01616=-38374,78675,41319,7705,-52687,-8971
C01617=-38374,78677,41321,7705,-52687,-8971
C01618=-38375,78678,41323,7704,-52688,-8971
C01619=-38376,78680,41325,7704,-52688,-8970
C01620=-38376,78681,41326,7704,-52688,-8970
C01621=-38377,78682,41328,7704,-52689,-8970
C01622=-38378,78684,41330,7703,-52689,-8969
C01623=-38378,78685,41332,7703,-52689,-8969
C01624=-38379,78687,41334,7703,-52690,-8969
C01625=-38380,78688,41335,7703,-52690,-8968
C01626=-38380,78690,41337,7702,-52690,-8968
C01627=-38381,78691,41339,7702,-52690,-8968
C01628=-38382,78693,41341,7702,-52691,-8968
C01629=-38382,78694,41343,7702,-52691,-8967
C01630=-38383,78695,41344,7701,-52691,-8967
C01631=-38384,78697,41346,7701,-52692,-8967
C01632=-38384,78698,41348,7701,-52692,-8966
C01633=-38385,78700,41350,7701,-52692,-8966
C01634=-38386,78701,41352,7700,-52692,-8966
C01635=-38386,78703,41353,7700,-52693,-8966
C01636=-38387,78704,41355,7700,-52693,-8965
C01637=-38387,78706,41357,7700,-52693,-8965
C01638=-38388,78707,41359,7699,-52694,-8965
C01639=-38389,78709,41361,7699,-52694,-8964
C01640=-38389,78710,41362,7699,-52694,-8964
C01641=-38390,78711,41364,7699,-52695,-8964
C01642=-38391,78713,41366,7698,-52695,-8964
C01643=-38391,78714,41368,7698,-52695,-8963
C01644=-38392,78716,41369,7698,-52695,-8963
C01645=-38393,78717,41371,7698,-52696,-8963
C01646=-38393,78719,41373,7697,-52696,-8962
C01647=-38394,78720,41375,7697,-52696,-8962
C01648=-38395,78722,41377,7697,-52697,-8962
C01649=-38395,78723,41378,7697,-52697,-8962
C01650=-38396,78724,41380,7696,-52697,-8961
C01651=-38397,78726,41382,7696,-52697,-8961
C01652=-38397,78727,41384,7696,-52698,-8961
C01653=-38398,78729,41386,7696,-52698,-8960
C01654=-38399,78730,41387,7695,-52698,-8960
C01655=-38399,78732,41389,7695,-52699,-8960
C01656=-38400,78733,41391,7695,-52699,-8959
C01657=-38401,78735,41393,7695,-52699,-8959
C01658=-38401,78736,41395,7694,-52700,-8959
C01659=-38402,78737,41396,7694,-52700,-8959
C01660=-38403,78739,41398,7694,-52700,-8958
C01661=-38403,78740,41400,7694,-52700,-8958
C01662=-38404,78742,41402,7693,-52701,-8958
C01663=-38405,78743,41403,7693,-52701,-8957
C01664=-38405,78745,41405,7693,-52701,-8957
C01665=-38406,78746,41407,7693,-52702,-8957
C01666=-38407,78748,41409,7692,-52702,-8957
C01667=-38407,78749,41411,7692,-52702,-8956
C01668=-38408,78751,41413,7692,-52702,-8956
C01669=-38409,78752,41414,7691,-52703,-8956
C01670=-38409,78753,41416,7691,-52703,-8955
C01671=-38410,78755,41418,7691,-52703,-8955
C01672=-38410,78756,41420,7691,-52704,-8955
C01673=-38411,78758,41421,7690,-52704,-8955
C01674=-38412,78759,41423,7690,-52704,-8954
C01675=-38412,78761,41425,7690,-52705,-8954
C01676=-38413,78762,41427,7690,-52705,-8954
C01677=-38414,78764,41429,7689,-52705,-8953
C01678=-38414,78765,41430,7689,-52705,-8953
C01679=-38436,78610,41242,7686,-52667,-8947
C01680=-38488,78218,40766,7677,-52572,-8933
C01681=-38544,77786,40241,7669,-52466,-8918
C01682=-38342,79317,42102,7700,-52841,-8973
C01683=-38396,78929,41630,7691,-52745,-8957
C01684=-38418,78774,41441,7688,-52707,-8951
C01685=-38419,78775,41443,7687,-52708,-8951
C01686=-38420,78777,41445,7687,-52708,-8951
C01687=-38420,78778,41446,7687,-52708,-8950
C01688=-38421,78779,41448,7687,-52708,-8950
C01689=-38422,78781,41450,7686,-52709,-8950
C01690=-38422,78782,41452,7686,-52709,-8950
C01691=-38423,78784,41454,7686,-52709,-8949
C01692=-38424,78785,41455,7686,-52710,-8949
C01693=-38424,78787,41457,7685,-52710,-8949
C01694=-38425,78788,41459,7685,-52710,-8948
C01695=-38426,78790,41461,7685,-52710,-8948
C01696=-38426,78791,41463,7685,-52711,-8948
C01697=-38427,78793,41464,7684,-52711,-8948
C01698=-38428,78794,41466,7684,-52711,-8947
C01699=-38428,78795,41468,7684,-52712,-8947
C01700=-38429,78797,41470,7684,-52712,-8947
C01701=-38430,78798,41472,7683,-52712,-8946
C01702=-38430,78800,41473,7683,-52713,-8946
C01703=-38431,78801,41475,7683,-52713,-8946
C01704=-38431,78803,41477,7683,-52713,-8946
C01705=-38432,78804,41479,7682,-52713,-8945
C01706=-38433,78806,41480,7682,-52714,-8945
C01707=-38433,78807,41482,7682,-52714,-8945
C01708=-38434,78808,41484,7682,-52714,-8944
C01709=-38435,78810,41486,7681,-52715,-8944
C01710=-38435,78811,41488,7681,-52715,-8944
C01711=-38436,78813,41490,7681,-52715,-8943
C01712=-38437,78814,41491,7681,-52715,-8943
C01713=-38437,78816,41493,7680,-52716,-8943
C01714=-38438,78817,41495,7680,-52716,-8943
C01715=-38439,78819,41497,7680,-52716,-8942
C01716=-38439,78820,41498,7680,-52717,-8942
C01717=-38440,78821,41500,7679,-52717,-8942
C01718=-38441,78823,41502,7679,-52717,-8941
C01719=-38441,78824,41504,7679,-52718,-8941
C01720=-38442,78826,41506,7678,-52718,-8941
C01721=-38443,78827,41507,7678,-52718,-8941
C01722=-38443,78829,41509,7678,-52718,-8940
C01723=-38444,78830,41511,7678,-52719,-8940
C01724=-38445,78832,41513,7677,-52719,-8940
C01725=-38445,78833,41515,7677,-52719,-8939
C01726=-38446,78835,41516,7677,-52720,-8939
C01727=-38447,78836,41518,7677,-52720,-8939
C01728=-38447,78837,41520,7676,-52720,-8939
C01729=-38448,78839,41522,7676,-52720,-8938
C01730=-38449,78840,41524,7676,-52721,-8938
C01731=-38449,78842,41525,7676,-52721,-8938
C01732=-38450,78843,41527,7675,-52721,-8937
C01733=-38451,78845,41529,7675,-52722,-8937
C01734=-38451,78846,41531,7675,-52722,-8937
C01735=-38452,78848,41532,7675,-52722,-8937
C01736=-38452,78849,41534,7674,-52723,-8936
C01737=-38453,78850,41536,7674,-52723,-8936
C01738=-38454,78852,41538,7674,-52723,-8936
C01739=-38454,78853,41540,7674,-52723,-8935
C01740=-38455,78855,41541,7673,-52724,-8935
C01741=-38456,78856,41543,7673,-52724,-8935
C01742=-38456,78858,41545,7673,-52724,-8934
C01743=-38457,78859,41547,7673,-52725,-8934
C01744=-38458,78861,41549,7672,-52725,-8934
C01745=-38458,78862,41550,7672,-52725,-8934
C01746=-38459,78863,41552,7672,-52725,-8933
C01747=-38460,78865,41554,7672,-52726,-8933
C01748=-38460,78866,41556,7671,-52726,-8933
C01749=-38461,78868,41557,7671,-52726,-8932
C01750=-38462,78869,41559,7671,-52727,-8932
C01751=-38462,78871,41561,7671,-52727,-8932
C01752=-38463,78872,41563,7670,-52727,-8932
C01753=-38464,78874,41565,7670,-52728,-8931
C01754=-38464,78875,41567,7670,-52728,-8931
C01755=-38465,78877,41568,7670,-52728,-8931
C01756=-38466,78878,41570,7669,-52728,-8930
C01757=-38466,78879,41572,7669,-52729,-8930
C01758=-38467,78881,41574,7669,-52729,-8930
C01759=-38468,78882,41575,7669,-52729,-8930
C01760=-38468,78884,41577,7668,-52730,-8929
C01761=-38469,78885,41579,7668,-52730,-8929
C01762=-38470,78887,41581,7668,-52730,-8929
C01763=-38470,78888,41583,7668,-52730,-8928
C01764=-38471,78890,41584,7667,-52731,-8928
C01765=-38472,78891,41586,7667,-52731,-8928
C01766=-38472,78892,41588,7667,-52731,-8928
C01767=-38473,78894,41590,7667,-52732,-8927
C01768=-38474,78895,41592,7666,-52732,-8927
C01769=-38474,78897,41593,7666,-52732,-8927
C01770=-38475,78898,41595,7666,-52733,-8926
C01771=-38475,78900,41597,7665,-52733,-8926
C01772=-38476,78901,41599,7665,-52733,-8926
C01773=-38477,78903,41601,7665,-52733,-8925
C01774=-38477,78904,41602,7665,-52734,-8925
C01775=-38478,78905,41604,7665,-52734,-8925
C01776=-38479,78907,41606,7664,-52734,-8925
C01777=-38479,78908,41607,7664,-52735,-8924
C01778=-38480,78910,41609,7664,-52735,-8924
C01779=-38481,78911,41611,7663,-52735,-8924
C01780=-38481,78913,41613,7663,-52735,-8923
C01781=-38482,78914,41615,7663,-52736,-8923
C01782=-38483,78916,41617,7663,-52736,-8923
C01783=-38483,78917,41618,7662,-52736,-8923
C01784=-38484,78919,41620,7662,-52737,-8922
C01785=-38485,78920,41622,7662,-52737,-8922
C01786=-38485,78921,41624,7662,-52737,-8922
C01787=-38486,78923,41625,7661,-52737,-8921
C01788=-38487,78924,41627,7661,-52738,-8921
C01789=-38487,78926,41629,7661,-52738,-8921
C01790=-38488,78927,41631,7661,-52738,-8921
C01791=-38489,78929,41633,7660,-52739,-8920
C01792=-38489,78930,41634,7660,-52739,-8920
C01793=-38490,78932,41636,7660,-52739,-8920
C01794=-38490,78933,41638,7660,-52739,-8919
C01795=-38491,78934,41640,7659,-52740,-8919
C01796=-38492,78936,41642,7659,-52740,-8919
C01797=-38492,78938,41643,7659,-52740,-8919
C01798=-38493,78939,41645,7659,-52741,-8918
C01799=-38494,78940,41647,7658,-52741,-8918
C01800=-38494,78942,41649,7658,-52741,-8918
C01801=-38495,78943,41651,7658,-52742,-8917
C01802=-38496,78945,41652,7658,-52742,-8917
C01803=-38496,78946,41654,7657,-52742,-8917
C01804=-38497,78948,41656,7657,-52742,-8917
C01805=-38498,78949,41658,7657,-52743,-8916
C01806=-38498,78951,41660,7657,-52743,-8916
C01807=-38499,78952,41661,7656,-52743,-8916
C01808=-38500,78953,41663,7656,-52744,-8915
C01809=-38500,78955,41665,7656,-52744,-8915
C01810=-38501,78956,41667,7656,-52744,-8915
C01811=-38502,78958,41669,7655,-52744,-8914
C01812=-38502,78959,41670,7655,-52745,-8914
C01813=-38503,78961,41672,7655,-52745,-8914
C01814=-38504,78962,41674,7655,-52745,-8914
C01815=-38504,78964,41676,7654,-52746,-8913
C01816=-38505,78965,41677,7654,-52746,-8913
C01817=-38506,78967,41679,7654,-52746,-8913
C01818=-38506,78968,41681,7654,-52746,-8912
C01819=-38507,78970,41683,7653,-52747,-8912
C01820=-38508,78971,41685,7653,-52747,-8912
C01821=-38508,78972,41686,7653,-52747,-8912
C01822=-38509,78974,41688,7653,-52748,-8911
C01823=-38509,78975,41690,7652,-52748,-8911
C01824=-38510,78977,41692,7652,-52748,-8911
C01825=-38511,78978,41694,7652,-52749,-8910
C01826=-38511,78980,41695,7652,-52749,-8910
C01827=-38512,78981,41697,7651,-52749,-8910
C01828=-38513,78983,41699,7651,-52749,-8910
C01829=-38513,78984,41701,7651,-52750,-8909
C01830=-38514,78986,41703,7651,-52750,-8909
C01831=-38515,78987,41704,7650,-52750,-8909
C01832=-38515,78989,41706,7650,-52751,-8908
C01833=-38516,78990,41708,7650,-52751,-8908
C01834=-38517,78991,41710,7650,-52751,-8908
C01835=-38517,78993,41712,7649,-52751,-8908
C01836=-38518,78994,41713,7649,-52752,-8907
C01837=-38519,78996,41715,7649,-52752,-8907
C01838=-38519,78997,41717,7649,-52752,-8907
C01839=-38520,78999,41719,7648,-52753,-8906
C01840=-38521,79000,41721,7648,-52753,-8906
C01841=-38521,79002,41722,7648,-52753,-8906
C01842=-38522,79003,41724,7647,-52753,-8905
C01843=-38523,79005,41726,7647,-52754,-8905
C01844=-38523,79006,41728,7647,-52754,-8905
C01845=-38524,79008,41730,7647,-52754,-8905
C01846=-38525,79009,41731,7646,-52755,-8904
C01847=-38525,79010,41733,7646,-52755,-8904
C01848=-38526,79012,41735,7646,-52755,-8904
C01849=-38527,79013,41737,7646,-52755,-8903
C01850=-38527,79015,41738,7645,-52756,-8903
C01851=-38528,79016,41740,7645,-52756,-8903
C01852=-38528,79018,41742,7645,-52756,-8903
C01853=-38529,79019,41744,7645,-52757,-8902
C01854=-38530,79021,41746,7644,-52757,-8902
C01855=-38531,79022,41747,7644,-52757,-8902
C01856=-38531,79024,41749,7644,-52758,-8901
C01857=-38532,79025,41751,7644,-52758,-8901
C01858=-38532,79026,41753,7643,-52758,-8901
C01859=-38533,79028,41755,7643,-52758,-8901
C01860=-38534,79029,41756,7643,-52759,-8900
C01861=-38534,79031,41758,7643,-52759,-8900
C01862=-38535,79032,41760,7642,-52759,-8900
C01863=-38536,79034,41762,7642,-52760,-8899
C01864=-38536,79035,41764,7642,-52760,-8899
C01865=-38537,79037,41765,7642,-52760,-8899
C01866=-38559,78881,41576,7638,-52722,-8893
C01867=-38611,78489,41099,7630,-52626,-8879
C01868=-38667,78056,40573,7621,-52520,-8864
C01869=-38464,79589,42439,7653,-52896,-8918
C01870=-38519,79201,41965,7644,-52800,-8903
C01871=-38541,79045,41776,7640,-52762,-8897
C01872=-38542,79047,41778,7640,-52762,-8897
C01873=-38542,79048,41780,7640,-52762,-8897
C01874=-38543,79050,41782,7639,-52763,-8896
C01875=-38544,79051,41783,7639,-52763,-8896
C01876=-38544,79053,41785,7639,-52763,-8896
C01877=-38545,79054,41787,7639,-52764,-8895
C01878=-38546,79056,41789,7638,-52764,-8895
C01879=-38546,79057,41790,7638,-52764,-8895
C01880=-38547,79059,41792,7638,-52764,-8894
C01881=-38547,79060,41794,7638,-52765,-8894
C01882=-38548,79061,41796,7637,-52765,-8894
C01883=-38549,79063,41798,7637,-52765,-8894
C01884=-38550,79064,41800,7637,-52766,-8893
C01885=-38550,79066,41801,7637,-52766,-8893
C01886=-38551,79067,41803,7636,-52766,-8893
C01887=-38551,79069,41805,7636,-52767,-8892
C01888=-38552,79070,41807,7636,-52767,-8892
C01889=-38553,79072,41808,7636,-52767,-8892
C01890=-38553,79073,41810,7635,-52767,-8892
C01891=-38554,79075,41812,7635,-52768,-8891
C01892=-38555,79076,41814,7635,-52768,-8891
C01893=-38555,79078,41816,7635,-52768,-8891
C01894=-38556,79079,41817,7634,-52769,-8890
C01895=-38557,79080,41819,7634,-52769,-8890
C01896=-38557,79082,41821,7634,-52769,-8890
C01897=-38558,79083,41823,7634,-52769,-8890
C01898=-38559,79085,41825,7633,-52770,-8889
C01899=-38559,79086,41826,7633,-52770,-8889
C01900=-38560,79088,41828,7633,-52770,-8889
C01901=-38561,79089,41830,7633,-52771,-8888
C01902=-38561,79091,41832,7632,-52771,-8888
C01903=-38562,79092,41834,7632,-52771,-8888
C01904=-38563,79094,41835,7632,-52771,-8888
C01905=-38563,79095,41837,7632,-52772,-8887
C01906=-38564,79096,41839,7631,-52772,-8887
C01907=-38565,79098,41841,7631,-52772,-8887
C01908=-38565,79099,41842,7631,-52773,-8886
C01909=-38566,79101,41844,7631,-52773,-8886
C01910=-38567,79102,41846,7630,-52773,-8886
C01911=-38567,79104,41848,7630,-52774,-8886
C01912=-38568,79105,41850,7630,-52774,-8885
C01913=-38569,79107,41852,7629,-52774,-8885
C01914=-38569,79108,41853,7629,-52774,-8885
C01915=-38570,79110,41855,7629,-52775,-8884
C01916=-38570,79111,41857,7629,-52775,-8884
C01917=-38571,79113,41859,7628,-52775,-8884
C01918=-38572,79114,41860,7628,-52776,-8883
C01919=-38572,79115,41862,7628,-52776,-8883
C01920=-38573,79117,41864,7628,-52776,-8883
C01921=-38574,79118,41866,7627,-52776,-8883
C01922=-38574,79120,41868,7627,-52777,-8882
C01923=-38575,79121,41869,7627,-52777,-8882
C01924=-38576,79123,41871,7627,-52777,-8882
C01925=-38576,79124,41873,7626,-52778,-8881
C01926=-38577,79126,41875,7626,-52778,-8881
C01927=-38578,79127,41877,7626,-52778,-8881
C01928=-38578,79129,41878,7626,-52778,-8881
C01929=-38579,79130,41880,7625,-52779,-8880
C01930=-38580,79132,41882,7625,-52779,-8880
C01931=-38580,79133,41884,7625,-52779,-8880
C01932=-38581,79134,41886,7625,-52780,-8879
C01933=-38582,79136,41887,7624,-52780,-8879
C01934=-38582,79137,41889,7624,-52780,-8879
C01935=-38583,79139,41891,7624,-52781,-8879
C01936=-38584,79140,41893,7624,-52781,-8878
C01937=-38584,79142,41894,7623,-52781,-8878
C01938=-38585,79143,41896,7623,-52781,-8878
C01939=-38586,79145,41898,7623,-52782,-8877
C01940=-38586,79146,41900,7623,-52782,-8877
C01941=-38587,79148,41902,7622,-52782,-8877
C01942=-38588,79149,41904,7622,-52783,-8876
C01943=-38588,79151,41905,7622,-52783,-8876
C01944=-38589,79152,41907,7622,-52783,-8876
C01945=-38589,79153,41909,7621,-52783,-8876
C01946=-38590,79155,41911,7621,-52784,-8875
C01947=-38591,79156,41912,7621,-52784,-8875
C01948=-38591,79158,41914,7621,-52784,-8875
C01949=-38592,79159,41916,7620,-52785,-8874
C01950=-38593,79161,41918,7620,-52785,-8874
C01951=-38593,79162,41920,7620,-52785,-8874
C01952=-38594,79164,41921,7620,-52785,-8874
C01953=-38595,79165,41923,7619,-52786,-8873
C01954=-38595,79166,41925,7619,-52786,-8873
C01955=-38596,79168,41927,7619,-52786,-8873
C01956=-38597,79170,41929,7619,-52787,-8872
C01957=-38597,79171,41930,7618,-52787,-8872
C01958=-38598,79172,41932,7618,-52787,-8872
C01959=-38599,79174,41934,7618,-52787,-8872
C01960=-38599,79175,41936,7618,-52788,-8871
C01961=-38600,79177,41938,7617,-52788,-8871
C01962=-38574,79135,41888,7627,-52782,-8882
C01963=-38508,79028,41762,7651,-52768,-8911
C01964=-38442,78921,41636,7676,-52753,-8940
C01965=-38377,78813,41510,7700,-52739,-8968
C01966=-38311,78706,41383,7725,-52724,-8997
C01967=-38245,78599,41257,7749,-52710,-9026
C01968=-38179,78492,41131,7774,-52695,-9055
C01969=-38107,78374,40993,7801,-52679,-9086
C01970=-38041,78267,40866,7825,-52664,-9115
C01971=-37976,78160,40740,7849,-52650,-9144
C01972=-37910,78053,40614,7874,-52635,-9172
C01973=-37844,77946,40488,7898,-52621,-9201
C01974=-37778,77839,40362,7923,-52606,-9230
C01975=-37712,77732,40236,7947,-52592,-9258
C01976=-37647,77625,40110,7972,-52577,-9287
C01977=-37581,77518,39984,7996,-52562,-9316
C01978=-37515,77411,39857,8021,-52548,-9344
C01979=-37449,77304,39731,8045,-52533,-9373
C01980=-37384,77197,39605,8069,-52519,-9402
C01981=-37318,77090,39479,8094,-52504,-9431
C01982=-37252,76983,39353,8118,-52490,-9459
C01983=-37186,76876,39227,8143,-52475,-9488
C01984=-37114,76758,39088,8170,-52459,-9519
C01985=-37048,76651,38962,8194,-52445,-9548
C01986=-36982,76544,38836,8219,-52430,-9577
C01987=-36917,76437,38710,8243,-52415,-9606
C01988=-36851,76330,38584,8268,-52401,-9634
C01989=-36785,76222,38457,8292,-52386,-9663
C01990=-36719,76115,38331,8316,-52372,-9692
C01991=-36654,76008,38205,8341,-52357,-9720
C01992=-36588,75901,38079,8365,-52343,-9749
C01993=-36522,75794,37953,8390,-52328,-9778
C01994=-36456,75687,37827,8414,-52313,-9807
C01995=-36391,75580,37701,8439,-52299,-9835
C01996=-36325,75473,37575,8463,-52284,-9864
C01997=-36259,75366,37448,8488,-52270,-9893
C01998=-36187,75248,37310,8514,-52254,-9924
C01999=-36121,75141,37184,8539,-52239,-9953
C02000=-36055,75034,37057,8563,-52225,-9982
C02001=-35989,74927,36931,8588,-52210,-10010
C02002=-35924,74820,36805,8612,-52196,-10039
C02003=-35858,74713,36679,8637,-52181,-10068
C02004=-35792,74606,36553,8661,-52166,-10096
C02005=-35726,74499,36427,8686,-52152,-10125
C02006=-35661,74392,36301,8710,-52137,-10154
C02007=-35595,74285,36175,8734,-52123,-10182
C02008=-35529,74178,36048,8759,-52108,-10211
C02009=-35463,74070,35922,8783,-52094,-10240
C02010=-35397,73963,35796,8808,-52079,-10269
C02011=-35332,73856,35670,8832,-52064,-10297
C02012=-35259,73739,35531,8859,-52048,-10329
C02013=-35194,73631,35405,8884,-52034,-10358
C02014=-35128,73524,35279,8908,-52019,-10386
C02015=-35062,73417,35153,8933,-52005,-10415
C02016=-34996,73310,35027,8957,-51990,-10444
C02017=-34931,73203,34901,8981,-51976,-10472
C02018=-34865,73096,34775,9006,-51961,-10501
C02019=-34799,72989,34648,9030,-51947,-10530
C02020=-34733,72882,34522,9055,-51932,-10558
C02021=-34667,72775,34396,9079,-51917,-10587
C02022=-34602,72668,34270,9104,-51903,-10616
C02023=-34536,72561,34144,9128,-51888,-10645
C02024=-34470,72454,34018,9153,-51874,-10673
C02025=-34404,72347,33892,9177,-51859,-10702
C02026=-34339,72240,33766,9201,-51845,-10731
C02027=-34266,72122,33627,9228,-51829,-10762
C02028=-34201,72015,33501,9253,-51814,-10791
C02029=-34135,71908,33375,9277,-51799,-10820
C02030=-34069,71801,33248,9302,-51785,-10848
C02031=-34003,71694,33122,9326,-51770,-10877
C02032=-33937,71587,32996,9351,-51756,-10906
C02033=-33872,71479,32870,9375,-51741,-10934
C02034=-33806,71372,32744,9399,-51727,-10963
C02035=-33740,71265,32618,9424,-51712,-10992
C02036=-33674,71158,32492,9448,-51697,-11021
C02037=-33609,71051,32366,9473,-51683,-11049
C02038=-33543,70944,32239,9497,-51668,-11078
C02039=-33477,70837,32113,9522,-51654,-11107
C02040=-33411,70730,31987,9546,-51639,-11135
C02041=-33339,70612,31848,9573,-51623,-11167
C02042=-33273,70505,31722,9598,-51609,-11196
C02043=-33207,70398,31596,9622,-51594,-11224
C02044=-33142,70291,31470,9646,-51580,-11253
C02045=-33076,70184,31344,9671,-51565,-11282
C02046=-33010,70077,31218,9695,-51550,-11310
C02047=-32944,69970,31092,9720,-51536,-11339
C02048=-32879,69863,30966,9744,-51521,-11368
C02049=-32813,69756,30839,9769,-51507,-11397
C02050=-32747,69649,30713,9793,-51492,-11425
C02051=-32681,69542,30587,9818,-51478,-11454
C02052=-32616,69434,30461,9842,-51463,-11483
C02053=-32553,69318,30317,9865,-51443,-11510
C02054=-32494,69193,30155,9885,-51415,-11535
C02055=-32429,69065,29988,9908,-51387,-11563
C02056=-32338,69013,29986,9947,-51420,-11605
C02057=-32278,68892,29828,9968,-51393,-11630
C02058=-32214,68781,29692,9991,-51374,-11658
C02059=-32149,68674,29566,10016,-51360,-11686
C02060=-32083,68567,29439,10040,-51345,-11715
C02061=-32017,68460,29313,10064,-51331,-11744
C02062=-31951,68353,29187,10089,-51316,-11773
C02063=-31886,68246,29061,10113,-51301,-11801
C02064=-31820,68139,28935,10138,-51287,-11830
C02065=-31754,68032,28809,10162,-51272,-11859
C02066=-31688,67925,28683,10187,-51258,-11887
C02067=-31622,67818,28557,10211,-51243,-11916
C02068=-31557,67711,28430,10236,-51229,-11945
C02069=-31491,67604,28304,10260,-51214,-11973
C02070=-31419,67486,28166,10287,-51198,-12005
C02071=-31353,67379,28039,10311,-51183,-12034
C02072=-31287,67272,27913,10336,-51169,-12062
C02073=-31221,67165,27787,10360,-51154,-12091
C02074=-31156,67058,27661,10385,-51140,-12120
C02075=-31090,66951,27535,10409,-51125,-12148
C02076=-31024,66844,27409,10434,-51111,-12177
C02077=-30958,66736,27283,10458,-51096,-12206
C02078=-30892,66629,27157,10483,-51082,-12235
C02079=-30827,66522,27030,10507,-51067,-12263
C02080=-30761,66415,26904,10531,-51052,-12292
C02081=-30695,66308,26778,10556,-51038,-12321
C02082=-30629,66201,26652,10580,-51023,-12349
C02083=-30564,66094,26526,10605,-51009,-12378
C02084=-30491,65976,26387,10632,-50993,-12410
C02085=-30425,65869,26261,10656,-50978,-12438
C02086=-30360,65762,26135,10681,-50964,-12467
C02087=-30294,65655,26009,10705,-50949,-12496
C02088=-30228,65548,25883,10729,-50934,-12524
C02089=-30162,65441,25757,10754,-50920,-12553
C02090=-30097,65334,25630,10778,-50905,-12582
C02091=-30031,65227,25504,10803,-50891,-12611
C02092=-29965,65120,25378,10827,-50876,-12639
C02093=-29899,65013,25252,10852,-50862,-12668
C02094=-29834,64906,25126,10876,-50847,-12697
C02095=-29768,64799,25000,10901,-50832,-12725
C02096=-29702,64691,24874,10925,-50818,-12754
C02097=-29636,64584,24748,10950,-50803,-12783
C02098=-29571,64477,24621,10974,-50789,-12811
C02099=-29498,64360,24483,11001,-50773,-12843
C02100=-29432,64253,24357,11025,-50758,-12872
C02101=-29367,64145,24230,11050,-50744,-12900
C02102=-29301,64038,24104,11074,-50729,-12929
C02103=-29235,63931,23978,11099,-50715,-12958
C02104=-29169,63824,23852,11123,-50700,-12987
C02105=-29104,63717,23726,11148,-50685,-13015
C02106=-29038,63610,23600,11172,-50671,-13044
C02107=-28972,63503,23474,11196,-50656,-13073
C02108=-28906,63396,23348,11221,-50642,-13101
C02109=-28841,63289,23221,11245,-50627,-13130
C02110=-28775,63182,23095,11270,-50613,-13159
C02111=-28709,63075,22969,11294,-50598,-13187
C02112=-28643,62968,22843,11319,-50583,-13216
C02113=-28571,62850,22704,11346,-50567,-13248
C02114=-28505,62743,22578,11370,-50553,-13276
C02115=-28439,62636,22452,11394,-50538,-13305
C02116=-28374,62529,22326,11419,-50524,-13334
C02117=-28308,62422,22200,11443,-50509,-13363
C02118=-28242,62315,22074,11468,-50495,-13391
C02119=-28176,62208,21948,11492,-50480,-13420
C02120=-28111,62100,21821,11517,-50466,-13449
C02121=-28045,61993,21695,11541,-50451,-13477
C02122=-27979,61886,21569,11566,-50436,-13506
C02123=-27913,61779,21443,11590,-50422,-13535
C02124=-27847,61672,21317,11615,-50407,-13563
C02125=-27782,61565,21191,11639,-50393,-13592
C02126=-27716,61458,21065,11663,-50378,-13621
C02127=-27644,61340,20926,11690,-50362,-13652
C02128=-27578,61233,20800,11715,-50348,-13681
C02129=-27512,61126,20674,11739,-50333,-13710
C02130=-27446,61019,20548,11764,-50318,-13739
C02131=-27381,60912,20421,11788,-50304,-13767
C02132=-27315,60805,20295,11813,-50289,-13796
C02133=-27249,60698,20169,11837,-50275,-13825
C02134=-27183,60591,20043,11861,-50260,-13853
C02135=-27117,60484,19917,11886,-50246,-13882
C02136=-27052,60377,19791,11910,-50231,-13911
C02137=-26986,60270,19665,11935,-50217,-13939
C02138=-26920,60163,19539,11959,-50202,-13968
C02139=-26854,60056,19412,11984,-50187,-13997
C02140=-26789,59948,19286,12008,-50173,-14026
C02141=-26723,59841,19160,12033,-50158,-14054
C02142=-26650,59724,19021,12059,-50142,-14086
C02143=-26585,59617,18895,12084,-50128,-14115
C02144=-26519,59509,18769,12108,-50113,-14143
C02145=-26453,59402,18643,12133,-50099,-14172
C02146=-26387,59295,18517,12157,-50084,-14201
C02147=-26322,59188,18391,12182,-50069,-14229
C02148=-26256,59081,18265,12206,-50055,-14258
C02149=-26223,59028,18202,12218,-50048,-14272
C02150=-26223,59028,18202,12218,-50048,-14272
C02151=-26223,59028,18202,12218,-50048,-14272
C02152=-26223,59028,18202,12218,-50048,-14272
C02153=-26223,59028,18202,12218,-50048,-14272
C02154=-26223,59028,18202,12218,-50048,-14272
C02155=-26223,59028,18202,12218,-50048,-14272
C02156=-26223,59028,18202,12218,-50048,-14272
C02157=-26223,59028,18202,12218,-50048,-14272
C02158=-26223,59028,18202,12218,-50048,-14272
C02159=-26223,59028,18202,12218,-50048,-14272
C02160=-26223,59028,18202,12218,-50048,-14272
C02161=-26223,59028,18202,12218,-50048,-14272
C02162=-26223,59028,18202,12218,-50048,-14272
C02163=-26223,59028,18202,12218,-50048,-14272
C02164=-26223,59028,18202,12218,-50048,-14272
C02165=-26223,59028,18202,12218,-50048,-14272
C02166=-26223,59028,18202,12218,-50048,-14272
C02167=-26223,59028,18202,12218,-50048,-14272
C02168=-26223,59028,18202,12218,-50048,-14272
C02169=-26223,59028,18202,12218,-50048,-14272
C02170=-26223,59028,18202,12218,-50048,-14272
C02171=-26223,59028,18202,12218,-50048,-14272
C02172=-26223,59028,18202,12218,-50048,-14272
C02173=-26223,59028,18202,12218,-50048,-14272
C02174=-26223,59028,18202,12218,-50048,-14272
C02175=-26223,59028,18202,12218,-50048,-14272
C02176=-26223,59028,18202,12218,-50048,-14272
C02177=-26223,59028,18202,12218,-50048,-14272
C02178=-26223,59028,18202,12218,-50048,-14272
C02179=-26223,59028,18202,12218,-50048,-14272
C02180=-26223,59028,18202,12218,-50048,-14272
C02181=-26223,59028,18202,12218,-50048,-14272
C02182=-26223,59028,18202,12218,-50048,-14272
C02183=-26223,59028,18202,12218,-50048,-14272
C02184=-26223,59028,18202,12218,-50048,-14272
C02185=-26223,59028,18202,12218,-50048,-14272
C02186=-26223,59028,18202,12218,-50048,-14272
C02187=-26223,59028,18202,12218,-50048,-14272
C02188=-26223,59028,18202,12218,-50048,-14272
C02189=-26223,59028,18202,12218,-50048,-14272
C02190=-26223,59028,18202,12218,-50048,-14272
C02191=-26223,59028,18202,12218,-50048,-14272
C02192=-26223,59028,18202,12218,-50048,-14272
C02193=-26223,59028,18202,12218,-50048,-14272
C02194=-26223,59028,18202,12218,-50048,-14272
C02195=-26223,59028,18202,12218,-50048,-14272
C02196=-26223,59028,18202,12218,-50048,-14272
C02197=-26223,59028,18202,12218,-50048,-14272
C02198=-26223,59028,18202,12218,-50048,-14272
C02199=-26223,59028,18202,12218,-50048,-14272
C02200=-26223,59028,18202,12218,-50048,-14272
C02201=-26223,59028,18202,12218,-50048,-14272
C02202=-26223,59028,18202,12218,-50048,-14272
C02203=-26223,59028,18202,12218,-50048,-14272
C02204=-26223,59028,18202,12218,-50048,-14272
C02205=-26223,59028,18202,12218,-50048,-14272
C02206=-26223,59028,18202,12218,-50048,-14272
C02207=-26223,59028,18202,12218,-50048,-14272
C02208=-26223,59028,18202,12218,-50048,-14272
C02209=-26223,59028,18202,12218,-50048,-14272
C02210=-26223,59028,18202,12218,-50048,-14272
C02211=-26223,59028,18202,12218,-50048,-14272
C02212=-26223,59028,18202,12218,-50048,-14272
C02213=-26223,59028,18202,12218,-50048,-14272
C02214=-26223,59028,18202,12218,-50048,-14272
C02215=-26223,59028,18202,12218,-50048,-14272
C02216=-26223,59028,18202,12218,-50048,-14272
C02217=-26223,59028,18202,12218,-50048,-14272
C02218=-26223,59028,18202,12218,-50048,-14272
C02219=-26223,59028,18202,12218,-50048,-14272
C02220=-26223,59028,18202,12218,-50048,-14272
C02221=-26223,59028,18202,12218,-50048,-14272
C02222=-26223,59028,18202,12218,-50048,-14272
C02223=-26223,59028,18202,12218,-50048,-14272
C02224=-26223,59028,18202,12218,-50048,-14272
C02225=-26223,59028,18202,12218,-50048,-14272
C02226=-26223,59028,18202,12218,-50048,-14272
C02227=-26223,59028,18202,12218,-50048,-14272
C02228=-26223,59028,18202,12218,-50048,-14272
C02229=-26223,59028,18202,12218,-50048,-14272
C02230=-26223,59028,18202,12218,-50048,-14272
C02231=-26223,59028,18202,12218,-50048,-14272
C02232=-26223,59028,18202,12218,-50048,-14272
C02233=-26223,59028,18202,12218,-50048,-14272
C02234=-26223,59028,18202,12218,-50048,-14272
C02235=-26223,59028,18202,12218,-50048,-14272
C02236=-26223,59028,18202,12218,-50048,-14272
C02237=-26223,59028,18202,12218,-50048,-14272
C02238=-26223,59028,18202,12218,-50048,-14272
C02239=-26223,59028,18202,12218,-50048,-14272
C02240=-26207,59172,18366,12219,-50076,-14275
C02241=-26169,59536,18779,12219,-50147,-14282
C02242=-26130,59939,19238,12218,-50227,-14289
EC00000=-19204,20593115
EC00001=-19204,20590474
EC00002=-19204,20587834
EC00003=-19204,20585193
EC00004=-19204,20582553
EC00005=-19204,20579912
EC00006=-19204,20577272
EC00007=-19204,20574631
EC00008=-19204,20571991
EC00009=-19204,20569350
EC00010=-19204,20566710
EC00011=-19204,20563805
EC00012=-19204,20561165
EC00013=-19204,20558524
EC00014=-19204,20555884
EC00015=-19204,20553244
EC00016=-19204,20550603
EC00017=-19204,20547963
EC00018=-19204,20545322
EC00019=-19204,20542682
EC00020=-19204,20540041
EC00021=-19204,20537401
EC00022=-19204,20534496
EC00023=-19204,20531856
EC00024=-19204,20529215
EC00025=-19204,20526575
EC00026=-19204,20523934
EC00027=-19204,20521294
EC00028=-19204,20518653
EC00029=-19204,20516013
EC00030=-19204,20513372
EC00031=-19204,20510732
EC00032=-19204,20508092
