/JOB
//NAME AAA
//POS
///NPOS 162,0,162,0,0,0
///TOOL 12
///POSTYPE PULSE
///PULSE
C00000=-32360,71800,21369,11013,-44703,-12302
C00001=-32403,71513,21025,11010,-44636,-12291
C00002=-32404,71510,21023,11010,-44635,-12291
C00003=-32405,71510,21023,11009,-44635,-12291
C00004=-32405,71511,21023,11009,-44635,-12290
C00005=-32406,71511,21024,11009,-44636,-12290
C00006=-32407,71513,21026,11009,-44636,-12290
C00007=-32407,71514,21028,11008,-44636,-12289
C00008=-32408,71516,21031,11008,-44637,-12289
C00009=-32408,71518,21034,11008,-44637,-12289
C00010=-32408,71521,21036,11008,-44638,-12289
C00011=-32408,71523,21040,11008,-44638,-12289
C00012=-32408,71526,21042,11008,-44639,-12289
C00013=-32408,71528,21045,11008,-44640,-12289
C00014=-32407,71530,21047,11008,-44640,-12289
C00015=-32407,71532,21050,11008,-44640,-12289
C00016=-32406,71533,21051,11008,-44641,-12289
C00017=-32405,71534,21052,11008,-44641,-12290
C00018=-32405,71534,21052,11008,-44641,-12290
C00019=-32404,71534,21052,11009,-44641,-12290
C00020=-32403,71534,21051,11009,-44641,-12291
C00021=-32402,71533,21050,11009,-44641,-12291
C00022=-32402,71531,21048,11010,-44640,-12291
C00023=-32401,71529,21045,11010,-44640,-12292
C00024=-32401,71527,21043,11010,-44639,-12292
C00025=-32401,71525,21040,11010,-44639,-12292
C00026=-32401,71523,21037,11010,-44638,-12292
C00027=-32401,71520,21034,11011,-44637,-12292
C00028=-32401,71518,21031,11011,-44637,-12292
C00029=-32402,71515,21028,11010,-44636,-12292
C00030=-32403,71508,21020,11010,-44635,-12292
C00031=-32438,71215,20668,11010,-44566,-12285
C00032=-32460,71211,20750,10992,-44614,-12269
C00033=-32425,71505,21102,10992,-44684,-12276
C00034=-32424,71512,21111,10993,-44685,-12276
C00035=-32423,71515,21114,10993,-44686,-12276
C00036=-32423,71517,21117,10992,-44687,-12276
C00037=-32423,71519,21120,10992,-44687,-12276
C00038=-32423,71522,21123,10992,-44688,-12276
C00039=-32424,71524,21126,10992,-44688,-12276
C00040=-32424,71526,21128,10992,-44689,-12276
C00041=-32425,71527,21130,10991,-44689,-12275
C00042=-32425,71529,21132,10991,-44689,-12275
C00043=-32426,71529,21133,10991,-44690,-12275
C00044=-32427,71530,21134,10991,-44690,-12274
C00045=-32427,71530,21133,10990,-44690,-12274
C00046=-32428,71529,21133,10990,-44690,-12274
C00047=-32429,71528,21132,10990,-44689,-12273
C00048=-32429,71526,21130,10990,-44689,-12273
C00049=-32430,71524,21128,10990,-44688,-12273
C00050=-32430,71522,21125,10990,-44688,-12273
C00051=-32430,71520,21122,10990,-44687,-12273
C00052=-32430,71517,21119,10990,-44687,-12273
C00053=-32430,71515,21116,10990,-44686,-12273
C00054=-32430,71513,21113,10990,-44686,-12273
C00055=-32430,71511,21111,10990,-44685,-12274
C00056=-32429,71509,21108,10991,-44685,-12274
C00057=-32429,71507,21106,10991,-44684,-12274
C00058=-32428,71506,21105,10991,-44684,-12274
C00059=-32427,71506,21104,10991,-44684,-12275
C00060=-32427,71506,21104,10992,-44684,-12275
C00061=-32426,71506,21104,10992,-44684,-12275
C00062=-32425,71509,21107,10992,-44685,-12276
C00063=-32382,71797,21452,10995,-44753,-12286
C00064=-32403,71793,21533,10978,-44801,-12271
C00065=-32446,71504,21188,10975,-44733,-12260
C00066=-32447,71501,21185,10974,-44733,-12260
C00067=-32448,71501,21184,10974,-44733,-12260
C00068=-32449,71500,21184,10974,-44732,-12259
C00069=-32449,71500,21185,10974,-44733,-12259
C00070=-32450,71501,21186,10973,-44733,-12259
C00071=-32451,71502,21187,10973,-44733,-12258
C00072=-32451,71504,21189,10973,-44733,-12258
C00073=-32452,71506,21192,10973,-44734,-12258
C00074=-32452,71508,21195,10972,-44734,-12258
C00075=-32452,71510,21198,10972,-44735,-12258
C00076=-32452,71513,21200,10972,-44736,-12258
C00077=-32452,71515,21203,10972,-44736,-12257
C00078=-32452,71518,21206,10972,-44737,-12258
C00079=-32451,71520,21209,10972,-44737,-12258
C00080=-32451,71521,21211,10972,-44738,-12258
C00081=-32450,71523,21212,10972,-44738,-12258
C00082=-32449,71524,21213,10973,-44738,-12258
C00083=-32449,71524,21214,10973,-44738,-12259
C00084=-32448,71524,21214,10973,-44738,-12259
C00085=-32447,71524,21213,10973,-44738,-12259
C00086=-32447,71523,21212,10974,-44738,-12260
C00087=-32446,71521,21210,10974,-44737,-12260
C00088=-32446,71520,21207,10974,-44737,-12260
C00089=-32445,71518,21205,10974,-44737,-12260
C00090=-32445,71515,21202,10975,-44736,-12261
C00091=-32445,71513,21199,10975,-44735,-12261
C00092=-32445,71510,21196,10975,-44735,-12261
C00093=-32445,71508,21193,10975,-44734,-12261
C00094=-32446,71500,21184,10975,-44732,-12260
C00095=-32482,71206,20831,10975,-44663,-12253
C00096=-32502,71202,20912,10957,-44712,-12238
C00097=-32467,71496,21264,10958,-44781,-12245
C00098=-32466,71503,21274,10958,-44783,-12246
C00099=-32466,71505,21276,10958,-44783,-12246
C00100=-32466,71508,21279,10957,-44784,-12246
C00101=-32466,71510,21282,10957,-44785,-12245
C00102=-32466,71512,21285,10957,-44785,-12245
C00103=-32467,71514,21287,10957,-44786,-12245
C00104=-32467,71516,21289,10957,-44786,-12245
C00105=-32468,71517,21291,10956,-44786,-12244
C00106=-32468,71518,21292,10956,-44786,-12244
C00107=-32469,71518,21293,10956,-44787,-12244
C00108=-32470,71518,21293,10955,-44787,-12243
C00109=-32471,71517,21292,10955,-44786,-12243
C00110=-32471,71516,21291,10955,-44786,-12243
C00111=-32472,71515,21290,10955,-44786,-12243
C00112=-32472,71513,21287,10955,-44785,-12242
C00113=-32473,71511,21285,10955,-44785,-12242
C00114=-32473,71509,21282,10955,-44784,-12242
C00115=-32473,71507,21280,10955,-44784,-12242
C00116=-32473,71504,21277,10955,-44783,-12242
C00117=-32473,71502,21274,10955,-44783,-12243
C00118=-32473,71500,21271,10955,-44782,-12243
C00119=-32472,71498,21269,10955,-44782,-12243
C00120=-32472,71496,21267,10956,-44781,-12243
C00121=-32471,71495,21265,10956,-44781,-12244
C00122=-32470,71494,21264,10956,-44781,-12244
C00123=-32470,71494,21263,10957,-44781,-12244
C00124=-32469,71494,21263,10957,-44781,-12244
C00125=-32468,71495,21264,10957,-44781,-12245
C00126=-32468,71496,21265,10957,-44781,-12245
C00127=-32467,71499,21268,10957,-44782,-12245
C00128=-32424,71788,21613,10961,-44850,-12256
C00129=-32444,71783,21693,10944,-44898,-12241
C00130=-32487,71493,21348,10941,-44830,-12231
C00131=-32488,71490,21344,10940,-44830,-12230
C00132=-32488,71488,21342,10940,-44829,-12230
C00133=-32489,71488,21342,10940,-44829,-12230
C00134=-32490,71487,21341,10940,-44829,-12230
C00135=-32490,71487,21341,10939,-44829,-12229
C00136=-32491,71488,21342,10939,-44829,-12229
C00137=-32492,71489,21344,10939,-44829,-12229
C00138=-32492,71490,21346,10939,-44830,-12228
C00139=-32493,71492,21348,10938,-44830,-12228
C00140=-32493,71494,21350,10938,-44831,-12228
C00141=-32493,71496,21353,10938,-44831,-12228
C00142=-32493,71498,21356,10938,-44832,-12228
C00143=-32493,71501,21359,10938,-44832,-12228
C00144=-32493,71503,21362,10938,-44833,-12228
C00145=-32493,71505,21364,10938,-44833,-12228
C00146=-32492,71507,21366,10938,-44834,-12228
C00147=-32492,71509,21368,10938,-44834,-12228
C00148=-32491,71510,21370,10938,-44834,-12228
C00149=-32491,71511,21370,10938,-44835,-12228
C00150=-32490,71511,21371,10939,-44835,-12229
C00151=-32489,71511,21371,10939,-44835,-12229
C00152=-32488,71511,21370,10939,-44835,-12229
C00153=-32488,71510,21368,10939,-44834,-12230
C00154=-32487,71508,21367,10940,-44834,-12230
C00155=-32487,71507,21365,10940,-44834,-12230
C00156=-32486,71505,21362,10940,-44833,-12230
C00157=-32486,71502,21359,10940,-44833,-12231
C00158=-32486,71500,21356,10941,-44832,-12231
C00159=-32486,71498,21353,10941,-44831,-12231
C00160=-32487,71490,21344,10941,-44830,-12231
C00161=-32523,71195,20991,10940,-44760,-12223
EC00000=-13405,219115
EC00001=-13405,208718
EC00002=-13405,193505
EC00003=-13405,176730
EC00004=-13405,161480
EC00005=-13405,144706
EC00006=-13405,129456
EC00007=-13405,112681
EC00008=-13405,97432
EC00009=-13405,80657
EC00010=-13405,65407
EC00011=-13405,48632
EC00012=-13405,33383
EC00013=-13405,16608
EC00014=-13405,1358
EC00015=-13405,-15416
EC00016=-13405,-30666
EC00017=-13405,-47441
EC00018=-13405,-62691
EC00019=-13405,-79465
EC00020=-13405,-94715
EC00021=-13405,-111490
EC00022=-13405,-126739
EC00023=-13405,-143514
EC00024=-13405,-158764
EC00025=-13405,-175538
EC00026=-13405,-190788
EC00027=-13405,-207563
EC00028=-13405,-222813
EC00029=-13405,-239587
EC00030=-13405,-254717
EC00031=-13405,-263673
EC00032=-13673,-254227
EC00033=-13673,-245298
EC00034=-13673,-228695
EC00035=-13673,-213492
EC00036=-13673,-196769
EC00037=-13673,-181566
EC00038=-13673,-164843
EC00039=-13673,-149640
EC00040=-13673,-132916
EC00041=-13673,-117714
EC00042=-13673,-100990
EC00043=-13673,-85787
EC00044=-13673,-69064
EC00045=-13673,-53861
EC00046=-13673,-37138
EC00047=-13673,-21935
EC00048=-13673,-5212
EC00049=-13673,9991
EC00050=-13673,26714
EC00051=-13673,41917
EC00052=-13673,58641
EC00053=-13673,73844
EC00054=-13673,90567
EC00055=-13673,105770
EC00056=-13673,122493
EC00057=-13673,137696
EC00058=-13673,154419
EC00059=-13673,169622
EC00060=-13673,186345
EC00061=-13673,201548
EC00062=-13673,218235
EC00063=-13673,228600
EC00064=-13930,238105
EC00065=-13930,227802
EC00066=-13930,211218
EC00067=-13930,196108
EC00068=-13930,179486
EC00069=-13930,164376
EC00070=-13930,147755
EC00071=-13930,131134
EC00072=-13930,116023
EC00073=-13930,99402
EC00074=-13930,84292
EC00075=-13930,67671
EC00076=-13930,52560
EC00077=-13930,35939
EC00078=-13930,19318
EC00079=-13930,4208
EC00080=-13930,-12414
EC00081=-13930,-27524
EC00082=-13930,-44145
EC00083=-13930,-60767
EC00084=-13930,-75877
EC00085=-13930,-92498
EC00086=-13930,-107608
EC00087=-13930,-124230
EC00088=-13930,-139340
EC00089=-13930,-155961
EC00090=-13930,-172582
EC00091=-13930,-187693
EC00092=-13930,-204314
EC00093=-13930,-219424
EC00094=-13930,-235926
EC00095=-13930,-244800
EC00096=-14179,-235373
EC00097=-14179,-226553
EC00098=-14179,-211653
EC00099=-14179,-196634
EC00100=-14179,-180114
EC00101=-14179,-165095
EC00102=-14179,-150076
EC00103=-14179,-133556
EC00104=-14179,-118537
EC00105=-14179,-103518
EC00106=-14179,-86998
EC00107=-14179,-71979
EC00108=-14179,-56960
EC00109=-14179,-40440
EC00110=-14179,-25421
EC00111=-14179,-10403
EC00112=-14179,6118
EC00113=-14179,21137
EC00114=-14179,36155
EC00115=-14179,51174
EC00116=-14179,67694
EC00117=-14179,82713
EC00118=-14179,97732
EC00119=-14179,114252
EC00120=-14179,129271
EC00121=-14179,144290
EC00122=-14179,160810
EC00123=-14179,175829
EC00124=-14179,190848
EC00125=-14179,207368
EC00126=-14179,222387
EC00127=-14179,237369
EC00128=-14179,247609
EC00129=-14418,257094
EC00130=-14418,246885
EC00131=-14418,231948
EC00132=-14418,215477
EC00133=-14418,200504
EC00134=-14418,185530
EC00135=-14418,169060
EC00136=-14418,154086
EC00137=-14418,139113
EC00138=-14418,122643
EC00139=-14418,107669
EC00140=-14418,92696
EC00141=-14418,76225
EC00142=-14418,61252
EC00143=-14418,46279
EC00144=-14418,29808
EC00145=-14418,14835
EC00146=-14418,-138
EC00147=-14418,-16609
EC00148=-14418,-31582
EC00149=-14418,-46556
EC00150=-14418,-63026
EC00151=-14418,-78000
EC00152=-14418,-92973
EC00153=-14418,-109443
EC00154=-14418,-124417
EC00155=-14418,-139390
EC00156=-14418,-155861
EC00157=-14418,-170834
EC00158=-14418,-185807
EC00159=-14418,-202278
EC00160=-14418,-217133
EC00161=-14418,-225927
//INST
///DATE 2023/05/31 21:08
///ATTR SC,RW
///GROUP1 RB1
///GROUP2 ST1
NOP
MOVL C00000 V=10.0 +MOVJ EC00000 VJ=15.0
ARCON ASF#(200)
MOVL C00001 V=4.2 +MOVJ EC00001 VJ=15.2
MOVL C00002 V=0.1 +MOVJ EC00002 VJ=15.2
MOVL C00003 V=0.1 +MOVJ EC00003 VJ=15.2
MOVL C00004 V=0.1 +MOVJ EC00004 VJ=15.1
MOVL C00005 V=0.1 +MOVJ EC00005 VJ=15.1
MOVL C00006 V=0.1 +MOVJ EC00006 VJ=15.1
MOVL C00007 V=0.1 +MOVJ EC00007 VJ=15.1
MOVL C00008 V=0.1 +MOVJ EC00008 VJ=15.1
MOVL C00009 V=0.1 +MOVJ EC00009 VJ=15.1
MOVL C00010 V=0.1 +MOVJ EC00010 VJ=15.1
MOVL C00011 V=0.1 +MOVJ EC00011 VJ=15.1
MOVL C00012 V=0.1 +MOVJ EC00012 VJ=15.1
MOVL C00013 V=0.1 +MOVJ EC00013 VJ=15.1
MOVL C00014 V=0.1 +MOVJ EC00014 VJ=15.1
MOVL C00015 V=0.1 +MOVJ EC00015 VJ=15.1
MOVL C00016 V=0.1 +MOVJ EC00016 VJ=15.1
MOVL C00017 V=0.1 +MOVJ EC00017 VJ=15.1
MOVL C00018 V=0.1 +MOVJ EC00018 VJ=15.1
MOVL C00019 V=0.1 +MOVJ EC00019 VJ=15.1
MOVL C00020 V=0.1 +MOVJ EC00020 VJ=15.1
MOVL C00021 V=0.1 +MOVJ EC00021 VJ=15.1
MOVL C00022 V=0.1 +MOVJ EC00022 VJ=15.2
MOVL C00023 V=0.1 +MOVJ EC00023 VJ=15.2
MOVL C00024 V=0.1 +MOVJ EC00024 VJ=15.2
MOVL C00025 V=0.1 +MOVJ EC00025 VJ=15.2
MOVL C00026 V=0.1 +MOVJ EC00026 VJ=15.2
MOVL C00027 V=0.1 +MOVJ EC00027 VJ=15.2
MOVL C00028 V=0.1 +MOVJ EC00028 VJ=15.2
MOVL C00029 V=0.1 +MOVJ EC00029 VJ=15.2
MOVL C00030 V=0.1 +MOVJ EC00030 VJ=15.2
MOVL C00031 V=4.6 +MOVJ EC00031 VJ=15.2
ARCOF
MOVL C00032 V=10.0 +MOVJ EC00032 VJ=15.0
ARCON ASF#(200)
MOVL C00033 V=4.6 +MOVJ EC00033 VJ=15.1
MOVL C00034 V=0.1 +MOVJ EC00034 VJ=15.1
MOVL C00035 V=0.1 +MOVJ EC00035 VJ=15.1
MOVL C00036 V=0.1 +MOVJ EC00036 VJ=15.1
MOVL C00037 V=0.1 +MOVJ EC00037 VJ=15.1
MOVL C00038 V=0.1 +MOVJ EC00038 VJ=15.1
MOVL C00039 V=0.1 +MOVJ EC00039 VJ=15.1
MOVL C00040 V=0.1 +MOVJ EC00040 VJ=15.1
MOVL C00041 V=0.1 +MOVJ EC00041 VJ=15.1
MOVL C00042 V=0.1 +MOVJ EC00042 VJ=15.1
MOVL C00043 V=0.1 +MOVJ EC00043 VJ=15.1
MOVL C00044 V=0.1 +MOVJ EC00044 VJ=15.0
MOVL C00045 V=0.1 +MOVJ EC00045 VJ=15.0
MOVL C00046 V=0.1 +MOVJ EC00046 VJ=15.0
MOVL C00047 V=0.1 +MOVJ EC00047 VJ=15.0
MOVL C00048 V=0.1 +MOVJ EC00048 VJ=15.0
MOVL C00049 V=0.1 +MOVJ EC00049 VJ=15.0
MOVL C00050 V=0.1 +MOVJ EC00050 VJ=15.0
MOVL C00051 V=0.1 +MOVJ EC00051 VJ=15.0
MOVL C00052 V=0.1 +MOVJ EC00052 VJ=15.0
MOVL C00053 V=0.1 +MOVJ EC00053 VJ=15.0
MOVL C00054 V=0.1 +MOVJ EC00054 VJ=15.0
MOVL C00055 V=0.1 +MOVJ EC00055 VJ=15.0
MOVL C00056 V=0.1 +MOVJ EC00056 VJ=15.0
MOVL C00057 V=0.1 +MOVJ EC00057 VJ=15.1
MOVL C00058 V=0.1 +MOVJ EC00058 VJ=15.1
MOVL C00059 V=0.1 +MOVJ EC00059 VJ=15.1
MOVL C00060 V=0.1 +MOVJ EC00060 VJ=15.1
MOVL C00061 V=0.1 +MOVJ EC00061 VJ=15.1
MOVL C00062 V=0.1 +MOVJ EC00062 VJ=15.1
MOVL C00063 V=4.2 +MOVJ EC00063 VJ=15.1
ARCOF
MOVL C00064 V=10.0 +MOVJ EC00064 VJ=15.0
ARCON ASF#(200)
MOVL C00065 V=4.2 +MOVJ EC00065 VJ=15.0
MOVL C00066 V=0.1 +MOVJ EC00066 VJ=15.0
MOVL C00067 V=0.1 +MOVJ EC00067 VJ=15.0
MOVL C00068 V=0.1 +MOVJ EC00068 VJ=15.0
MOVL C00069 V=0.1 +MOVJ EC00069 VJ=15.0
MOVL C00070 V=0.1 +MOVJ EC00070 VJ=15.0
MOVL C00071 V=0.1 +MOVJ EC00071 VJ=15.0
MOVL C00072 V=0.1 +MOVJ EC00072 VJ=15.0
MOVL C00073 V=0.1 +MOVJ EC00073 VJ=15.0
MOVL C00074 V=0.1 +MOVJ EC00074 VJ=14.9
MOVL C00075 V=0.1 +MOVJ EC00075 VJ=14.9
MOVL C00076 V=0.1 +MOVJ EC00076 VJ=14.9
MOVL C00077 V=0.1 +MOVJ EC00077 VJ=14.9
MOVL C00078 V=0.1 +MOVJ EC00078 VJ=14.9
MOVL C00079 V=0.1 +MOVJ EC00079 VJ=14.9
MOVL C00080 V=0.1 +MOVJ EC00080 VJ=14.9
MOVL C00081 V=0.1 +MOVJ EC00081 VJ=14.9
MOVL C00082 V=0.1 +MOVJ EC00082 VJ=15.0
MOVL C00083 V=0.1 +MOVJ EC00083 VJ=15.0
MOVL C00084 V=0.1 +MOVJ EC00084 VJ=15.0
MOVL C00085 V=0.1 +MOVJ EC00085 VJ=15.0
MOVL C00086 V=0.1 +MOVJ EC00086 VJ=15.0
MOVL C00087 V=0.1 +MOVJ EC00087 VJ=15.0
MOVL C00088 V=0.1 +MOVJ EC00088 VJ=15.0
MOVL C00089 V=0.1 +MOVJ EC00089 VJ=15.0
MOVL C00090 V=0.1 +MOVJ EC00090 VJ=15.0
MOVL C00091 V=0.1 +MOVJ EC00091 VJ=15.0
MOVL C00092 V=0.1 +MOVJ EC00092 VJ=15.0
MOVL C00093 V=0.1 +MOVJ EC00093 VJ=15.0
MOVL C00094 V=0.1 +MOVJ EC00094 VJ=15.0
MOVL C00095 V=4.6 +MOVJ EC00095 VJ=15.0
ARCOF
MOVL C00096 V=10.0 +MOVJ EC00096 VJ=15.0
ARCON ASF#(200)
MOVL C00097 V=4.6 +MOVJ EC00097 VJ=14.9
MOVL C00098 V=0.1 +MOVJ EC00098 VJ=14.9
MOVL C00099 V=0.1 +MOVJ EC00099 VJ=14.9
MOVL C00100 V=0.1 +MOVJ EC00100 VJ=14.9
MOVL C00101 V=0.1 +MOVJ EC00101 VJ=14.9
MOVL C00102 V=0.1 +MOVJ EC00102 VJ=14.9
MOVL C00103 V=0.1 +MOVJ EC00103 VJ=14.9
MOVL C00104 V=0.1 +MOVJ EC00104 VJ=14.9
MOVL C00105 V=0.1 +MOVJ EC00105 VJ=14.9
MOVL C00106 V=0.1 +MOVJ EC00106 VJ=14.9
MOVL C00107 V=0.1 +MOVJ EC00107 VJ=14.9
MOVL C00108 V=0.1 +MOVJ EC00108 VJ=14.9
MOVL C00109 V=0.1 +MOVJ EC00109 VJ=14.9
MOVL C00110 V=0.1 +MOVJ EC00110 VJ=14.9
MOVL C00111 V=0.1 +MOVJ EC00111 VJ=14.9
MOVL C00112 V=0.1 +MOVJ EC00112 VJ=14.9
MOVL C00113 V=0.1 +MOVJ EC00113 VJ=14.9
MOVL C00114 V=0.1 +MOVJ EC00114 VJ=14.9
MOVL C00115 V=0.1 +MOVJ EC00115 VJ=14.9
MOVL C00116 V=0.1 +MOVJ EC00116 VJ=14.9
MOVL C00117 V=0.1 +MOVJ EC00117 VJ=14.9
MOVL C00118 V=0.1 +MOVJ EC00118 VJ=14.9
MOVL C00119 V=0.1 +MOVJ EC00119 VJ=14.9
MOVL C00120 V=0.1 +MOVJ EC00120 VJ=14.9
MOVL C00121 V=0.1 +MOVJ EC00121 VJ=14.9
MOVL C00122 V=0.1 +MOVJ EC00122 VJ=14.9
MOVL C00123 V=0.1 +MOVJ EC00123 VJ=14.9
MOVL C00124 V=0.1 +MOVJ EC00124 VJ=14.9
MOVL C00125 V=0.1 +MOVJ EC00125 VJ=14.9
MOVL C00126 V=0.1 +MOVJ EC00126 VJ=14.9
MOVL C00127 V=0.1 +MOVJ EC00127 VJ=14.9
MOVL C00128 V=4.2 +MOVJ EC00128 VJ=14.9
ARCOF
MOVL C00129 V=10.0 +MOVJ EC00129 VJ=15.0
ARCON ASF#(200)
MOVL C00130 V=4.2 +MOVJ EC00130 VJ=14.9
MOVL C00131 V=0.1 +MOVJ EC00131 VJ=14.9
MOVL C00132 V=0.1 +MOVJ EC00132 VJ=14.9
MOVL C00133 V=0.1 +MOVJ EC00133 VJ=14.9
MOVL C00134 V=0.1 +MOVJ EC00134 VJ=14.8
MOVL C00135 V=0.1 +MOVJ EC00135 VJ=14.8
MOVL C00136 V=0.1 +MOVJ EC00136 VJ=14.8
MOVL C00137 V=0.1 +MOVJ EC00137 VJ=14.8
MOVL C00138 V=0.1 +MOVJ EC00138 VJ=14.8
MOVL C00139 V=0.1 +MOVJ EC00139 VJ=14.8
MOVL C00140 V=0.1 +MOVJ EC00140 VJ=14.8
MOVL C00141 V=0.1 +MOVJ EC00141 VJ=14.8
MOVL C00142 V=0.1 +MOVJ EC00142 VJ=14.8
MOVL C00143 V=0.1 +MOVJ EC00143 VJ=14.8
MOVL C00144 V=0.1 +MOVJ EC00144 VJ=14.8
MOVL C00145 V=0.1 +MOVJ EC00145 VJ=14.8
MOVL C00146 V=0.1 +MOVJ EC00146 VJ=14.8
MOVL C00147 V=0.1 +MOVJ EC00147 VJ=14.8
MOVL C00148 V=0.1 +MOVJ EC00148 VJ=14.8
MOVL C00149 V=0.1 +MOVJ EC00149 VJ=14.8
MOVL C00150 V=0.1 +MOVJ EC00150 VJ=14.8
MOVL C00151 V=0.1 +MOVJ EC00151 VJ=14.8
MOVL C00152 V=0.1 +MOVJ EC00152 VJ=14.8
MOVL C00153 V=0.1 +MOVJ EC00153 VJ=14.8
MOVL C00154 V=0.1 +MOVJ EC00154 VJ=14.8
MOVL C00155 V=0.1 +MOVJ EC00155 VJ=14.8
MOVL C00156 V=0.1 +MOVJ EC00156 VJ=14.9
MOVL C00157 V=0.1 +MOVJ EC00157 VJ=14.9
MOVL C00158 V=0.1 +MOVJ EC00158 VJ=14.9
MOVL C00159 V=0.1 +MOVJ EC00159 VJ=14.9
MOVL C00160 V=0.1 +MOVJ EC00160 VJ=14.9
MOVL C00161 V=4.6 +MOVJ EC00161 VJ=14.9
ARCOF
END
