/JOB
//NAME AAA
//POS
///NPOS 67,0,67,0,0,0
///TOOL 12
///POSTYPE PULSE
///PULSE
C00000=-26583,66822,9520,14179,-40881,-15459
C00001=-26583,69341,8119,14821,-38790,-15835
C00002=-26566,69495,8308,14816,-38828,-15836
C00003=-26566,69498,8313,14815,-38830,-15835
C00004=-26567,69499,8317,14814,-38832,-15835
C00005=-26567,69499,8319,14814,-38833,-15834
C00006=-26568,69496,8319,14813,-38834,-15834
C00007=-26569,69492,8315,14813,-38834,-15833
C00008=-26570,69488,8311,14813,-38833,-15833
C00009=-26571,69483,8305,14813,-38831,-15833
C00010=-26570,69480,8299,14813,-38830,-15833
C00011=-26570,69478,8295,14814,-38828,-15834
C00012=-26569,69479,8293,14815,-38827,-15835
C00013=-26568,69481,8293,14816,-38826,-15835
C00014=-26567,69485,8297,14816,-38826,-15836
C00015=-26547,69641,8479,14813,-38861,-15839
C00016=-27002,69452,9411,14440,-39440,-15519
C00017=-27023,69296,9228,14442,-39405,-15516
C00018=-27024,69293,9225,14442,-39405,-15515
C00019=-27025,69290,9224,14441,-39405,-15515
C00020=-27026,69290,9226,14440,-39406,-15514
C00021=-27026,69291,9229,14440,-39408,-15513
C00022=-27027,69294,9234,14439,-39409,-15513
C00023=-27027,69298,9240,14439,-39411,-15513
C00024=-27026,69302,9245,14439,-39412,-15513
C00025=-27025,69306,9249,14439,-39412,-15513
C00026=-27024,69309,9251,14439,-39412,-15514
C00027=-27023,69311,9251,14440,-39411,-15514
C00028=-27022,69311,9248,14441,-39410,-15515
C00029=-27022,69309,9244,14441,-39408,-15515
C00030=-27022,69305,9238,14442,-39407,-15516
C00031=-27039,69151,9050,14447,-39369,-15515
C00032=-27504,69091,9980,14098,-39883,-15207
C00033=-27486,69246,10168,14094,-39921,-15208
C00034=-27486,69249,10173,14094,-39923,-15208
C00035=-27487,69252,10178,14093,-39924,-15208
C00036=-27488,69253,10181,14092,-39925,-15207
C00037=-27489,69252,10182,14092,-39926,-15206
C00038=-27490,69250,10181,14091,-39926,-15206
C00039=-27491,69246,10178,14091,-39926,-15205
C00040=-27491,69242,10173,14091,-39925,-15205
C00041=-27492,69238,10168,14091,-39924,-15205
C00042=-27492,69235,10163,14091,-39923,-15206
C00043=-27491,69232,10159,14092,-39922,-15206
C00044=-27490,69231,10156,14093,-39920,-15207
C00045=-27489,69232,10155,14093,-39919,-15207
C00046=-27488,69235,10156,14094,-39919,-15208
C00047=-27487,69238,10159,14094,-39919,-15208
C00048=-27467,69393,10341,14093,-39954,-15212
C00049=-27916,69435,11231,13780,-40398,-14928
C00050=-27937,69280,11048,13781,-40363,-14924
C00051=-27938,69277,11045,13781,-40363,-14924
C00052=-27939,69274,11044,13781,-40363,-14923
C00053=-27940,69274,11044,13780,-40364,-14923
C00054=-27941,69274,11047,13779,-40365,-14922
C00055=-27941,69276,11051,13779,-40366,-14922
C00056=-27942,69279,11055,13778,-40367,-14921
C00057=-27942,69283,11061,13778,-40368,-14921
C00058=-27941,69287,11065,13778,-40369,-14921
C00059=-27940,69290,11069,13778,-40370,-14921
C00060=-27939,69293,11071,13778,-40370,-14922
C00061=-27938,69295,11071,13779,-40369,-14922
C00062=-27937,69295,11070,13780,-40368,-14923
C00063=-27936,69293,11066,13780,-40367,-14924
C00064=-27936,69291,11062,13781,-40366,-14924
C00065=-27936,69287,11057,13781,-40365,-14924
C00066=-27954,69132,10868,13785,-40327,-14922
EC00000=81907,-215584
EC00001=81907,-215584
EC00002=81907,-188034
EC00003=81907,-153310
EC00004=81907,-118585
EC00005=81907,-83860
EC00006=81907,-45979
EC00007=81907,-11254
EC00008=81907,23471
EC00009=81907,58195
EC00010=81907,92920
EC00011=81907,130802
EC00012=81907,165526
EC00013=81907,200251
EC00014=81907,234976
EC00015=81907,265683
EC00016=71841,266072
EC00017=71841,237029
EC00018=71841,204187
EC00019=71841,171345
EC00020=71841,138503
EC00021=71841,105661
EC00022=71841,72819
EC00023=71841,39977
EC00024=71841,7135
EC00025=71841,-25707
EC00026=71841,-58549
EC00027=71841,-91391
EC00028=71841,-124233
EC00029=71841,-157075
EC00030=71841,-189917
EC00031=71841,-215973
EC00032=62510,-216322
EC00033=62510,-194438
EC00034=62510,-163285
EC00035=62510,-132132
EC00036=62510,-100979
EC00037=62510,-69826
EC00038=62510,-38673
EC00039=62510,-7520
EC00040=62510,23633
EC00041=62510,54786
EC00042=62510,85939
EC00043=62510,117092
EC00044=62510,148245
EC00045=62510,179398
EC00046=62510,210551
EC00047=62510,241704
EC00048=62510,266421
EC00049=54119,266702
EC00050=54119,243066
EC00051=54119,213275
EC00052=54119,183484
EC00053=54119,153693
EC00054=54119,126610
EC00055=54119,96819
EC00056=54119,67027
EC00057=54119,37236
EC00058=54119,10154
EC00059=54119,-19638
EC00060=54119,-49429
EC00061=54119,-79220
EC00062=54119,-106303
EC00063=54119,-136094
EC00064=54119,-165885
EC00065=54119,-195676
EC00066=54119,-216604
//INST
///DATE 2023/05/25 14:37
///ATTR SC,RW
///GROUP1 RB1
///GROUP2 ST1
NOP
MOVL C00000 V=10.0 +MOVJ EC00000 VJ=10.0
MOVL C00001 V=10.0 +MOVJ EC00001 VJ=10.0
MOVL C00002 V=2.1 +MOVJ EC00002 VJ=0.5
MOVL C00003 V=0.1 +MOVJ EC00003 VJ=0.5
MOVL C00004 V=0.1 +MOVJ EC00004 VJ=0.5
MOVL C00005 V=0.1 +MOVJ EC00005 VJ=0.5
MOVL C00006 V=0.1 +MOVJ EC00006 VJ=0.5
MOVL C00007 V=0.1 +MOVJ EC00007 VJ=0.5
MOVL C00008 V=0.1 +MOVJ EC00008 VJ=0.5
MOVL C00009 V=0.1 +MOVJ EC00009 VJ=0.5
MOVL C00010 V=0.1 +MOVJ EC00010 VJ=0.5
MOVL C00011 V=0.1 +MOVJ EC00011 VJ=0.5
MOVL C00012 V=0.1 +MOVJ EC00012 VJ=0.5
MOVL C00013 V=0.1 +MOVJ EC00013 VJ=0.5
MOVL C00014 V=0.1 +MOVJ EC00014 VJ=0.5
MOVL C00015 V=1.9 +MOVJ EC00015 VJ=0.5
MOVL C00016 V=10.0 +MOVJ EC00016 VJ=10.0
MOVL C00017 V=1.9 +MOVJ EC00017 VJ=0.5
MOVL C00018 V=0.1 +MOVJ EC00018 VJ=0.5
MOVL C00019 V=0.1 +MOVJ EC00019 VJ=0.5
MOVL C00020 V=0.1 +MOVJ EC00020 VJ=0.5
MOVL C00021 V=0.1 +MOVJ EC00021 VJ=0.5
MOVL C00022 V=0.1 +MOVJ EC00022 VJ=0.5
MOVL C00023 V=0.1 +MOVJ EC00023 VJ=0.5
MOVL C00024 V=0.1 +MOVJ EC00024 VJ=0.5
MOVL C00025 V=0.1 +MOVJ EC00025 VJ=0.5
MOVL C00026 V=0.1 +MOVJ EC00026 VJ=0.5
MOVL C00027 V=0.1 +MOVJ EC00027 VJ=0.5
MOVL C00028 V=0.1 +MOVJ EC00028 VJ=0.5
MOVL C00029 V=0.1 +MOVJ EC00029 VJ=0.5
MOVL C00030 V=0.1 +MOVJ EC00030 VJ=0.5
MOVL C00031 V=2.1 +MOVJ EC00031 VJ=0.5
MOVL C00032 V=10.0 +MOVJ EC00032 VJ=10.0
MOVL C00033 V=2.3 +MOVJ EC00033 VJ=0.5
MOVL C00034 V=0.1 +MOVJ EC00034 VJ=0.5
MOVL C00035 V=0.1 +MOVJ EC00035 VJ=0.5
MOVL C00036 V=0.1 +MOVJ EC00036 VJ=0.5
MOVL C00037 V=0.1 +MOVJ EC00037 VJ=0.5
MOVL C00038 V=0.1 +MOVJ EC00038 VJ=0.5
MOVL C00039 V=0.1 +MOVJ EC00039 VJ=0.5
MOVL C00040 V=0.1 +MOVJ EC00040 VJ=0.5
MOVL C00041 V=0.1 +MOVJ EC00041 VJ=0.5
MOVL C00042 V=0.1 +MOVJ EC00042 VJ=0.5
MOVL C00043 V=0.1 +MOVJ EC00043 VJ=0.5
MOVL C00044 V=0.1 +MOVJ EC00044 VJ=0.5
MOVL C00045 V=0.1 +MOVJ EC00045 VJ=0.5
MOVL C00046 V=0.1 +MOVJ EC00046 VJ=0.5
MOVL C00047 V=0.1 +MOVJ EC00047 VJ=0.5
MOVL C00048 V=2.1 +MOVJ EC00048 VJ=0.5
MOVL C00049 V=10.0 +MOVJ EC00049 VJ=10.0
MOVL C00050 V=2.1 +MOVJ EC00050 VJ=0.5
MOVL C00051 V=0.1 +MOVJ EC00051 VJ=0.5
MOVL C00052 V=0.1 +MOVJ EC00052 VJ=0.5
MOVL C00053 V=0.1 +MOVJ EC00053 VJ=0.5
MOVL C00054 V=0.1 +MOVJ EC00054 VJ=0.5
MOVL C00055 V=0.1 +MOVJ EC00055 VJ=0.5
MOVL C00056 V=0.1 +MOVJ EC00056 VJ=0.5
MOVL C00057 V=0.1 +MOVJ EC00057 VJ=0.5
MOVL C00058 V=0.1 +MOVJ EC00058 VJ=0.5
MOVL C00059 V=0.1 +MOVJ EC00059 VJ=0.5
MOVL C00060 V=0.1 +MOVJ EC00060 VJ=0.5
MOVL C00061 V=0.1 +MOVJ EC00061 VJ=0.5
MOVL C00062 V=0.1 +MOVJ EC00062 VJ=0.5
MOVL C00063 V=0.1 +MOVJ EC00063 VJ=0.5
MOVL C00064 V=0.1 +MOVJ EC00064 VJ=0.5
MOVL C00065 V=0.1 +MOVJ EC00065 VJ=0.5
MOVL C00066 V=2.3 +MOVJ EC00066 VJ=0.5
END
