/JOB
//NAME AAA
//POS
///NPOS 50,0,50,0,0,0
///TOOL 9
///POSTYPE PULSE
///PULSE
C00000=-24371,79009,18159,15238,-40314,-16579
C00001=-24634,78339,18127,15047,-40585,-16408
C00002=-24904,77709,18080,14865,-40827,-16239
C00003=-25202,77109,18072,14673,-41074,-16059
C00004=-25486,76570,18034,14501,-41275,-15893
C00005=-25823,76059,18095,14300,-41514,-15698
C00006=-26216,75572,18226,14072,-41774,-15475
C00007=-26590,75145,18318,13867,-41985,-15270
C00008=-26959,74758,18387,13675,-42164,-15074
C00009=-27321,74412,18443,13494,-42317,-14886
C00010=-27690,74103,18510,13314,-42457,-14697
C00011=-28074,73826,18586,13132,-42586,-14504
C00012=-28476,73558,18646,12947,-42699,-14306
C00013=-28847,73320,18672,12783,-42781,-14127
C00014=-29193,73090,18655,12635,-42837,-13963
C00015=-29523,72875,18617,12497,-42876,-13809
C00016=-29841,72667,18554,12368,-42900,-13663
C00017=-30153,72474,18486,12243,-42913,-13521
C00018=-30464,72273,18388,12122,-42913,-13382
C00019=-30740,72073,18257,12018,-42898,-13260
C00020=-30991,71856,18082,11926,-42868,-13151
C00021=-31225,71607,17852,11844,-42824,-13052
C00022=-31437,71355,17603,11772,-42773,-12964
C00023=-31648,71094,17337,11702,-42717,-12877
C00024=-31856,70841,17075,11633,-42659,-12791
C00025=-32074,70596,16818,11560,-42599,-12701
C00026=-32286,70361,16566,11489,-42538,-12614
C00027=-32489,70129,16310,11423,-42475,-12531
C00028=-32692,69877,16026,11358,-42405,-12449
C00029=-32882,69612,15721,11298,-42331,-12373
C00030=-33072,69331,15395,11240,-42252,-12298
C00031=-33254,69061,15078,11183,-42173,-12226
C00032=-33435,68811,14782,11127,-42099,-12154
C00033=-33625,68585,14514,11066,-42027,-12077
C00034=-33814,68391,14282,11004,-41962,-12000
C00035=-33990,68175,14023,10948,-41894,-11929
C00036=-34157,67950,13755,10895,-41824,-11862
C00037=-34318,67735,13497,10844,-41758,-11798
C00038=-34476,67620,13359,10790,-41714,-11732
C00039=-34651,67583,13313,10725,-41684,-11656
C00040=-34837,67603,13336,10653,-41665,-11574
C00041=-35004,67565,13289,10592,-41637,-11502
C00042=-35128,67311,12988,10555,-41569,-11454
C00043=-35231,66982,12600,10530,-41488,-11417
C00044=-35365,66829,12418,10485,-41440,-11362
C00045=-35534,66845,12439,10419,-41424,-11287
C00046=-35683,66780,12362,10365,-41393,-11223
C00047=-35786,66440,11961,10339,-41311,-11186
C00048=-35872,66023,11470,10324,-41214,-11159
C00049=-35945,65558,10922,10315,-41110,-11138
EC00000=87942,-134272
EC00001=83416,-131280
EC00002=78787,-128940
EC00003=74030,-126346
EC00004=69730,-124077
EC00005=64587,-121754
EC00006=58684,-119405
EC00007=53263,-117457
EC00008=48137,-115659
EC00009=43276,-113955
EC00010=38365,-112411
EC00011=33267,-111138
EC00012=27980,-110091
EC00013=23231,-109198
EC00014=18932,-108307
EC00015=14888,-107493
EC00016=11005,-106932
EC00017=7182,-106736
EC00018=3375,-106889
EC00019=69,-107209
EC00020=-2829,-107512
EC00021=-5421,-107748
EC00022=-7711,-108018
EC00023=-9952,-108545
EC00024=-12165,-109516
EC00025=-14454,-111078
EC00026=-16611,-113034
EC00027=-18575,-115195
EC00028=-20412,-117466
EC00029=-22016,-119632
EC00030=-23505,-121921
EC00031=-24830,-124484
EC00032=-25988,-127612
EC00033=-27035,-131624
EC00034=-27876,-136190
EC00035=-28397,-140726
EC00036=-28831,-144744
EC00037=-29155,-148674
EC00038=-29391,-153098
EC00039=-29564,-158451
EC00040=-29686,-164309
EC00041=-29761,-169035
EC00042=-29798,-171325
EC00043=-29808,-172713
EC00044=-29808,-175802
EC00045=-29807,-180450
EC00046=-29807,-184035
EC00047=-29807,-185257
EC00048=-29805,-185854
EC00049=-29805,-186054
//INST
///DATE 2023/03/01 15:16
///ATTR SC,RW
///GROUP1 RB1
///GROUP2 ST1
NOP
MOVL C00000 V=10.0 +MOVJ EC00000 VJ=10.0
ARCON ASF#(200)
MOVL C00001 V=30.5 +MOVJ EC00001 VJ=30.5
MOVL C00002 V=29.5 +MOVJ EC00002 VJ=29.5
MOVL C00003 V=30.4 +MOVJ EC00003 VJ=30.4
MOVL C00004 V=28.4 +MOVJ EC00004 VJ=28.4
MOVL C00005 V=32.4 +MOVJ EC00005 VJ=32.4
MOVL C00006 V=34.6 +MOVJ EC00006 VJ=34.6
MOVL C00007 V=32.2 +MOVJ EC00007 VJ=32.2
MOVL C00008 V=30.5 +MOVJ EC00008 VJ=30.5
MOVL C00009 V=29.5 +MOVJ EC00009 VJ=29.5
MOVL C00010 V=29.4 +MOVJ EC00010 VJ=29.4
MOVL C00011 V=29.2 +MOVJ EC00011 VJ=29.2
MOVL C00012 V=27.9 +MOVJ EC00012 VJ=27.9
MOVL C00013 V=26.3 +MOVJ EC00013 VJ=26.3
MOVL C00014 V=24.5 +MOVJ EC00014 VJ=24.5
MOVL C00015 V=23.5 +MOVJ EC00015 VJ=23.5
MOVL C00016 V=22.3 +MOVJ EC00016 VJ=22.3
MOVL C00017 V=21.7 +MOVJ EC00017 VJ=21.7
MOVL C00018 V=20.6 +MOVJ EC00018 VJ=20.6
MOVL C00019 V=19.1 +MOVJ EC00019 VJ=19.1
MOVL C00020 V=17.5 +MOVJ EC00020 VJ=17.5
MOVL C00021 V=16.0 +MOVJ EC00021 VJ=16.0
MOVL C00022 V=15.1 +MOVJ EC00022 VJ=15.1
MOVL C00023 V=14.6 +MOVJ EC00023 VJ=14.6
MOVL C00024 V=14.4 +MOVJ EC00024 VJ=14.4
MOVL C00025 V=14.5 +MOVJ EC00025 VJ=14.5
MOVL C00026 V=14.3 +MOVJ EC00026 VJ=14.3
MOVL C00027 V=13.9 +MOVJ EC00027 VJ=13.9
MOVL C00028 V=13.4 +MOVJ EC00028 VJ=13.4
MOVL C00029 V=12.8 +MOVJ EC00029 VJ=12.8
MOVL C00030 V=12.4 +MOVJ EC00030 VJ=12.4
MOVL C00031 V=12.2 +MOVJ EC00031 VJ=12.2
MOVL C00032 V=12.0 +MOVJ EC00032 VJ=12.0
MOVL C00033 V=12.1 +MOVJ EC00033 VJ=12.1
MOVL C00034 V=11.9 +MOVJ EC00034 VJ=11.9
MOVL C00035 V=10.9 +MOVJ EC00035 VJ=10.9
MOVL C00036 V=10.5 +MOVJ EC00036 VJ=10.5
MOVL C00037 V=10.2 +MOVJ EC00037 VJ=10.2
MOVL C00038 V=10.7 +MOVJ EC00038 VJ=10.7
MOVL C00039 V=11.2 +MOVJ EC00039 VJ=11.2
MOVL C00040 V=11.5 +MOVJ EC00040 VJ=11.5
MOVL C00041 V=10.3 +MOVJ EC00041 VJ=10.3
MOVL C00042 V=8.9 +MOVJ EC00042 VJ=8.9
MOVL C00043 V=8.9 +MOVJ EC00043 VJ=8.9
MOVL C00044 V=8.8 +MOVJ EC00044 VJ=8.8
MOVL C00045 V=10.0 +MOVJ EC00045 VJ=10.0
MOVL C00046 V=9.0 +MOVJ EC00046 VJ=9.0
MOVL C00047 V=8.7 +MOVJ EC00047 VJ=8.7
MOVL C00048 V=9.2 +MOVJ EC00048 VJ=9.2
MOVL C00049 V=9.7 +MOVJ EC00049 VJ=9.7
ARCOF
END
