/JOB
//NAME AAA
//POS
///NPOS 250,0,250,0,0,0
///TOOL 9
///POSTYPE PULSE
///PULSE
C00000=-29260,75575,23187,12272,-44307,-13723
C00001=-29405,75328,22888,12234,-44230,-13669
C00002=-29548,75102,22613,12195,-44159,-13616
C00003=-29695,74891,22358,12154,-44091,-13560
C00004=-29839,74703,22130,12113,-44029,-13505
C00005=-29982,74535,21927,12071,-43972,-13449
C00006=-30132,74373,21729,12026,-43914,-13390
C00007=-30278,74235,21563,11981,-43864,-13333
C00008=-30427,74107,21408,11935,-43815,-13273
C00009=-30572,73995,21273,11889,-43770,-13215
C00010=-30717,73896,21153,11842,-43729,-13156
C00011=-30867,73801,21038,11794,-43688,-13095
C00012=-31026,73715,20934,11741,-43647,-13030
C00013=-31178,73639,20843,11690,-43610,-12967
C00014=-31329,73569,20759,11639,-43575,-12904
C00015=-31478,73506,20682,11589,-43542,-12842
C00016=-31626,73446,20609,11538,-43509,-12780
C00017=-31774,73392,20545,11488,-43478,-12718
C00018=-31930,73333,20474,11434,-43445,-12653
C00019=-32078,73281,20411,11383,-43414,-12591
C00020=-32227,73230,20350,11331,-43384,-12529
C00021=-32378,73173,20281,11279,-43352,-12465
C00022=-32526,73121,20219,11228,-43322,-12403
C00023=-32677,73061,20146,11175,-43290,-12340
C00024=-32828,72993,20064,11124,-43256,-12277
C00025=-32984,72922,19978,11070,-43220,-12212
C00026=-33137,72840,19880,11017,-43183,-12148
C00027=-33288,72751,19772,10966,-43145,-12085
C00028=-33445,72648,19649,10913,-43103,-12021
C00029=-33602,72530,19507,10860,-43057,-11956
C00030=-33763,72393,19342,10807,-43007,-11890
C00031=-33920,72239,19157,10756,-42954,-11826
C00032=-34072,72069,18952,10707,-42898,-11765
C00033=-34229,71877,18721,10657,-42837,-11702
C00034=-34380,71659,18461,10610,-42771,-11642
C00035=-34534,71415,18167,10564,-42699,-11582
C00036=-34682,71142,17841,10520,-42622,-11525
C00037=-34825,70850,17491,10479,-42541,-11471
C00038=-34948,70566,17151,10445,-42464,-11425
C00039=-35069,70257,16782,10413,-42383,-11380
C00040=-35191,69918,16377,10382,-42295,-11336
C00041=-35307,69553,15943,10353,-42203,-11294
C00042=-35422,69163,15478,10326,-42106,-11254
C00043=-35528,68760,14998,10303,-42007,-11218
C00044=-35628,68348,14509,10283,-41908,-11185
C00045=-35724,67911,13992,10264,-41804,-11154
C00046=-35813,67466,13464,10249,-41700,-11126
C00047=-35900,66994,12907,10235,-41591,-11100
C00048=-35981,66516,12343,10224,-41482,-11076
C00049=-36057,66035,11776,10215,-41373,-11055
C00050=-36006,65729,11486,10239,-41358,-11080
C00051=-35931,66192,12031,10249,-41462,-11102
C00052=-35829,66518,12413,10275,-41540,-11138
C00053=-35711,66744,12676,10311,-41599,-11185
C00054=-35583,66898,12853,10354,-41643,-11238
C00055=-35442,67014,12990,10404,-41684,-11297
C00056=-35289,67092,13086,10458,-41720,-11362
C00057=-35128,67170,13183,10516,-41758,-11430
C00058=-34964,67268,13302,10574,-41800,-11499
C00059=-34804,67368,13424,10630,-41841,-11567
C00060=-34645,67492,13572,10685,-41887,-11633
C00061=-34493,67615,13720,10737,-41932,-11696
C00062=-34341,67750,13881,10788,-41980,-11759
C00063=-34178,67948,14117,10841,-42042,-11825
C00064=-34007,68153,14362,10896,-42107,-11894
C00065=-33815,68324,14567,10960,-42168,-11973
C00066=-33674,68634,14935,10999,-42252,-12026
C00067=-33474,68852,15197,11064,-42324,-12107
C00068=-33331,69152,15551,11103,-42404,-12161
C00069=-33136,69396,15838,11165,-42479,-12239
C00070=-32959,69681,16171,11219,-42558,-12309
C00071=-32782,69973,16512,11272,-42639,-12378
C00072=-32601,70261,16843,11326,-42716,-12449
C00073=-32432,70532,17153,11378,-42788,-12515
C00074=-32224,70780,17425,11445,-42854,-12600
C00075=-31998,71015,17672,11521,-42913,-12693
C00076=-31825,71321,18011,11573,-42986,-12761
C00077=-31600,71551,18240,11650,-43037,-12855
C00078=-31341,71743,18404,11744,-43073,-12966
C00079=-31173,72066,18752,11794,-43142,-13032
C00080=-30846,72184,18778,11921,-43142,-13178
C00081=-30638,72463,19041,11992,-43187,-13265
C00082=-30356,72706,19212,12097,-43206,-13389
C00083=-30121,72967,19419,12183,-43231,-13490
C00084=-29864,73216,19586,12280,-43241,-13604
C00085=-29512,73393,19580,12426,-43197,-13768
C00086=-29187,73627,19639,12561,-43160,-13918
C00087=-28790,73827,19561,12736,-43069,-14110
C00088=-28372,74061,19460,12926,-42950,-14315
C00089=-28049,74361,19504,13070,-42872,-14471
C00090=-27655,74637,19386,13260,-42721,-14672
C00091=-27272,74947,19272,13452,-42554,-14871
C00092=-26919,75319,19229,13630,-42394,-15055
C00093=-26515,75716,19063,13850,-42157,-15276
C00094=-26157,76177,18993,14049,-41940,-15474
C00095=-25852,76655,18986,14223,-41744,-15646
C00096=-25547,77184,18981,14405,-41524,-15822
C00097=-25227,77768,18923,14611,-41249,-16016
C00098=-24948,78361,18906,14799,-40988,-16190
C00099=-24763,78999,19207,14905,-40879,-16294
C00100=-24666,79017,18922,14994,-40717,-16369
C00101=-24923,78365,18888,14812,-40980,-16203
C00102=-25185,77749,18836,14638,-41213,-16041
C00103=-25475,77163,18822,14454,-41451,-15868
C00104=-25751,76634,18778,14290,-41646,-15708
C00105=-26078,76135,18830,14098,-41876,-15521
C00106=-26459,75659,18949,13880,-42126,-15306
C00107=-26823,75240,19029,13685,-42329,-15109
C00108=-27180,74858,19085,13501,-42499,-14920
C00109=-27531,74515,19128,13328,-42645,-14739
C00110=-27889,74208,19180,13155,-42778,-14558
C00111=-28261,73930,19240,12981,-42900,-14372
C00112=-28650,73660,19282,12805,-43005,-14182
C00113=-29008,73418,19291,12648,-43081,-14010
C00114=-29343,73184,19257,12507,-43131,-13853
C00115=-29663,72964,19204,12375,-43166,-13705
C00116=-29972,72749,19125,12251,-43184,-13564
C00117=-30273,72549,19041,12133,-43193,-13428
C00118=-30574,72340,18927,12017,-43189,-13294
C00119=-30841,72132,18781,11917,-43171,-13177
C00120=-31084,71907,18593,11829,-43138,-13072
C00121=-31311,71651,18352,11751,-43092,-12977
C00122=-31518,71392,18092,11682,-43039,-12892
C00123=-31722,71124,17815,11615,-42980,-12808
C00124=-31924,70864,17542,11549,-42920,-12725
C00125=-32136,70611,17274,11479,-42859,-12639
C00126=-32342,70369,17012,11411,-42797,-12554
C00127=-32540,70129,16746,11347,-42732,-12474
C00128=-32737,69870,16453,11284,-42661,-12395
C00129=-32923,69599,16140,11227,-42585,-12321
C00130=-33109,69312,15806,11170,-42505,-12248
C00131=-33288,69037,15482,11116,-42426,-12178
C00132=-33465,68782,15181,11061,-42351,-12107
C00133=-33652,68552,14907,11002,-42279,-12032
C00134=-33839,68354,14670,10941,-42213,-11956
C00135=-34013,68135,14409,10885,-42144,-11886
C00136=-34179,67908,14138,10834,-42075,-11820
C00137=-34339,67691,13879,10783,-42008,-11756
C00138=-34496,67575,13740,10729,-41964,-11691
C00139=-34671,67537,13693,10665,-41934,-11616
C00140=-34857,67557,13715,10593,-41916,-11534
C00141=-35022,67518,13668,10532,-41887,-11462
C00142=-35147,67264,13366,10496,-41819,-11414
C00143=-35249,66934,12977,10471,-41738,-11378
C00144=-35383,66780,12795,10426,-41690,-11323
C00145=-35553,66797,12816,10360,-41675,-11248
C00146=-35701,66732,12739,10306,-41644,-11184
C00147=-35804,66391,12337,10281,-41562,-11147
C00148=-35890,65973,11845,10265,-41465,-11120
C00149=-35963,65507,11296,10256,-41360,-11099
C00150=-36012,65760,11671,10217,-41454,-11066
C00151=-35931,66202,12192,10230,-41555,-11090
C00152=-35809,66445,12480,10267,-41620,-11138
C00153=-35670,66614,12682,10313,-41673,-11195
C00154=-35525,66723,12812,10364,-41713,-11256
C00155=-35376,66817,12922,10417,-41750,-11319
C00156=-35230,66910,13031,10469,-41785,-11380
C00157=-35085,67027,13168,10519,-41826,-11441
C00158=-34932,67155,13320,10572,-41871,-11505
C00159=-34775,67255,13439,10627,-41911,-11571
C00160=-34612,67363,13567,10684,-41954,-11640
C00161=-34451,67465,13690,10741,-41995,-11707
C00162=-34291,67582,13830,10796,-42040,-11774
C00163=-34122,67770,14053,10851,-42100,-11843
C00164=-33949,67979,14301,10907,-42166,-11913
C00165=-33776,68208,14573,10961,-42235,-11982
C00166=-33602,68439,14848,11016,-42305,-12051
C00167=-33426,68689,15142,11071,-42379,-12121
C00168=-33254,68949,15449,11123,-42454,-12189
C00169=-33075,69221,15767,11178,-42531,-12260
C00170=-32886,69498,16088,11237,-42609,-12335
C00171=-32696,69766,16394,11296,-42683,-12410
C00172=-32499,70029,16690,11358,-42754,-12490
C00173=-32308,70280,16968,11420,-42819,-12567
C00174=-32111,70538,17249,11483,-42884,-12646
C00175=-31907,70801,17530,11549,-42947,-12729
C00176=-31703,71057,17798,11617,-43006,-12813
C00177=-31487,71303,18044,11690,-43058,-12903
C00178=-31257,71532,18256,11770,-43101,-13000
C00179=-31003,71753,18441,11862,-43135,-13109
C00180=-30738,71959,18592,11960,-43157,-13225
C00181=-30462,72162,18719,12065,-43169,-13347
C00182=-30164,72384,18844,12179,-43172,-13479
C00183=-29875,72600,18946,12293,-43165,-13610
C00184=-29577,72825,19037,12413,-43147,-13746
C00185=-29264,73059,19105,12542,-43114,-13891
C00186=-28933,73299,19143,12682,-43062,-14046
C00187=-28584,73556,19153,12835,-42989,-14214
C00188=-28210,73841,19139,13003,-42891,-14396
C00189=-27848,74127,19094,13173,-42773,-14577
C00190=-27478,74436,19021,13352,-42629,-14766
C00191=-27097,74772,18913,13546,-42452,-14965
C00192=-26714,75163,18807,13748,-42250,-15171
C00193=-26369,75596,18756,13935,-42056,-15359
C00194=-26043,76086,18758,14115,-41862,-15539
C00195=-25742,76586,18763,14289,-41662,-15709
C00196=-25449,77126,18772,14467,-41444,-15881
C00197=-25171,77713,18813,14642,-41220,-16047
C00198=-24911,78328,18869,14814,-40988,-16207
C00199=-24691,78948,19003,14960,-40795,-16343
C00200=-24685,78936,19028,14955,-40817,-16342
C00201=-24891,78298,18829,14823,-40983,-16217
C00202=-25142,77688,18759,14658,-41205,-16063
C00203=-25412,77094,18696,14488,-41420,-15901
C00204=-25702,76546,18678,14312,-41638,-15732
C00205=-26003,76039,18676,14136,-41843,-15560
C00206=-26352,75543,18723,13939,-42065,-15365
C00207=-26704,75106,18785,13747,-42267,-15173
C00208=-27050,74702,18815,13568,-42435,-14989
C00209=-27379,74337,18820,13405,-42572,-14819
C00210=-27720,74003,18838,13241,-42700,-14646
C00211=-28084,73703,18886,13068,-42826,-14463
C00212=-28473,73415,18929,12889,-42941,-14271
C00213=-28831,73161,18943,12730,-43026,-14098
C00214=-29170,72919,18922,12584,-43087,-13937
C00215=-29502,72700,18894,12445,-43134,-13781
C00216=-29825,72497,18854,12312,-43168,-13632
C00217=-30137,72300,18792,12187,-43187,-13490
C00218=-30436,72078,18671,12071,-43185,-13356
C00219=-30694,71850,18506,11975,-43166,-13243
C00220=-30929,71612,18307,11890,-43135,-13142
C00221=-31161,71365,18086,11809,-43095,-13044
C00222=-31387,71134,17874,11730,-43055,-12948
C00223=-31619,70902,17656,11649,-43009,-12850
C00224=-31845,70672,17429,11572,-42959,-12756
C00225=-32065,70425,17173,11498,-42901,-12665
C00226=-32263,70163,16889,11434,-42836,-12585
C00227=-32447,69892,16587,11376,-42767,-12511
C00228=-32636,69615,16276,11317,-42695,-12436
C00229=-32827,69359,15985,11256,-42625,-12359
C00230=-33034,69113,15705,11190,-42553,-12275
C00231=-33238,68892,15449,11123,-42485,-12192
C00232=-33427,68670,15190,11062,-42417,-12116
C00233=-33604,68420,14894,11007,-42343,-12045
C00234=-33762,68144,14567,10961,-42266,-11984
C00235=-33916,67860,14230,10916,-42186,-11925
C00236=-34084,67627,13953,10863,-42116,-11858
C00237=-34273,67505,13810,10797,-42068,-11779
C00238=-34443,67434,13725,10736,-42033,-11706
C00239=-34602,67329,13601,10681,-41992,-11640
C00240=-34750,67182,13428,10630,-41944,-11578
C00241=-34894,67035,13256,10582,-41897,-11519
C00242=-35048,66910,13109,10529,-41853,-11455
C00243=-35210,66849,13037,10470,-41822,-11385
C00244=-35368,66800,12977,10411,-41793,-11317
C00245=-35509,66659,12811,10363,-41747,-11259
C00246=-35628,66417,12525,10328,-41682,-11213
C00247=-35736,66093,12142,10300,-41602,-11173
C00248=-35810,65610,11572,10292,-41492,-11153
C00249=-35868,65087,10958,10292,-41378,-11141
EC00000=-29915,-189580
EC00001=-29915,-189580
EC00002=-29915,-189580
EC00003=-29915,-189580
EC00004=-29915,-189580
EC00005=-29915,-189580
EC00006=-29915,-189580
EC00007=-29915,-189580
EC00008=-29915,-189580
EC00009=-29915,-189580
EC00010=-29915,-189580
EC00011=-29915,-189580
EC00012=-29915,-189580
EC00013=-29915,-189580
EC00014=-29915,-189580
EC00015=-29915,-189580
EC00016=-29915,-189580
EC00017=-29915,-189580
EC00018=-29915,-189580
EC00019=-29915,-189580
EC00020=-29915,-189580
EC00021=-29915,-189580
EC00022=-29915,-189580
EC00023=-29915,-189580
EC00024=-29915,-189580
EC00025=-29915,-189580
EC00026=-29915,-189580
EC00027=-29915,-189580
EC00028=-29915,-189580
EC00029=-29915,-189580
EC00030=-29915,-189580
EC00031=-29915,-189580
EC00032=-29915,-189580
EC00033=-29915,-189580
EC00034=-29915,-189580
EC00035=-29915,-189580
EC00036=-29915,-189580
EC00037=-29915,-189580
EC00038=-29915,-189580
EC00039=-29915,-189580
EC00040=-29915,-189580
EC00041=-29915,-189580
EC00042=-29915,-189580
EC00043=-29915,-189580
EC00044=-29915,-189580
EC00045=-29915,-189580
EC00046=-29915,-189580
EC00047=-29915,-189580
EC00048=-29915,-189580
EC00049=-29915,-189580
EC00050=-29919,-187452
EC00051=-29926,-187247
EC00052=-29991,-185858
EC00053=-30115,-183529
EC00054=-30249,-180549
EC00055=-30284,-177172
EC00056=-30174,-173527
EC00057=-29986,-169671
EC00058=-29804,-165666
EC00059=-29634,-161575
EC00060=-29467,-157435
EC00061=-29311,-153264
EC00062=-29117,-149037
EC00063=-28843,-144712
EC00064=-28438,-140194
EC00065=-27834,-134711
EC00066=-27336,-131876
EC00067=-26016,-128344
EC00068=-25441,-124904
EC00069=-23969,-121757
EC00070=-22670,-118632
EC00071=-21150,-116898
EC00072=-19526,-115187
EC00073=-18015,-112465
EC00074=-15820,-110977
EC00075=-13319,-109862
EC00076=-11608,-109368
EC00077=-9027,-108253
EC00078=-5936,-107981
EC00079=-4212,-107361
EC00080=52,-106596
EC00081=2395,-106596
EC00082=5681,-107440
EC00083=8496,-107361
EC00084=11678,-107361
EC00085=16271,-107933
EC00086=20358,-108875
EC00087=25579,-110125
EC00088=31349,-111040
EC00089=35475,-112465
EC00090=40821,-114321
EC00091=46406,-115585
EC00092=51577,-116947
EC00093=57274,-119855
EC00094=62455,-122425
EC00095=67127,-124482
EC00096=72337,-126096
EC00097=77624,-128947
EC00098=82077,-132214
EC00099=86127,-132269
EC00100=87942,-134272
EC00101=83416,-131280
EC00102=78787,-128940
EC00103=74030,-126346
EC00104=69730,-124077
EC00105=64587,-121754
EC00106=58684,-119405
EC00107=53263,-117457
EC00108=48137,-115659
EC00109=43276,-113955
EC00110=38365,-112411
EC00111=33267,-111138
EC00112=27980,-110091
EC00113=23231,-109198
EC00114=18932,-108307
EC00115=14888,-107493
EC00116=11005,-106932
EC00117=7182,-106736
EC00118=3375,-106889
EC00119=69,-107209
EC00120=-2829,-107512
EC00121=-5421,-107748
EC00122=-7711,-108018
EC00123=-9952,-108545
EC00124=-12165,-109516
EC00125=-14454,-111078
EC00126=-16611,-113034
EC00127=-18575,-115195
EC00128=-20412,-117466
EC00129=-22016,-119632
EC00130=-23505,-121921
EC00131=-24830,-124484
EC00132=-25988,-127612
EC00133=-27035,-131624
EC00134=-27876,-136190
EC00135=-28397,-140726
EC00136=-28831,-144744
EC00137=-29155,-148674
EC00138=-29391,-153098
EC00139=-29564,-158451
EC00140=-29686,-164309
EC00141=-29761,-169035
EC00142=-29798,-171325
EC00143=-29808,-172713
EC00144=-29808,-175802
EC00145=-29807,-180450
EC00146=-29807,-184035
EC00147=-29807,-185257
EC00148=-29805,-185854
EC00149=-29805,-186054
EC00150=-29622,-188524
EC00151=-29609,-188192
EC00152=-29528,-186309
EC00153=-29417,-183742
EC00154=-29327,-180630
EC00155=-29292,-177109
EC00156=-29293,-173462
EC00157=-29283,-169801
EC00158=-29220,-165991
EC00159=-29089,-161897
EC00160=-28895,-157591
EC00161=-28649,-153253
EC00162=-28353,-148950
EC00163=-27995,-144578
EC00164=-27550,-140134
EC00165=-26949,-135993
EC00166=-26208,-131940
EC00167=-25296,-128140
EC00168=-24240,-124948
EC00169=-22945,-122179
EC00170=-21415,-119741
EC00171=-19758,-117594
EC00172=-17922,-115511
EC00173=-16057,-113580
EC00174=-14059,-111766
EC00175=-11899,-110163
EC00176=-9667,-108978
EC00177=-7225,-108151
EC00178=-4549,-107635
EC00179=-1524,-107294
EC00180=1709,-107061
EC00181=5143,-106909
EC00182=8876,-106893
EC00183=12531,-107098
EC00184=16284,-107562
EC00185=20263,-108268
EC00186=24528,-109129
EC00187=29128,-110082
EC00188=34162,-111171
EC00189=39143,-112392
EC00190=44315,-113849
EC00191=49791,-115559
EC00192=55435,-117486
EC00193=60567,-119500
EC00194=65417,-121725
EC00195=70044,-123928
EC00196=74766,-126226
EC00197=79243,-128883
EC00198=83697,-131428
EC00199=87243,-134129
EC00200=88084,-133182
EC00201=84194,-131606
EC00202=80140,-128718
EC00203=75681,-126296
EC00204=71064,-123854
EC00205=66402,-121580
EC00206=60984,-119443
EC00207=55675,-117475
EC00208=50725,-115563
EC00209=46143,-113906
EC00210=41410,-112497
EC00211=36341,-111249
EC00212=31044,-110067
EC00213=26270,-109057
EC00214=21830,-108229
EC00215=17503,-107614
EC00216=13319,-107210
EC00217=9325,-106980
EC00218=5583,-106903
EC00219=2443,-106991
EC00220=-356,-107271
EC00221=-3072,-107788
EC00222=-5717,-108518
EC00223=-8388,-109444
EC00224=-10931,-110492
EC00225=-13328,-111663
EC00226=-15375,-112901
EC00227=-17167,-114341
EC00228=-18924,-116264
EC00229=-20624,-118738
EC00230=-22344,-121962
EC00231=-23878,-125629
EC00232=-25097,-129348
EC00233=-26041,-132907
EC00234=-26716,-136008
EC00235=-27259,-139173
EC00236=-27767,-143109
EC00237=-28136,-148687
EC00238=-28408,-153717
EC00239=-28581,-158147
EC00240=-28676,-162017
EC00241=-28738,-165651
EC00242=-28815,-169499
EC00243=-28917,-173656
EC00244=-29020,-177605
EC00245=-29093,-180601
EC00246=-29144,-182588
EC00247=-29206,-183944
EC00248=-29279,-183963
EC00249=-29294,-183708
//INST
///DATE 2023/02/21 14:04
///ATTR SC,RW
///GROUP1 RB1
///GROUP2 ST1
NOP
MOVL C00000 V=10.0 +MOVJ EC00000 VJ=10.0
MOVL C00001 V=10.0 +MOVJ EC00001 VJ=10.0
MOVL C00002 V=10.0 +MOVJ EC00002 VJ=10.0
MOVL C00003 V=10.0 +MOVJ EC00003 VJ=10.0
MOVL C00004 V=10.0 +MOVJ EC00004 VJ=10.0
MOVL C00005 V=10.0 +MOVJ EC00005 VJ=10.0
MOVL C00006 V=10.0 +MOVJ EC00006 VJ=10.0
MOVL C00007 V=10.0 +MOVJ EC00007 VJ=10.0
MOVL C00008 V=10.0 +MOVJ EC00008 VJ=10.0
MOVL C00009 V=10.0 +MOVJ EC00009 VJ=10.0
MOVL C00010 V=10.0 +MOVJ EC00010 VJ=10.0
MOVL C00011 V=10.0 +MOVJ EC00011 VJ=10.0
MOVL C00012 V=10.0 +MOVJ EC00012 VJ=10.0
MOVL C00013 V=10.0 +MOVJ EC00013 VJ=10.0
MOVL C00014 V=10.0 +MOVJ EC00014 VJ=10.0
MOVL C00015 V=10.0 +MOVJ EC00015 VJ=10.0
MOVL C00016 V=10.0 +MOVJ EC00016 VJ=10.0
MOVL C00017 V=10.0 +MOVJ EC00017 VJ=10.0
MOVL C00018 V=10.0 +MOVJ EC00018 VJ=10.0
MOVL C00019 V=10.0 +MOVJ EC00019 VJ=10.0
MOVL C00020 V=10.0 +MOVJ EC00020 VJ=10.0
MOVL C00021 V=10.0 +MOVJ EC00021 VJ=10.0
MOVL C00022 V=10.0 +MOVJ EC00022 VJ=10.0
MOVL C00023 V=10.0 +MOVJ EC00023 VJ=10.0
MOVL C00024 V=10.0 +MOVJ EC00024 VJ=10.0
MOVL C00025 V=10.0 +MOVJ EC00025 VJ=10.0
MOVL C00026 V=10.0 +MOVJ EC00026 VJ=10.0
MOVL C00027 V=10.0 +MOVJ EC00027 VJ=10.0
MOVL C00028 V=10.0 +MOVJ EC00028 VJ=10.0
MOVL C00029 V=10.0 +MOVJ EC00029 VJ=10.0
MOVL C00030 V=10.0 +MOVJ EC00030 VJ=10.0
MOVL C00031 V=10.0 +MOVJ EC00031 VJ=10.0
MOVL C00032 V=10.0 +MOVJ EC00032 VJ=10.0
MOVL C00033 V=10.0 +MOVJ EC00033 VJ=10.0
MOVL C00034 V=10.0 +MOVJ EC00034 VJ=10.0
MOVL C00035 V=10.0 +MOVJ EC00035 VJ=10.0
MOVL C00036 V=10.0 +MOVJ EC00036 VJ=10.0
MOVL C00037 V=10.0 +MOVJ EC00037 VJ=10.0
MOVL C00038 V=10.0 +MOVJ EC00038 VJ=10.0
MOVL C00039 V=10.0 +MOVJ EC00039 VJ=10.0
MOVL C00040 V=10.0 +MOVJ EC00040 VJ=10.0
MOVL C00041 V=10.0 +MOVJ EC00041 VJ=10.0
MOVL C00042 V=10.0 +MOVJ EC00042 VJ=10.0
MOVL C00043 V=10.0 +MOVJ EC00043 VJ=10.0
MOVL C00044 V=10.0 +MOVJ EC00044 VJ=10.0
MOVL C00045 V=10.0 +MOVJ EC00045 VJ=10.0
MOVL C00046 V=10.0 +MOVJ EC00046 VJ=10.0
MOVL C00047 V=10.0 +MOVJ EC00047 VJ=10.0
MOVL C00048 V=10.0 +MOVJ EC00048 VJ=10.0
MOVL C00049 V=10.0 +MOVJ EC00049 VJ=10.0
MOVL C00050 V=10.0 +MOVJ EC00050 VJ=10.0
MOVL C00051 V=10.0 +MOVJ EC00051 VJ=10.0
MOVL C00052 V=10.0 +MOVJ EC00052 VJ=10.0
MOVL C00053 V=10.0 +MOVJ EC00053 VJ=10.0
MOVL C00054 V=10.0 +MOVJ EC00054 VJ=10.0
MOVL C00055 V=10.0 +MOVJ EC00055 VJ=10.0
MOVL C00056 V=10.0 +MOVJ EC00056 VJ=10.0
MOVL C00057 V=10.0 +MOVJ EC00057 VJ=10.0
MOVL C00058 V=10.0 +MOVJ EC00058 VJ=10.0
MOVL C00059 V=10.0 +MOVJ EC00059 VJ=10.0
MOVL C00060 V=10.0 +MOVJ EC00060 VJ=10.0
MOVL C00061 V=10.0 +MOVJ EC00061 VJ=10.0
MOVL C00062 V=10.0 +MOVJ EC00062 VJ=10.0
MOVL C00063 V=10.0 +MOVJ EC00063 VJ=10.0
MOVL C00064 V=10.0 +MOVJ EC00064 VJ=10.0
MOVL C00065 V=10.0 +MOVJ EC00065 VJ=10.0
MOVL C00066 V=10.0 +MOVJ EC00066 VJ=10.0
MOVL C00067 V=10.0 +MOVJ EC00067 VJ=10.0
MOVL C00068 V=10.0 +MOVJ EC00068 VJ=10.0
MOVL C00069 V=10.0 +MOVJ EC00069 VJ=10.0
MOVL C00070 V=10.0 +MOVJ EC00070 VJ=10.0
MOVL C00071 V=10.0 +MOVJ EC00071 VJ=10.0
MOVL C00072 V=10.0 +MOVJ EC00072 VJ=10.0
MOVL C00073 V=10.0 +MOVJ EC00073 VJ=10.0
MOVL C00074 V=10.0 +MOVJ EC00074 VJ=10.0
MOVL C00075 V=10.0 +MOVJ EC00075 VJ=10.0
MOVL C00076 V=10.0 +MOVJ EC00076 VJ=10.0
MOVL C00077 V=10.0 +MOVJ EC00077 VJ=10.0
MOVL C00078 V=10.0 +MOVJ EC00078 VJ=10.0
MOVL C00079 V=10.0 +MOVJ EC00079 VJ=10.0
MOVL C00080 V=10.0 +MOVJ EC00080 VJ=10.0
MOVL C00081 V=10.0 +MOVJ EC00081 VJ=10.0
MOVL C00082 V=10.0 +MOVJ EC00082 VJ=10.0
MOVL C00083 V=10.0 +MOVJ EC00083 VJ=10.0
MOVL C00084 V=10.0 +MOVJ EC00084 VJ=10.0
MOVL C00085 V=10.0 +MOVJ EC00085 VJ=10.0
MOVL C00086 V=10.0 +MOVJ EC00086 VJ=10.0
MOVL C00087 V=10.0 +MOVJ EC00087 VJ=10.0
MOVL C00088 V=10.0 +MOVJ EC00088 VJ=10.0
MOVL C00089 V=10.0 +MOVJ EC00089 VJ=10.0
MOVL C00090 V=10.0 +MOVJ EC00090 VJ=10.0
MOVL C00091 V=10.0 +MOVJ EC00091 VJ=10.0
MOVL C00092 V=10.0 +MOVJ EC00092 VJ=10.0
MOVL C00093 V=10.0 +MOVJ EC00093 VJ=10.0
MOVL C00094 V=10.0 +MOVJ EC00094 VJ=10.0
MOVL C00095 V=10.0 +MOVJ EC00095 VJ=10.0
MOVL C00096 V=10.0 +MOVJ EC00096 VJ=10.0
MOVL C00097 V=10.0 +MOVJ EC00097 VJ=10.0
MOVL C00098 V=10.0 +MOVJ EC00098 VJ=10.0
MOVL C00099 V=10.0 +MOVJ EC00099 VJ=10.0
MOVL C00100 V=10.0 +MOVJ EC00100 VJ=10.0
MOVL C00101 V=10.0 +MOVJ EC00101 VJ=10.0
MOVL C00102 V=10.0 +MOVJ EC00102 VJ=10.0
MOVL C00103 V=10.0 +MOVJ EC00103 VJ=10.0
MOVL C00104 V=10.0 +MOVJ EC00104 VJ=10.0
MOVL C00105 V=10.0 +MOVJ EC00105 VJ=10.0
MOVL C00106 V=10.0 +MOVJ EC00106 VJ=10.0
MOVL C00107 V=10.0 +MOVJ EC00107 VJ=10.0
MOVL C00108 V=10.0 +MOVJ EC00108 VJ=10.0
MOVL C00109 V=10.0 +MOVJ EC00109 VJ=10.0
MOVL C00110 V=10.0 +MOVJ EC00110 VJ=10.0
MOVL C00111 V=10.0 +MOVJ EC00111 VJ=10.0
MOVL C00112 V=10.0 +MOVJ EC00112 VJ=10.0
MOVL C00113 V=10.0 +MOVJ EC00113 VJ=10.0
MOVL C00114 V=10.0 +MOVJ EC00114 VJ=10.0
MOVL C00115 V=10.0 +MOVJ EC00115 VJ=10.0
MOVL C00116 V=10.0 +MOVJ EC00116 VJ=10.0
MOVL C00117 V=10.0 +MOVJ EC00117 VJ=10.0
MOVL C00118 V=10.0 +MOVJ EC00118 VJ=10.0
MOVL C00119 V=10.0 +MOVJ EC00119 VJ=10.0
MOVL C00120 V=10.0 +MOVJ EC00120 VJ=10.0
MOVL C00121 V=10.0 +MOVJ EC00121 VJ=10.0
MOVL C00122 V=10.0 +MOVJ EC00122 VJ=10.0
MOVL C00123 V=10.0 +MOVJ EC00123 VJ=10.0
MOVL C00124 V=10.0 +MOVJ EC00124 VJ=10.0
MOVL C00125 V=10.0 +MOVJ EC00125 VJ=10.0
MOVL C00126 V=10.0 +MOVJ EC00126 VJ=10.0
MOVL C00127 V=10.0 +MOVJ EC00127 VJ=10.0
MOVL C00128 V=10.0 +MOVJ EC00128 VJ=10.0
MOVL C00129 V=10.0 +MOVJ EC00129 VJ=10.0
MOVL C00130 V=10.0 +MOVJ EC00130 VJ=10.0
MOVL C00131 V=10.0 +MOVJ EC00131 VJ=10.0
MOVL C00132 V=10.0 +MOVJ EC00132 VJ=10.0
MOVL C00133 V=10.0 +MOVJ EC00133 VJ=10.0
MOVL C00134 V=10.0 +MOVJ EC00134 VJ=10.0
MOVL C00135 V=10.0 +MOVJ EC00135 VJ=10.0
MOVL C00136 V=10.0 +MOVJ EC00136 VJ=10.0
MOVL C00137 V=10.0 +MOVJ EC00137 VJ=10.0
MOVL C00138 V=10.0 +MOVJ EC00138 VJ=10.0
MOVL C00139 V=10.0 +MOVJ EC00139 VJ=10.0
MOVL C00140 V=10.0 +MOVJ EC00140 VJ=10.0
MOVL C00141 V=10.0 +MOVJ EC00141 VJ=10.0
MOVL C00142 V=10.0 +MOVJ EC00142 VJ=10.0
MOVL C00143 V=10.0 +MOVJ EC00143 VJ=10.0
MOVL C00144 V=10.0 +MOVJ EC00144 VJ=10.0
MOVL C00145 V=10.0 +MOVJ EC00145 VJ=10.0
MOVL C00146 V=10.0 +MOVJ EC00146 VJ=10.0
MOVL C00147 V=10.0 +MOVJ EC00147 VJ=10.0
MOVL C00148 V=10.0 +MOVJ EC00148 VJ=10.0
MOVL C00149 V=10.0 +MOVJ EC00149 VJ=10.0
MOVL C00150 V=10.0 +MOVJ EC00150 VJ=10.0
MOVL C00151 V=10.0 +MOVJ EC00151 VJ=10.0
MOVL C00152 V=10.0 +MOVJ EC00152 VJ=10.0
MOVL C00153 V=10.0 +MOVJ EC00153 VJ=10.0
MOVL C00154 V=10.0 +MOVJ EC00154 VJ=10.0
MOVL C00155 V=10.0 +MOVJ EC00155 VJ=10.0
MOVL C00156 V=10.0 +MOVJ EC00156 VJ=10.0
MOVL C00157 V=10.0 +MOVJ EC00157 VJ=10.0
MOVL C00158 V=10.0 +MOVJ EC00158 VJ=10.0
MOVL C00159 V=10.0 +MOVJ EC00159 VJ=10.0
MOVL C00160 V=10.0 +MOVJ EC00160 VJ=10.0
MOVL C00161 V=10.0 +MOVJ EC00161 VJ=10.0
MOVL C00162 V=10.0 +MOVJ EC00162 VJ=10.0
MOVL C00163 V=10.0 +MOVJ EC00163 VJ=10.0
MOVL C00164 V=10.0 +MOVJ EC00164 VJ=10.0
MOVL C00165 V=10.0 +MOVJ EC00165 VJ=10.0
MOVL C00166 V=10.0 +MOVJ EC00166 VJ=10.0
MOVL C00167 V=10.0 +MOVJ EC00167 VJ=10.0
MOVL C00168 V=10.0 +MOVJ EC00168 VJ=10.0
MOVL C00169 V=10.0 +MOVJ EC00169 VJ=10.0
MOVL C00170 V=10.0 +MOVJ EC00170 VJ=10.0
MOVL C00171 V=10.0 +MOVJ EC00171 VJ=10.0
MOVL C00172 V=10.0 +MOVJ EC00172 VJ=10.0
MOVL C00173 V=10.0 +MOVJ EC00173 VJ=10.0
MOVL C00174 V=10.0 +MOVJ EC00174 VJ=10.0
MOVL C00175 V=10.0 +MOVJ EC00175 VJ=10.0
MOVL C00176 V=10.0 +MOVJ EC00176 VJ=10.0
MOVL C00177 V=10.0 +MOVJ EC00177 VJ=10.0
MOVL C00178 V=10.0 +MOVJ EC00178 VJ=10.0
MOVL C00179 V=10.0 +MOVJ EC00179 VJ=10.0
MOVL C00180 V=10.0 +MOVJ EC00180 VJ=10.0
MOVL C00181 V=10.0 +MOVJ EC00181 VJ=10.0
MOVL C00182 V=10.0 +MOVJ EC00182 VJ=10.0
MOVL C00183 V=10.0 +MOVJ EC00183 VJ=10.0
MOVL C00184 V=10.0 +MOVJ EC00184 VJ=10.0
MOVL C00185 V=10.0 +MOVJ EC00185 VJ=10.0
MOVL C00186 V=10.0 +MOVJ EC00186 VJ=10.0
MOVL C00187 V=10.0 +MOVJ EC00187 VJ=10.0
MOVL C00188 V=10.0 +MOVJ EC00188 VJ=10.0
MOVL C00189 V=10.0 +MOVJ EC00189 VJ=10.0
MOVL C00190 V=10.0 +MOVJ EC00190 VJ=10.0
MOVL C00191 V=10.0 +MOVJ EC00191 VJ=10.0
MOVL C00192 V=10.0 +MOVJ EC00192 VJ=10.0
MOVL C00193 V=10.0 +MOVJ EC00193 VJ=10.0
MOVL C00194 V=10.0 +MOVJ EC00194 VJ=10.0
MOVL C00195 V=10.0 +MOVJ EC00195 VJ=10.0
MOVL C00196 V=10.0 +MOVJ EC00196 VJ=10.0
MOVL C00197 V=10.0 +MOVJ EC00197 VJ=10.0
MOVL C00198 V=10.0 +MOVJ EC00198 VJ=10.0
MOVL C00199 V=10.0 +MOVJ EC00199 VJ=10.0
MOVL C00200 V=10.0 +MOVJ EC00200 VJ=10.0
MOVL C00201 V=10.0 +MOVJ EC00201 VJ=10.0
MOVL C00202 V=10.0 +MOVJ EC00202 VJ=10.0
MOVL C00203 V=10.0 +MOVJ EC00203 VJ=10.0
MOVL C00204 V=10.0 +MOVJ EC00204 VJ=10.0
MOVL C00205 V=10.0 +MOVJ EC00205 VJ=10.0
MOVL C00206 V=10.0 +MOVJ EC00206 VJ=10.0
MOVL C00207 V=10.0 +MOVJ EC00207 VJ=10.0
MOVL C00208 V=10.0 +MOVJ EC00208 VJ=10.0
MOVL C00209 V=10.0 +MOVJ EC00209 VJ=10.0
MOVL C00210 V=10.0 +MOVJ EC00210 VJ=10.0
MOVL C00211 V=10.0 +MOVJ EC00211 VJ=10.0
MOVL C00212 V=10.0 +MOVJ EC00212 VJ=10.0
MOVL C00213 V=10.0 +MOVJ EC00213 VJ=10.0
MOVL C00214 V=10.0 +MOVJ EC00214 VJ=10.0
MOVL C00215 V=10.0 +MOVJ EC00215 VJ=10.0
MOVL C00216 V=10.0 +MOVJ EC00216 VJ=10.0
MOVL C00217 V=10.0 +MOVJ EC00217 VJ=10.0
MOVL C00218 V=10.0 +MOVJ EC00218 VJ=10.0
MOVL C00219 V=10.0 +MOVJ EC00219 VJ=10.0
MOVL C00220 V=10.0 +MOVJ EC00220 VJ=10.0
MOVL C00221 V=10.0 +MOVJ EC00221 VJ=10.0
MOVL C00222 V=10.0 +MOVJ EC00222 VJ=10.0
MOVL C00223 V=10.0 +MOVJ EC00223 VJ=10.0
MOVL C00224 V=10.0 +MOVJ EC00224 VJ=10.0
MOVL C00225 V=10.0 +MOVJ EC00225 VJ=10.0
MOVL C00226 V=10.0 +MOVJ EC00226 VJ=10.0
MOVL C00227 V=10.0 +MOVJ EC00227 VJ=10.0
MOVL C00228 V=10.0 +MOVJ EC00228 VJ=10.0
MOVL C00229 V=10.0 +MOVJ EC00229 VJ=10.0
MOVL C00230 V=10.0 +MOVJ EC00230 VJ=10.0
MOVL C00231 V=10.0 +MOVJ EC00231 VJ=10.0
MOVL C00232 V=10.0 +MOVJ EC00232 VJ=10.0
MOVL C00233 V=10.0 +MOVJ EC00233 VJ=10.0
MOVL C00234 V=10.0 +MOVJ EC00234 VJ=10.0
MOVL C00235 V=10.0 +MOVJ EC00235 VJ=10.0
MOVL C00236 V=10.0 +MOVJ EC00236 VJ=10.0
MOVL C00237 V=10.0 +MOVJ EC00237 VJ=10.0
MOVL C00238 V=10.0 +MOVJ EC00238 VJ=10.0
MOVL C00239 V=10.0 +MOVJ EC00239 VJ=10.0
MOVL C00240 V=10.0 +MOVJ EC00240 VJ=10.0
MOVL C00241 V=10.0 +MOVJ EC00241 VJ=10.0
MOVL C00242 V=10.0 +MOVJ EC00242 VJ=10.0
MOVL C00243 V=10.0 +MOVJ EC00243 VJ=10.0
MOVL C00244 V=10.0 +MOVJ EC00244 VJ=10.0
MOVL C00245 V=10.0 +MOVJ EC00245 VJ=10.0
MOVL C00246 V=10.0 +MOVJ EC00246 VJ=10.0
MOVL C00247 V=10.0 +MOVJ EC00247 VJ=10.0
MOVL C00248 V=10.0 +MOVJ EC00248 VJ=10.0
MOVL C00249 V=10.0 +MOVJ EC00249 VJ=10.0
END
