/JOB
//NAME AAA
//POS
///NPOS 64,0,64,0,0,0
///TOOL 12
///POSTYPE PULSE
///PULSE
C00000=-32490,71539,20502,11043,-44296,-12295
C00001=-32455,71832,20855,11043,-44365,-12302
C00002=-32453,71839,20864,11044,-44367,-12303
C00003=-32453,71842,20866,11044,-44367,-12303
C00004=-32453,71844,20869,11043,-44368,-12303
C00005=-32453,71846,20872,11043,-44369,-12303
C00006=-32453,71849,20875,11043,-44369,-12302
C00007=-32453,71851,20878,11043,-44370,-12302
C00008=-32454,71853,20880,11043,-44370,-12302
C00009=-32454,71855,20883,11042,-44371,-12302
C00010=-32455,71856,20884,11042,-44371,-12301
C00011=-32456,71857,20885,11042,-44371,-12301
C00012=-32456,71857,20886,11042,-44371,-12301
C00013=-32457,71857,20886,11041,-44371,-12300
C00014=-32458,71856,20885,11041,-44371,-12300
C00015=-32458,71855,20884,11041,-44371,-12300
C00016=-32459,71853,20882,11041,-44370,-12300
C00017=-32460,71851,20880,11041,-44370,-12299
C00018=-32460,71849,20877,11041,-44369,-12299
C00019=-32460,71847,20874,11041,-44369,-12299
C00020=-32460,71844,20872,11041,-44368,-12299
C00021=-32460,71842,20868,11041,-44368,-12299
C00022=-32460,71840,20866,11041,-44367,-12300
C00023=-32460,71838,20863,11041,-44367,-12300
C00024=-32459,71836,20861,11041,-44366,-12300
C00025=-32458,71834,20859,11042,-44366,-12300
C00026=-32458,71833,20857,11042,-44366,-12301
C00027=-32457,71833,20857,11042,-44365,-12301
C00028=-32456,71833,20856,11043,-44365,-12301
C00029=-32456,71833,20857,11043,-44366,-12302
C00030=-32455,71836,20860,11043,-44366,-12302
C00031=-32411,72124,21204,11046,-44434,-12313
C00032=-32433,72116,21281,11029,-44482,-12297
C00033=-32476,71829,20938,11025,-44414,-12286
C00034=-32477,71826,20935,11025,-44414,-12286
C00035=-32478,71826,20935,11025,-44414,-12286
C00036=-32479,71826,20936,11025,-44414,-12285
C00037=-32480,71827,20937,11024,-44414,-12285
C00038=-32480,71829,20939,11024,-44414,-12285
C00039=-32481,71830,20941,11024,-44415,-12285
C00040=-32481,71832,20943,11023,-44415,-12284
C00041=-32481,71834,20946,11023,-44416,-12284
C00042=-32482,71837,20949,11023,-44416,-12284
C00043=-32481,71839,20952,11023,-44417,-12284
C00044=-32481,71842,20955,11023,-44417,-12284
C00045=-32481,71844,20958,11023,-44418,-12284
C00046=-32481,71846,20960,11023,-44418,-12284
C00047=-32480,71848,20962,11023,-44419,-12284
C00048=-32479,71849,20963,11023,-44419,-12285
C00049=-32479,71850,20964,11023,-44419,-12285
C00050=-32478,71850,20965,11024,-44419,-12285
C00051=-32477,71850,20964,11024,-44419,-12285
C00052=-32477,71850,20963,11024,-44419,-12286
C00053=-32476,71848,20962,11025,-44419,-12286
C00054=-32475,71847,20960,11025,-44419,-12286
C00055=-32475,71845,20958,11025,-44418,-12287
C00056=-32475,71843,20955,11025,-44418,-12287
C00057=-32474,71841,20952,11026,-44417,-12287
C00058=-32474,71838,20949,11026,-44417,-12287
C00059=-32474,71836,20946,11026,-44416,-12287
C00060=-32475,71834,20943,11026,-44415,-12287
C00061=-32475,71832,20941,11026,-44415,-12287
C00062=-32476,71824,20932,11026,-44413,-12287
C00063=-32512,71531,20580,11026,-44344,-12280
EC00000=-13529,-254207
EC00001=-13529,-245251
EC00002=-13529,-230122
EC00003=-13529,-213347
EC00004=-13529,-198097
EC00005=-13529,-181323
EC00006=-13529,-166073
EC00007=-13529,-149298
EC00008=-13529,-134048
EC00009=-13529,-117274
EC00010=-13529,-102024
EC00011=-13529,-85249
EC00012=-13529,-70000
EC00013=-13529,-53225
EC00014=-13529,-37975
EC00015=-13529,-21201
EC00016=-13529,-5951
EC00017=-13529,10824
EC00018=-13529,26074
EC00019=-13529,42848
EC00020=-13529,58098
EC00021=-13529,74873
EC00022=-13529,90122
EC00023=-13529,106897
EC00024=-13529,122147
EC00025=-13529,138922
EC00026=-13529,154171
EC00027=-13529,170946
EC00028=-13529,186196
EC00029=-13529,202970
EC00030=-13529,218183
EC00031=-13529,228581
EC00032=-13791,219154
EC00033=-13791,208820
EC00034=-13791,192185
EC00035=-13791,177029
EC00036=-13791,160357
EC00037=-13791,145200
EC00038=-13791,128528
EC00039=-13791,113372
EC00040=-13791,96699
EC00041=-13791,81543
EC00042=-13791,64871
EC00043=-13791,48199
EC00044=-13791,33042
EC00045=-13791,16370
EC00046=-13791,1214
EC00047=-13791,-15458
EC00048=-13791,-30615
EC00049=-13791,-47287
EC00050=-13791,-62443
EC00051=-13791,-79115
EC00052=-13791,-94272
EC00053=-13791,-110944
EC00054=-13791,-127616
EC00055=-13791,-142773
EC00056=-13791,-159445
EC00057=-13791,-174601
EC00058=-13791,-191273
EC00059=-13791,-206430
EC00060=-13791,-223102
EC00061=-13791,-238258
EC00062=-13791,-254811
EC00063=-13791,-263712
//INST
///DATE 2023/05/29 14:15
///ATTR SC,RW
///GROUP1 RB1
///GROUP2 ST1
NOP
MOVL C00000 V=10.0 +MOVJ EC00000 VJ=15.0
ARCON ASF#(300)
MOVL C00001 V=4.1 +MOVJ EC00001 VJ=13.8
MOVL C00002 V=0.1 +MOVJ EC00002 VJ=13.8
MOVL C00003 V=0.1 +MOVJ EC00003 VJ=13.8
MOVL C00004 V=0.1 +MOVJ EC00004 VJ=13.8
MOVL C00005 V=0.1 +MOVJ EC00005 VJ=13.8
MOVL C00006 V=0.1 +MOVJ EC00006 VJ=13.8
MOVL C00007 V=0.1 +MOVJ EC00007 VJ=13.8
MOVL C00008 V=0.1 +MOVJ EC00008 VJ=13.7
MOVL C00009 V=0.1 +MOVJ EC00009 VJ=13.7
MOVL C00010 V=0.1 +MOVJ EC00010 VJ=13.7
MOVL C00011 V=0.1 +MOVJ EC00011 VJ=13.7
MOVL C00012 V=0.1 +MOVJ EC00012 VJ=13.7
MOVL C00013 V=0.1 +MOVJ EC00013 VJ=13.7
MOVL C00014 V=0.1 +MOVJ EC00014 VJ=13.7
MOVL C00015 V=0.1 +MOVJ EC00015 VJ=13.7
MOVL C00016 V=0.1 +MOVJ EC00016 VJ=13.7
MOVL C00017 V=0.1 +MOVJ EC00017 VJ=13.7
MOVL C00018 V=0.1 +MOVJ EC00018 VJ=13.7
MOVL C00019 V=0.1 +MOVJ EC00019 VJ=13.7
MOVL C00020 V=0.1 +MOVJ EC00020 VJ=13.7
MOVL C00021 V=0.1 +MOVJ EC00021 VJ=13.7
MOVL C00022 V=0.1 +MOVJ EC00022 VJ=13.7
MOVL C00023 V=0.1 +MOVJ EC00023 VJ=13.7
MOVL C00024 V=0.1 +MOVJ EC00024 VJ=13.7
MOVL C00025 V=0.1 +MOVJ EC00025 VJ=13.7
MOVL C00026 V=0.1 +MOVJ EC00026 VJ=13.7
MOVL C00027 V=0.1 +MOVJ EC00027 VJ=13.7
MOVL C00028 V=0.1 +MOVJ EC00028 VJ=13.7
MOVL C00029 V=0.1 +MOVJ EC00029 VJ=13.8
MOVL C00030 V=0.1 +MOVJ EC00030 VJ=13.8
MOVL C00031 V=3.8 +MOVJ EC00031 VJ=13.8
ARCOF
MOVL C00032 V=10.0 +MOVJ EC00032 VJ=15.0
ARCON ASF#(300)
MOVL C00033 V=3.8 +MOVJ EC00033 VJ=13.7
MOVL C00034 V=0.1 +MOVJ EC00034 VJ=13.7
MOVL C00035 V=0.1 +MOVJ EC00035 VJ=13.7
MOVL C00036 V=0.1 +MOVJ EC00036 VJ=13.7
MOVL C00037 V=0.1 +MOVJ EC00037 VJ=13.7
MOVL C00038 V=0.1 +MOVJ EC00038 VJ=13.6
MOVL C00039 V=0.1 +MOVJ EC00039 VJ=13.6
MOVL C00040 V=0.1 +MOVJ EC00040 VJ=13.6
MOVL C00041 V=0.1 +MOVJ EC00041 VJ=13.6
MOVL C00042 V=0.1 +MOVJ EC00042 VJ=13.6
MOVL C00043 V=0.1 +MOVJ EC00043 VJ=13.6
MOVL C00044 V=0.1 +MOVJ EC00044 VJ=13.6
MOVL C00045 V=0.1 +MOVJ EC00045 VJ=13.6
MOVL C00046 V=0.1 +MOVJ EC00046 VJ=13.6
MOVL C00047 V=0.1 +MOVJ EC00047 VJ=13.6
MOVL C00048 V=0.1 +MOVJ EC00048 VJ=13.6
MOVL C00049 V=0.1 +MOVJ EC00049 VJ=13.6
MOVL C00050 V=0.1 +MOVJ EC00050 VJ=13.6
MOVL C00051 V=0.1 +MOVJ EC00051 VJ=13.6
MOVL C00052 V=0.1 +MOVJ EC00052 VJ=13.7
MOVL C00053 V=0.1 +MOVJ EC00053 VJ=13.7
MOVL C00054 V=0.1 +MOVJ EC00054 VJ=13.7
MOVL C00055 V=0.1 +MOVJ EC00055 VJ=13.7
MOVL C00056 V=0.1 +MOVJ EC00056 VJ=13.7
MOVL C00057 V=0.1 +MOVJ EC00057 VJ=13.7
MOVL C00058 V=0.1 +MOVJ EC00058 VJ=13.7
MOVL C00059 V=0.1 +MOVJ EC00059 VJ=13.7
MOVL C00060 V=0.1 +MOVJ EC00060 VJ=13.7
MOVL C00061 V=0.1 +MOVJ EC00061 VJ=13.7
MOVL C00062 V=0.1 +MOVJ EC00062 VJ=13.7
MOVL C00063 V=4.1 +MOVJ EC00063 VJ=13.7
ARCOF
END
