/JOB
//NAME AAA
//POS
///NPOS 54,0,54,0,0,0
///TOOL 9
///POSTYPE PULSE
///PULSE
C00000=-23245,77947,16853,15709,-40251,-17112
C00001=-23307,76954,15791,15733,-40103,-17112
C00002=-23340,76039,14747,15777,-39931,-17130
C00003=-23374,75158,13782,15811,-39789,-17142
C00004=-23404,74369,12950,15835,-39682,-17149
C00005=-23443,73566,12164,15845,-39606,-17146
C00006=-23478,72857,11496,15847,-39556,-17140
C00007=-23545,72037,10829,15821,-39555,-17109
C00008=-23624,71216,10201,15781,-39576,-17068
C00009=-23715,70408,9620,15731,-39616,-17018
C00010=-23847,69575,9123,15645,-39712,-16938
C00011=-24028,68703,8701,15521,-39864,-16824
C00012=-24236,67866,8347,15382,-40034,-16695
C00013=-24487,67015,8031,15218,-40229,-16542
C00014=-24808,66143,7792,15014,-40468,-16349
C00015=-25181,65332,7656,14784,-40731,-16129
C00016=-25583,64613,7604,14545,-40994,-15898
C00017=-26016,63966,7611,14298,-41253,-15655
C00018=-26513,63363,7691,14025,-41525,-15382
C00019=-27025,62851,7814,13753,-41777,-15107
C00020=-27496,62415,7897,13515,-41975,-14861
C00021=-27944,62031,7959,13297,-42139,-14632
C00022=-28386,61709,8044,13085,-42287,-14409
C00023=-28822,61470,8184,12879,-42428,-14191
C00024=-29253,61277,8345,12678,-42561,-13977
C00025=-29674,61171,8574,12482,-42693,-13768
C00026=-30155,61149,8911,12259,-42841,-13530
C00027=-30694,61293,9446,12008,-43019,-13264
C00028=-31179,61418,9877,11789,-43151,-13028
C00029=-23643,70449,9488,15789,-39530,-17068
C00030=-23565,71318,10178,15824,-39521,-17106
C00031=-23497,72159,10861,15851,-39522,-17138
C00032=-23443,72996,11589,15864,-39548,-17158
C00033=-23382,73849,12322,15881,-39570,-17182
C00034=-23363,74720,13274,15843,-39707,-17163
C00035=-23339,75601,14259,15801,-39859,-17145
C00036=-23298,76668,15454,15755,-40046,-17127
C00037=-23232,77822,16710,15721,-40230,-17122
C00038=-30843,61180,9483,11937,-43078,-13189
C00039=-30362,61104,9083,12156,-42939,-13424
C00040=-29878,61052,8667,12381,-42781,-13663
C00041=-29371,61076,8287,12620,-42610,-13916
C00042=-28944,61238,8099,12820,-42476,-14129
C00043=-28500,61464,7940,13030,-42331,-14351
C00044=-28047,61753,7813,13247,-42174,-14580
C00045=-27584,62124,7726,13473,-42005,-14816
C00046=-27083,62557,7609,13726,-41793,-15078
C00047=-26616,63033,7523,13970,-41573,-15326
C00048=-26119,63611,7432,14242,-41307,-15598
C00049=-25646,64288,7407,14510,-41028,-15863
C00050=-25209,65046,7448,14769,-40744,-16114
C00051=-24807,65883,7556,15018,-40456,-16352
C00052=-24472,66758,7766,15233,-40201,-16554
C00053=-24210,67655,8108,15403,-40002,-16713
EC00000=120148,-130165
EC00001=120320,-127618
EC00002=120704,-125588
EC00003=120321,-124659
EC00004=119411,-124749
EC00005=117998,-125229
EC00006=116462,-126116
EC00007=114074,-127088
EC00008=111497,-127971
EC00009=108757,-128890
EC00010=105302,-129786
EC00011=101030,-130792
EC00012=96594,-131780
EC00013=91749,-132507
EC00014=86122,-133046
EC00015=80104,-133535
EC00016=74077,-134331
EC00017=68014,-135438
EC00018=61508,-136970
EC00019=55251,-139091
EC00020=49934,-141696
EC00021=45279,-144914
EC00022=40955,-148350
EC00023=36980,-152323
EC00024=33413,-157197
EC00025=30162,-162499
EC00026=26369,-167686
EC00027=22066,-173292
EC00028=18233,-177999
EC00029=110363,-129053
EC00030=112867,-128147
EC00031=115235,-127280
EC00032=117410,-126136
EC00033=119639,-125307
EC00034=120528,-124839
EC00035=121017,-125164
EC00036=121030,-126900
EC00037=121001,-129294
EC00038=21277,-175870
EC00039=25001,-170845
EC00040=28800,-165549
EC00041=32968,-160313
EC00042=36391,-155270
EC00043=40266,-150699
EC00044=44561,-146824
EC00045=49275,-143408
EC00046=54830,-140559
EC00047=60380,-138396
EC00048=66736,-136553
EC00049=73228,-135157
EC00050=79684,-134257
EC00051=86108,-133751
EC00052=91927,-133192
EC00053=96914,-132648
//INST
///DATE 2023/03/13 15:27
///ATTR SC,RW
///GROUP1 RB1
///GROUP2 ST1
NOP
MOVL C00000 V=10.0 +MOVJ EC00000 VJ=10.0
ARCON ASF#(140)
MOVL C00001 V=26.1 +MOVJ EC00001 VJ=26.1
MOVL C00002 V=24.6 +MOVJ EC00002 VJ=24.6
MOVL C00003 V=22.1 +MOVJ EC00003 VJ=22.1
MOVL C00004 V=20.1 +MOVJ EC00004 VJ=20.1
MOVL C00005 V=19.8 +MOVJ EC00005 VJ=19.8
MOVL C00006 V=19.3 +MOVJ EC00006 VJ=19.3
MOVL C00007 V=21.6 +MOVJ EC00007 VJ=21.6
MOVL C00008 V=22.9 +MOVJ EC00008 VJ=22.9
MOVL C00009 V=24.0 +MOVJ EC00009 VJ=24.0
MOVL C00010 V=28.2 +MOVJ EC00010 VJ=28.2
MOVL C00011 V=32.5 +MOVJ EC00011 VJ=32.5
MOVL C00012 V=34.8 +MOVJ EC00012 VJ=34.8
MOVL C00013 V=37.9 +MOVJ EC00013 VJ=37.9
MOVL C00014 V=42.6 +MOVJ EC00014 VJ=42.6
MOVL C00015 V=47.0 +MOVJ EC00015 VJ=47.0
MOVL C00016 V=48.8 +MOVJ EC00016 VJ=48.8
MOVL C00017 V=49.6 +MOVJ EC00017 VJ=49.6
MOVL C00018 V=50.8 +MOVJ EC00018 VJ=50.8
MOVL C00019 V=49.8 +MOVJ EC00019 VJ=49.8
MOVL C00020 V=45.0 +MOVJ EC00020 VJ=45.0
MOVL C00021 V=41.0 +MOVJ EC00021 VJ=41.0
MOVL C00022 V=40.4 +MOVJ EC00022 VJ=40.4
MOVL C00023 V=40.1 +MOVJ EC00023 VJ=40.1
MOVL C00024 V=37.0 +MOVJ EC00024 VJ=37.0
MOVL C00025 V=36.9 +MOVJ EC00025 VJ=36.9
MOVL C00026 V=41.0 +MOVJ EC00026 VJ=41.0
MOVL C00027 V=47.1 +MOVJ EC00027 VJ=47.1
MOVL C00028 V=44.5 +MOVJ EC00028 VJ=44.5
ARCOF
MOVL C00029 V=10.0 +MOVJ EC00029 VJ=10.0
ARCON ASF#(140)
MOVL C00030 V=22.7 +MOVJ EC00030 VJ=22.7
MOVL C00031 V=21.9 +MOVJ EC00031 VJ=21.9
MOVL C00032 V=20.2 +MOVJ EC00032 VJ=20.2
MOVL C00033 V=21.1 +MOVJ EC00033 VJ=21.1
MOVL C00034 V=19.5 +MOVJ EC00034 VJ=19.5
MOVL C00035 V=24.4 +MOVJ EC00035 VJ=24.4
MOVL C00036 V=24.4 +MOVJ EC00036 VJ=24.4
MOVL C00037 V=26.2 +MOVJ EC00037 VJ=26.2
ARCOF
MOVL C00038 V=10.0 +MOVJ EC00038 VJ=10.0
ARCON ASF#(140)
MOVL C00039 V=42.3 +MOVJ EC00039 VJ=42.3
MOVL C00040 V=43.0 +MOVJ EC00040 VJ=43.0
MOVL C00041 V=43.6 +MOVJ EC00041 VJ=43.6
MOVL C00042 V=36.7 +MOVJ EC00042 VJ=36.7
MOVL C00043 V=38.5 +MOVJ EC00043 VJ=38.5
MOVL C00044 V=40.5 +MOVJ EC00044 VJ=40.5
MOVL C00045 V=41.3 +MOVJ EC00045 VJ=41.3
MOVL C00046 V=45.7 +MOVJ EC00046 VJ=45.7
MOVL C00047 V=47.2 +MOVJ EC00047 VJ=47.2
MOVL C00048 V=49.9 +MOVJ EC00048 VJ=49.9
MOVL C00049 V=49.4 +MOVJ EC00049 VJ=49.4
MOVL C00050 V=49.2 +MOVJ EC00050 VJ=49.2
MOVL C00051 V=48.7 +MOVJ EC00051 VJ=48.7
MOVL C00052 V=44.2 +MOVJ EC00052 VJ=44.2
MOVL C00053 V=38.3 +MOVJ EC00053 VJ=38.3
ARCOF
END
