/JOB
//NAME AAA
//POS
///NPOS 186,0,186,0,0,0
///TOOL 12
///POSTYPE PULSE
///PULSE
C00000=-28098,66844,12496,13162,-42426,-14517
C00001=-28098,69157,10888,13732,-40305,-14860
C00002=-28068,69436,11230,13725,-40375,-14862
C00003=-28067,69445,11242,13724,-40377,-14862
C00004=-28068,69448,11247,13724,-40378,-14861
C00005=-28068,69450,11250,13723,-40380,-14861
C00006=-28069,69450,11252,13722,-40381,-14860
C00007=-28070,69449,11253,13722,-40381,-14859
C00008=-28071,69447,11251,13721,-40381,-14859
C00009=-28072,69443,11248,13721,-40381,-14859
C00010=-28073,69439,11243,13721,-40380,-14858
C00011=-28073,69435,11238,13721,-40379,-14859
C00012=-28073,69432,11233,13722,-40378,-14859
C00013=-28073,69430,11229,13722,-40377,-14859
C00014=-28072,69429,11226,13723,-40375,-14860
C00015=-28071,69429,11225,13724,-40375,-14860
C00016=-28070,69431,11226,13724,-40374,-14861
C00017=-28068,69436,11230,13724,-40375,-14861
C00018=-28028,69717,11558,13723,-40436,-14870
C00019=-28436,69833,12360,13457,-40798,-14622
C00020=-28477,69551,12031,13457,-40736,-14613
C00021=-28478,69547,12027,13457,-40736,-14613
C00022=-28479,69546,12027,13456,-40736,-14612
C00023=-28480,69546,12028,13456,-40737,-14612
C00024=-28481,69547,12031,13455,-40738,-14611
C00025=-28482,69549,12035,13455,-40739,-14611
C00026=-28482,69553,12040,13454,-40740,-14611
C00027=-28482,69556,12044,13454,-40741,-14610
C00028=-28481,69560,12049,13454,-40742,-14611
C00029=-28480,69563,12052,13454,-40743,-14611
C00030=-28479,69566,12054,13455,-40743,-14611
C00031=-28478,69567,12054,13455,-40742,-14612
C00032=-28477,69567,12053,13456,-40742,-14612
C00033=-28476,69566,12050,13456,-40741,-14613
C00034=-28476,69563,12045,13457,-40739,-14613
C00035=-28476,69560,12041,13457,-40738,-14614
C00036=-28477,69551,12030,13458,-40736,-14614
C00037=-28507,69270,11686,13465,-40666,-14611
C00038=-28878,69419,12408,13232,-40971,-14392
C00039=-28846,69705,12757,13226,-41041,-14395
C00040=-28846,69711,12764,13225,-41043,-14395
C00041=-28846,69714,12769,13225,-41044,-14395
C00042=-28846,69717,12773,13225,-41045,-14394
C00043=-28847,69719,12776,13224,-41046,-14394
C00044=-28848,69719,12778,13223,-41047,-14393
C00045=-28849,69719,12779,13223,-41047,-14392
C00046=-28850,69717,12777,13222,-41047,-14392
C00047=-28851,69714,12775,13222,-41047,-14392
C00048=-28852,69710,12770,13222,-41046,-14391
C00049=-28852,69706,12766,13222,-41045,-14391
C00050=-28852,69703,12761,13223,-41044,-14392
C00051=-28852,69700,12757,13223,-41043,-14392
C00052=-28851,69698,12753,13224,-41042,-14393
C00053=-28850,69698,12751,13224,-41041,-14393
C00054=-28849,69699,12751,13225,-41041,-14394
C00055=-28848,69702,12754,13225,-41041,-14394
C00056=-28806,69984,13083,13225,-41103,-14403
C00057=-29137,70151,13732,13024,-41361,-14211
C00058=-29179,69869,13402,13024,-41298,-14202
C00059=-29180,69866,13399,13024,-41298,-14201
C00060=-29182,69866,13400,13023,-41299,-14201
C00061=-29182,69867,13402,13022,-41299,-14200
C00062=-29183,69869,13405,13022,-41300,-14200
C00063=-29184,69871,13410,13021,-41302,-14199
C00064=-29184,69875,13414,13021,-41303,-14199
C00065=-29183,69878,13419,13021,-41303,-14199
C00066=-29183,69882,13423,13021,-41304,-14199
C00067=-29182,69885,13425,13021,-41305,-14200
C00068=-29181,69887,13427,13022,-41305,-14200
C00069=-29180,69888,13427,13022,-41304,-14201
C00070=-29179,69887,13425,13023,-41304,-14201
C00071=-29178,69886,13422,13023,-41303,-14202
C00072=-29177,69883,13418,13024,-41302,-14202
C00073=-29177,69880,13414,13024,-41301,-14203
C00074=-29177,69877,13410,13024,-41300,-14203
C00075=-29178,69868,13399,13024,-41298,-14202
C00076=-29210,69584,13053,13030,-41228,-14199
C00077=-29505,69753,13629,12855,-41447,-14030
C00078=-29473,70038,13975,12850,-41517,-14034
C00079=-29472,70047,13985,12850,-41519,-14034
C00080=-29472,70050,13989,12850,-41520,-14034
C00081=-29472,70053,13994,12850,-41521,-14034
C00082=-29472,70056,13998,12849,-41522,-14034
C00083=-29473,70058,14002,12849,-41523,-14033
C00084=-29473,70059,14004,12848,-41523,-14033
C00085=-29475,70059,14005,12848,-41524,-14032
C00086=-29475,70058,14005,12847,-41524,-14032
C00087=-29477,70056,14003,12847,-41524,-14031
C00088=-29477,70053,14000,12847,-41523,-14031
C00089=-29478,70050,13996,12847,-41523,-14031
C00090=-29478,70047,13992,12847,-41522,-14031
C00091=-29478,70043,13988,12847,-41521,-14031
C00092=-29478,70041,13984,12847,-41520,-14032
C00093=-29477,70039,13980,12848,-41519,-14032
C00094=-29476,70038,13978,12848,-41518,-14033
C00095=-29475,70038,13977,12849,-41518,-14033
C00096=-29474,70040,13979,12849,-41518,-14034
C00097=-29432,70322,14310,12850,-41581,-14043
C00098=-29692,70490,14826,12698,-41770,-13896
C00099=-29735,70208,14494,12698,-41707,-13886
C00100=-29736,70205,14491,12697,-41706,-13886
C00101=-29737,70205,14492,12697,-41707,-13885
C00102=-29738,70206,14494,12696,-41707,-13885
C00103=-29739,70207,14497,12696,-41708,-13884
C00104=-29739,70210,14501,12695,-41709,-13884
C00105=-29739,70213,14505,12695,-41710,-13884
C00106=-29739,70217,14510,12695,-41711,-13883
C00107=-29739,70220,14514,12695,-41712,-13884
C00108=-29738,70223,14517,12695,-41712,-13884
C00109=-29737,70225,14519,12695,-41713,-13884
C00110=-29736,70226,14520,12695,-41713,-13885
C00111=-29735,70227,14519,12696,-41712,-13885
C00112=-29734,70226,14517,12697,-41712,-13886
C00113=-29733,70224,14514,12697,-41711,-13886
C00114=-29733,70222,14510,12697,-41710,-13887
C00115=-29733,70218,14506,12698,-41709,-13887
C00116=-29733,70215,14502,12698,-41708,-13887
C00117=-29734,70206,14491,12698,-41706,-13887
C00118=-29766,69921,14145,12703,-41637,-13883
C00119=-29998,70080,14606,12569,-41801,-13753
C00120=-29966,70366,14952,12565,-41871,-13757
C00121=-29965,70375,14963,12565,-41873,-13757
C00122=-29965,70378,14967,12565,-41874,-13757
C00123=-29965,70381,14971,12564,-41875,-13756
C00124=-29965,70383,14975,12564,-41876,-13756
C00125=-29966,70385,14978,12563,-41876,-13756
C00126=-29967,70386,14979,12563,-41877,-13755
C00127=-29968,70386,14980,12562,-41877,-13755
C00128=-29969,70384,14979,12562,-41877,-13754
C00129=-29970,70382,14977,12562,-41877,-13754
C00130=-29971,70380,14974,12561,-41877,-13754
C00131=-29971,70376,14971,12561,-41876,-13753
C00132=-29971,70373,14967,12562,-41875,-13754
C00133=-29971,70370,14962,12562,-41874,-13754
C00134=-29971,70367,14958,12562,-41873,-13754
C00135=-29970,70365,14955,12563,-41872,-13754
C00136=-29969,70364,14953,12563,-41872,-13755
C00137=-29968,70364,14952,12564,-41871,-13755
C00138=-29967,70364,14952,12564,-41871,-13756
C00139=-29966,70368,14955,12564,-41871,-13756
C00140=-29924,70650,15288,12566,-41936,-13766
C00141=-30130,70799,15702,12448,-42082,-13651
C00142=-30172,70517,15368,12447,-42017,-13641
C00143=-30173,70513,15365,12447,-42016,-13641
C00144=-30174,70512,15364,12446,-42016,-13641
C00145=-30175,70512,15365,12446,-42017,-13640
C00146=-30176,70513,15367,12445,-42017,-13640
C00147=-30177,70515,15370,12445,-42018,-13639
C00148=-30178,70517,15373,12444,-42019,-13639
C00149=-30178,70520,15378,12444,-42020,-13638
C00150=-30178,70524,15382,12444,-42021,-13638
C00151=-30177,70527,15386,12444,-42021,-13638
C00152=-30177,70530,15389,12444,-42022,-13639
C00153=-30176,70532,15391,12444,-42022,-13639
C00154=-30175,70534,15392,12445,-42023,-13639
C00155=-30174,70534,15392,12445,-42022,-13640
C00156=-30173,70534,15391,12446,-42022,-13640
C00157=-30172,70533,15389,12446,-42021,-13641
C00158=-30171,70530,15385,12447,-42020,-13641
C00159=-30171,70528,15381,12447,-42019,-13642
C00160=-30171,70524,15377,12447,-42018,-13642
C00161=-30172,70516,15366,12447,-42016,-13642
C00162=-30204,70229,15019,12451,-41947,-13637
C00163=-30389,70367,15393,12347,-42077,-13535
C00164=-30356,70654,15740,12343,-42146,-13539
C00165=-30355,70662,15750,12343,-42149,-13539
C00166=-30355,70665,15754,12343,-42149,-13539
C00167=-30356,70668,15758,12342,-42150,-13539
C00168=-30357,70670,15761,12342,-42151,-13538
C00169=-30357,70671,15763,12341,-42152,-13538
C00170=-30358,70671,15764,12341,-42152,-13537
C00171=-30359,70671,15764,12340,-42152,-13537
C00172=-30360,70669,15763,12340,-42152,-13537
C00173=-30361,70667,15761,12340,-42152,-13536
C00174=-30362,70664,15758,12340,-42151,-13536
C00175=-30362,70661,15754,12340,-42150,-13536
C00176=-30362,70658,15750,12340,-42150,-13536
C00177=-30362,70655,15746,12340,-42149,-13536
C00178=-30362,70653,15742,12340,-42148,-13537
C00179=-30361,70650,15739,12341,-42147,-13537
C00180=-30360,70649,15737,12341,-42147,-13537
C00181=-30359,70649,15736,12342,-42146,-13538
C00182=-30358,70650,15736,12342,-42146,-13538
C00183=-30357,70651,15737,12343,-42146,-13539
C00184=-30356,70655,15741,12343,-42147,-13539
C00185=-30314,70937,16076,12344,-42212,-13549
EC00000=52795,-220895
EC00001=52795,-220895
EC00002=52795,-205077
EC00003=52795,-175660
EC00004=52795,-146030
EC00005=52795,-116401
EC00006=52795,-86772
EC00007=52795,-59836
EC00008=52795,-30207
EC00009=52795,-578
EC00010=52795,29051
EC00011=52795,58681
EC00012=52795,88310
EC00013=52795,115245
EC00014=52795,144875
EC00015=52795,174504
EC00016=52795,204133
EC00017=52795,233697
EC00018=52795,252062
EC00019=45570,243012
EC00020=45570,225320
EC00021=45570,196839
EC00022=45570,170891
EC00023=45570,142347
EC00024=45570,113804
EC00025=45570,87856
EC00026=45570,59312
EC00027=45570,33364
EC00028=45570,4821
EC00029=45570,-23723
EC00030=45570,-49671
EC00031=45570,-78215
EC00032=45570,-104163
EC00033=45570,-132706
EC00034=45570,-161250
EC00035=45570,-187198
EC00036=45570,-215537
EC00037=45570,-230776
EC00038=39287,-240627
EC00039=39287,-223561
EC00040=39287,-196087
EC00041=39287,-168553
EC00042=39287,-141019
EC00043=39287,-113485
EC00044=39287,-85950
EC00045=39287,-58416
EC00046=39287,-30882
EC00047=39287,-3348
EC00048=39287,24187
EC00049=39287,51721
EC00050=39287,79255
EC00051=39287,106789
EC00052=39287,134323
EC00053=39287,161858
EC00054=39287,189392
EC00055=39287,216865
EC00056=39287,233932
EC00057=33845,224776
EC00058=33845,208212
EC00059=33845,181546
EC00060=33845,154822
EC00061=33845,130527
EC00062=33845,103802
EC00063=33845,77078
EC00064=33845,50354
EC00065=33845,26059
EC00066=33845,-666
EC00067=33845,-27390
EC00068=33845,-54115
EC00069=33845,-78409
EC00070=33845,-105134
EC00071=33845,-131858
EC00072=33845,-158583
EC00073=33845,-182878
EC00074=33845,-209602
EC00075=33845,-236135
EC00076=33845,-250403
EC00077=29129,-260160
EC00078=29129,-246300
EC00079=29129,-220525
EC00080=29129,-196924
EC00081=29129,-170964
EC00082=29129,-147363
EC00083=29129,-121402
EC00084=29129,-97801
EC00085=29129,-71840
EC00086=29129,-48240
EC00087=29129,-22279
EC00088=29129,1322
EC00089=29129,27283
EC00090=29129,50884
EC00091=29129,76844
EC00092=29129,100445
EC00093=29129,126406
EC00094=29129,150007
EC00095=29129,175968
EC00096=29129,199511
EC00097=29129,215603
EC00098=25032,225344
EC00099=25032,209699
EC00100=25032,184515
EC00101=25032,159276
EC00102=25032,134036
EC00103=25032,111091
EC00104=25032,85851
EC00105=25032,60611
EC00106=25032,35372
EC00107=25032,10132
EC00108=25032,-12813
EC00109=25032,-38053
EC00110=25032,-63293
EC00111=25032,-88532
EC00112=25032,-113772
EC00113=25032,-136717
EC00114=25032,-161957
EC00115=25032,-187197
EC00116=25032,-212436
EC00117=25032,-237495
EC00118=25032,-250970
EC00119=21455,-241723
EC00120=21455,-228553
EC00121=21455,-204061
EC00122=21455,-181635
EC00123=21455,-156966
EC00124=21455,-134540
EC00125=21455,-109871
EC00126=21455,-87445
EC00127=21455,-62777
EC00128=21455,-40351
EC00129=21455,-15682
EC00130=21455,6744
EC00131=21455,31413
EC00132=21455,53839
EC00133=21455,78508
EC00134=21455,100934
EC00135=21455,125602
EC00136=21455,148028
EC00137=21455,172697
EC00138=21455,195123
EC00139=21455,219737
EC00140=21455,235028
EC00141=18316,244702
EC00142=18316,229750
EC00143=18316,205680
EC00144=18316,181557
EC00145=18316,157434
EC00146=18316,135504
EC00147=18316,111382
EC00148=18316,87259
EC00149=18316,63136
EC00150=18316,41206
EC00151=18316,17083
EC00152=18316,-7040
EC00153=18316,-31163
EC00154=18316,-53093
EC00155=18316,-77216
EC00156=18316,-101339
EC00157=18316,-125462
EC00158=18316,-147391
EC00159=18316,-171514
EC00160=18316,-195637
EC00161=18316,-219587
EC00162=18316,-232466
EC00163=15547,-223200
EC00164=15547,-210600
EC00165=15547,-187168
EC00166=15547,-165713
EC00167=15547,-142112
EC00168=15547,-120657
EC00169=15547,-97056
EC00170=15547,-75601
EC00171=15547,-52000
EC00172=15547,-30545
EC00173=15547,-6944
EC00174=15547,14511
EC00175=15547,38112
EC00176=15547,59567
EC00177=15547,83168
EC00178=15547,104623
EC00179=15547,128224
EC00180=15547,149679
EC00181=15547,173280
EC00182=15547,194735
EC00183=15547,218336
EC00184=15547,239739
EC00185=15547,254367
//INST
///DATE 2023/05/28 22:38
///ATTR SC,RW
///GROUP1 RB1
///GROUP2 ST1
NOP
MOVL C00000 V=10.0 +MOVJ EC00000 VJ=10.0
MOVL C00001 V=10.0 +MOVJ EC00001 VJ=15.0
ARCON ASF#(300)
MOVL C00002 V=4.2 +MOVJ EC00002 VJ=24.3
MOVL C00003 V=0.1 +MOVJ EC00003 VJ=24.3
MOVL C00004 V=0.1 +MOVJ EC00004 VJ=24.3
MOVL C00005 V=0.1 +MOVJ EC00005 VJ=24.2
MOVL C00006 V=0.1 +MOVJ EC00006 VJ=24.2
MOVL C00007 V=0.1 +MOVJ EC00007 VJ=24.1
MOVL C00008 V=0.1 +MOVJ EC00008 VJ=24.1
MOVL C00009 V=0.1 +MOVJ EC00009 VJ=24.1
MOVL C00010 V=0.1 +MOVJ EC00010 VJ=24.1
MOVL C00011 V=0.1 +MOVJ EC00011 VJ=24.1
MOVL C00012 V=0.1 +MOVJ EC00012 VJ=24.1
MOVL C00013 V=0.1 +MOVJ EC00013 VJ=24.1
MOVL C00014 V=0.1 +MOVJ EC00014 VJ=24.2
MOVL C00015 V=0.1 +MOVJ EC00015 VJ=24.2
MOVL C00016 V=0.1 +MOVJ EC00016 VJ=24.3
MOVL C00017 V=0.1 +MOVJ EC00017 VJ=24.3
MOVL C00018 V=3.8 +MOVJ EC00018 VJ=24.3
ARCOF
MOVL C00019 V=10.0 +MOVJ EC00019 VJ=15.0
ARCON ASF#(300)
MOVL C00020 V=3.8 +MOVJ EC00020 VJ=23.4
MOVL C00021 V=0.1 +MOVJ EC00021 VJ=23.3
MOVL C00022 V=0.1 +MOVJ EC00022 VJ=23.3
MOVL C00023 V=0.1 +MOVJ EC00023 VJ=23.3
MOVL C00024 V=0.1 +MOVJ EC00024 VJ=23.2
MOVL C00025 V=0.1 +MOVJ EC00025 VJ=23.2
MOVL C00026 V=0.1 +MOVJ EC00026 VJ=23.2
MOVL C00027 V=0.1 +MOVJ EC00027 VJ=23.2
MOVL C00028 V=0.1 +MOVJ EC00028 VJ=23.2
MOVL C00029 V=0.1 +MOVJ EC00029 VJ=23.2
MOVL C00030 V=0.1 +MOVJ EC00030 VJ=23.2
MOVL C00031 V=0.1 +MOVJ EC00031 VJ=23.2
MOVL C00032 V=0.1 +MOVJ EC00032 VJ=23.3
MOVL C00033 V=0.1 +MOVJ EC00033 VJ=23.3
MOVL C00034 V=0.1 +MOVJ EC00034 VJ=23.4
MOVL C00035 V=0.1 +MOVJ EC00035 VJ=23.4
MOVL C00036 V=0.1 +MOVJ EC00036 VJ=23.4
MOVL C00037 V=4.2 +MOVJ EC00037 VJ=23.4
ARCOF
MOVL C00038 V=10.0 +MOVJ EC00038 VJ=15.0
ARCON ASF#(300)
MOVL C00039 V=3.8 +MOVJ EC00039 VJ=22.6
MOVL C00040 V=0.1 +MOVJ EC00040 VJ=22.6
MOVL C00041 V=0.1 +MOVJ EC00041 VJ=22.6
MOVL C00042 V=0.1 +MOVJ EC00042 VJ=22.5
MOVL C00043 V=0.1 +MOVJ EC00043 VJ=22.5
MOVL C00044 V=0.1 +MOVJ EC00044 VJ=22.5
MOVL C00045 V=0.1 +MOVJ EC00045 VJ=22.4
MOVL C00046 V=0.1 +MOVJ EC00046 VJ=22.4
MOVL C00047 V=0.1 +MOVJ EC00047 VJ=22.4
MOVL C00048 V=0.1 +MOVJ EC00048 VJ=22.4
MOVL C00049 V=0.1 +MOVJ EC00049 VJ=22.4
MOVL C00050 V=0.1 +MOVJ EC00050 VJ=22.4
MOVL C00051 V=0.1 +MOVJ EC00051 VJ=22.4
MOVL C00052 V=0.1 +MOVJ EC00052 VJ=22.5
MOVL C00053 V=0.1 +MOVJ EC00053 VJ=22.5
MOVL C00054 V=0.1 +MOVJ EC00054 VJ=22.5
MOVL C00055 V=0.1 +MOVJ EC00055 VJ=22.6
MOVL C00056 V=3.8 +MOVJ EC00056 VJ=22.6
ARCOF
MOVL C00057 V=10.0 +MOVJ EC00057 VJ=15.0
ARCON ASF#(300)
MOVL C00058 V=3.8 +MOVJ EC00058 VJ=21.9
MOVL C00059 V=0.1 +MOVJ EC00059 VJ=21.8
MOVL C00060 V=0.1 +MOVJ EC00060 VJ=21.8
MOVL C00061 V=0.1 +MOVJ EC00061 VJ=21.8
MOVL C00062 V=0.1 +MOVJ EC00062 VJ=21.7
MOVL C00063 V=0.1 +MOVJ EC00063 VJ=21.7
MOVL C00064 V=0.1 +MOVJ EC00064 VJ=21.7
MOVL C00065 V=0.1 +MOVJ EC00065 VJ=21.7
MOVL C00066 V=0.1 +MOVJ EC00066 VJ=21.7
MOVL C00067 V=0.1 +MOVJ EC00067 VJ=21.7
MOVL C00068 V=0.1 +MOVJ EC00068 VJ=21.7
MOVL C00069 V=0.1 +MOVJ EC00069 VJ=21.8
MOVL C00070 V=0.1 +MOVJ EC00070 VJ=21.8
MOVL C00071 V=0.1 +MOVJ EC00071 VJ=21.8
MOVL C00072 V=0.1 +MOVJ EC00072 VJ=21.9
MOVL C00073 V=0.1 +MOVJ EC00073 VJ=21.9
MOVL C00074 V=0.1 +MOVJ EC00074 VJ=21.9
MOVL C00075 V=0.1 +MOVJ EC00075 VJ=21.9
MOVL C00076 V=4.2 +MOVJ EC00076 VJ=21.9
ARCOF
MOVL C00077 V=10.0 +MOVJ EC00077 VJ=15.0
ARCON ASF#(300)
MOVL C00078 V=4.2 +MOVJ EC00078 VJ=21.3
MOVL C00079 V=0.1 +MOVJ EC00079 VJ=21.3
MOVL C00080 V=0.1 +MOVJ EC00080 VJ=21.3
MOVL C00081 V=0.1 +MOVJ EC00081 VJ=21.3
MOVL C00082 V=0.1 +MOVJ EC00082 VJ=21.2
MOVL C00083 V=0.1 +MOVJ EC00083 VJ=21.2
MOVL C00084 V=0.1 +MOVJ EC00084 VJ=21.2
MOVL C00085 V=0.1 +MOVJ EC00085 VJ=21.1
MOVL C00086 V=0.1 +MOVJ EC00086 VJ=21.1
MOVL C00087 V=0.1 +MOVJ EC00087 VJ=21.1
MOVL C00088 V=0.1 +MOVJ EC00088 VJ=21.1
MOVL C00089 V=0.1 +MOVJ EC00089 VJ=21.1
MOVL C00090 V=0.1 +MOVJ EC00090 VJ=21.1
MOVL C00091 V=0.1 +MOVJ EC00091 VJ=21.1
MOVL C00092 V=0.1 +MOVJ EC00092 VJ=21.1
MOVL C00093 V=0.1 +MOVJ EC00093 VJ=21.2
MOVL C00094 V=0.1 +MOVJ EC00094 VJ=21.2
MOVL C00095 V=0.1 +MOVJ EC00095 VJ=21.2
MOVL C00096 V=0.1 +MOVJ EC00096 VJ=21.2
MOVL C00097 V=3.8 +MOVJ EC00097 VJ=21.3
ARCOF
MOVL C00098 V=10.0 +MOVJ EC00098 VJ=15.0
ARCON ASF#(300)
MOVL C00099 V=3.8 +MOVJ EC00099 VJ=20.7
MOVL C00100 V=0.1 +MOVJ EC00100 VJ=20.7
MOVL C00101 V=0.1 +MOVJ EC00101 VJ=20.7
MOVL C00102 V=0.1 +MOVJ EC00102 VJ=20.6
MOVL C00103 V=0.1 +MOVJ EC00103 VJ=20.6
MOVL C00104 V=0.1 +MOVJ EC00104 VJ=20.6
MOVL C00105 V=0.1 +MOVJ EC00105 VJ=20.6
MOVL C00106 V=0.1 +MOVJ EC00106 VJ=20.5
MOVL C00107 V=0.1 +MOVJ EC00107 VJ=20.5
MOVL C00108 V=0.1 +MOVJ EC00108 VJ=20.6
MOVL C00109 V=0.1 +MOVJ EC00109 VJ=20.6
MOVL C00110 V=0.1 +MOVJ EC00110 VJ=20.6
MOVL C00111 V=0.1 +MOVJ EC00111 VJ=20.6
MOVL C00112 V=0.1 +MOVJ EC00112 VJ=20.7
MOVL C00113 V=0.1 +MOVJ EC00113 VJ=20.7
MOVL C00114 V=0.1 +MOVJ EC00114 VJ=20.7
MOVL C00115 V=0.1 +MOVJ EC00115 VJ=20.7
MOVL C00116 V=0.1 +MOVJ EC00116 VJ=20.7
MOVL C00117 V=0.1 +MOVJ EC00117 VJ=20.7
MOVL C00118 V=4.2 +MOVJ EC00118 VJ=20.7
ARCOF
MOVL C00119 V=10.0 +MOVJ EC00119 VJ=15.0
ARCON ASF#(300)
MOVL C00120 V=4.2 +MOVJ EC00120 VJ=20.2
MOVL C00121 V=0.1 +MOVJ EC00121 VJ=20.2
MOVL C00122 V=0.1 +MOVJ EC00122 VJ=20.2
MOVL C00123 V=0.1 +MOVJ EC00123 VJ=20.2
MOVL C00124 V=0.1 +MOVJ EC00124 VJ=20.2
MOVL C00125 V=0.1 +MOVJ EC00125 VJ=20.2
MOVL C00126 V=0.1 +MOVJ EC00126 VJ=20.1
MOVL C00127 V=0.1 +MOVJ EC00127 VJ=20.1
MOVL C00128 V=0.1 +MOVJ EC00128 VJ=20.1
MOVL C00129 V=0.1 +MOVJ EC00129 VJ=20.1
MOVL C00130 V=0.1 +MOVJ EC00130 VJ=20.1
MOVL C00131 V=0.1 +MOVJ EC00131 VJ=20.1
MOVL C00132 V=0.1 +MOVJ EC00132 VJ=20.1
MOVL C00133 V=0.1 +MOVJ EC00133 VJ=20.1
MOVL C00134 V=0.1 +MOVJ EC00134 VJ=20.1
MOVL C00135 V=0.1 +MOVJ EC00135 VJ=20.1
MOVL C00136 V=0.1 +MOVJ EC00136 VJ=20.2
MOVL C00137 V=0.1 +MOVJ EC00137 VJ=20.2
MOVL C00138 V=0.1 +MOVJ EC00138 VJ=20.2
MOVL C00139 V=0.1 +MOVJ EC00139 VJ=20.2
MOVL C00140 V=3.8 +MOVJ EC00140 VJ=20.2
ARCOF
MOVL C00141 V=10.0 +MOVJ EC00141 VJ=15.0
ARCON ASF#(300)
MOVL C00142 V=3.8 +MOVJ EC00142 VJ=19.8
MOVL C00143 V=0.1 +MOVJ EC00143 VJ=19.8
MOVL C00144 V=0.1 +MOVJ EC00144 VJ=19.7
MOVL C00145 V=0.1 +MOVJ EC00145 VJ=19.7
MOVL C00146 V=0.1 +MOVJ EC00146 VJ=19.7
MOVL C00147 V=0.1 +MOVJ EC00147 VJ=19.7
MOVL C00148 V=0.1 +MOVJ EC00148 VJ=19.6
MOVL C00149 V=0.1 +MOVJ EC00149 VJ=19.6
MOVL C00150 V=0.1 +MOVJ EC00150 VJ=19.6
MOVL C00151 V=0.1 +MOVJ EC00151 VJ=19.6
MOVL C00152 V=0.1 +MOVJ EC00152 VJ=19.6
MOVL C00153 V=0.1 +MOVJ EC00153 VJ=19.6
MOVL C00154 V=0.1 +MOVJ EC00154 VJ=19.7
MOVL C00155 V=0.1 +MOVJ EC00155 VJ=19.7
MOVL C00156 V=0.1 +MOVJ EC00156 VJ=19.7
MOVL C00157 V=0.1 +MOVJ EC00157 VJ=19.7
MOVL C00158 V=0.1 +MOVJ EC00158 VJ=19.8
MOVL C00159 V=0.1 +MOVJ EC00159 VJ=19.8
MOVL C00160 V=0.1 +MOVJ EC00160 VJ=19.8
MOVL C00161 V=0.1 +MOVJ EC00161 VJ=19.8
MOVL C00162 V=4.2 +MOVJ EC00162 VJ=19.8
ARCOF
MOVL C00163 V=10.0 +MOVJ EC00163 VJ=15.0
ARCON ASF#(300)
MOVL C00164 V=4.2 +MOVJ EC00164 VJ=19.4
MOVL C00165 V=0.1 +MOVJ EC00165 VJ=19.4
MOVL C00166 V=0.1 +MOVJ EC00166 VJ=19.4
MOVL C00167 V=0.1 +MOVJ EC00167 VJ=19.4
MOVL C00168 V=0.1 +MOVJ EC00168 VJ=19.3
MOVL C00169 V=0.1 +MOVJ EC00169 VJ=19.3
MOVL C00170 V=0.1 +MOVJ EC00170 VJ=19.3
MOVL C00171 V=0.1 +MOVJ EC00171 VJ=19.3
MOVL C00172 V=0.1 +MOVJ EC00172 VJ=19.2
MOVL C00173 V=0.1 +MOVJ EC00173 VJ=19.2
MOVL C00174 V=0.1 +MOVJ EC00174 VJ=19.2
MOVL C00175 V=0.1 +MOVJ EC00175 VJ=19.2
MOVL C00176 V=0.1 +MOVJ EC00176 VJ=19.2
MOVL C00177 V=0.1 +MOVJ EC00177 VJ=19.2
MOVL C00178 V=0.1 +MOVJ EC00178 VJ=19.3
MOVL C00179 V=0.1 +MOVJ EC00179 VJ=19.3
MOVL C00180 V=0.1 +MOVJ EC00180 VJ=19.3
MOVL C00181 V=0.1 +MOVJ EC00181 VJ=19.3
MOVL C00182 V=0.1 +MOVJ EC00182 VJ=19.4
MOVL C00183 V=0.1 +MOVJ EC00183 VJ=19.4
MOVL C00184 V=0.1 +MOVJ EC00184 VJ=19.4
MOVL C00185 V=3.8 +MOVJ EC00185 VJ=19.4
ARCOF
END
