/JOB
//NAME AAA
//POS
///NPOS 50,0,50,0,0,0
///TOOL 10
///POSTYPE PULSE
///PULSE
C00000=-35284,65787,14714,10138,-43367,-11167
C00001=-35079,65834,14806,10208,-43422,-11252
C00002=-34521,65044,13939,10439,-43361,-11508
C00003=-33963,64351,13131,10672,-43288,-11766
C00004=-33385,63710,12323,10918,-43193,-12036
C00005=-32917,63294,11741,11119,-43109,-12256
C00006=-32543,63077,11381,11278,-43048,-12431
C00007=-32250,62978,11165,11403,-43004,-12568
C00008=-31953,62917,10976,11529,-42958,-12708
C00009=-31682,62872,10804,11645,-42912,-12835
C00010=-31395,62861,10655,11768,-42865,-12970
C00011=-31119,62890,10547,11886,-42822,-13100
C00012=-30873,62952,10486,11991,-42787,-13216
C00013=-30636,63053,10471,12090,-42758,-13326
C00014=-30414,63165,10472,12183,-42732,-13429
C00015=-30155,63297,10467,12292,-42698,-13551
C00016=-29893,63430,10452,12404,-42658,-13675
C00017=-29580,63578,10405,12541,-42599,-13824
C00018=-29277,63725,10348,12675,-42533,-13970
C00019=-28961,63897,10292,12817,-42457,-14124
C00020=-28636,64107,10251,12966,-42374,-14283
C00021=-28327,64329,10219,13108,-42287,-14436
C00022=-27997,64596,10193,13263,-42186,-14601
C00023=-27677,64874,10165,13417,-42077,-14763
C00024=-27331,65200,10133,13588,-41946,-14941
C00025=-27014,65521,10099,13748,-41812,-15106
C00026=-26676,65898,10068,13924,-41656,-15286
C00027=-26362,66287,10049,14092,-41498,-15455
C00028=-26048,66734,10056,14264,-41328,-15627
C00029=-25778,67177,10096,14415,-41173,-15777
C00030=-25519,67653,10160,14565,-41014,-15924
C00031=-25259,68186,10250,14719,-40844,-16073
C00032=-25045,68676,10351,14849,-40694,-16199
C00033=-24829,69248,10511,14984,-40540,-16326
C00034=-24659,69762,10688,15090,-40417,-16427
C00035=-24512,70287,10915,15181,-40315,-16514
C00036=-24382,70823,11181,15261,-40227,-16590
C00037=-24251,71428,11505,15341,-40141,-16667
C00038=-24140,71970,11803,15409,-40068,-16733
C00039=-24029,72578,12165,15476,-39999,-16797
C00040=-23944,73141,12546,15524,-39961,-16844
C00041=-23884,73628,12923,15551,-39952,-16874
C00042=-23823,74206,13406,15572,-39963,-16900
C00043=-23763,74762,13873,15592,-39975,-16925
C00044=-23698,75349,14363,15615,-39985,-16954
C00045=-23635,75933,14863,15634,-40003,-16979
C00046=-23577,76560,15445,15642,-40048,-16997
C00047=-23538,77143,16057,15632,-40128,-17000
C00048=-23478,77774,16660,15638,-40183,-17017
C00049=-23469,78404,17486,15582,-40363,-16986
EC00000=-20398,-198922
EC00001=-18667,-197711
EC00002=-13540,-193591
EC00003=-8428,-189837
EC00004=-3264,-185783
EC00005=696,-182029
EC00006=3603,-178548
EC00007=5683,-175293
EC00008=7651,-171548
EC00009=9405,-167869
EC00010=11266,-163899
EC00011=13047,-159926
EC00012=14623,-156245
EC00013=16210,-152886
EC00014=17790,-149947
EC00015=19804,-146942
EC00016=22024,-144338
EC00017=24854,-141584
EC00018=27748,-139201
EC00019=30895,-136848
EC00020=34292,-134774
EC00021=37640,-132938
EC00022=41390,-131304
EC00023=45187,-130075
EC00024=49462,-129121
EC00025=53535,-128532
EC00026=58037,-127995
EC00027=62391,-127504
EC00028=66946,-126944
EC00029=71040,-126405
EC00030=75163,-125879
EC00031=79505,-125328
EC00032=83262,-124940
EC00033=87243,-124614
EC00034=90520,-124362
EC00035=93491,-124129
EC00036=96266,-123848
EC00037=99210,-123520
EC00038=101777,-123271
EC00039=104448,-123044
EC00040=106587,-122864
EC00041=108121,-122730
EC00042=109638,-122727
EC00043=110991,-123010
EC00044=112333,-123603
EC00045=113445,-124477
EC00046=114137,-125833
EC00047=114107,-127460
EC00048=114484,-129138
EC00049=112684,-131940
//INST
///DATE 2023/03/09 01:04
///ATTR SC,RW
///GROUP1 RB1
///GROUP2 ST1
NOP
MOVL C00000 V=10.0 +MOVJ EC00000
ARCON ASF#(140)
MOVL C00001 V=139.1 +MOVJ EC00001
MOVL C00002 V=78.8 +MOVJ EC00002
MOVL C00003 V=78.9 +MOVJ EC00003
MOVL C00004 V=75.0 +MOVJ EC00004
MOVL C00005 V=61.5 +MOVJ EC00005
MOVL C00006 V=47.4 +MOVJ EC00006
MOVL C00007 V=38.9 +MOVJ EC00007
MOVL C00008 V=35.7 +MOVJ EC00008
MOVL C00009 V=35.5 +MOVJ EC00009
MOVL C00010 V=34.5 +MOVJ EC00010
MOVL C00011 V=33.1 +MOVJ EC00011
MOVL C00012 V=31.7 +MOVJ EC00012
MOVL C00013 V=31.0 +MOVJ EC00013
MOVL C00014 V=31.6 +MOVJ EC00014
MOVL C00015 V=33.7 +MOVJ EC00015
MOVL C00016 V=36.2 +MOVJ EC00016
MOVL C00017 V=39.4 +MOVJ EC00017
MOVL C00018 V=41.7 +MOVJ EC00018
MOVL C00019 V=42.4 +MOVJ EC00019
MOVL C00020 V=42.9 +MOVJ EC00020
MOVL C00021 V=43.3 +MOVJ EC00021
MOVL C00022 V=44.2 +MOVJ EC00022
MOVL C00023 V=46.1 +MOVJ EC00023
MOVL C00024 V=48.1 +MOVJ EC00024
MOVL C00025 V=50.4 +MOVJ EC00025
MOVL C00026 V=51.0 +MOVJ EC00026
MOVL C00027 V=51.1 +MOVJ EC00027
MOVL C00028 V=49.6 +MOVJ EC00028
MOVL C00029 V=47.5 +MOVJ EC00029
MOVL C00030 V=46.6 +MOVJ EC00030
MOVL C00031 V=45.8 +MOVJ EC00031
MOVL C00032 V=45.2 +MOVJ EC00032
MOVL C00033 V=42.9 +MOVJ EC00033
MOVL C00034 V=40.4 +MOVJ EC00034
MOVL C00035 V=36.7 +MOVJ EC00035
MOVL C00036 V=33.9 +MOVJ EC00036
MOVL C00037 V=32.4 +MOVJ EC00037
MOVL C00038 V=32.2 +MOVJ EC00038
MOVL C00039 V=30.7 +MOVJ EC00039
MOVL C00040 V=27.9 +MOVJ EC00040
MOVL C00041 V=24.9 +MOVJ EC00041
MOVL C00042 V=23.7 +MOVJ EC00042
MOVL C00043 V=24.7 +MOVJ EC00043
MOVL C00044 V=26.1 +MOVJ EC00044
MOVL C00045 V=26.6 +MOVJ EC00045
MOVL C00046 V=26.3 +MOVJ EC00046
MOVL C00047 V=25.1 +MOVJ EC00047
MOVL C00048 V=26.9 +MOVJ EC00048
MOVL C00049 V=31.5 +MOVJ EC00049
ARCOF
END
