/JOB
//NAME AAA
//POS
///NPOS 1793,0,1793,0,0,0
///TOOL 12
///POSTYPE PULSE
///PULSE
C00000=-30234,70889,15260,12486,-41756,-13652
C00001=-30234,70889,15260,12486,-41756,-13652
C00002=-30234,70889,15260,12486,-41756,-13652
C00003=-30234,70889,15260,12486,-41756,-13652
C00004=-30215,70863,15230,12494,-41754,-13661
C00005=-30194,70835,15198,12503,-41752,-13671
C00006=-30174,70807,15166,12512,-41749,-13680
C00007=-30154,70780,15136,12520,-41747,-13690
C00008=-30133,70752,15103,12529,-41745,-13700
C00009=-30113,70725,15073,12538,-41742,-13709
C00010=-30094,70700,15043,12546,-41740,-13718
C00011=-30073,70672,15011,12555,-41737,-13728
C00012=-30052,70645,14979,12564,-41735,-13738
C00013=-30035,70623,14953,12571,-41733,-13746
C00014=-30017,70599,14925,12579,-41730,-13754
C00015=-29999,70575,14897,12587,-41728,-13763
C00016=-29984,70555,14874,12593,-41726,-13770
C00017=-29966,70532,14846,12601,-41724,-13778
C00018=-29948,70509,14819,12609,-41721,-13787
C00019=-29931,70486,14792,12616,-41719,-13795
C00020=-29914,70464,14766,12624,-41717,-13803
C00021=-29897,70442,14740,12631,-41714,-13811
C00022=-29879,70418,14711,12639,-41712,-13820
C00023=-29863,70398,14688,12646,-41710,-13827
C00024=-29845,70375,14660,12653,-41707,-13836
C00025=-29828,70354,14634,12661,-41704,-13844
C00026=-29810,70330,14606,12669,-41702,-13853
C00027=-29796,70312,14584,12675,-41700,-13859
C00028=-29780,70292,14559,12682,-41697,-13867
C00029=-29766,70274,14537,12688,-41695,-13874
C00030=-29750,70254,14513,12695,-41693,-13881
C00031=-29736,70236,14491,12701,-41691,-13888
C00032=-29722,70218,14469,12707,-41689,-13895
C00033=-29706,70198,14445,12714,-41686,-13902
C00034=-29691,70179,14422,12721,-41684,-13910
C00035=-29678,70162,14401,12727,-41682,-13916
C00036=-29664,70145,14381,12732,-41680,-13922
C00037=-29651,70129,14360,12738,-41678,-13929
C00038=-29638,70112,14339,12744,-41675,-13935
C00039=-29626,70097,14321,12749,-41674,-13941
C00040=-29612,70081,14301,12755,-41671,-13947
C00041=-29599,70064,14281,12761,-41669,-13953
C00042=-29586,70048,14260,12767,-41667,-13960
C00043=-29573,70032,14240,12772,-41665,-13966
C00044=-29561,70016,14221,12778,-41663,-13972
C00045=-29547,70000,14200,12784,-41661,-13978
C00046=-29534,69983,14180,12790,-41659,-13985
C00047=-29521,69968,14161,12795,-41657,-13991
C00048=-29509,69952,14142,12801,-41655,-13997
C00049=-29496,69936,14122,12806,-41653,-14003
C00050=-29484,69921,14103,12812,-41650,-14009
C00051=-29471,69905,14083,12818,-41648,-14015
C00052=-29457,69889,14062,12823,-41646,-14022
C00053=-29446,69875,14045,12828,-41644,-14027
C00054=-29434,69861,14027,12833,-41642,-14033
C00055=-29423,69847,14010,12839,-41640,-14038
C00056=-29411,69833,13992,12844,-41638,-14044
C00057=-29400,69819,13974,12849,-41637,-14049
C00058=-29390,69806,13959,12853,-41635,-14054
C00059=-29379,69793,13942,12858,-41633,-14059
C00060=-29367,69779,13925,12863,-41631,-14065
C00061=-29356,69765,13907,12868,-41629,-14070
C00062=-29344,69751,13889,12873,-41627,-14076
C00063=-29333,69738,13872,12878,-41625,-14081
C00064=-29322,69724,13855,12883,-41623,-14087
C00065=-29310,69710,13837,12888,-41621,-14092
C00066=-29300,69697,13821,12893,-41620,-14097
C00067=-29288,69683,13803,12898,-41618,-14103
C00068=-29278,69670,13787,12903,-41616,-14108
C00069=-29267,69658,13771,12907,-41614,-14113
C00070=-29256,69644,13754,12912,-41612,-14118
C00071=-29245,69631,13737,12917,-41610,-14124
C00072=-29233,69617,13720,12922,-41608,-14129
C00073=-29224,69605,13705,12927,-41607,-14134
C00074=-29214,69593,13690,12931,-41605,-14139
C00075=-29204,69582,13675,12935,-41603,-14143
C00076=-29193,69569,13659,12940,-41601,-14149
C00077=-29183,69557,13644,12944,-41600,-14153
C00078=-29175,69546,13630,12948,-41598,-14158
C00079=-29165,69535,13616,12952,-41597,-14162
C00080=-29155,69523,13601,12957,-41595,-14167
C00081=-29145,69512,13586,12961,-41593,-14171
C00082=-29136,69500,13572,12965,-41592,-14176
C00083=-29126,69488,13557,12970,-41590,-14181
C00084=-29118,69478,13544,12973,-41589,-14185
C00085=-29109,69468,13531,12977,-41587,-14189
C00086=-29100,69457,13517,12981,-41586,-14193
C00087=-29091,69446,13503,12985,-41584,-14198
C00088=-29082,69436,13490,12989,-41583,-14202
C00089=-29073,69425,13476,12993,-41581,-14206
C00090=-29065,69416,13464,12997,-41580,-14210
C00091=-29056,69405,13451,13001,-41578,-14214
C00092=-29048,69395,13438,13004,-41577,-14219
C00093=-29039,69385,13425,13008,-41575,-14223
C00094=-29030,69374,13412,13012,-41574,-14227
C00095=-29022,69364,13399,13016,-41573,-14231
C00096=-29013,69354,13387,13019,-41571,-14235
C00097=-29004,69343,13373,13023,-41570,-14239
C00098=-28996,69334,13361,13027,-41568,-14243
C00099=-28987,69323,13347,13031,-41567,-14248
C00100=-28979,69313,13335,13035,-41565,-14252
C00101=-28970,69303,13322,13038,-41564,-14256
C00102=-28963,69294,13310,13042,-41563,-14259
C00103=-28954,69284,13298,13046,-41561,-14264
C00104=-28946,69274,13286,13049,-41560,-14267
C00105=-28938,69264,13273,13053,-41559,-14271
C00106=-28930,69255,13261,13056,-41558,-14275
C00107=-28921,69244,13248,13060,-41556,-14279
C00108=-28914,69235,13237,13063,-41555,-14283
C00109=-28906,69227,13226,13067,-41554,-14287
C00110=-28899,69218,13215,13070,-41553,-14290
C00111=-28891,69209,13203,13073,-41551,-14294
C00112=-28883,69200,13192,13077,-41550,-14297
C00113=-28876,69191,13181,13080,-41549,-14301
C00114=-28869,69182,13170,13083,-41548,-14305
C00115=-28861,69173,13159,13086,-41547,-14308
C00116=-28854,69165,13148,13090,-41546,-14312
C00117=-28847,69156,13138,13093,-41545,-14315
C00118=-28840,69147,13127,13096,-41544,-14318
C00119=-28832,69139,13116,13099,-41543,-14322
C00120=-28824,69129,13104,13103,-41541,-14326
C00121=-28818,69122,13095,13105,-41540,-14329
C00122=-28811,69114,13085,13108,-41539,-14332
C00123=-28804,69105,13075,13111,-41538,-14335
C00124=-28797,69097,13064,13114,-41537,-14339
C00125=-28790,69089,13054,13117,-41536,-14342
C00126=-28783,69081,13044,13121,-41535,-14345
C00127=-28777,69073,13034,13123,-41534,-14348
C00128=-28771,69066,13026,13126,-41533,-14351
C00129=-28765,69058,13016,13129,-41533,-14354
C00130=-28758,69050,13006,13132,-41532,-14358
C00131=-28751,69042,12997,13134,-41531,-14361
C00132=-28745,69035,12987,13137,-41530,-14364
C00133=-28738,69027,12977,13140,-41529,-14367
C00134=-28732,69019,12968,13143,-41528,-14370
C00135=-28726,69012,12959,13145,-41527,-14373
C00136=-28720,69005,12950,13148,-41526,-14376
C00137=-28714,68998,12942,13151,-41526,-14379
C00138=-28708,68990,12933,13153,-41525,-14382
C00139=-28701,68983,12923,13156,-41524,-14385
C00140=-28696,68976,12915,13159,-41523,-14387
C00141=-28689,68968,12906,13161,-41522,-14390
C00142=-28684,68962,12898,13164,-41522,-14393
C00143=-28678,68955,12890,13166,-41521,-14396
C00144=-28672,68948,12881,13169,-41520,-14398
C00145=-28667,68941,12873,13171,-41519,-14401
C00146=-28661,68934,12864,13174,-41519,-14404
C00147=-28655,68927,12856,13176,-41518,-14406
C00148=-28649,68920,12848,13179,-41517,-14409
C00149=-28643,68913,12839,13181,-41517,-14412
C00150=-28637,68906,12831,13184,-41516,-14415
C00151=-28632,68899,12822,13186,-41515,-14418
C00152=-28626,68892,12814,13189,-41514,-14420
C00153=-28620,68885,12806,13191,-41514,-14423
C00154=-28615,68878,12797,13194,-41513,-14426
C00155=-28609,68871,12789,13196,-41512,-14428
C00156=-28603,68864,12781,13198,-41512,-14431
C00157=-28598,68858,12773,13201,-41511,-14434
C00158=-28592,68851,12765,13203,-41511,-14436
C00159=-28587,68844,12757,13205,-41510,-14439
C00160=-28581,68838,12750,13208,-41509,-14442
C00161=-28576,68831,12742,13210,-41509,-14444
C00162=-28570,68825,12734,13212,-41508,-14447
C00163=-28565,68818,12726,13215,-41508,-14449
C00164=-28559,68811,12718,13217,-41507,-14452
C00165=-28554,68805,12711,13219,-41507,-14454
C00166=-28549,68799,12704,13221,-41506,-14457
C00167=-28544,68792,12696,13224,-41506,-14459
C00168=-28539,68786,12689,13226,-41505,-14462
C00169=-28534,68780,12681,13228,-41505,-14464
C00170=-28528,68773,12674,13230,-41504,-14466
C00171=-28523,68767,12667,13232,-41504,-14469
C00172=-28518,68761,12659,13235,-41503,-14471
C00173=-28514,68755,12653,13237,-41503,-14473
C00174=-28509,68749,12646,13239,-41502,-14476
C00175=-28504,68743,12639,13241,-41502,-14478
C00176=-28499,68737,12632,13243,-41502,-14480
C00177=-28494,68731,12626,13245,-41501,-14483
C00178=-28489,68725,12619,13247,-41501,-14485
C00179=-28484,68719,12612,13249,-41500,-14487
C00180=-28479,68713,12605,13251,-41500,-14489
C00181=-28475,68707,12599,13253,-41500,-14491
C00182=-28470,68701,12592,13255,-41499,-14494
C00183=-28466,68696,12586,13257,-41499,-14496
C00184=-28461,68690,12580,13258,-41499,-14498
C00185=-28456,68684,12573,13260,-41498,-14500
C00186=-28452,68679,12566,13262,-41498,-14502
C00187=-28447,68673,12560,13264,-41498,-14504
C00188=-28443,68667,12554,13266,-41497,-14507
C00189=-28439,68662,12548,13268,-41497,-14508
C00190=-28434,68657,12542,13270,-41497,-14511
C00191=-28430,68651,12536,13271,-41497,-14512
C00192=-28426,68646,12530,13273,-41496,-14514
C00193=-28421,68640,12524,13275,-41496,-14516
C00194=-28417,68635,12519,13277,-41496,-14518
C00195=-28413,68630,12513,13278,-41496,-14520
C00196=-28409,68624,12506,13280,-41496,-14522
C00197=-28404,68618,12500,13282,-41495,-14524
C00198=-28400,68614,12495,13284,-41495,-14526
C00199=-28396,68608,12489,13285,-41495,-14528
C00200=-28392,68603,12484,13287,-41495,-14530
C00201=-28388,68598,12478,13289,-41495,-14532
C00202=-28384,68593,12473,13290,-41494,-14534
C00203=-28380,68588,12467,13292,-41494,-14536
C00204=-28376,68583,12461,13294,-41494,-14538
C00205=-28372,68577,12456,13295,-41494,-14540
C00206=-28368,68572,12450,13297,-41494,-14541
C00207=-28364,68568,12445,13298,-41494,-14543
C00208=-28360,68562,12440,13300,-41494,-14545
C00209=-28357,68558,12435,13301,-41494,-14546
C00210=-28353,68553,12430,13303,-41494,-14548
C00211=-28349,68548,12425,13304,-41494,-14550
C00212=-28345,68543,12420,13306,-41494,-14552
C00213=-28341,68538,12415,13307,-41493,-14553
C00214=-28337,68533,12410,13309,-41493,-14555
C00215=-28334,68528,12404,13311,-41493,-14557
C00216=-28330,68523,12400,13312,-41493,-14559
C00217=-28327,68519,12395,13313,-41493,-14560
C00218=-28323,68514,12390,13315,-41493,-14562
C00219=-28319,68509,12385,13316,-41493,-14563
C00220=-28315,68504,12380,13318,-41493,-14565
C00221=-28312,68500,12375,13319,-41493,-14567
C00222=-28308,68495,12371,13321,-41493,-14568
C00223=-28305,68490,12366,13322,-41493,-14570
C00224=-28301,68486,12361,13324,-41493,-14572
C00225=-28298,68481,12356,13325,-41493,-14573
C00226=-28295,68477,12352,13326,-41493,-14575
C00227=-28291,68472,12348,13328,-41493,-14576
C00228=-28288,68468,12344,13329,-41494,-14578
C00229=-28285,68464,12339,13330,-41494,-14579
C00230=-28281,68459,12335,13331,-41494,-14581
C00231=-28278,68455,12331,13333,-41494,-14582
C00232=-28274,68450,12326,13334,-41494,-14584
C00233=-28271,68446,12322,13335,-41494,-14585
C00234=-28268,68441,12317,13337,-41494,-14587
C00235=-28265,68437,12313,13338,-41494,-14588
C00236=-28261,68432,12309,13339,-41494,-14590
C00237=-28258,68428,12304,13340,-41495,-14591
C00238=-28254,68423,12300,13342,-41495,-14593
C00239=-28251,68419,12295,13343,-41495,-14594
C00240=-28248,68414,12291,13344,-41495,-14596
C00241=-28244,68409,12287,13346,-41495,-14597
C00242=-28241,68405,12282,13347,-41495,-14599
C00243=-28237,68400,12278,13348,-41495,-14600
C00244=-28235,68397,12274,13349,-41495,-14602
C00245=-28232,68392,12270,13351,-41496,-14603
C00246=-28229,68388,12266,13352,-41496,-14604
C00247=-28225,68383,12262,13353,-41496,-14606
C00248=-28222,68379,12258,13354,-41497,-14607
C00249=-28219,68375,12255,13355,-41497,-14608
C00250=-28216,68370,12251,13356,-41497,-14610
C00251=-28213,68366,12247,13358,-41497,-14611
C00252=-28210,68362,12243,13359,-41498,-14613
C00253=-28207,68357,12239,13360,-41498,-14614
C00254=-28204,68353,12235,13361,-41498,-14615
C00255=-28201,68349,12232,13362,-41499,-14617
C00256=-28198,68345,12228,13363,-41499,-14618
C00257=-28195,68341,12224,13364,-41499,-14619
C00258=-28192,68337,12220,13365,-41499,-14620
C00259=-28189,68333,12217,13367,-41500,-14622
C00260=-28186,68328,12213,13368,-41500,-14623
C00261=-28183,68324,12209,13369,-41500,-14624
C00262=-28180,68320,12206,13370,-41500,-14626
C00263=-28177,68316,12202,13371,-41501,-14627
C00264=-28175,68312,12199,13372,-41501,-14628
C00265=-28172,68308,12195,13373,-41502,-14629
C00266=-28169,68305,12192,13374,-41502,-14630
C00267=-28167,68301,12189,13375,-41502,-14632
C00268=-28164,68297,12186,13376,-41503,-14633
C00269=-28161,68293,12182,13377,-41503,-14634
C00270=-28159,68289,12179,13378,-41504,-14635
C00271=-28156,68285,12176,13379,-41504,-14636
C00272=-28153,68281,12173,13380,-41505,-14637
C00273=-28150,68277,12169,13380,-41505,-14639
C00274=-28148,68273,12166,13381,-41505,-14640
C00275=-28145,68269,12163,13382,-41506,-14641
C00276=-28143,68266,12160,13383,-41506,-14642
C00277=-28140,68262,12157,13384,-41507,-14643
C00278=-28137,68258,12154,13385,-41507,-14644
C00279=-28135,68254,12151,13386,-41507,-14645
C00280=-28132,68250,12148,13387,-41508,-14646
C00281=-28130,68247,12145,13388,-41508,-14647
C00282=-28127,68243,12142,13389,-41509,-14648
C00283=-28125,68239,12138,13390,-41509,-14650
C00284=-28123,68236,12136,13390,-41509,-14650
C00285=-28120,68232,12133,13391,-41510,-14652
C00286=-28118,68228,12130,13392,-41511,-14653
C00287=-28115,68225,12128,13393,-41511,-14653
C00288=-28113,68221,12125,13394,-41512,-14654
C00289=-28111,68218,12123,13394,-41512,-14655
C00290=-28108,68214,12120,13395,-41513,-14656
C00291=-28106,68210,12117,13396,-41513,-14657
C00292=-28104,68207,12115,13397,-41514,-14658
C00293=-28101,68203,12112,13397,-41515,-14659
C00294=-28099,68199,12109,13398,-41515,-14660
C00295=-28097,68196,12107,13399,-41516,-14661
C00296=-28095,68192,12104,13400,-41516,-14662
C00297=-28092,68189,12102,13400,-41517,-14663
C00298=-28090,68185,12099,13401,-41517,-14664
C00299=-28088,68182,12097,13402,-41518,-14665
C00300=-28086,68178,12094,13403,-41518,-14666
C00301=-28083,68175,12092,13403,-41519,-14667
C00302=-28081,68171,12089,13404,-41519,-14668
C00303=-28079,68168,12086,13405,-41520,-14669
C00304=-28077,68165,12084,13406,-41521,-14670
C00305=-28075,68161,12081,13406,-41521,-14671
C00306=-28073,68158,12079,13407,-41522,-14671
C00307=-28071,68155,12077,13408,-41522,-14672
C00308=-28069,68151,12075,13408,-41523,-14673
C00309=-28067,68148,12073,13409,-41524,-14674
C00310=-28065,68145,12071,13409,-41524,-14674
C00311=-28063,68142,12069,13410,-41525,-14675
C00312=-28061,68138,12067,13411,-41526,-14676
C00313=-28059,68135,12065,13411,-41527,-14677
C00314=-28057,68131,12062,13412,-41527,-14678
C00315=-28055,68128,12060,13412,-41528,-14678
C00316=-28053,68125,12058,13413,-41529,-14679
C00317=-28051,68122,12056,13414,-41529,-14680
C00318=-28049,68119,12054,13414,-41530,-14681
C00319=-28047,68115,12052,13415,-41531,-14682
C00320=-28045,68112,12050,13415,-41531,-14682
C00321=-28043,68109,12048,13416,-41532,-14683
C00322=-28041,68106,12046,13417,-41533,-14684
C00323=-28039,68102,12044,13417,-41533,-14685
C00324=-28037,68099,12042,13418,-41534,-14685
C00325=-28035,68096,12040,13418,-41535,-14686
C00326=-28033,68093,12038,13419,-41535,-14687
C00327=-28032,68090,12036,13419,-41536,-14688
C00328=-28030,68087,12034,13420,-41537,-14688
C00329=-28028,68084,12033,13420,-41537,-14689
C00330=-28026,68081,12031,13421,-41538,-14690
C00331=-28025,68078,12030,13421,-41539,-14690
C00332=-28023,68075,12028,13422,-41540,-14691
C00333=-28021,68072,12026,13422,-41541,-14692
C00334=-28020,68069,12025,13423,-41542,-14692
C00335=-28018,68065,12023,13423,-41542,-14693
C00336=-28016,68063,12022,13424,-41543,-14693
C00337=-28015,68059,12020,13424,-41544,-14694
C00338=-28013,68056,12018,13424,-41545,-14695
C00339=-28011,68053,12017,13425,-41546,-14695
C00340=-28010,68050,12015,13425,-41546,-14696
C00341=-28008,68047,12014,13426,-41547,-14697
C00342=-28006,68044,12012,13426,-41548,-14697
C00343=-28004,68041,12010,13427,-41549,-14698
C00344=-28003,68038,12009,13427,-41550,-14699
C00345=-28001,68035,12007,13428,-41551,-14699
C00346=-27999,68032,12006,13428,-41551,-14700
C00347=-27998,68029,12004,13429,-41552,-14701
C00348=-27996,68026,12002,13429,-41553,-14701
C00349=-27994,68023,12001,13429,-41554,-14702
C00350=-27993,68020,11999,13430,-41555,-14702
C00351=-27991,68017,11998,13430,-41556,-14703
C00352=-27990,68014,11997,13431,-41557,-14703
C00353=-27988,68011,11996,13431,-41557,-14704
C00354=-27987,68008,11994,13431,-41558,-14704
C00355=-27985,68005,11993,13432,-41559,-14705
C00356=-27984,68002,11992,13432,-41560,-14705
C00357=-27982,67999,11991,13432,-41561,-14706
C00358=-27981,67996,11990,13432,-41562,-14706
C00359=-27980,67993,11989,13433,-41563,-14707
C00360=-27978,67990,11987,13433,-41564,-14708
C00361=-27977,67987,11986,13433,-41565,-14708
C00362=-27975,67984,11985,13434,-41566,-14709
C00363=-27974,67982,11984,13434,-41567,-14709
C00364=-27972,67979,11983,13434,-41568,-14710
C00365=-27971,67976,11982,13435,-41569,-14710
C00366=-27970,67973,11981,13435,-41570,-14710
C00367=-27968,67970,11979,13435,-41571,-14711
C00368=-27967,67968,11978,13436,-41572,-14711
C00369=-27965,67965,11977,13436,-41573,-14712
C00370=-27964,67962,11976,13436,-41574,-14712
C00371=-27962,67959,11975,13437,-41575,-14713
C00372=-27961,67956,11974,13437,-41576,-14713
C00373=-27960,67954,11973,13437,-41577,-14714
C00374=-27958,67951,11971,13437,-41578,-14714
C00375=-27957,67948,11971,13438,-41579,-14715
C00376=-27956,67946,11970,13438,-41580,-14715
C00377=-27955,67943,11969,13438,-41581,-14715
C00378=-27954,67940,11969,13438,-41582,-14716
C00379=-27952,67937,11968,13438,-41583,-14716
C00380=-27951,67935,11967,13439,-41584,-14717
C00381=-27950,67932,11967,13439,-41585,-14717
C00382=-27949,67929,11966,13439,-41586,-14717
C00383=-27948,67927,11965,13439,-41587,-14718
C00384=-27946,67924,11964,13439,-41588,-14718
C00385=-27945,67921,11964,13439,-41590,-14718
C00386=-27944,67918,11963,13440,-41591,-14719
C00387=-27943,67916,11962,13440,-41592,-14719
C00388=-27942,67913,11962,13440,-41593,-14719
C00389=-27941,67911,11961,13440,-41594,-14720
C00390=-27940,67908,11960,13440,-41595,-14720
C00391=-27938,67906,11960,13440,-41596,-14721
C00392=-27937,67903,11959,13441,-41597,-14721
C00393=-27936,67900,11958,13441,-41598,-14721
C00394=-27935,67898,11958,13441,-41599,-14722
C00395=-27934,67895,11957,13441,-41600,-14722
C00396=-27933,67893,11956,13441,-41601,-14722
C00397=-27931,67890,11955,13441,-41602,-14723
C00398=-27930,67887,11955,13442,-41603,-14723
C00399=-27929,67885,11954,13442,-41604,-14723
C00400=-27929,67883,11954,13442,-41605,-14723
C00401=-27928,67880,11954,13442,-41607,-14724
C00402=-27927,67878,11954,13442,-41608,-14724
C00403=-27926,67875,11953,13442,-41609,-14724
C00404=-27925,67873,11953,13442,-41610,-14724
C00405=-27924,67870,11953,13442,-41612,-14725
C00406=-27923,67868,11952,13442,-41613,-14725
C00407=-27922,67865,11952,13442,-41614,-14725
C00408=-27921,67863,11952,13442,-41615,-14725
C00409=-27920,67860,11952,13442,-41616,-14725
C00410=-27919,67858,11951,13442,-41618,-14726
C00411=-27918,67855,11951,13442,-41619,-14726
C00412=-27918,67853,11951,13442,-41620,-14726
C00413=-27917,67851,11951,13442,-41621,-14726
C00414=-27916,67848,11950,13442,-41622,-14727
C00415=-27915,67846,11950,13442,-41624,-14727
C00416=-27914,67843,11950,13442,-41625,-14727
C00417=-27913,67841,11949,13443,-41626,-14727
C00418=-27912,67839,11949,13443,-41627,-14727
C00419=-27911,67836,11949,13443,-41628,-14728
C00420=-27910,67834,11949,13443,-41629,-14728
C00421=-27910,67831,11948,13443,-41631,-14728
C00422=-27909,67829,11948,13443,-41632,-14728
C00423=-27908,67827,11948,13443,-41633,-14729
C00424=-27907,67824,11948,13443,-41634,-14729
C00425=-27906,67822,11948,13443,-41635,-14729
C00426=-27906,67820,11948,13443,-41637,-14729
C00427=-27905,67818,11948,13443,-41638,-14729
C00428=-27904,67815,11948,13442,-41639,-14729
C00429=-27904,67813,11948,13442,-41640,-14729
C00430=-27903,67811,11948,13442,-41642,-14729
C00431=-27902,67809,11949,13442,-41643,-14729
C00432=-27902,67806,11949,13442,-41644,-14729
C00433=-27901,67804,11949,13442,-41646,-14730
C00434=-27900,67802,11949,13442,-41647,-14730
C00435=-27900,67800,11949,13442,-41648,-14730
C00436=-27899,67797,11949,13442,-41650,-14730
C00437=-27898,67795,11949,13442,-41651,-14730
C00438=-27898,67793,11950,13442,-41652,-14730
C00439=-27897,67791,11950,13442,-41653,-14730
C00440=-27896,67788,11950,13441,-41655,-14730
C00441=-27896,67786,11950,13441,-41656,-14730
C00442=-27895,67784,11950,13441,-41657,-14730
C00443=-27894,67782,11950,13441,-41659,-14730
C00444=-27894,67780,11950,13441,-41660,-14731
C00445=-27893,67778,11950,13441,-41661,-14731
C00446=-27892,67775,11951,13441,-41662,-14731
C00447=-27892,67773,11951,13441,-41664,-14731
C00448=-27891,67771,11951,13441,-41665,-14731
C00449=-27890,67769,11951,13441,-41666,-14731
C00450=-27890,67767,11951,13441,-41668,-14731
C00451=-27889,67765,11951,13441,-41669,-14731
C00452=-27889,67762,11952,13440,-41670,-14731
C00453=-27888,67761,11952,13440,-41672,-14731
C00454=-27888,67758,11953,13440,-41673,-14731
C00455=-27888,67756,11954,13440,-41674,-14731
C00456=-27887,67754,11954,13439,-41676,-14731
C00457=-27887,67752,11955,13439,-41677,-14731
C00458=-27886,67750,11955,13439,-41679,-14731
C00459=-27886,67748,11956,13439,-41680,-14731
C00460=-27885,67746,11956,13439,-41682,-14731
C00461=-27885,67744,11957,13438,-41683,-14731
C00462=-27884,67742,11957,13438,-41684,-14731
C00463=-27884,67740,11958,13438,-41686,-14731
C00464=-27884,67737,11958,13438,-41687,-14731
C00465=-27883,67736,11959,13438,-41689,-14731
C00466=-27883,67734,11959,13437,-41690,-14731
C00467=-27882,67731,11960,13437,-41691,-14731
C00468=-27882,67730,11960,13437,-41693,-14731
C00469=-27882,67728,11961,13437,-41694,-14731
C00470=-27881,67725,11961,13437,-41696,-14731
C00471=-27881,67724,11962,13436,-41697,-14731
C00472=-27880,67721,11962,13436,-41698,-14731
C00473=-27880,67719,11963,13436,-41700,-14730
C00474=-27879,67718,11963,13436,-41701,-14730
C00475=-27879,67715,11964,13436,-41702,-14730
C00476=-27879,67714,11965,13435,-41704,-14730
C00477=-27878,67711,11965,13435,-41705,-14730
C00478=-27878,67709,11966,13435,-41707,-14730
C00479=-27878,67708,11966,13435,-41708,-14730
C00480=-27877,67706,11967,13434,-41709,-14730
C00481=-27877,67704,11968,13434,-41711,-14730
C00482=-27877,67702,11969,13434,-41713,-14730
C00483=-27877,67700,11970,13433,-41714,-14730
C00484=-27876,67698,11971,13433,-41715,-14729
C00485=-27876,67696,11972,13433,-41717,-14729
C00486=-27876,67694,11973,13433,-41719,-14729
C00487=-27876,67692,11974,13432,-41720,-14729
C00488=-27876,67691,11975,13432,-41722,-14729
C00489=-27875,67689,11975,13432,-41723,-14729
C00490=-27875,67687,11976,13431,-41725,-14729
C00491=-27875,67685,11977,13431,-41726,-14728
C00492=-27875,67683,11978,13431,-41728,-14728
C00493=-27875,67681,11979,13430,-41729,-14728
C00494=-27874,67679,11980,13430,-41731,-14728
C00495=-27874,67677,11981,13430,-41732,-14728
C00496=-27874,67676,11982,13429,-41734,-14728
C00497=-27874,67674,11983,13429,-41735,-14728
C00498=-27874,67672,11984,13429,-41737,-14727
C00499=-27873,67670,11984,13428,-41738,-14727
C00500=-27873,67668,11985,13428,-41740,-14727
C00501=-27873,67666,11986,13428,-41741,-14727
C00502=-27873,67665,11987,13427,-41743,-14727
C00503=-27873,67663,11988,13427,-41744,-14727
C00504=-27872,67661,11989,13427,-41746,-14727
C00505=-27872,67659,11990,13427,-41747,-14726
C00506=-27872,67657,11991,13426,-41748,-14726
C00507=-27872,67656,11992,13426,-41750,-14726
C00508=-27872,67654,11993,13425,-41751,-14726
C00509=-27872,67652,11994,13425,-41753,-14726
C00510=-27872,67651,11995,13425,-41755,-14725
C00511=-27872,67649,11997,13424,-41756,-14725
C00512=-27872,67647,11998,13424,-41758,-14725
C00513=-27872,67645,11999,13423,-41760,-14724
C00514=-27872,67644,12001,13423,-41761,-14724
C00515=-27872,67642,12002,13422,-41763,-14724
C00516=-27872,67640,12003,13422,-41764,-14724
C00517=-27872,67639,12004,13422,-41766,-14723
C00518=-27872,67637,12006,13421,-41768,-14723
C00519=-27872,67635,12007,13421,-41769,-14723
C00520=-27872,67633,12008,13420,-41771,-14723
C00521=-27872,67632,12010,13420,-41773,-14722
C00522=-27872,67630,12011,13419,-41774,-14722
C00523=-27872,67628,12012,13419,-41776,-14722
C00524=-27872,67627,12013,13419,-41777,-14722
C00525=-27872,67625,12014,13418,-41779,-14721
C00526=-27872,67623,12016,13418,-41780,-14721
C00527=-27872,67622,12017,13417,-41782,-14721
C00528=-27872,67620,12018,13417,-41784,-14721
C00529=-27872,67618,12019,13416,-41785,-14720
C00530=-27872,67617,12021,13416,-41787,-14720
C00531=-27872,67615,12022,13416,-41788,-14720
C00532=-27872,67613,12023,13415,-41790,-14720
C00533=-27872,67612,12024,13415,-41791,-14719
C00534=-27872,67610,12025,13414,-41793,-14719
C00535=-27872,67608,12027,13414,-41795,-14719
C00536=-27872,67607,12028,13414,-41796,-14719
C00537=-27872,67605,12029,13413,-41798,-14718
C00538=-27873,67604,12031,13413,-41800,-14718
C00539=-27873,67602,12033,13412,-41801,-14717
C00540=-27873,67601,12034,13411,-41803,-14717
C00541=-27873,67599,12036,13411,-41805,-14717
C00542=-27873,67598,12038,13410,-41806,-14716
C00543=-27874,67596,12039,13410,-41808,-14716
C00544=-27874,67595,12041,13409,-41810,-14716
C00545=-27874,67593,12043,13409,-41812,-14715
C00546=-27874,67591,12044,13408,-41813,-14715
C00547=-27875,67590,12046,13408,-41815,-14714
C00548=-27875,67588,12048,13407,-41817,-14714
C00549=-27875,67587,12049,13407,-41818,-14714
C00550=-27875,67585,12051,13406,-41820,-14713
C00551=-27875,67584,12053,13405,-41822,-14713
C00552=-27876,67582,12054,13405,-41824,-14713
C00553=-27876,67581,12056,13404,-41825,-14712
C00554=-27876,67579,12057,13404,-41827,-14712
C00555=-27876,67577,12059,13403,-41829,-14711
C00556=-27877,67576,12061,13403,-41831,-14711
C00557=-27877,67574,12062,13402,-41832,-14711
C00558=-27877,67573,12064,13402,-41834,-14710
C00559=-27877,67571,12066,13401,-41836,-14710
C00560=-27877,67570,12067,13401,-41837,-14710
C00561=-27878,67568,12069,13400,-41839,-14709
C00562=-27878,67567,12071,13400,-41841,-14709
C00563=-27878,67565,12072,13399,-41843,-14708
C00564=-27878,67564,12074,13398,-41844,-14708
C00565=-27879,67562,12075,13398,-41846,-14708
C00566=-27879,67560,12077,13397,-41848,-14707
C00567=-27879,67559,12079,13397,-41850,-14707
C00568=-27880,67558,12081,13396,-41851,-14706
C00569=-27880,67556,12083,13395,-41853,-14706
C00570=-27880,67555,12085,13395,-41855,-14705
C00571=-27881,67553,12087,13394,-41857,-14705
C00572=-27881,67552,12089,13393,-41859,-14704
C00573=-27882,67551,12091,13393,-41861,-14704
C00574=-27882,67549,12093,13392,-41863,-14703
C00575=-27883,67548,12095,13391,-41865,-14703
C00576=-27883,67546,12098,13391,-41866,-14702
C00577=-27884,67545,12099,13390,-41868,-14702
C00578=-27884,67543,12102,13389,-41870,-14701
C00579=-27884,67542,12104,13389,-41872,-14701
C00580=-27885,67541,12106,13388,-41874,-14700
C00581=-27885,67539,12108,13387,-41876,-14700
C00582=-27886,67538,12110,13387,-41878,-14699
C00583=-27886,67536,12112,13386,-41880,-14699
C00584=-27887,67535,12114,13385,-41881,-14698
C00585=-27887,67534,12116,13385,-41883,-14698
C00586=-27888,67532,12118,13384,-41885,-14697
C00587=-27888,67531,12120,13383,-41887,-14697
C00588=-27888,67530,12122,13383,-41889,-14696
C00589=-27889,67528,12124,13382,-41890,-14696
C00590=-27889,67527,12126,13382,-41892,-14696
C00591=-27890,67525,12128,13381,-41894,-14695
C00592=-27890,67524,12130,13380,-41896,-14695
C00593=-27891,67523,12132,13380,-41898,-14694
C00594=-27891,67521,12134,13379,-41899,-14694
C00595=-27891,67520,12136,13378,-41901,-14693
C00596=-27892,67519,12138,13378,-41903,-14693
C00597=-27892,67517,12140,13377,-41905,-14692
C00598=-27893,67516,12142,13376,-41907,-14692
C00599=-27894,67515,12145,13375,-41909,-14691
C00600=-27894,67514,12147,13375,-41911,-14690
C00601=-27895,67512,12149,13374,-41913,-14690
C00602=-27896,67511,12152,13373,-41915,-14689
C00603=-27896,67510,12154,13372,-41917,-14688
C00604=-27897,67509,12156,13372,-41919,-14688
C00605=-27898,67507,12159,13371,-41921,-14687
C00606=-27898,67506,12161,13370,-41923,-14687
C00607=-27899,67505,12164,13369,-41925,-14686
C00608=-27899,67504,12166,13369,-41927,-14685
C00609=-27900,67502,12169,13368,-41929,-14685
C00610=-27901,67501,12171,13367,-41930,-14684
C00611=-27901,67500,12173,13366,-41932,-14684
C00612=-27902,67499,12176,13365,-41935,-14683
C00613=-27903,67498,12178,13365,-41936,-14682
C00614=-27903,67496,12180,13364,-41938,-14682
C00615=-27904,67495,12183,13363,-41940,-14681
C00616=-27905,67494,12185,13362,-41942,-14681
C00617=-27905,67493,12188,13362,-41944,-14680
C00618=-27906,67492,12190,13361,-41946,-14679
C00619=-27907,67490,12192,13360,-41948,-14679
C00620=-27907,67489,12195,13359,-41950,-14678
C00621=-27908,67488,12197,13359,-41952,-14678
C00622=-27908,67487,12199,13358,-41954,-14677
C00623=-27909,67485,12202,13357,-41956,-14676
C00624=-27910,67484,12204,13356,-41957,-14676
C00625=-27910,67483,12206,13356,-41959,-14675
C00626=-27911,67482,12209,13355,-41961,-14675
C00627=-27912,67481,12211,13354,-41963,-14674
C00628=-27912,67479,12213,13353,-41965,-14674
C00629=-27913,67479,12216,13353,-41967,-14673
C00630=-27914,67477,12219,13352,-41969,-14672
C00631=-27915,67476,12221,13351,-41971,-14671
C00632=-27916,67475,12224,13350,-41973,-14671
C00633=-27916,67474,12227,13349,-41975,-14670
C00634=-27917,67473,12230,13348,-41977,-14669
C00635=-27918,67472,12232,13347,-41979,-14669
C00636=-27919,67471,12235,13346,-41982,-14668
C00637=-27920,67470,12238,13346,-41984,-14667
C00638=-27921,67469,12241,13345,-41986,-14666
C00639=-27922,67468,12244,13344,-41988,-14666
C00640=-27923,67467,12247,13343,-41990,-14665
C00641=-27923,67466,12249,13342,-41992,-14664
C00642=-27924,67465,12252,13341,-41994,-14663
C00643=-27925,67464,12255,13340,-41996,-14663
C00644=-27926,67462,12258,13339,-41998,-14662
C00645=-27927,67461,12260,13338,-42000,-14661
C00646=-27928,67460,12263,13338,-42002,-14661
C00647=-27929,67459,12266,13337,-42004,-14660
C00648=-27929,67458,12268,13336,-42006,-14659
C00649=-27930,67457,12271,13335,-42008,-14659
C00650=-27931,67456,12274,13334,-42010,-14658
C00651=-27932,67455,12276,13333,-42012,-14657
C00652=-27933,67454,12279,13332,-42014,-14656
C00653=-27934,67453,12282,13332,-42016,-14656
C00654=-27934,67452,12284,13331,-42018,-14655
C00655=-27935,67451,12287,13330,-42020,-14654
C00656=-27936,67450,12290,13329,-42022,-14654
C00657=-27937,67449,12293,13328,-42024,-14653
C00658=-27938,67448,12295,13327,-42026,-14652
C00659=-27939,67447,12298,13327,-42028,-14652
C00660=-27940,67446,12301,13326,-42030,-14651
C00661=-27940,67445,12303,13325,-42032,-14650
C00662=-27941,67444,12307,13324,-42034,-14649
C00663=-27943,67443,12310,13323,-42036,-14649
C00664=-27944,67442,12313,13322,-42039,-14648
C00665=-27945,67442,12316,13321,-42041,-14647
C00666=-27946,67441,12319,13320,-42043,-14646
C00667=-27947,67440,12322,13319,-42045,-14645
C00668=-27948,67439,12325,13318,-42047,-14644
C00669=-27949,67438,12328,13317,-42049,-14644
C00670=-27950,67437,12332,13316,-42052,-14643
C00671=-27951,67436,12335,13315,-42054,-14642
C00672=-27952,67435,12338,13314,-42056,-14641
C00673=-27953,67434,12341,13313,-42058,-14640
C00674=-27954,67434,12344,13312,-42060,-14639
C00675=-27955,67433,12347,13311,-42063,-14639
C00676=-27957,67432,12350,13310,-42065,-14638
C00677=-27958,67431,12354,13309,-42067,-14637
C00678=-27959,67430,12357,13308,-42069,-14636
C00679=-27960,67429,12360,13307,-42071,-14635
C00680=-27961,67428,12363,13306,-42073,-14634
C00681=-27962,67428,12366,13305,-42075,-14634
C00682=-27963,67427,12369,13304,-42077,-14633
C00683=-27964,67426,12372,13303,-42080,-14632
C00684=-27965,67425,12375,13302,-42082,-14631
C00685=-27966,67424,12378,13301,-42084,-14630
C00686=-27967,67423,12381,13300,-42086,-14630
C00687=-27968,67422,12384,13300,-42088,-14629
C00688=-27969,67422,12387,13299,-42090,-14628
C00689=-27970,67421,12390,13298,-42092,-14627
C00690=-27971,67420,12393,13297,-42094,-14626
C00691=-27972,67419,12396,13296,-42096,-14626
C00692=-27973,67418,12399,13295,-42098,-14625
C00693=-27974,67417,12402,13294,-42101,-14624
C00694=-27975,67416,12405,13293,-42103,-14623
C00695=-27977,67416,12409,13292,-42105,-14622
C00696=-27978,67415,12412,13291,-42107,-14621
C00697=-27979,67414,12416,13290,-42109,-14620
C00698=-27980,67414,12419,13289,-42111,-14620
C00699=-27982,67413,12423,13287,-42114,-14619
C00700=-27983,67412,12426,13286,-42116,-14618
C00701=-27984,67412,12430,13285,-42118,-14617
C00702=-27986,67411,12433,13284,-42120,-14616
C00703=-27987,67410,12437,13283,-42123,-14615
C00704=-27988,67410,12440,13282,-42125,-14614
C00705=-27989,67409,12444,13281,-42127,-14613
C00706=-27991,67408,12447,13280,-42130,-14612
C00707=-27992,67408,12451,13279,-42132,-14611
C00708=-27993,67407,12454,13278,-42134,-14610
C00709=-27995,67406,12458,13277,-42136,-14609
C00710=-27996,67405,12461,13276,-42139,-14608
C00711=-27997,67405,12465,13274,-42141,-14607
C00712=-27998,67404,12468,13273,-42143,-14606
C00713=-28000,67403,12471,13272,-42145,-14606
C00714=-28001,67403,12475,13271,-42147,-14605
C00715=-28002,67402,12478,13270,-42150,-14604
C00716=-28003,67401,12482,13269,-42152,-14603
C00717=-28005,67401,12485,13268,-42154,-14602
C00718=-28006,67400,12489,13267,-42156,-14601
C00719=-28007,67399,12492,13266,-42158,-14600
C00720=-28008,67399,12495,13265,-42161,-14599
C00721=-28010,67398,12499,13264,-42163,-14598
C00722=-28011,67397,12502,13263,-42165,-14597
C00723=-28012,67397,12506,13262,-42167,-14596
C00724=-28014,67396,12509,13261,-42169,-14595
C00725=-28015,67395,12512,13260,-42172,-14595
C00726=-28016,67395,12516,13259,-42174,-14594
C00727=-28017,67394,12519,13257,-42176,-14593
C00728=-28019,67393,12523,13256,-42178,-14592
C00729=-28020,67393,12526,13255,-42180,-14591
C00730=-28021,67392,12530,13254,-42182,-14590
C00731=-28023,67392,12534,13253,-42185,-14589
C00732=-28024,67391,12538,13252,-42187,-14588
C00733=-28026,67391,12541,13251,-42190,-14587
C00734=-28027,67390,12545,13249,-42192,-14586
C00735=-28029,67390,12549,13248,-42194,-14585
C00736=-28030,67389,12553,13247,-42197,-14584
C00737=-28032,67389,12557,13246,-42199,-14583
C00738=-28033,67388,12561,13245,-42201,-14582
C00739=-28035,67388,12565,13243,-42204,-14581
C00740=-28036,67387,12569,13242,-42206,-14579
C00741=-28038,67387,12573,13241,-42208,-14578
C00742=-28039,67386,12576,13240,-42211,-14577
C00743=-28041,67386,12580,13239,-42213,-14576
C00744=-28042,67385,12584,13237,-42216,-14575
C00745=-28044,67385,12588,13236,-42218,-14574
C00746=-28045,67384,12592,13235,-42220,-14573
C00747=-28047,67384,12596,13234,-42223,-14572
C00748=-28048,67384,12600,13233,-42225,-14571
C00749=-28050,67383,12603,13232,-42227,-14570
C00750=-28051,67383,12607,13230,-42230,-14569
C00751=-28053,67382,12611,13229,-42232,-14568
C00752=-28054,67382,12615,13228,-42234,-14567
C00753=-28056,67381,12618,13227,-42236,-14566
C00754=-28057,67381,12622,13226,-42239,-14565
C00755=-28059,67380,12626,13225,-42241,-14564
C00756=-28060,67380,12630,13223,-42243,-14563
C00757=-28061,67379,12633,13222,-42245,-14562
C00758=-28063,67379,12637,13221,-42248,-14561
C00759=-28065,67378,12641,13220,-42250,-14560
C00760=-28066,67378,12645,13219,-42252,-14559
C00761=-28067,67377,12649,13218,-42255,-14558
C00762=-28069,67377,12653,13216,-42257,-14557
C00763=-28070,67376,12656,13215,-42259,-14556
C00764=-28072,67376,12660,13214,-42261,-14555
C00765=-28073,67376,12664,13213,-42264,-14554
C00766=-28075,67375,12668,13212,-42266,-14552
C00767=-28077,67375,12672,13210,-42269,-14551
C00768=-28079,67375,12677,13209,-42271,-14550
C00769=-28080,67375,12681,13208,-42273,-14549
C00770=-28082,67374,12685,13206,-42276,-14548
C00771=-28084,67374,12690,13205,-42278,-14547
C00772=-28085,67374,12694,13204,-42281,-14546
C00773=-28087,67373,12698,13203,-42283,-14544
C00774=-28089,67373,12702,13201,-42286,-14543
C00775=-28091,67373,12707,13200,-42288,-14542
C00776=-28092,67373,12711,13199,-42291,-14541
C00777=-28094,67372,12715,13197,-42293,-14540
C00778=-28096,67372,12720,13196,-42296,-14539
C00779=-28098,67372,12724,13195,-42298,-14537
C00780=-28099,67372,12728,13193,-42300,-14536
C00781=-28101,67371,12732,13192,-42303,-14535
C00782=-28103,67371,12737,13191,-42305,-14534
C00783=-28105,67371,12741,13190,-42308,-14533
C00784=-28106,67370,12745,13188,-42310,-14532
C00785=-28108,67370,12749,13187,-42313,-14530
C00786=-28110,67370,12753,13186,-42315,-14529
C00787=-28111,67370,12758,13184,-42318,-14528
C00788=-28113,67369,12762,13183,-42320,-14527
C00789=-28115,67369,12766,13182,-42323,-14526
C00790=-28117,67369,12771,13180,-42325,-14525
C00791=-28118,67369,12775,13179,-42327,-14523
C00792=-28120,67368,12779,13178,-42330,-14522
C00793=-28122,67368,12784,13176,-42332,-14521
C00794=-28124,67368,12788,13175,-42335,-14520
C00795=-28125,67367,12792,13174,-42337,-14519
C00796=-28127,67367,12796,13173,-42340,-14518
C00797=-28129,67367,12801,13171,-42342,-14516
C00798=-28130,67367,12805,13170,-42345,-14515
C00799=-28132,67366,12809,13169,-42347,-14514
C00800=-28134,67366,12813,13167,-42349,-14513
C00801=-28136,67366,12817,13166,-42352,-14512
C00802=-28138,67366,12823,13165,-42354,-14511
C00803=-28140,67366,12827,13163,-42357,-14509
C00804=-28142,67366,12832,13162,-42360,-14508
C00805=-28144,67366,12837,13160,-42362,-14507
C00806=-28146,67366,12842,13159,-42365,-14505
C00807=-28148,67366,12846,13157,-42367,-14504
C00808=-28150,67366,12851,13156,-42370,-14503
C00809=-28152,67366,12856,13155,-42373,-14501
C00810=-28154,67366,12861,13153,-42375,-14500
C00811=-28156,67365,12866,13152,-42378,-14499
C00812=-28158,67365,12871,13150,-42381,-14497
C00813=-28160,67365,12875,13149,-42383,-14496
C00814=-28162,67365,12880,13147,-42386,-14495
C00815=-28164,67365,12885,13146,-42388,-14493
C00816=-28166,67365,12890,13144,-42391,-14492
C00817=-28168,67365,12895,13143,-42394,-14491
C00818=-28170,67365,12900,13141,-42396,-14489
C00819=-28172,67365,12904,13140,-42399,-14488
C00820=-28174,67365,12909,13139,-42401,-14487
C00821=-28176,67365,12914,13137,-42404,-14486
C00822=-28178,67365,12918,13136,-42406,-14484
C00823=-28180,67365,12923,13134,-42409,-14483
C00824=-28182,67365,12927,13133,-42412,-14482
C00825=-28184,67365,12932,13132,-42414,-14480
C00826=-28186,67365,12937,13130,-42417,-14479
C00827=-28188,67365,12941,13129,-42419,-14478
C00828=-28190,67365,12946,13127,-42422,-14477
C00829=-28192,67365,12951,13126,-42424,-14475
C00830=-28194,67365,12956,13124,-42427,-14474
C00831=-28196,67364,12960,13123,-42429,-14473
C00832=-28198,67364,12965,13122,-42432,-14471
C00833=-28200,67364,12970,13120,-42435,-14470
C00834=-28201,67364,12974,13119,-42437,-14469
C00835=-28204,67364,12979,13117,-42440,-14468
C00836=-28205,67364,12984,13116,-42442,-14466
C00837=-28207,67364,12988,13115,-42445,-14465
C00838=-28210,67365,12993,13113,-42447,-14464
C00839=-28212,67365,12999,13111,-42450,-14462
C00840=-28214,67365,13004,13110,-42453,-14461
C00841=-28216,67365,13009,13109,-42455,-14460
C00842=-28219,67365,13014,13107,-42458,-14458
C00843=-28221,67366,13019,13105,-42461,-14457
C00844=-28223,67366,13025,13104,-42464,-14455
C00845=-28225,67366,13030,13102,-42466,-14454
C00846=-28228,67366,13035,13101,-42469,-14452
C00847=-28230,67366,13040,13099,-42472,-14451
C00848=-28232,67367,13045,13098,-42474,-14450
C00849=-28234,67367,13051,13096,-42477,-14448
C00850=-28237,67367,13056,13094,-42480,-14447
C00851=-28239,67367,13061,13093,-42483,-14445
C00852=-28241,67367,13066,13091,-42485,-14444
C00853=-28244,67368,13072,13090,-42488,-14442
C00854=-28246,67368,13077,13088,-42491,-14441
C00855=-28248,67368,13082,13087,-42493,-14439
C00856=-28250,67368,13087,13085,-42496,-14438
C00857=-28252,67368,13092,13084,-42499,-14437
C00858=-28255,67369,13098,13082,-42501,-14435
C00859=-28257,67369,13103,13081,-42504,-14434
C00860=-28259,67369,13108,13079,-42506,-14432
C00861=-28261,67369,13113,13077,-42509,-14431
C00862=-28263,67369,13118,13076,-42512,-14430
C00863=-28266,67370,13123,13074,-42514,-14428
C00864=-28268,67370,13128,13073,-42517,-14427
C00865=-28270,67370,13133,13071,-42520,-14425
C00866=-28272,67370,13139,13070,-42523,-14424
C00867=-28274,67370,13143,13068,-42525,-14423
C00868=-28277,67371,13148,13067,-42528,-14421
C00869=-28279,67371,13154,13065,-42530,-14420
C00870=-28281,67371,13159,13064,-42533,-14418
C00871=-28283,67371,13164,13062,-42536,-14417
C00872=-28286,67371,13169,13061,-42538,-14416
C00873=-28288,67372,13174,13059,-42541,-14414
C00874=-28290,67372,13179,13058,-42543,-14413
C00875=-28292,67372,13184,13056,-42546,-14411
C00876=-28295,67373,13190,13054,-42549,-14410
C00877=-28297,67373,13196,13053,-42552,-14408
C00878=-28300,67374,13201,13051,-42555,-14407
C00879=-28302,67374,13207,13049,-42557,-14405
C00880=-28305,67375,13213,13048,-42560,-14404
C00881=-28307,67375,13218,13046,-42563,-14402
C00882=-28310,67376,13224,13044,-42566,-14401
C00883=-28312,67376,13230,13043,-42569,-14399
C00884=-28315,67376,13235,13041,-42571,-14397
C00885=-28317,67377,13241,13039,-42574,-14396
C00886=-28320,67377,13247,13038,-42577,-14394
C00887=-28322,67378,13252,13036,-42580,-14393
C00888=-28325,67378,13258,13034,-42583,-14391
C00889=-28327,67379,13264,13033,-42585,-14390
C00890=-28330,67379,13269,13031,-42588,-14388
C00891=-28332,67380,13275,13029,-42591,-14386
C00892=-28335,67380,13281,13028,-42594,-14385
C00893=-28337,67381,13287,13026,-42597,-14383
C00894=-28340,67381,13292,13024,-42599,-14382
C00895=-28342,67382,13297,13023,-42602,-14380
C00896=-28345,67382,13303,13021,-42605,-14379
C00897=-28347,67383,13309,13019,-42608,-14377
C00898=-28350,67383,13314,13018,-42610,-14376
C00899=-28352,67384,13319,13016,-42613,-14374
C00900=-28355,67384,13325,13014,-42616,-14373
C00901=-28357,67385,13331,13013,-42619,-14371
C00902=-28359,67385,13336,13011,-42621,-14370
C00903=-28362,67385,13342,13010,-42624,-14368
C00904=-28364,67386,13347,13008,-42627,-14367
C00905=-28367,67386,13353,13006,-42629,-14365
C00906=-28369,67387,13359,13005,-42632,-14363
C00907=-28372,67387,13364,13003,-42635,-14362
C00908=-28374,67388,13369,13001,-42638,-14361
C00909=-28377,67388,13375,13000,-42640,-14359
C00910=-28379,67389,13381,12998,-42643,-14357
C00911=-28382,67389,13386,12996,-42646,-14356
C00912=-28384,67390,13391,12995,-42649,-14354
C00913=-28387,67390,13397,12993,-42651,-14353
C00914=-28389,67391,13403,12991,-42654,-14351
C00915=-28392,67392,13409,12990,-42657,-14350
C00916=-28395,67393,13416,12988,-42660,-14348
C00917=-28398,67393,13422,12986,-42663,-14346
C00918=-28400,67394,13427,12984,-42666,-14345
C00919=-28403,67395,13434,12982,-42669,-14343
C00920=-28406,67396,13440,12981,-42672,-14341
C00921=-28409,67396,13446,12979,-42674,-14339
C00922=-28411,67397,13452,12977,-42677,-14338
C00923=-28414,67398,13458,12975,-42680,-14336
C00924=-28417,67399,13464,12974,-42683,-14334
C00925=-28420,67400,13470,12972,-42686,-14333
C00926=-28423,67400,13477,12970,-42689,-14331
C00927=-28425,67401,13483,12968,-42692,-14329
C00928=-28428,67402,13489,12966,-42695,-14328
C00929=-28431,67403,13495,12965,-42698,-14326
C00930=-28434,67403,13501,12963,-42700,-14324
C00931=-28436,67404,13507,12961,-42703,-14323
C00932=-28439,67405,13514,12959,-42706,-14321
C00933=-28442,67406,13520,12957,-42709,-14319
C00934=-28445,67407,13525,12956,-42712,-14318
C00935=-28447,67407,13531,12954,-42715,-14316
C00936=-28450,67408,13538,12952,-42718,-14314
C00937=-28453,67409,13544,12950,-42720,-14313
C00938=-28455,67410,13550,12949,-42723,-14311
C00939=-28458,67410,13555,12947,-42726,-14309
C00940=-28461,67411,13562,12945,-42729,-14308
C00941=-28464,67412,13568,12943,-42732,-14306
C00942=-28466,67413,13574,12942,-42735,-14304
C00943=-28469,67413,13579,12940,-42737,-14303
C00944=-28472,67414,13586,12938,-42740,-14301
C00945=-28475,67415,13592,12936,-42743,-14299
C00946=-28477,67416,13598,12935,-42746,-14298
C00947=-28480,67416,13603,12933,-42749,-14296
C00948=-28483,67417,13610,12931,-42752,-14294
C00949=-28485,67418,13616,12929,-42755,-14293
C00950=-28488,67419,13622,12928,-42757,-14291
C00951=-28491,67419,13628,12926,-42760,-14290
C00952=-28493,67420,13633,12924,-42763,-14288
C00953=-28496,67421,13640,12922,-42766,-14286
C00954=-28499,67422,13646,12920,-42769,-14284
C00955=-28502,67423,13653,12919,-42772,-14283
C00956=-28506,67425,13660,12916,-42775,-14281
C00957=-28509,67426,13666,12915,-42778,-14279
C00958=-28512,67427,13673,12913,-42781,-14277
C00959=-28515,67428,13679,12911,-42784,-14275
C00960=-28518,67429,13686,12909,-42787,-14273
C00961=-28521,67430,13693,12907,-42790,-14272
C00962=-28524,67431,13699,12905,-42793,-14270
C00963=-28527,67432,13706,12903,-42795,-14268
C00964=-28530,67434,13713,12901,-42799,-14266
C00965=-28533,67435,13719,12899,-42802,-14264
C00966=-28536,67436,13726,12897,-42805,-14262
C00967=-28539,67437,13732,12896,-42807,-14261
C00968=-28542,67438,13739,12894,-42811,-14259
C00969=-28545,67439,13746,12892,-42814,-14257
C00970=-28548,67440,13752,12890,-42816,-14255
C00971=-28551,67441,13759,12888,-42819,-14253
C00972=-28555,67442,13766,12886,-42823,-14251
C00973=-28558,67444,13772,12884,-42825,-14250
C00974=-28560,67445,13779,12882,-42828,-14248
C00975=-28564,67446,13786,12880,-42832,-14246
C00976=-28567,67447,13792,12878,-42834,-14244
C00977=-28570,67448,13799,12876,-42838,-14242
C00978=-28573,67449,13805,12874,-42840,-14241
C00979=-28576,67450,13812,12872,-42844,-14239
C00980=-28579,67451,13819,12871,-42846,-14237
C00981=-28582,67452,13826,12869,-42850,-14235
C00982=-28585,67454,13832,12867,-42852,-14233
C00983=-28588,67455,13839,12865,-42855,-14231
C00984=-28591,67456,13846,12863,-42859,-14230
C00985=-28594,67457,13852,12861,-42861,-14228
C00986=-28598,67458,13859,12859,-42865,-14226
C00987=-28600,67459,13865,12857,-42867,-14224
C00988=-28604,67460,13872,12855,-42871,-14222
C00989=-28607,67461,13879,12853,-42873,-14220
C00990=-28610,67463,13886,12851,-42877,-14219
C00991=-28613,67464,13892,12849,-42880,-14217
C00992=-28616,67465,13899,12848,-42882,-14215
C00993=-28619,67466,13906,12846,-42885,-14213
C00994=-28622,67468,13913,12844,-42888,-14211
C00995=-28626,67469,13920,12841,-42892,-14209
C00996=-28629,67471,13927,12839,-42895,-14207
C00997=-28633,67472,13935,12837,-42898,-14205
C00998=-28636,67474,13942,12835,-42901,-14203
C00999=-28640,67475,13950,12833,-42904,-14201
C01000=-28643,67477,13957,12831,-42907,-14199
C01001=-28647,67478,13964,12829,-42911,-14197
C01002=-28650,67480,13972,12827,-42914,-14195
C01003=-28653,67481,13979,12825,-42917,-14193
C01004=-28657,67483,13986,12822,-42920,-14191
C01005=-28660,67484,13993,12820,-42923,-14189
C01006=-28664,67486,14001,12818,-42927,-14187
C01007=-28667,67487,14008,12816,-42930,-14185
C01008=-28671,67489,14016,12814,-42933,-14183
C01009=-28674,67490,14023,12812,-42936,-14181
C01010=-28678,67492,14030,12810,-42939,-14179
C01011=-28681,67493,14037,12808,-42942,-14177
C01012=-28685,67495,14045,12806,-42946,-14175
C01013=-28688,67496,14052,12804,-42949,-14173
C01014=-28691,67498,14059,12802,-42952,-14171
C01015=-28695,67499,14067,12799,-42955,-14169
C01016=-28698,67501,14074,12798,-42958,-14167
C01017=-28701,67502,14080,12796,-42961,-14165
C01018=-28705,67504,14088,12793,-42964,-14163
C01019=-28708,67505,14095,12791,-42967,-14161
C01020=-28711,67507,14102,12789,-42970,-14159
C01021=-28715,67508,14110,12787,-42973,-14157
C01022=-28718,67510,14116,12785,-42976,-14155
C01023=-28722,67511,14124,12783,-42980,-14153
C01024=-28725,67513,14131,12781,-42982,-14151
C01025=-28728,67514,14138,12779,-42985,-14149
C01026=-28732,67516,14145,12777,-42989,-14147
C01027=-28735,67517,14152,12775,-42992,-14145
C01028=-28738,67518,14159,12773,-42995,-14143
C01029=-28742,67520,14167,12771,-42998,-14141
C01030=-28745,67521,14174,12769,-43001,-14139
C01031=-28748,67523,14181,12767,-43004,-14138
C01032=-28752,67524,14188,12765,-43007,-14135
C01033=-28755,67526,14195,12763,-43010,-14134
C01034=-28759,67528,14203,12760,-43013,-14131
C01035=-28762,67530,14211,12758,-43017,-14129
C01036=-28766,67532,14219,12756,-43020,-14127
C01037=-28770,67534,14227,12754,-43023,-14125
C01038=-28774,67536,14235,12752,-43026,-14123
C01039=-28777,67538,14242,12750,-43029,-14121
C01040=-28781,67540,14251,12747,-43033,-14118
C01041=-28785,67541,14258,12745,-43036,-14116
C01042=-28789,67543,14266,12743,-43039,-14114
C01043=-28793,67545,14274,12740,-43043,-14112
C01044=-28796,67547,14282,12738,-43046,-14110
C01045=-28800,67549,14290,12736,-43049,-14108
C01046=-28804,67551,14298,12734,-43052,-14105
C01047=-28807,67553,14306,12732,-43055,-14103
C01048=-28811,67555,14314,12729,-43059,-14101
C01049=-28815,67557,14322,12727,-43062,-14099
C01050=-28819,67559,14329,12725,-43065,-14097
C01051=-28823,67561,14338,12723,-43069,-14095
C01052=-28826,67563,14345,12720,-43072,-14092
C01053=-28830,67565,14354,12718,-43075,-14090
C01054=-28834,67567,14361,12716,-43078,-14088
C01055=-28837,67568,14369,12714,-43081,-14086
C01056=-28841,67570,14376,12712,-43085,-14084
C01057=-28845,67572,14384,12709,-43088,-14082
C01058=-28849,67574,14392,12707,-43091,-14080
C01059=-28852,67576,14399,12705,-43094,-14078
C01060=-28856,67578,14408,12703,-43097,-14075
C01061=-28860,67580,14415,12701,-43101,-14073
C01062=-28863,67582,14423,12699,-43104,-14071
C01063=-28867,67584,14431,12696,-43107,-14069
C01064=-28871,67586,14438,12694,-43110,-14067
C01065=-28874,67587,14446,12692,-43113,-14065
C01066=-28878,67589,14454,12690,-43117,-14063
C01067=-28882,67591,14462,12688,-43120,-14061
C01068=-28885,67593,14469,12685,-43123,-14059
C01069=-28889,67595,14477,12683,-43126,-14056
C01070=-28893,67597,14485,12681,-43129,-14054
C01071=-28896,67599,14492,12679,-43132,-14052
C01072=-28900,67601,14500,12677,-43135,-14050
C01073=-28904,67603,14508,12675,-43139,-14048
C01074=-28907,67604,14516,12672,-43142,-14046
C01075=-28911,67606,14523,12670,-43145,-14044
C01076=-28915,67609,14532,12668,-43148,-14041
C01077=-28919,67611,14540,12665,-43152,-14039
C01078=-28923,67614,14549,12663,-43155,-14037
C01079=-28928,67616,14558,12661,-43158,-14034
C01080=-28932,67619,14566,12658,-43162,-14032
C01081=-28936,67621,14574,12656,-43165,-14030
C01082=-28940,67623,14583,12654,-43168,-14028
C01083=-28944,67626,14592,12651,-43172,-14025
C01084=-28948,67628,14600,12649,-43175,-14023
C01085=-28952,67630,14608,12647,-43178,-14021
C01086=-28956,67633,14617,12644,-43182,-14018
C01087=-28960,67635,14625,12642,-43185,-14016
C01088=-28964,67638,14634,12639,-43188,-14014
C01089=-28969,67640,14643,12637,-43192,-14011
C01090=-28973,67643,14651,12635,-43195,-14009
C01091=-28977,67645,14659,12632,-43198,-14007
C01092=-28981,67647,14668,12630,-43202,-14004
C01093=-28985,67650,14677,12628,-43205,-14002
C01094=-28989,67652,14685,12625,-43208,-14000
C01095=-28993,67655,14694,12623,-43212,-13997
C01096=-28997,67657,14702,12620,-43215,-13995
C01097=-29001,67659,14710,12618,-43218,-13993
C01098=-29005,67662,14718,12616,-43221,-13990
C01099=-29009,67664,14727,12614,-43225,-13988
C01100=-29013,67666,14736,12611,-43228,-13986
C01101=-29017,67669,14744,12609,-43231,-13984
C01102=-29021,67671,14752,12607,-43234,-13981
C01103=-29025,67673,14760,12604,-43238,-13979
C01104=-29030,67676,14769,12602,-43241,-13977
C01105=-29033,67678,14777,12600,-43244,-13974
C01106=-29037,67680,14785,12597,-43248,-13972
C01107=-29041,67683,14793,12595,-43251,-13970
C01108=-29046,67685,14802,12593,-43254,-13968
C01109=-29050,67688,14811,12590,-43257,-13965
C01110=-29054,67690,14819,12588,-43261,-13963
C01111=-29057,67692,14827,12586,-43264,-13961
C01112=-29061,67694,14835,12583,-43267,-13959
C01113=-29066,67697,14844,12581,-43271,-13956
C01114=-29070,67699,14852,12579,-43274,-13954
C01115=-29074,67702,14860,12576,-43277,-13952
C01116=-29077,67704,14868,12574,-43280,-13950
C01117=-29082,67706,14877,12572,-43283,-13947
C01118=-29086,67709,14886,12569,-43287,-13945
C01119=-29090,67712,14895,12567,-43290,-13942
C01120=-29095,67715,14904,12564,-43293,-13940
C01121=-29099,67718,14913,12562,-43297,-13937
C01122=-29104,67721,14922,12559,-43300,-13935
C01123=-29108,67724,14931,12557,-43304,-13932
C01124=-29113,67727,14940,12554,-43307,-13930
C01125=-29117,67729,14949,12552,-43310,-13928
C01126=-29122,67733,14959,12549,-43314,-13925
C01127=-29126,67735,14968,12547,-43317,-13922
C01128=-29130,67738,14977,12544,-43321,-13920
C01129=-29135,67741,14986,12542,-43324,-13918
C01130=-29140,67744,14996,12539,-43328,-13915
C01131=-29144,67747,15004,12537,-43331,-13913
C01132=-29148,67750,15013,12534,-43334,-13910
C01133=-29153,67753,15022,12532,-43338,-13908
C01134=-29157,67756,15032,12529,-43341,-13905
C01135=-29162,67759,15041,12527,-43345,-13903
C01136=-29166,67762,15050,12524,-43348,-13900
C01137=-29170,67764,15059,12522,-43351,-13898
C01138=-29175,67768,15069,12519,-43355,-13895
C01139=-29179,67770,15077,12517,-43358,-13893
C01140=-29184,67773,15086,12514,-43362,-13890
C01141=-29189,67776,15096,12512,-43365,-13888
C01142=-29193,67779,15105,12509,-43368,-13885
C01143=-29197,67782,15114,12507,-43372,-13883
C01144=-29202,67785,15123,12504,-43375,-13880
C01145=-29206,67788,15132,12502,-43379,-13878
C01146=-29211,67791,15142,12499,-43382,-13875
C01147=-29215,67794,15151,12497,-43386,-13873
C01148=-29219,67796,15159,12494,-43389,-13870
C01149=-29224,67800,15169,12492,-43392,-13868
C01150=-29228,67802,15178,12489,-43396,-13865
C01151=-29233,67805,15187,12486,-43399,-13863
C01152=-29237,67808,15196,12484,-43403,-13860
C01153=-29242,67811,15205,12482,-43406,-13858
C01154=-29246,67814,15215,12479,-43410,-13855
C01155=-29251,67817,15224,12477,-43413,-13853
C01156=-29255,67820,15233,12474,-43416,-13850
C01157=-29260,67823,15242,12472,-43420,-13848
C01158=-29264,67826,15251,12469,-43423,-13846
C01159=-29269,67829,15261,12466,-43427,-13843
C01160=-29273,67832,15269,12464,-43430,-13841
C01161=-29278,67835,15279,12461,-43433,-13838
C01162=-29283,67839,15289,12459,-43437,-13835
C01163=-29288,67842,15299,12456,-43440,-13833
C01164=-29293,67846,15309,12453,-43444,-13830
C01165=-29298,67849,15319,12451,-43447,-13827
C01166=-29303,67853,15330,12448,-43451,-13824
C01167=-29308,67857,15339,12445,-43455,-13822
C01168=-29312,67860,15349,12442,-43458,-13819
C01169=-29318,67864,15360,12440,-43462,-13816
C01170=-29322,67867,15369,12437,-43465,-13814
C01171=-29328,67871,15380,12434,-43469,-13811
C01172=-29332,67875,15390,12431,-43473,-13808
C01173=-29337,67878,15399,12429,-43476,-13805
C01174=-29342,67882,15410,12426,-43480,-13803
C01175=-29347,67885,15420,12423,-43483,-13800
C01176=-29352,67889,15430,12420,-43487,-13797
C01177=-29357,67892,15440,12418,-43490,-13794
C01178=-29362,67896,15450,12415,-43494,-13792
C01179=-29367,67900,15460,12412,-43498,-13789
C01180=-29372,67903,15470,12410,-43501,-13786
C01181=-29377,67907,15480,12407,-43505,-13783
C01182=-29382,67910,15490,12404,-43508,-13781
C01183=-29387,67914,15500,12402,-43512,-13778
C01184=-29391,67917,15509,12399,-43515,-13776
C01185=-29396,67921,15520,12396,-43519,-13773
C01186=-29401,67924,15529,12394,-43522,-13770
C01187=-29406,67928,15539,12391,-43525,-13768
C01188=-29411,67931,15549,12388,-43529,-13765
C01189=-29416,67935,15559,12386,-43532,-13762
C01190=-29420,67938,15568,12383,-43536,-13760
C01191=-29425,67941,15578,12381,-43539,-13757
C01192=-29430,67945,15588,12378,-43543,-13754
C01193=-29435,67949,15598,12375,-43546,-13752
C01194=-29440,67952,15607,12373,-43550,-13749
C01195=-29445,67956,15618,12370,-43553,-13746
C01196=-29450,67959,15627,12367,-43557,-13744
C01197=-29454,67962,15637,12365,-43560,-13741
C01198=-29459,67966,15647,12362,-43564,-13738
C01199=-29464,67970,15657,12359,-43567,-13736
C01200=-29469,67973,15666,12357,-43571,-13733
C01201=-29474,67976,15676,12354,-43574,-13731
C01202=-29479,67980,15686,12351,-43578,-13728
C01203=-29483,67984,15696,12349,-43581,-13725
C01204=-29488,67987,15705,12346,-43584,-13723
C01205=-29494,67992,15717,12343,-43588,-13720
C01206=-29499,67996,15727,12340,-43592,-13717
C01207=-29504,68000,15738,12337,-43595,-13714
C01208=-29509,68004,15748,12335,-43599,-13711
C01209=-29515,68009,15760,12332,-43603,-13708
C01210=-29520,68013,15770,12329,-43606,-13705
C01211=-29526,68017,15781,12326,-43610,-13702
C01212=-29531,68021,15792,12323,-43614,-13699
C01213=-29536,68025,15803,12320,-43617,-13696
C01214=-29542,68030,15813,12317,-43621,-13694
C01215=-29547,68034,15824,12314,-43624,-13691
C01216=-29553,68038,15835,12311,-43628,-13688
C01217=-29558,68042,15845,12309,-43631,-13685
C01218=-29563,68046,15856,12306,-43635,-13682
C01219=-29569,68051,15867,12303,-43639,-13679
C01220=-29574,68055,15878,12300,-43642,-13676
C01221=-29579,68059,15888,12297,-43646,-13673
C01222=-29585,68064,15900,12294,-43650,-13670
C01223=-29590,68068,15910,12291,-43653,-13668
C01224=-29595,68072,15921,12289,-43657,-13665
C01225=-29601,68076,15932,12286,-43661,-13662
C01226=-29606,68080,15942,12283,-43664,-13659
C01227=-29611,68084,15953,12280,-43668,-13656
C01228=-29616,68088,15963,12277,-43671,-13653
C01229=-29621,68093,15973,12275,-43674,-13651
C01230=-29627,68097,15985,12272,-43678,-13648
C01231=-29632,68101,15995,12269,-43682,-13645
C01232=-29637,68105,16005,12266,-43685,-13642
C01233=-29643,68109,16016,12263,-43689,-13639
C01234=-29648,68114,16027,12260,-43692,-13636
C01235=-29653,68118,16037,12258,-43696,-13633
C01236=-29658,68122,16048,12255,-43699,-13631
C01237=-29664,68126,16058,12252,-43703,-13628
C01238=-29669,68130,16068,12249,-43706,-13625
C01239=-29674,68134,16080,12246,-43710,-13622
C01240=-29679,68138,16090,12244,-43714,-13619
C01241=-29685,68142,16100,12241,-43717,-13616
C01242=-29690,68146,16110,12238,-43721,-13614
C01243=-29695,68151,16122,12235,-43724,-13611
C01244=-29700,68155,16132,12232,-43728,-13608
C01245=-29706,68159,16142,12229,-43731,-13605
C01246=-29711,68163,16153,12227,-43735,-13602
C01247=-29716,68167,16163,12224,-43738,-13600
C01248=-29721,68172,16174,12221,-43742,-13597
C01249=-29727,68176,16185,12218,-43745,-13594
C01250=-29733,68181,16196,12215,-43749,-13591
C01251=-29738,68186,16207,12212,-43752,-13588
C01252=-29744,68191,16220,12209,-43756,-13584
C01253=-29750,68196,16231,12206,-43760,-13581
C01254=-29756,68201,16242,12203,-43764,-13578
C01255=-29761,68206,16253,12200,-43767,-13575
C01256=-29767,68211,16265,12197,-43771,-13572
C01257=-29773,68216,16277,12194,-43775,-13569
C01258=-29779,68221,16288,12191,-43778,-13566
C01259=-29784,68226,16300,12188,-43782,-13563
C01260=-29790,68230,16311,12185,-43785,-13560
C01261=-29796,68236,16323,12182,-43789,-13557
C01262=-29802,68241,16334,12179,-43793,-13554
C01263=-29807,68245,16346,12176,-43796,-13551
C01264=-29813,68250,16357,12173,-43800,-13548
C01265=-29819,68255,16368,12170,-43803,-13545
C01266=-29825,68260,16380,12167,-43807,-13541
C01267=-29831,68265,16392,12164,-43811,-13538
C01268=-29836,68270,16403,12161,-43814,-13535
C01269=-29842,68275,16414,12158,-43818,-13532
C01270=-29848,68280,16426,12155,-43822,-13529
C01271=-29854,68285,16437,12152,-43826,-13526
C01272=-29859,68290,16449,12149,-43829,-13523
C01273=-29865,68295,16461,12146,-43833,-13520
C01274=-29871,68300,16472,12143,-43836,-13517
C01275=-29876,68305,16483,12140,-43840,-13514
C01276=-29883,68310,16495,12137,-43844,-13511
C01277=-29888,68315,16506,12134,-43847,-13508
C01278=-29894,68319,16518,12131,-43851,-13505
C01279=-29900,68325,16530,12128,-43855,-13502
C01280=-29905,68329,16541,12125,-43858,-13499
C01281=-29911,68334,16552,12122,-43862,-13496
C01282=-29917,68340,16564,12119,-43866,-13492
C01283=-29923,68344,16575,12116,-43869,-13489
C01284=-29928,68349,16587,12113,-43873,-13486
C01285=-29934,68354,16599,12110,-43877,-13483
C01286=-29940,68359,16610,12107,-43880,-13480
C01287=-29946,68364,16622,12103,-43884,-13477
C01288=-29952,68369,16633,12101,-43888,-13474
C01289=-29957,68374,16644,12098,-43891,-13471
C01290=-29964,68379,16657,12094,-43895,-13468
C01291=-29969,68384,16668,12091,-43899,-13465
C01292=-29975,68389,16679,12089,-43902,-13462
C01293=-29981,68394,16690,12086,-43906,-13459
C01294=-29987,68400,16703,12082,-43909,-13455
C01295=-29993,68405,16715,12079,-43913,-13452
C01296=-29999,68412,16728,12076,-43917,-13449
C01297=-30006,68417,16740,12073,-43921,-13446
C01298=-30012,68423,16752,12070,-43924,-13442
C01299=-30018,68429,16765,12066,-43928,-13439
C01300=-30024,68435,16777,12063,-43932,-13436
C01301=-30031,68441,16791,12060,-43936,-13432
C01302=-30037,68447,16803,12057,-43939,-13429
C01303=-30043,68452,16815,12053,-43943,-13426
C01304=-30050,68459,16828,12050,-43947,-13422
C01305=-30056,68464,16840,12047,-43951,-13419
C01306=-30062,68470,16852,12044,-43954,-13416
C01307=-30069,68476,16866,12040,-43958,-13412
C01308=-30075,68482,16878,12037,-43962,-13409
C01309=-30081,68487,16890,12034,-43965,-13406
C01310=-30088,68494,16903,12031,-43969,-13402
C01311=-30094,68499,16915,12028,-43973,-13399
C01312=-30100,68505,16927,12024,-43977,-13396
C01313=-30107,68511,16940,12021,-43980,-13392
C01314=-30113,68517,16952,12018,-43984,-13389
C01315=-30120,68523,16966,12014,-43988,-13386
C01316=-30126,68529,16978,12011,-43992,-13382
C01317=-30132,68534,16990,12008,-43995,-13379
C01318=-30138,68540,17002,12005,-43999,-13376
C01319=-30144,68546,17015,12002,-44003,-13373
C01320=-30151,68552,17027,11999,-44006,-13369
C01321=-30157,68557,17039,11996,-44010,-13366
C01322=-30163,68563,17051,11993,-44013,-13363
C01323=-30169,68569,17064,11989,-44017,-13360
C01324=-30175,68574,17076,11986,-44021,-13356
C01325=-30181,68580,17088,11983,-44025,-13353
C01326=-30187,68586,17100,11980,-44028,-13350
C01327=-30194,68592,17113,11976,-44032,-13347
C01328=-30200,68597,17125,11973,-44036,-13343
C01329=-30206,68603,17137,11970,-44039,-13340
C01330=-30212,68609,17149,11967,-44043,-13337
C01331=-30219,68615,17162,11964,-44047,-13334
C01332=-30225,68620,17174,11961,-44050,-13330
C01333=-30231,68626,17186,11958,-44054,-13327
C01334=-30237,68632,17198,11954,-44057,-13324
C01335=-30244,68638,17211,11951,-44061,-13321
C01336=-30250,68643,17223,11948,-44065,-13317
C01337=-30256,68649,17235,11945,-44069,-13314
C01338=-30262,68655,17247,11942,-44072,-13311
C01339=-30268,68661,17260,11939,-44076,-13308
C01340=-30275,68668,17273,11935,-44079,-13304
C01341=-30282,68674,17286,11932,-44083,-13301
C01342=-30289,68682,17300,11928,-44087,-13297
C01343=-30295,68688,17313,11925,-44091,-13294
C01344=-30302,68695,17326,11922,-44094,-13290
C01345=-30309,68701,17339,11918,-44098,-13287
C01346=-30316,68708,17353,11915,-44102,-13283
C01347=-30322,68715,17366,11912,-44106,-13280
C01348=-30329,68722,17379,11908,-44109,-13276
C01349=-30336,68728,17392,11905,-44113,-13273
C01350=-30343,68735,17406,11901,-44117,-13269
C01351=-30349,68742,17419,11898,-44120,-13266
C01352=-30356,68748,17432,11895,-44124,-13262
C01353=-30363,68755,17445,11892,-44128,-13259
C01354=-30370,68762,17459,11888,-44132,-13255
C01355=-30376,68769,17472,11885,-44135,-13252
C01356=-30383,68775,17485,11881,-44139,-13248
C01357=-30390,68782,17498,11878,-44143,-13245
C01358=-30397,68789,17512,11874,-44146,-13241
C01359=-30403,68796,17525,11871,-44150,-13238
C01360=-30410,68802,17538,11868,-44154,-13234
C01361=-30417,68809,17553,11864,-44158,-13231
C01362=-30424,68816,17565,11861,-44161,-13227
C01363=-30430,68822,17578,11858,-44165,-13224
C01364=-30438,68830,17592,11854,-44169,-13220
C01365=-30444,68836,17605,11851,-44172,-13217
C01366=-30451,68843,17618,11848,-44176,-13213
C01367=-30458,68850,17632,11844,-44180,-13210
C01368=-30464,68856,17645,11841,-44184,-13206
C01369=-30471,68863,17658,11838,-44187,-13203
C01370=-30478,68870,17672,11834,-44191,-13199
C01371=-30485,68876,17685,11831,-44195,-13196
C01372=-30492,68883,17699,11827,-44199,-13192
C01373=-30498,68890,17712,11824,-44202,-13189
C01374=-30505,68897,17724,11821,-44206,-13185
C01375=-30512,68904,17739,11817,-44210,-13182
C01376=-30519,68910,17751,11814,-44213,-13178
C01377=-30525,68917,17764,11811,-44217,-13175
C01378=-30532,68924,17778,11807,-44221,-13171
C01379=-30539,68930,17791,11804,-44225,-13168
C01380=-30546,68937,17805,11800,-44229,-13164
C01381=-30552,68944,17818,11797,-44232,-13161
C01382=-30559,68950,17831,11794,-44236,-13157
C01383=-30566,68958,17845,11790,-44240,-13154
C01384=-30573,68964,17858,11787,-44243,-13150
C01385=-30579,68971,17870,11784,-44247,-13147
C01386=-30587,68979,17886,11780,-44251,-13143
C01387=-30594,68987,17900,11776,-44254,-13139
C01388=-30601,68994,17913,11773,-44258,-13136
C01389=-30609,69003,17929,11769,-44262,-13132
C01390=-30616,69010,17943,11766,-44265,-13128
C01391=-30624,69019,17958,11762,-44269,-13124
C01392=-30631,69026,17972,11758,-44273,-13121
C01393=-30638,69034,17986,11755,-44277,-13117
C01394=-30646,69042,18001,11751,-44281,-13113
C01395=-30653,69050,18015,11748,-44284,-13109
C01396=-30660,69057,18029,11744,-44288,-13106
C01397=-30668,69066,18044,11740,-44292,-13102
C01398=-30675,69073,18058,11737,-44295,-13098
C01399=-30683,69081,18073,11733,-44299,-13094
C01400=-30690,69089,18087,11730,-44303,-13091
C01401=-30697,69097,18101,11726,-44307,-13087
C01402=-30705,69105,18116,11722,-44311,-13083
C01403=-30712,69113,18130,11719,-44314,-13079
C01404=-30719,69120,18144,11715,-44318,-13076
C01405=-30727,69128,18159,11712,-44322,-13072
C01406=-30734,69136,18173,11708,-44326,-13068
C01407=-30742,69144,18188,11704,-44330,-13064
C01408=-30749,69152,18202,11701,-44333,-13061
C01409=-30756,69159,18216,11698,-44337,-13057
C01410=-30763,69167,18230,11694,-44340,-13053
C01411=-30771,69175,18245,11690,-44344,-13049
C01412=-30778,69183,18258,11687,-44348,-13046
C01413=-30785,69190,18272,11683,-44351,-13042
C01414=-30792,69198,18286,11680,-44355,-13039
C01415=-30799,69206,18301,11676,-44359,-13035
C01416=-30806,69213,18315,11673,-44363,-13031
C01417=-30814,69221,18329,11669,-44366,-13028
C01418=-30821,69228,18342,11666,-44370,-13024
C01419=-30828,69237,18358,11662,-44374,-13020
C01420=-30835,69244,18371,11659,-44377,-13016
C01421=-30842,69252,18385,11655,-44381,-13013
C01422=-30849,69259,18399,11652,-44384,-13009
C01423=-30857,69267,18414,11648,-44388,-13005
C01424=-30864,69275,18428,11645,-44392,-13002
C01425=-30871,69282,18441,11641,-44396,-12998
C01426=-30878,69290,18455,11638,-44399,-12995
C01427=-30886,69298,18470,11634,-44403,-12991
C01428=-30893,69306,18484,11631,-44407,-12987
C01429=-30900,69313,18498,11627,-44410,-12983
C01430=-30907,69321,18512,11624,-44414,-12980
C01431=-30914,69329,18526,11620,-44418,-12976
C01432=-30922,69337,18541,11617,-44421,-12972
C01433=-30930,69346,18555,11613,-44425,-12968
C01434=-30937,69355,18570,11609,-44428,-12965
C01435=-30946,69364,18586,11605,-44432,-12961
C01436=-30953,69373,18601,11602,-44436,-12957
C01437=-30961,69381,18616,11598,-44439,-12953
C01438=-30968,69390,18631,11595,-44443,-12949
C01439=-30977,69400,18647,11591,-44447,-12945
C01440=-30984,69408,18661,11587,-44450,-12941
C01441=-30992,69417,18676,11583,-44454,-12937
C01442=-30999,69425,18691,11580,-44457,-12933
C01443=-31008,69435,18707,11576,-44461,-12929
C01444=-31015,69444,18722,11572,-44465,-12925
C01445=-31023,69452,18737,11569,-44468,-12922
C01446=-31030,69461,18751,11565,-44472,-12918
C01447=-31039,69470,18768,11561,-44476,-12914
C01448=-31046,69479,18782,11557,-44479,-12910
C01449=-31054,69488,18797,11554,-44483,-12906
C01450=-31061,69496,18812,11550,-44487,-12902
C01451=-31070,69506,18828,11546,-44491,-12898
C01452=-31077,69514,18843,11543,-44494,-12894
C01453=-31085,69523,18857,11539,-44498,-12890
C01454=-31093,69532,18874,11535,-44502,-12886
C01455=-31101,69541,18888,11532,-44505,-12882
C01456=-31108,69550,18903,11528,-44509,-12879
C01457=-31117,69559,18919,11524,-44513,-12875
C01458=-31124,69568,18934,11520,-44516,-12871
C01459=-31132,69576,18948,11517,-44520,-12867
C01460=-31140,69586,18965,11513,-44524,-12863
C01461=-31148,69594,18979,11509,-44527,-12859
C01462=-31155,69603,18994,11506,-44531,-12855
C01463=-31163,69612,19010,11502,-44535,-12851
C01464=-31171,69621,19025,11498,-44538,-12847
C01465=-31178,69630,19039,11494,-44542,-12843
C01466=-31187,69639,19056,11491,-44546,-12839
C01467=-31194,69648,19070,11487,-44549,-12835
C01468=-31202,69656,19085,11483,-44553,-12832
C01469=-31210,69666,19101,11479,-44557,-12828
C01470=-31218,69674,19116,11476,-44560,-12824
C01471=-31225,69683,19130,11472,-44564,-12820
C01472=-31234,69692,19147,11468,-44568,-12816
C01473=-31241,69701,19161,11465,-44571,-12812
C01474=-31249,69709,19176,11461,-44575,-12808
C01475=-31257,69719,19192,11457,-44579,-12804
C01476=-31264,69727,19207,11454,-44582,-12800
C01477=-31272,69736,19221,11450,-44586,-12796
C01478=-31280,69745,19237,11446,-44589,-12793
C01479=-31288,69755,19252,11443,-44593,-12789
C01480=-31296,69765,19268,11439,-44596,-12785
C01481=-31305,69776,19285,11435,-44600,-12780
C01482=-31313,69785,19301,11431,-44603,-12776
C01483=-31321,69795,19316,11427,-44607,-12772
C01484=-31330,69806,19333,11423,-44611,-12768
C01485=-31338,69816,19349,11419,-44614,-12764
C01486=-31346,69825,19365,11416,-44618,-12760
C01487=-31355,69836,19382,11411,-44621,-12755
C01488=-31363,69846,19397,11408,-44625,-12751
C01489=-31371,69856,19413,11404,-44628,-12747
C01490=-31380,69866,19430,11400,-44632,-12743
C01491=-31388,69876,19446,11396,-44636,-12739
C01492=-31396,69886,19461,11392,-44639,-12735
C01493=-31405,69897,19479,11388,-44643,-12731
C01494=-31413,69906,19494,11384,-44646,-12727
C01495=-31421,69916,19510,11381,-44650,-12723
C01496=-31430,69927,19527,11376,-44654,-12718
C01497=-31438,69937,19543,11373,-44657,-12714
C01498=-31446,69947,19558,11369,-44661,-12710
C01499=-31455,69957,19575,11365,-44664,-12706
C01500=-31463,69967,19591,11361,-44668,-12702
C01501=-31472,69978,19608,11357,-44672,-12697
C01502=-31480,69988,19624,11353,-44675,-12694
C01503=-31488,69997,19639,11350,-44679,-12690
C01504=-31496,70007,19655,11346,-44682,-12686
C01505=-31504,70017,19670,11342,-44686,-12682
C01506=-31513,70027,19688,11338,-44689,-12677
C01507=-31521,70037,19703,11334,-44693,-12673
C01508=-31529,70047,19719,11330,-44696,-12669
C01509=-31537,70057,19734,11327,-44700,-12665
C01510=-31545,70066,19750,11323,-44703,-12661
C01511=-31553,70077,19767,11319,-44707,-12657
C01512=-31561,70087,19782,11315,-44710,-12653
C01513=-31569,70097,19798,11311,-44714,-12649
C01514=-31577,70106,19814,11308,-44717,-12645
C01515=-31586,70116,19829,11304,-44721,-12641
C01516=-31594,70127,19846,11300,-44725,-12637
C01517=-31602,70136,19862,11296,-44728,-12633
C01518=-31610,70146,19877,11292,-44731,-12629
C01519=-31618,70156,19893,11289,-44735,-12625
C01520=-31626,70166,19908,11285,-44738,-12621
C01521=-31635,70176,19925,11281,-44742,-12616
C01522=-31643,70186,19941,11277,-44746,-12612
C01523=-31651,70196,19957,11273,-44749,-12608
C01524=-31659,70206,19972,11270,-44753,-12604
C01525=-31667,70215,19988,11266,-44756,-12600
C01526=-31676,70226,20004,11262,-44759,-12596
C01527=-31684,70237,20021,11258,-44763,-12592
C01528=-31693,70248,20037,11254,-44766,-12588
C01529=-31701,70259,20053,11250,-44769,-12584
C01530=-31711,70271,20071,11246,-44773,-12579
C01531=-31719,70282,20088,11242,-44776,-12575
C01532=-31728,70293,20104,11238,-44780,-12571
C01533=-31736,70304,20121,11234,-44783,-12567
C01534=-31745,70315,20137,11231,-44786,-12563
C01535=-31754,70327,20155,11226,-44790,-12558
C01536=-31763,70338,20172,11222,-44793,-12554
C01537=-31771,70349,20188,11219,-44797,-12550
C01538=-31780,70360,20204,11215,-44800,-12546
C01539=-31788,70371,20221,11211,-44803,-12541
C01540=-31797,70383,20239,11207,-44807,-12537
C01541=-31806,70394,20255,11203,-44810,-12533
C01542=-31814,70405,20272,11199,-44813,-12529
C01543=-31823,70416,20288,11195,-44817,-12524
C01544=-31831,70427,20305,11191,-44820,-12520
C01545=-31841,70439,20323,11187,-44824,-12516
C01546=-31849,70450,20339,11183,-44827,-12512
C01547=-31858,70461,20355,11179,-44830,-12507
C01548=-31866,70472,20372,11175,-44834,-12503
C01549=-31876,70484,20390,11171,-44837,-12499
C01550=-31884,70495,20406,11167,-44841,-12495
C01551=-31893,70505,20423,11163,-44844,-12490
C01552=-31901,70516,20439,11159,-44847,-12486
C01553=-31910,70528,20457,11155,-44851,-12482
C01554=-31919,70539,20473,11151,-44854,-12478
C01555=-31927,70550,20490,11148,-44858,-12473
C01556=-31937,70562,20508,11143,-44861,-12469
C01557=-31945,70573,20524,11139,-44865,-12465
C01558=-31953,70584,20540,11136,-44868,-12461
C01559=-31962,70595,20557,11132,-44871,-12457
C01560=-31971,70607,20575,11127,-44875,-12452
C01561=-31980,70618,20591,11124,-44878,-12448
C01562=-31988,70629,20607,11120,-44881,-12444
C01563=-31997,70641,20625,11116,-44885,-12439
C01564=-32006,70652,20642,11112,-44888,-12435
C01565=-32014,70663,20658,11108,-44892,-12431
C01566=-32023,70673,20675,11104,-44895,-12427
C01567=-32032,70685,20693,11100,-44899,-12422
C01568=-32041,70696,20709,11096,-44902,-12418
C01569=-32049,70707,20725,11092,-44905,-12414
C01570=-32058,70719,20743,11088,-44909,-12409
C01571=-32067,70730,20760,11084,-44912,-12405
C01572=-32075,70741,20776,11080,-44915,-12401
C01573=-32084,70752,20792,11076,-44919,-12397
C01574=-32093,70764,20809,11072,-44922,-12393
C01575=-32102,70776,20827,11068,-44925,-12388
C01576=-32110,70788,20844,11064,-44928,-12384
C01577=-32120,70802,20862,11060,-44932,-12379
C01578=-32129,70814,20880,11056,-44935,-12375
C01579=-32138,70826,20897,11052,-44938,-12371
C01580=-32148,70839,20916,11048,-44941,-12366
C01581=-32157,70851,20933,11044,-44944,-12362
C01582=-32165,70864,20950,11040,-44947,-12358
C01583=-32174,70876,20967,11036,-44951,-12353
C01584=-32184,70889,20986,11032,-44954,-12349
C01585=-32193,70901,21003,11028,-44957,-12344
C01586=-32202,70913,21020,11024,-44960,-12340
C01587=-32212,70927,21039,11019,-44964,-12335
C01588=-32221,70939,21056,11015,-44967,-12331
C01589=-32229,70951,21073,11011,-44970,-12327
C01590=-32238,70963,21090,11007,-44973,-12322
C01591=-32248,70976,21109,11003,-44977,-12318
C01592=-32257,70988,21126,10999,-44980,-12313
C01593=-32266,71001,21143,10995,-44983,-12309
C01594=-32276,71014,21162,10991,-44986,-12304
C01595=-32284,71026,21179,10987,-44989,-12300
C01596=-32293,71038,21196,10983,-44992,-12296
C01597=-32303,71052,21215,10979,-44996,-12291
C01598=-32312,71064,21232,10975,-44999,-12287
C01599=-32321,71076,21249,10971,-45002,-12283
C01600=-32331,71089,21268,10966,-45006,-12278
C01601=-32339,71101,21285,10962,-45009,-12274
C01602=-32348,71113,21302,10958,-45012,-12269
C01603=-32358,71127,21321,10954,-45015,-12265
C01604=-32367,71139,21338,10950,-45018,-12260
C01605=-32376,71151,21355,10946,-45021,-12256
C01606=-32386,71164,21374,10942,-45025,-12251
C01607=-32395,71177,21391,10938,-45028,-12247
C01608=-32403,71189,21408,10934,-45031,-12243
C01609=-32413,71202,21427,10929,-45035,-12238
C01610=-32422,71214,21444,10926,-45038,-12234
C01611=-32431,71226,21461,10922,-45041,-12230
C01612=-32441,71240,21480,10917,-45044,-12225
C01613=-32450,71252,21497,10913,-45047,-12221
C01614=-32458,71264,21515,10909,-45050,-12216
C01615=-32468,71277,21533,10905,-45054,-12212
C01616=-32477,71289,21550,10901,-45057,-12207
C01617=-32486,71301,21568,10897,-45060,-12203
C01618=-32496,71315,21586,10893,-45064,-12198
C01619=-32505,71327,21604,10889,-45067,-12194
C01620=-32513,71339,21621,10885,-45070,-12190
C01621=-32522,71351,21638,10881,-45073,-12185
C01622=-32532,71364,21656,10877,-45076,-12181
C01623=-32541,71378,21673,10873,-45079,-12177
C01624=-32551,71392,21693,10868,-45082,-12172
C01625=-32560,71406,21710,10864,-45085,-12167
C01626=-32569,71419,21728,10860,-45088,-12163
C01627=-32579,71434,21748,10856,-45091,-12158
C01628=-32589,71447,21765,10852,-45094,-12154
C01629=-32598,71460,21783,10848,-45096,-12150
C01630=-32608,71475,21803,10843,-45100,-12145
C01631=-32617,71488,21820,10839,-45103,-12140
C01632=-32626,71502,21838,10835,-45105,-12136
C01633=-32637,71516,21858,10831,-45109,-12131
C01634=-32646,71530,21875,10827,-45111,-12127
C01635=-32655,71543,21893,10823,-45114,-12122
C01636=-32665,71558,21913,10819,-45117,-12118
C01637=-32674,71571,21930,10815,-45120,-12113
C01638=-32684,71584,21948,10811,-45123,-12109
C01639=-32694,71599,21968,10806,-45126,-12104
C01640=-32703,71612,21985,10802,-45129,-12100
C01641=-32712,71625,22003,10798,-45132,-12095
C01642=-32722,71640,22023,10794,-45135,-12090
C01643=-32731,71653,22040,10790,-45138,-12086
C01644=-32741,71667,22058,10786,-45141,-12082
C01645=-32751,71681,22078,10781,-45144,-12077
C01646=-32760,71695,22095,10777,-45147,-12072
C01647=-32769,71708,22113,10773,-45150,-12068
C01648=-32778,71721,22131,10769,-45153,-12064
C01649=-32787,71734,22148,10765,-45156,-12059
C01650=-32797,71748,22166,10761,-45159,-12055
C01651=-32807,71762,22185,10757,-45162,-12050
C01652=-32816,71776,22203,10753,-45165,-12046
C01653=-32825,71789,22221,10749,-45167,-12041
C01654=-32834,71802,22238,10745,-45170,-12037
C01655=-32843,71815,22256,10741,-45173,-12033
C01656=-32854,71830,22275,10736,-45176,-12028
C01657=-32863,71843,22293,10732,-45179,-12023
C01658=-32872,71856,22311,10728,-45182,-12019
C01659=-32881,71870,22328,10724,-45185,-12015
C01660=-32890,71883,22346,10720,-45188,-12010
C01661=-32899,71896,22364,10716,-45191,-12006
C01662=-32910,71911,22383,10712,-45194,-12001
C01663=-32919,71924,22401,10708,-45197,-11997
C01664=-32928,71937,22418,10704,-45199,-11992
C01665=-32937,71951,22436,10700,-45202,-11988
C01666=-32946,71964,22454,10696,-45205,-11984
C01667=-32956,71978,22473,10692,-45208,-11979
C01668=-32965,71992,22491,10688,-45211,-11975
C01669=-32975,72005,22508,10684,-45214,-11970
C01670=-32983,72017,22525,10680,-45217,-11966
C01671=-32992,72032,22543,10676,-45219,-11962
C01672=-33002,72046,22561,10672,-45222,-11957
C01673=-33012,72062,22581,10667,-45225,-11952
C01674=-33022,72076,22599,10663,-45227,-11948
C01675=-33031,72091,22617,10659,-45230,-11944
C01676=-33041,72105,22635,10655,-45232,-11939
C01677=-33050,72120,22654,10651,-45235,-11935
C01678=-33060,72136,22674,10647,-45238,-11930
C01679=-33070,72150,22692,10643,-45240,-11925
C01680=-33079,72164,22710,10639,-45243,-11921
C01681=-33089,72179,22728,10635,-45245,-11917
C01682=-33098,72193,22746,10631,-45248,-11912
C01683=-33108,72208,22764,10627,-45251,-11908
C01684=-33118,72224,22784,10622,-45253,-11903
C01685=-33127,72238,22803,10618,-45256,-11898
C01686=-33137,72252,22821,10614,-45259,-11894
C01687=-33146,72267,22839,10610,-45261,-11889
C01688=-33156,72281,22857,10606,-45264,-11885
C01689=-33166,72297,22877,10602,-45266,-11880
C01690=-33176,72311,22895,10598,-45269,-11876
C01691=-33185,72326,22913,10594,-45272,-11871
C01692=-33195,72340,22932,10590,-45274,-11867
C01693=-33204,72355,22950,10586,-45277,-11862
C01694=-33214,72371,22970,10581,-45280,-11858
C01695=-33224,72385,22988,10577,-45282,-11853
C01696=-33233,72399,23006,10573,-45285,-11849
C01697=-33243,72414,23024,10569,-45287,-11844
C01698=-33252,72428,23042,10565,-45290,-11840
C01699=-33263,72444,23062,10560,-45293,-11835
C01700=-33272,72458,23080,10556,-45295,-11830
C01701=-33281,72473,23099,10552,-45298,-11826
C01702=-33291,72487,23117,10548,-45300,-11822
C01703=-33300,72502,23135,10544,-45303,-11817
C01704=-33311,72518,23155,10540,-45306,-11812
C01705=-33320,72532,23173,10536,-45308,-11808
C01706=-33330,72546,23191,10532,-45311,-11803
C01707=-33339,72561,23209,10528,-45314,-11799
C01708=-33348,72575,23228,10524,-45316,-11795
C01709=-33359,72591,23248,10519,-45319,-11790
C01710=-33368,72605,23266,10515,-45322,-11785
C01711=-33378,72620,23284,10511,-45324,-11781
C01712=-33387,72634,23302,10507,-45327,-11776
C01713=-33397,72649,23320,10503,-45329,-11772
C01714=-33407,72665,23340,10499,-45332,-11767
C01715=-33416,72679,23358,10495,-45335,-11763
C01716=-33426,72693,23377,10491,-45337,-11758
C01717=-33435,72708,23395,10487,-45340,-11754
C01718=-33445,72722,23413,10483,-45342,-11749
C01719=-33454,72737,23432,10479,-45345,-11745
C01720=-33464,72754,23451,10475,-45347,-11740
C01721=-33473,72770,23470,10471,-45350,-11736
C01722=-33483,72786,23489,10467,-45352,-11732
C01723=-33492,72802,23509,10463,-45355,-11727
C01724=-33502,72819,23530,10458,-45357,-11722
C01725=-33512,72836,23549,10454,-45360,-11718
C01726=-33521,72852,23568,10450,-45362,-11714
C01727=-33531,72868,23587,10446,-45364,-11709
C01728=-33540,72884,23607,10442,-45367,-11705
C01729=-33551,72901,23628,10438,-45369,-11700
C01730=-33560,72917,23647,10434,-45372,-11695
C01731=-33570,72934,23666,10430,-45374,-11691
C01732=-33579,72950,23686,10426,-45377,-11687
C01733=-33589,72966,23705,10422,-45379,-11682
C01734=-33599,72983,23726,10417,-45382,-11677
C01735=-33608,72999,23745,10413,-45384,-11673
C01736=-33618,73016,23764,10409,-45387,-11669
C01737=-33627,73032,23784,10405,-45389,-11664
C01738=-33637,73048,23803,10401,-45391,-11660
C01739=-33647,73065,23824,10397,-45394,-11655
C01740=-33657,73081,23843,10393,-45396,-11650
C01741=-33659,73146,23921,10390,-45410,-11648
C01742=-33643,73328,24140,10388,-45453,-11650
C01743=-33618,73539,24393,10389,-45503,-11655
C01744=-33730,72868,23586,10375,-45340,-11625
C01745=-33718,73068,23826,10372,-45386,-11625
C01746=-33714,73180,23961,10369,-45411,-11624
C01747=-33724,73196,23980,10365,-45413,-11619
C01748=-33734,73213,24001,10360,-45416,-11614
C01749=-33744,73229,24020,10356,-45419,-11610
C01750=-33753,73245,24040,10352,-45421,-11605
C01751=-33763,73262,24059,10348,-45423,-11601
C01752=-33773,73279,24080,10344,-45426,-11596
C01753=-33782,73295,24099,10340,-45428,-11592
C01754=-33792,73311,24118,10336,-45431,-11587
C01755=-33801,73327,24138,10332,-45433,-11583
C01756=-33811,73343,24157,10328,-45436,-11578
C01757=-33821,73361,24178,10323,-45438,-11574
C01758=-33831,73377,24197,10319,-45441,-11569
C01759=-33840,73393,24216,10315,-45443,-11565
C01760=-33850,73409,24236,10311,-45445,-11560
C01761=-33860,73427,24257,10307,-45448,-11556
C01762=-33869,73443,24276,10303,-45450,-11551
C01763=-33879,73459,24295,10299,-45453,-11547
C01764=-33888,73475,24315,10295,-45455,-11542
C01765=-33898,73491,24334,10291,-45458,-11538
C01766=-33908,73509,24355,10287,-45460,-11533
C01767=-33918,73525,24374,10283,-45463,-11529
C01768=-33922,73533,24384,10281,-45464,-11526
C01769=-33922,73533,24384,10281,-45464,-11526
C01770=-33922,73533,24384,10281,-45464,-11526
C01771=-33922,73533,24384,10281,-45464,-11526
C01772=-33922,73533,24384,10281,-45464,-11526
C01773=-33922,73533,24384,10281,-45464,-11526
C01774=-33922,73533,24384,10281,-45464,-11526
C01775=-33922,73533,24384,10281,-45464,-11526
C01776=-33922,73533,24384,10281,-45464,-11526
C01777=-33922,73533,24384,10281,-45464,-11526
C01778=-33922,73533,24384,10281,-45464,-11526
C01779=-33922,73533,24384,10281,-45464,-11526
C01780=-33922,73533,24384,10281,-45464,-11526
C01781=-33922,73533,24384,10281,-45464,-11526
C01782=-33922,73533,24384,10281,-45464,-11526
C01783=-33922,73533,24384,10281,-45464,-11526
C01784=-33922,73533,24384,10281,-45464,-11526
C01785=-33922,73533,24384,10281,-45464,-11526
C01786=-33922,73533,24384,10281,-45464,-11526
C01787=-33922,73533,24384,10281,-45464,-11526
C01788=-33922,73533,24384,10281,-45464,-11526
C01789=-33922,73533,24384,10281,-45464,-11526
C01790=-33907,73638,24510,10282,-45489,-11530
C01791=-33853,73982,24924,10288,-45572,-11544
C01792=-33787,74348,25364,10297,-45661,-11563
EC00000=11380,65694174
EC00001=11380,65770960
EC00002=11380,65854726
EC00003=11380,65938492
EC00004=11678,66021882
EC00005=12003,66105631
EC00006=12328,66189790
EC00007=12635,66268377
EC00008=12968,66353154
EC00009=13275,66437598
EC00010=13573,66515853
EC00011=13897,66600630
EC00012=14220,66685406
EC00013=14480,66751844
EC00014=14764,66824362
EC00015=15048,66896923
EC00016=15281,66963587
EC00017=15556,67036309
EC00018=15831,67108788
EC00019=16106,67181022
EC00020=16369,67249061
EC00021=16631,67317350
EC00022=16915,67391609
EC00023=17155,67460153
EC00024=17436,67534197
EC00025=17696,67602561
EC00026=17978,67676638
EC00027=18201,67735243
EC00028=18444,67799187
EC00029=18667,67857813
EC00030=18910,67921782
EC00031=19130,67985717
EC00032=19350,68044333
EC00033=19590,68108288
EC00034=19830,68172254
EC00035=20036,68227309
EC00036=20243,68282371
EC00037=20449,68337442
EC00038=20656,68392521
EC00039=20842,68447590
EC00040=21045,68502649
EC00041=21248,68557716
EC00042=21451,68612789
EC00043=21654,68667870
EC00044=21846,68719780
EC00045=22055,68776416
EC00046=22264,68833060
EC00047=22455,68884990
EC00048=22645,68941634
EC00049=22849,68998267
EC00050=23037,69050187
EC00051=23242,69106833
EC00052=23447,69163486
EC00053=23624,69212591
EC00054=23801,69261701
EC00055=23979,69310816
EC00056=24156,69359936
EC00057=24334,69409062
EC00058=24491,69458168
EC00059=24665,69507278
EC00060=24838,69556393
EC00061=25011,69605512
EC00062=25200,69659102
EC00063=25365,69705690
EC00064=25544,69756517
EC00065=25723,69807350
EC00066=25887,69853950
EC00067=26067,69904792
EC00068=26227,69955462
EC00069=26387,70001972
EC00070=26561,70052797
EC00071=26736,70103712
EC00072=26910,70154718
EC00073=27062,70198823
EC00074=27214,70242867
EC00075=27367,70286849
EC00076=27533,70334761
EC00077=27685,70378616
EC00078=27820,70422581
EC00079=27965,70466658
EC00080=28123,70514674
EC00081=28268,70558626
EC00082=28414,70602519
EC00083=28572,70650334
EC00084=28698,70688031
EC00085=28836,70729554
EC00086=28975,70771138
EC00087=29113,70812782
EC00088=29252,70854486
EC00089=29390,70896251
EC00090=29512,70937744
EC00091=29646,70979277
EC00092=29779,71020864
EC00093=29913,71062505
EC00094=30047,71104201
EC00095=30181,71145950
EC00096=30309,71185571
EC00097=30448,71228743
EC00098=30576,71268271
EC00099=30716,71311342
EC00100=30844,71350777
EC00101=30972,71393758
EC00102=31093,71433379
EC00103=31226,71476551
EC00104=31347,71516080
EC00105=31480,71559154
EC00106=31601,71598592
EC00107=31733,71641566
EC00108=31850,71679043
EC00109=31966,71716564
EC00110=32083,71754128
EC00111=32199,71791737
EC00112=32315,71829389
EC00113=32432,71867085
EC00114=32546,71908118
EC00115=32657,71945624
EC00116=32769,71983170
EC00117=32881,72020756
EC00118=32992,72058382
EC00119=33104,72096047
EC00120=33226,72137182
EC00121=33323,72169878
EC00122=33431,72205812
EC00123=33538,72241712
EC00124=33645,72277579
EC00125=33752,72313413
EC00126=33859,72349213
EC00127=33957,72384990
EC00128=34049,72417686
EC00129=34150,72453620
EC00130=34251,72489521
EC00131=34352,72525389
EC00132=34453,72561225
EC00133=34554,72597028
EC00134=34656,72632799
EC00135=34744,72663875
EC00136=34841,72698091
EC00137=34930,72729225
EC00138=35027,72763504
EC00139=35124,72797816
EC00140=35213,72829037
EC00141=35310,72863412
EC00142=35388,72894632
EC00143=35481,72928916
EC00144=35573,72963201
EC00145=35658,72994371
EC00146=35750,73028659
EC00147=35834,73059831
EC00148=35927,73094122
EC00149=36020,73128415
EC00150=36108,73161056
EC00151=36196,73193698
EC00152=36284,73226342
EC00153=36372,73258987
EC00154=36461,73291633
EC00155=36549,73324281
EC00156=36637,73356930
EC00157=36723,73392543
EC00158=36807,73425185
EC00159=36890,73457829
EC00160=36974,73490473
EC00161=37058,73523119
EC00162=37141,73555765
EC00163=37225,73588413
EC00164=37316,73624031
EC00165=37389,73652348
EC00166=37468,73683498
EC00167=37548,73714650
EC00168=37628,73745802
EC00169=37708,73776956
EC00170=37788,73808110
EC00171=37867,73839266
EC00172=37947,73870423
EC00173=38016,73901504
EC00174=38091,73932599
EC00175=38166,73963717
EC00176=38242,73994858
EC00177=38317,74026021
EC00178=38392,74057207
EC00179=38468,74088415
EC00180=38543,74119647
EC00181=38609,74146943
EC00182=38682,74176950
EC00183=38755,74206938
EC00184=38821,74234182
EC00185=38894,74264133
EC00186=38967,74294063
EC00187=39033,74321256
EC00188=39106,74351150
EC00189=39170,74381070
EC00190=39237,74411025
EC00191=39299,74438257
EC00192=39366,74468212
EC00193=39434,74498167
EC00194=39496,74525398
EC00195=39563,74555353
EC00196=39631,74585308
EC00197=39699,74615263
EC00198=39758,74641342
EC00199=39824,74670031
EC00200=39883,74696114
EC00201=39949,74724806
EC00202=40008,74750891
EC00203=40074,74779586
EC00204=40133,74805674
EC00205=40199,74834372
EC00206=40258,74863071
EC00207=40313,74889156
EC00208=40374,74917849
EC00209=40429,74943934
EC00210=40490,74972628
EC00211=40545,74998713
EC00212=40605,75027407
EC00213=40660,75053492
EC00214=40721,75082185
EC00215=40781,75110879
EC00216=40835,75135905
EC00217=40888,75160932
EC00218=40947,75188464
EC00219=41000,75213493
EC00220=41059,75241027
EC00221=41112,75266059
EC00222=41166,75291092
EC00223=41225,75318630
EC00224=41278,75343665
EC00225=41329,75371231
EC00226=41378,75396310
EC00227=41432,75423884
EC00228=41481,75448937
EC00229=41530,75473979
EC00230=41584,75501510
EC00231=41633,75526526
EC00232=41687,75554029
EC00233=41737,75579020
EC00234=41791,75606495
EC00235=41838,75630380
EC00236=41890,75656669
EC00237=41942,75682972
EC00238=41993,75709290
EC00239=42045,75735623
EC00240=42097,75761971
EC00241=42149,75788334
EC00242=42201,75814711
EC00243=42253,75841104
EC00244=42294,75865076
EC00245=42342,75891411
EC00246=42390,75917747
EC00247=42437,75944083
EC00248=42485,75970420
EC00249=42533,75996757
EC00250=42581,76023095
EC00251=42629,76049433
EC00252=42677,76075772
EC00253=42725,76102111
EC00254=42767,76125161
EC00255=42813,76150516
EC00256=42859,76175872
EC00257=42905,76201229
EC00258=42947,76224280
EC00259=42993,76249638
EC00260=43039,76274995
EC00261=43085,76300354
EC00262=43127,76323407
EC00263=43173,76348766
EC00264=43211,76374122
EC00265=43253,76399477
EC00266=43292,76422528
EC00267=43334,76447884
EC00268=43376,76473241
EC00269=43418,76498599
EC00270=43457,76521651
EC00271=43499,76547009
EC00272=43541,76572368
EC00273=43583,76597727
EC00274=43620,76619950
EC00275=43661,76644396
EC00276=43698,76666620
EC00277=43738,76691067
EC00278=43779,76715514
EC00279=43816,76737739
EC00280=43856,76762187
EC00281=43893,76784412
EC00282=43934,76808861
EC00283=43975,76833310
EC00284=44007,76855535
EC00285=44043,76879981
EC00286=44080,76904427
EC00287=44114,76926652
EC00288=44150,76951099
EC00289=44184,76973323
EC00290=44221,76997771
EC00291=44258,77022219
EC00292=44291,77044445
EC00293=44328,77068894
EC00294=44365,77093343
EC00295=44397,77114797
EC00296=44433,77138396
EC00297=44465,77159850
EC00298=44500,77183450
EC00299=44533,77204905
EC00300=44568,77228506
EC00301=44601,77249962
EC00302=44636,77273563
EC00303=44668,77295019
EC00304=44704,77318621
EC00305=44736,77340078
EC00306=44765,77363636
EC00307=44794,77385057
EC00308=44826,77408629
EC00309=44855,77430067
EC00310=44887,77453658
EC00311=44915,77475113
EC00312=44947,77498723
EC00313=44976,77520194
EC00314=45008,77543823
EC00315=45037,77565312
EC00316=45069,77588959
EC00317=45097,77609648
EC00318=45125,77630330
EC00319=45155,77653072
EC00320=45183,77673739
EC00321=45214,77696464
EC00322=45242,77717117
EC00323=45273,77739826
EC00324=45301,77760464
EC00325=45329,77781095
EC00326=45359,77803780
EC00327=45387,77824396
EC00328=45413,77847092
EC00329=45438,77867743
EC00330=45465,77890459
EC00331=45489,77911109
EC00332=45514,77931760
EC00333=45540,77954476
EC00334=45565,77975126
EC00335=45592,77997842
EC00336=45616,78018493
EC00337=45643,78041209
EC00338=45667,78061859
EC00339=45694,78084575
EC00340=45718,78104557
EC00341=45744,78126538
EC00342=45770,78148519
EC00343=45797,78170501
EC00344=45821,78190485
EC00345=45847,78212468
EC00346=45873,78234451
EC00347=45899,78256435
EC00348=45925,78278419
EC00349=45949,78298405
EC00350=45975,78320391
EC00351=45997,78342394
EC00352=46020,78364412
EC00353=46040,78384423
EC00354=46063,78406427
EC00355=46085,78428423
EC00356=46108,78450412
EC00357=46130,78472393
EC00358=46151,78492369
EC00359=46173,78514336
EC00360=46195,78536295
EC00361=46218,78558247
EC00362=46240,78580191
EC00363=46260,78599438
EC00364=46282,78620618
EC00365=46304,78641805
EC00366=46323,78661073
EC00367=46345,78682274
EC00368=46367,78703484
EC00369=46387,78722771
EC00370=46408,78743995
EC00371=46430,78765227
EC00372=46452,78786466
EC00373=46472,78805781
EC00374=46493,78827035
EC00375=46510,78848213
EC00376=46527,78867469
EC00377=46545,78888657
EC00378=46563,78909853
EC00379=46581,78931055
EC00380=46598,78950336
EC00381=46616,78971552
EC00382=46634,78992775
EC00383=46651,79012075
EC00384=46669,79033312
EC00385=46688,79054556
EC00386=46706,79075807
EC00387=46722,79094471
EC00388=46740,79114995
EC00389=46756,79133648
EC00390=46773,79154160
EC00391=46791,79174666
EC00392=46807,79193302
EC00393=46825,79213796
EC00394=46843,79234284
EC00395=46859,79252903
EC00396=46877,79273379
EC00397=46894,79293849
EC00398=46910,79312452
EC00399=46925,79332931
EC00400=46938,79351563
EC00401=46952,79372059
EC00402=46966,79392554
EC00403=46979,79411186
EC00404=46993,79431682
EC00405=47007,79452177
EC00406=47020,79470809
EC00407=47034,79491305
EC00408=47048,79511800
EC00409=47061,79530432
EC00410=47076,79550928
EC00411=47090,79571423
EC00412=47102,79589509
EC00413=47116,79609405
EC00414=47129,79627492
EC00415=47143,79647388
EC00416=47155,79665475
EC00417=47169,79685372
EC00418=47182,79703460
EC00419=47196,79723357
EC00420=47208,79741446
EC00421=47222,79761344
EC00422=47235,79779434
EC00423=47248,79799332
EC00424=47261,79819231
EC00425=47270,79837349
EC00426=47281,79857273
EC00427=47290,79875381
EC00428=47301,79895294
EC00429=47310,79913393
EC00430=47321,79933295
EC00431=47330,79951384
EC00432=47340,79971276
EC00433=47350,79989354
EC00434=47360,80009235
EC00435=47370,80027304
EC00436=47380,80047174
EC00437=47390,80067039
EC00438=47400,80084521
EC00439=47409,80102008
EC00440=47419,80121249
EC00441=47428,80138746
EC00442=47438,80157998
EC00443=47447,80175504
EC00444=47457,80194767
EC00445=47467,80212283
EC00446=47477,80231557
EC00447=47486,80249083
EC00448=47496,80268368
EC00449=47505,80285904
EC00450=47515,80305199
EC00451=47522,80322728
EC00452=47529,80341991
EC00453=47535,80359503
EC00454=47542,80378767
EC00455=47548,80396280
EC00456=47555,80415544
EC00457=47561,80433056
EC00458=47568,80452321
EC00459=47574,80469834
EC00460=47581,80489098
EC00461=47587,80506612
EC00462=47594,80525876
EC00463=47600,80543390
EC00464=47607,80562655
EC00465=47613,80579686
EC00466=47619,80596717
EC00467=47625,80615451
EC00468=47631,80632482
EC00469=47637,80649513
EC00470=47644,80668247
EC00471=47650,80685279
EC00472=47656,80704013
EC00473=47662,80721045
EC00474=47668,80738077
EC00475=47675,80756812
EC00476=47681,80773844
EC00477=47687,80792579
EC00478=47693,80809612
EC00479=47696,80826618
EC00480=47699,80845327
EC00481=47702,80862339
EC00482=47705,80881057
EC00483=47708,80898078
EC00484=47711,80915103
EC00485=47715,80933835
EC00486=47718,80950868
EC00487=47721,80969610
EC00488=47724,80986651
EC00489=47727,81003697
EC00490=47730,81022452
EC00491=47733,81039507
EC00492=47736,81058271
EC00493=47739,81074817
EC00494=47742,81091359
EC00495=47745,81109551
EC00496=47748,81126085
EC00497=47751,81142616
EC00498=47754,81160796
EC00499=47757,81177319
EC00500=47760,81193839
EC00501=47763,81212006
EC00502=47766,81228518
EC00503=47769,81245027
EC00504=47772,81263182
EC00505=47775,81279683
EC00506=47778,81296180
EC00507=47779,81314352
EC00508=47779,81330896
EC00509=47779,81347436
EC00510=47779,81365626
EC00511=47779,81382159
EC00512=47779,81398688
EC00513=47778,81416866
EC00514=47778,81433387
EC00515=47778,81449905
EC00516=47778,81468071
EC00517=47778,81484582
EC00518=47778,81501089
EC00519=47778,81519242
EC00520=47777,81535742
EC00521=47777,81553887
EC00522=47777,81569901
EC00523=47777,81585918
EC00524=47777,81601939
EC00525=47777,81619565
EC00526=47777,81635594
EC00527=47777,81651626
EC00528=47776,81669265
EC00529=47776,81685304
EC00530=47776,81701347
EC00531=47776,81718998
EC00532=47776,81735049
EC00533=47776,81751103
EC00534=47776,81767161
EC00535=47776,81784828
EC00536=47775,81800893
EC00537=47773,81816911
EC00538=47769,81834531
EC00539=47766,81850552
EC00540=47763,81866577
EC00541=47760,81884209
EC00542=47756,81900241
EC00543=47753,81916277
EC00544=47750,81932316
EC00545=47747,81949963
EC00546=47744,81966009
EC00547=47741,81982058
EC00548=47737,81999717
EC00549=47734,82015773
EC00550=47731,82031833
EC00551=47727,82049503
EC00552=47724,82065111
EC00553=47721,82082276
EC00554=47718,82097878
EC00555=47715,82115036
EC00556=47711,82132190
EC00557=47708,82147782
EC00558=47705,82164929
EC00559=47702,82180515
EC00560=47699,82197655
EC00561=47695,82214792
EC00562=47692,82230368
EC00563=47689,82247498
EC00564=47686,82263067
EC00565=47682,82280190
EC00566=47679,82297311
EC00567=47673,82312897
EC00568=47667,82330041
EC00569=47661,82345626
EC00570=47654,82362770
EC00571=47648,82379914
EC00572=47641,82395499
EC00573=47635,82412643
EC00574=47629,82428229
EC00575=47622,82445373
EC00576=47616,82462517
EC00577=47610,82478102
EC00578=47603,82495246
EC00579=47597,82510831
EC00580=47590,82527975
EC00581=47584,82545119
EC00582=47578,82560321
EC00583=47571,82577043
EC00584=47565,82592245
EC00585=47559,82608968
EC00586=47553,82624170
EC00587=47547,82640893
EC00588=47541,82656096
EC00589=47534,82672819
EC00590=47528,82688022
EC00591=47522,82704746
EC00592=47516,82719949
EC00593=47509,82736673
EC00594=47503,82751877
EC00595=47497,82768601
EC00596=47491,82783805
EC00597=47484,82800540
EC00598=47475,82815763
EC00599=47465,82832505
EC00600=47456,82847722
EC00601=47446,82864457
EC00602=47437,82879668
EC00603=47428,82896397
EC00604=47419,82911603
EC00605=47409,82928325
EC00606=47400,82943525
EC00607=47390,82960241
EC00608=47381,82975434
EC00609=47371,82992144
EC00610=47363,83007332
EC00611=47353,83024035
EC00612=47343,83040735
EC00613=47334,83055508
EC00614=47326,83070283
EC00615=47316,83086539
EC00616=47307,83101320
EC00617=47298,83117583
EC00618=47289,83132370
EC00619=47280,83148639
EC00620=47271,83163432
EC00621=47261,83179708
EC00622=47253,83194506
EC00623=47243,83210788
EC00624=47234,83225593
EC00625=47225,83241882
EC00626=47216,83256692
EC00627=47207,83272987
EC00628=47198,83287804
EC00629=47187,83302598
EC00630=47174,83318871
EC00631=47163,83333665
EC00632=47150,83349939
EC00633=47138,83364733
EC00634=47125,83381007
EC00635=47113,83395801
EC00636=47100,83412075
EC00637=47089,83426870
EC00638=47076,83443144
EC00639=47064,83457939
EC00640=47051,83474213
EC00641=47039,83489008
EC00642=47026,83505282
EC00643=47015,83520077
EC00644=47002,83536351
EC00645=46990,83550800
EC00646=46979,83565249
EC00647=46966,83581143
EC00648=46955,83595592
EC00649=46943,83610042
EC00650=46930,83625936
EC00651=46919,83640385
EC00652=46906,83656280
EC00653=46895,83670729
EC00654=46883,83685179
EC00655=46871,83701073
EC00656=46859,83715523
EC00657=46847,83731417
EC00658=46835,83745867
EC00659=46824,83760317
EC00660=46811,83776212
EC00661=46799,83790653
EC00662=46783,83806527
EC00663=46769,83820960
EC00664=46754,83835396
EC00665=46738,83851278
EC00666=46724,83865719
EC00667=46707,83881607
EC00668=46693,83896053
EC00669=46678,83910502
EC00670=46662,83926398
EC00671=46648,83940852
EC00672=46631,83956754
EC00673=46617,83971213
EC00674=46602,83985674
EC00675=46586,84001585
EC00676=46572,84016051
EC00677=46555,84031967
EC00678=46541,84046066
EC00679=46527,84060162
EC00680=46511,84075665
EC00681=46497,84089757
EC00682=46483,84103846
EC00683=46467,84119342
EC00684=46453,84133426
EC00685=46438,84147509
EC00686=46423,84162997
EC00687=46408,84177074
EC00688=46394,84191150
EC00689=46378,84206630
EC00690=46364,84220701
EC00691=46350,84234769
EC00692=46334,84250242
EC00693=46320,84264306
EC00694=46306,84279775
EC00695=46288,84293874
EC00696=46271,84307970
EC00697=46252,84323473
EC00698=46234,84337565
EC00699=46217,84351654
EC00700=46198,84367150
EC00701=46181,84381234
EC00702=46163,84395317
EC00703=46144,84410805
EC00704=46127,84424883
EC00705=46109,84438958
EC00706=46090,84454439
EC00707=46073,84468510
EC00708=46055,84482578
EC00709=46036,84498051
EC00710=46019,84512116
EC00711=46000,84527583
EC00712=45983,84541293
EC00713=45966,84555006
EC00714=45949,84568720
EC00715=45930,84583809
EC00716=45913,84597528
EC00717=45896,84611249
EC00718=45878,84626345
EC00719=45861,84640072
EC00720=45844,84653800
EC00721=45825,84668904
EC00722=45808,84682637
EC00723=45791,84696372
EC00724=45772,84711483
EC00725=45755,84725223
EC00726=45738,84738965
EC00727=45719,84754084
EC00728=45702,84767831
EC00729=45686,84781569
EC00730=45666,84795298
EC00731=45643,84810399
EC00732=45623,84824128
EC00733=45603,84837857
EC00734=45581,84852959
EC00735=45560,84866687
EC00736=45540,84880416
EC00737=45518,84895518
EC00738=45498,84909247
EC00739=45477,84922976
EC00740=45455,84938078
EC00741=45435,84951807
EC00742=45414,84965536
EC00743=45392,84980639
EC00744=45372,84994368
EC00745=45352,85008097
EC00746=45329,85023199
EC00747=45310,85036630
EC00748=45290,85050061
EC00749=45270,85063492
EC00750=45248,85078267
EC00751=45228,85091698
EC00752=45208,85105129
EC00753=45189,85118560
EC00754=45167,85133334
EC00755=45147,85146766
EC00756=45127,85160197
EC00757=45107,85173629
