/JOB
//NAME AAA
//POS
///NPOS 150,0,150,0,0,0
///TOOL 9
///POSTYPE PULSE
///PULSE
C00000=-68981,51250,-6542,-4064,-36485,4150
C00001=-68952,51744,-5991,-4042,-36569,4131
C00002=-68917,52240,-5437,-4018,-36653,4110
C00003=-68875,52735,-4883,-3990,-36737,4085
C00004=-68828,53208,-4353,-3961,-36819,4059
C00005=-68772,53678,-3824,-3928,-36900,4028
C00006=-68710,54131,-3315,-3892,-36978,3994
C00007=-68641,54579,-2809,-3853,-37056,3957
C00008=-68561,55024,-2307,-3809,-37133,3915
C00009=-68477,55447,-1828,-3764,-37206,3871
C00010=-68385,55852,-1369,-3715,-37277,3824
C00011=-68290,56230,-940,-3666,-37343,3776
C00012=-68192,56587,-533,-3615,-37405,3726
C00013=-68073,56969,-99,-3555,-37472,3667
C00014=-67947,57338,322,-3492,-37536,3604
C00015=-67813,57686,720,-3426,-37597,3538
C00016=-67679,58009,1089,-3360,-37653,3471
C00017=-67538,58314,1438,-3291,-37706,3402
C00018=-67398,58597,1762,-3224,-37755,3334
C00019=-67252,58868,2074,-3154,-37802,3263
C00020=-67101,59129,2373,-3081,-37848,3189
C00021=-66952,59370,2650,-3010,-37889,3117
C00022=-66802,59596,2911,-2940,-37928,3045
C00023=-66657,59806,3153,-2871,-37965,2975
C00024=-66509,60012,3389,-2801,-38000,2903
C00025=-66357,60210,3618,-2730,-38034,2831
C00026=-66210,60402,3839,-2661,-38068,2760
C00027=-66062,60587,4053,-2592,-38100,2689
C00028=-65917,60762,4255,-2525,-38130,2620
C00029=-65769,60944,4466,-2456,-38163,2549
C00030=-65623,61119,4668,-2388,-38193,2479
C00031=-65478,61294,4872,-2321,-38224,2410
C00032=-65326,61483,5090,-2250,-38258,2337
C00033=-65181,61660,5296,-2183,-38290,2268
C00034=-65037,61844,5509,-2116,-38323,2199
C00035=-64892,62031,5726,-2049,-38358,2130
C00036=-64746,62225,5952,-1981,-38394,2061
C00037=-64599,62426,6186,-1913,-38431,1991
C00038=-64447,62643,6438,-1843,-38472,1918
C00039=-64305,62859,6690,-1777,-38513,1851
C00040=-64168,63075,6942,-1714,-38554,1785
C00041=-64032,63303,7207,-1651,-38598,1721
C00042=-63894,63548,7494,-1587,-38646,1655
C00043=-63759,63800,7788,-1525,-38695,1591
C00044=-63622,64079,8114,-1462,-38750,1526
C00045=-63494,64355,8438,-1403,-38806,1465
C00046=-63366,64651,8784,-1344,-38865,1404
C00047=-63237,64970,9159,-1284,-38930,1342
C00048=-63113,65299,9546,-1227,-38997,1284
C00049=-62989,65649,9957,-1170,-39069,1225
C00050=-58835,57988,-6253,787,-33019,-772
C00051=-59081,57585,-6145,656,-33290,-645
C00052=-59292,57236,-6155,545,-33462,-538
C00053=-59733,57141,-5043,315,-34194,-313
C00054=-60094,57015,-4443,133,-34627,-133
C00055=-60255,56730,-4642,54,-34650,-54
C00056=-60703,56771,-3767,-165,-35168,166
C00057=-61036,56761,-3299,-325,-35462,328
C00058=-61477,56909,-2508,-534,-35875,540
C00059=-61779,56944,-2145,-675,-36082,685
C00060=-62109,57059,-1677,-827,-36314,842
C00061=-62346,56993,-1579,-938,-36410,956
C00062=-62747,57264,-911,-1120,-36686,1145
C00063=-62854,57012,-1206,-1172,-36636,1197
C00064=-63240,57294,-585,-1346,-36878,1378
C00065=-63638,57618,50,-1524,-37108,1564
C00066=-63847,57547,47,-1620,-37147,1663
C00067=-64158,57758,436,-1758,-37284,1809
C00068=-64297,57477,126,-1825,-37240,1876
C00069=-64551,57548,297,-1939,-37314,1995
C00070=-64959,57956,916,-2119,-37494,2185
C00071=-65106,57721,657,-2189,-37459,2256
C00072=-65372,57984,1025,-2307,-37556,2379
C00073=-65602,58010,1091,-2411,-37589,2488
C00074=-65725,57705,742,-2470,-37535,2548
C00075=-66013,57988,1112,-2597,-37624,2681
C00076=-66241,57919,1047,-2702,-37627,2790
C00077=-66418,57792,908,-2784,-37612,2874
C00078=-66573,57810,943,-2854,-37629,2947
C00079=-66787,57771,904,-2952,-37632,3049
C00080=-67010,57740,870,-3054,-37634,3154
C00081=-67155,57372,445,-3126,-37566,3226
C00082=-67274,57103,142,-3184,-37522,3284
C00083=-67592,57652,768,-3322,-37636,3431
C00084=-67713,57361,443,-3380,-37590,3490
C00085=-68005,57927,1075,-3506,-37699,3624
C00086=-68106,57460,553,-3558,-37622,3675
C00087=-68398,58189,1360,-3681,-37755,3808
C00088=-68442,57604,724,-3709,-37666,3833
C00089=-68577,57347,427,-3774,-37621,3899
C00090=-68793,58090,1277,-3860,-37771,3994
C00091=-68904,57599,724,-3918,-37687,4051
C00092=-69177,58591,1811,-4028,-37859,4172
C00093=-69187,57015,47,-4057,-37583,4191
C00094=-69494,58412,1584,-4175,-37825,4324
C00095=-69641,58797,2031,-4234,-37909,4389
C00096=-69706,58187,1389,-4271,-37830,4424
C00097=-69861,58337,1561,-4338,-37866,4495
C00098=-70013,58058,1232,-4413,-37815,4570
C00099=-70195,57915,1030,-4500,-37773,4659
C00100=-70146,60391,3983,-4424,-38313,4605
C00101=-69977,57026,110,-4412,-37653,4562
C00102=-69886,58352,1626,-4347,-37899,4505
C00103=-69741,59529,2978,-4260,-38119,4425
C00104=-69592,58423,1707,-4213,-37899,4366
C00105=-69392,57327,453,-4142,-37682,4283
C00106=-69244,57338,465,-4075,-37677,4213
C00107=-69154,58580,1886,-4013,-37909,4159
C00108=-69006,58974,2338,-3939,-37978,4085
C00109=-68825,58045,1274,-3873,-37794,4009
C00110=-68630,57513,668,-3793,-37686,3921
C00111=-68463,57394,534,-3719,-37658,3843
C00112=-68312,57448,597,-3649,-37663,3771
C00113=-68142,57535,700,-3570,-37674,3690
C00114=-67958,57554,724,-3486,-37673,3603
C00115=-67760,57513,680,-3397,-37659,3510
C00116=-67561,57468,630,-3306,-37645,3416
C00117=-67358,57454,615,-3214,-37636,3320
C00118=-67162,57474,637,-3124,-37632,3227
C00119=-66963,57516,683,-3033,-37632,3132
C00120=-66757,57563,732,-2939,-37631,3035
C00121=-66554,57597,762,-2846,-37626,2939
C00122=-66344,57613,768,-2750,-37615,2839
C00123=-66138,57614,753,-2656,-37599,2742
C00124=-65926,57612,729,-2560,-37579,2642
C00125=-65708,57618,708,-2461,-37558,2539
C00126=-65497,57635,696,-2365,-37536,2439
C00127=-65284,57658,686,-2268,-37513,2339
C00128=-65071,57673,661,-2171,-37485,2238
C00129=-64840,57664,596,-2067,-37444,2130
C00130=-64603,57619,478,-1960,-37389,2018
C00131=-64349,57538,298,-1846,-37315,1899
C00132=-64068,57427,56,-1719,-37218,1767
C00133=-63789,57311,-207,-1594,-37110,1636
C00134=-63501,57197,-492,-1464,-36989,1501
C00135=-63207,57085,-799,-1331,-36854,1363
C00136=-62898,56965,-1150,-1191,-36695,1217
C00137=-62571,56836,-1556,-1042,-36507,1063
C00138=-62217,56703,-2029,-879,-36281,895
C00139=-61880,56600,-2491,-724,-36047,734
C00140=-61552,56534,-2938,-570,-35804,577
C00141=-61226,56506,-3374,-416,-35547,420
C00142=-60894,56512,-3827,-258,-35265,259
C00143=-60554,56546,-4317,-93,-34945,93
C00144=-60201,56626,-4850,80,-34576,-80
C00145=-59888,56774,-5280,237,-34236,-236
C00146=-59612,56990,-5577,378,-33943,-375
C00147=-59322,57253,-5922,528,-33597,-521
C00148=-59056,57570,-6195,669,-33268,-658
C00149=-58799,57939,-6442,808,-32928,-791
EC00000=-29915,-132412
EC00001=-29915,-132412
EC00002=-29915,-132412
EC00003=-29915,-132412
EC00004=-29915,-132412
EC00005=-29915,-132412
EC00006=-29915,-132412
EC00007=-29915,-132412
EC00008=-29915,-132412
EC00009=-29915,-132412
EC00010=-29915,-132412
EC00011=-29915,-132412
EC00012=-29915,-132412
EC00013=-29915,-132412
EC00014=-29915,-132412
EC00015=-29915,-132412
EC00016=-29915,-132412
EC00017=-29915,-132412
EC00018=-29915,-132412
EC00019=-29915,-132412
EC00020=-29915,-132412
EC00021=-29915,-132412
EC00022=-29915,-132412
EC00023=-29915,-132412
EC00024=-29915,-132412
EC00025=-29915,-132412
EC00026=-29915,-132412
EC00027=-29915,-132412
EC00028=-29915,-132412
EC00029=-29915,-132412
EC00030=-29915,-132412
EC00031=-29915,-132412
EC00032=-29915,-132412
EC00033=-29915,-132412
EC00034=-29915,-132412
EC00035=-29915,-132412
EC00036=-29915,-132412
EC00037=-29915,-132412
EC00038=-29915,-132412
EC00039=-29915,-132412
EC00040=-29915,-132412
EC00041=-29915,-132412
EC00042=-29915,-132412
EC00043=-29915,-132412
EC00044=-29915,-132412
EC00045=-29915,-132412
EC00046=-29915,-132412
EC00047=-29915,-132412
EC00048=-29915,-132412
EC00049=-29915,-132412
EC00050=87028,-132412
EC00051=81577,-132412
EC00052=77848,-132412
EC00053=72101,-122427
EC00054=66838,-117792
EC00055=62352,-122427
EC00056=57793,-113414
EC00057=51394,-113414
EC00058=45494,-107983
EC00059=40309,-107983
EC00060=34563,-107983
EC00061=31380,-107983
EC00062=24397,-107983
EC00063=20709,-117792
EC00064=16020,-113414
EC00065=11289,-107983
EC00066=9118,-107983
EC00067=4528,-107983
EC00068=4216,-107983
EC00069=1019,-107983
EC00070=-4395,-101141
EC00071=-5187,-101141
EC00072=-9897,-107983
EC00073=-12489,-107983
EC00074=-12541,-107983
EC00075=-16745,-113414
EC00076=-19062,-107983
EC00077=-20526,-107983
EC00078=-20796,-122427
EC00079=-22642,-122427
EC00080=-24669,-122427
EC00081=-25580,-117792
EC00082=-24778,-122427
EC00083=-27744,-132412
EC00084=-26965,-135041
EC00085=-29149,-144555
EC00086=-28086,-144555
EC00087=-30296,-154365
EC00088=-28193,-154365
EC00089=-28403,-154365
EC00090=-28766,-165557
EC00091=-28323,-164174
EC00092=-30530,-173688
EC00093=-28844,-164174
EC00094=-31310,-176317
EC00095=-30971,-182664
EC00096=-29083,-182664
EC00097=-29128,-186302
EC00098=-29421,-186302
EC00099=-30617,-186302
EC00100=-29570,-205330
EC00101=-29828,-178399
EC00102=-29810,-185858
EC00103=-29810,-192747
EC00104=-29798,-181454
EC00105=-29799,-169183
EC00106=-29823,-166180
EC00107=-29843,-175020
EC00108=-29823,-176281
EC00109=-29743,-163862
EC00110=-29604,-154692
EC00111=-29441,-149866
EC00112=-29240,-147131
EC00113=-28946,-144429
EC00114=-28511,-140774
EC00115=-27875,-136174
EC00116=-27042,-131616
EC00117=-25997,-127616
EC00118=-24828,-124469
EC00119=-23510,-121918
EC00120=-22026,-119641
EC00121=-20412,-117461
EC00122=-18575,-115194
EC00123=-16607,-113026
EC00124=-14451,-111056
EC00125=-12175,-109513
EC00126=-9954,-108537
EC00127=-7713,-108013
EC00128=-5430,-107749
EC00129=-2824,-107512
EC00130=63,-107209
EC00131=3370,-106887
EC00132=7186,-106730
EC00133=10996,-106926
EC00134=14902,-107492
EC00135=18895,-108300
EC00136=23214,-109198
EC00137=27961,-110091
EC00138=33281,-111132
EC00139=38358,-112407
EC00140=43264,-113953
EC00141=48125,-115660
EC00142=53236,-117456
EC00143=58715,-119406
EC00144=64594,-121753
EC00145=69761,-124078
EC00146=74029,-126345
EC00147=78799,-128962
EC00148=83424,-131227
EC00149=87977,-133683
//INST
///DATE 2023/02/16 11:19
///ATTR SC,RW
///GROUP1 RB1
///GROUP2 ST1
NOP
MOVL C00000 V=10.0 +MOVJ EC00000 VJ=10.0
MOVL C00001 V=10.0 +MOVJ EC00001 VJ=10.0
MOVL C00002 V=10.0 +MOVJ EC00002 VJ=10.0
MOVL C00003 V=10.0 +MOVJ EC00003 VJ=10.0
MOVL C00004 V=10.0 +MOVJ EC00004 VJ=10.0
MOVL C00005 V=10.0 +MOVJ EC00005 VJ=10.0
MOVL C00006 V=10.0 +MOVJ EC00006 VJ=10.0
MOVL C00007 V=10.0 +MOVJ EC00007 VJ=10.0
MOVL C00008 V=10.0 +MOVJ EC00008 VJ=10.0
MOVL C00009 V=10.0 +MOVJ EC00009 VJ=10.0
MOVL C00010 V=10.0 +MOVJ EC00010 VJ=10.0
MOVL C00011 V=10.0 +MOVJ EC00011 VJ=10.0
MOVL C00012 V=10.0 +MOVJ EC00012 VJ=10.0
MOVL C00013 V=10.0 +MOVJ EC00013 VJ=10.0
MOVL C00014 V=10.0 +MOVJ EC00014 VJ=10.0
MOVL C00015 V=10.0 +MOVJ EC00015 VJ=10.0
MOVL C00016 V=10.0 +MOVJ EC00016 VJ=10.0
MOVL C00017 V=10.0 +MOVJ EC00017 VJ=10.0
MOVL C00018 V=10.0 +MOVJ EC00018 VJ=10.0
MOVL C00019 V=10.0 +MOVJ EC00019 VJ=10.0
MOVL C00020 V=10.0 +MOVJ EC00020 VJ=10.0
MOVL C00021 V=10.0 +MOVJ EC00021 VJ=10.0
MOVL C00022 V=10.0 +MOVJ EC00022 VJ=10.0
MOVL C00023 V=10.0 +MOVJ EC00023 VJ=10.0
MOVL C00024 V=10.0 +MOVJ EC00024 VJ=10.0
MOVL C00025 V=10.0 +MOVJ EC00025 VJ=10.0
MOVL C00026 V=10.0 +MOVJ EC00026 VJ=10.0
MOVL C00027 V=10.0 +MOVJ EC00027 VJ=10.0
MOVL C00028 V=10.0 +MOVJ EC00028 VJ=10.0
MOVL C00029 V=10.0 +MOVJ EC00029 VJ=10.0
MOVL C00030 V=10.0 +MOVJ EC00030 VJ=10.0
MOVL C00031 V=10.0 +MOVJ EC00031 VJ=10.0
MOVL C00032 V=10.0 +MOVJ EC00032 VJ=10.0
MOVL C00033 V=10.0 +MOVJ EC00033 VJ=10.0
MOVL C00034 V=10.0 +MOVJ EC00034 VJ=10.0
MOVL C00035 V=10.0 +MOVJ EC00035 VJ=10.0
MOVL C00036 V=10.0 +MOVJ EC00036 VJ=10.0
MOVL C00037 V=10.0 +MOVJ EC00037 VJ=10.0
MOVL C00038 V=10.0 +MOVJ EC00038 VJ=10.0
MOVL C00039 V=10.0 +MOVJ EC00039 VJ=10.0
MOVL C00040 V=10.0 +MOVJ EC00040 VJ=10.0
MOVL C00041 V=10.0 +MOVJ EC00041 VJ=10.0
MOVL C00042 V=10.0 +MOVJ EC00042 VJ=10.0
MOVL C00043 V=10.0 +MOVJ EC00043 VJ=10.0
MOVL C00044 V=10.0 +MOVJ EC00044 VJ=10.0
MOVL C00045 V=10.0 +MOVJ EC00045 VJ=10.0
MOVL C00046 V=10.0 +MOVJ EC00046 VJ=10.0
MOVL C00047 V=10.0 +MOVJ EC00047 VJ=10.0
MOVL C00048 V=10.0 +MOVJ EC00048 VJ=10.0
MOVL C00049 V=10.0 +MOVJ EC00049 VJ=10.0
MOVL C00050 V=10.0 +MOVJ EC00050 VJ=10.0
MOVL C00051 V=10.0 +MOVJ EC00051 VJ=10.0
MOVL C00052 V=10.0 +MOVJ EC00052 VJ=10.0
MOVL C00053 V=10.0 +MOVJ EC00053 VJ=10.0
MOVL C00054 V=10.0 +MOVJ EC00054 VJ=10.0
MOVL C00055 V=10.0 +MOVJ EC00055 VJ=10.0
MOVL C00056 V=10.0 +MOVJ EC00056 VJ=10.0
MOVL C00057 V=10.0 +MOVJ EC00057 VJ=10.0
MOVL C00058 V=10.0 +MOVJ EC00058 VJ=10.0
MOVL C00059 V=10.0 +MOVJ EC00059 VJ=10.0
MOVL C00060 V=10.0 +MOVJ EC00060 VJ=10.0
MOVL C00061 V=10.0 +MOVJ EC00061 VJ=10.0
MOVL C00062 V=10.0 +MOVJ EC00062 VJ=10.0
MOVL C00063 V=10.0 +MOVJ EC00063 VJ=10.0
MOVL C00064 V=10.0 +MOVJ EC00064 VJ=10.0
MOVL C00065 V=10.0 +MOVJ EC00065 VJ=10.0
MOVL C00066 V=10.0 +MOVJ EC00066 VJ=10.0
MOVL C00067 V=10.0 +MOVJ EC00067 VJ=10.0
MOVL C00068 V=10.0 +MOVJ EC00068 VJ=10.0
MOVL C00069 V=10.0 +MOVJ EC00069 VJ=10.0
MOVL C00070 V=10.0 +MOVJ EC00070 VJ=10.0
MOVL C00071 V=10.0 +MOVJ EC00071 VJ=10.0
MOVL C00072 V=10.0 +MOVJ EC00072 VJ=10.0
MOVL C00073 V=10.0 +MOVJ EC00073 VJ=10.0
MOVL C00074 V=10.0 +MOVJ EC00074 VJ=10.0
MOVL C00075 V=10.0 +MOVJ EC00075 VJ=10.0
MOVL C00076 V=10.0 +MOVJ EC00076 VJ=10.0
MOVL C00077 V=10.0 +MOVJ EC00077 VJ=10.0
MOVL C00078 V=10.0 +MOVJ EC00078 VJ=10.0
MOVL C00079 V=10.0 +MOVJ EC00079 VJ=10.0
MOVL C00080 V=10.0 +MOVJ EC00080 VJ=10.0
MOVL C00081 V=10.0 +MOVJ EC00081 VJ=10.0
MOVL C00082 V=10.0 +MOVJ EC00082 VJ=10.0
MOVL C00083 V=10.0 +MOVJ EC00083 VJ=10.0
MOVL C00084 V=10.0 +MOVJ EC00084 VJ=10.0
MOVL C00085 V=10.0 +MOVJ EC00085 VJ=10.0
MOVL C00086 V=10.0 +MOVJ EC00086 VJ=10.0
MOVL C00087 V=10.0 +MOVJ EC00087 VJ=10.0
MOVL C00088 V=10.0 +MOVJ EC00088 VJ=10.0
MOVL C00089 V=10.0 +MOVJ EC00089 VJ=10.0
MOVL C00090 V=10.0 +MOVJ EC00090 VJ=10.0
MOVL C00091 V=10.0 +MOVJ EC00091 VJ=10.0
MOVL C00092 V=10.0 +MOVJ EC00092 VJ=10.0
MOVL C00093 V=10.0 +MOVJ EC00093 VJ=10.0
MOVL C00094 V=10.0 +MOVJ EC00094 VJ=10.0
MOVL C00095 V=10.0 +MOVJ EC00095 VJ=10.0
MOVL C00096 V=10.0 +MOVJ EC00096 VJ=10.0
MOVL C00097 V=10.0 +MOVJ EC00097 VJ=10.0
MOVL C00098 V=10.0 +MOVJ EC00098 VJ=10.0
MOVL C00099 V=10.0 +MOVJ EC00099 VJ=10.0
MOVL C00100 V=10.0 +MOVJ EC00100 VJ=10.0
MOVL C00101 V=10.0 +MOVJ EC00101 VJ=10.0
MOVL C00102 V=10.0 +MOVJ EC00102 VJ=10.0
MOVL C00103 V=10.0 +MOVJ EC00103 VJ=10.0
MOVL C00104 V=10.0 +MOVJ EC00104 VJ=10.0
MOVL C00105 V=10.0 +MOVJ EC00105 VJ=10.0
MOVL C00106 V=10.0 +MOVJ EC00106 VJ=10.0
MOVL C00107 V=10.0 +MOVJ EC00107 VJ=10.0
MOVL C00108 V=10.0 +MOVJ EC00108 VJ=10.0
MOVL C00109 V=10.0 +MOVJ EC00109 VJ=10.0
MOVL C00110 V=10.0 +MOVJ EC00110 VJ=10.0
MOVL C00111 V=10.0 +MOVJ EC00111 VJ=10.0
MOVL C00112 V=10.0 +MOVJ EC00112 VJ=10.0
MOVL C00113 V=10.0 +MOVJ EC00113 VJ=10.0
MOVL C00114 V=10.0 +MOVJ EC00114 VJ=10.0
MOVL C00115 V=10.0 +MOVJ EC00115 VJ=10.0
MOVL C00116 V=10.0 +MOVJ EC00116 VJ=10.0
MOVL C00117 V=10.0 +MOVJ EC00117 VJ=10.0
MOVL C00118 V=10.0 +MOVJ EC00118 VJ=10.0
MOVL C00119 V=10.0 +MOVJ EC00119 VJ=10.0
MOVL C00120 V=10.0 +MOVJ EC00120 VJ=10.0
MOVL C00121 V=10.0 +MOVJ EC00121 VJ=10.0
MOVL C00122 V=10.0 +MOVJ EC00122 VJ=10.0
MOVL C00123 V=10.0 +MOVJ EC00123 VJ=10.0
MOVL C00124 V=10.0 +MOVJ EC00124 VJ=10.0
MOVL C00125 V=10.0 +MOVJ EC00125 VJ=10.0
MOVL C00126 V=10.0 +MOVJ EC00126 VJ=10.0
MOVL C00127 V=10.0 +MOVJ EC00127 VJ=10.0
MOVL C00128 V=10.0 +MOVJ EC00128 VJ=10.0
MOVL C00129 V=10.0 +MOVJ EC00129 VJ=10.0
MOVL C00130 V=10.0 +MOVJ EC00130 VJ=10.0
MOVL C00131 V=10.0 +MOVJ EC00131 VJ=10.0
MOVL C00132 V=10.0 +MOVJ EC00132 VJ=10.0
MOVL C00133 V=10.0 +MOVJ EC00133 VJ=10.0
MOVL C00134 V=10.0 +MOVJ EC00134 VJ=10.0
MOVL C00135 V=10.0 +MOVJ EC00135 VJ=10.0
MOVL C00136 V=10.0 +MOVJ EC00136 VJ=10.0
MOVL C00137 V=10.0 +MOVJ EC00137 VJ=10.0
MOVL C00138 V=10.0 +MOVJ EC00138 VJ=10.0
MOVL C00139 V=10.0 +MOVJ EC00139 VJ=10.0
MOVL C00140 V=10.0 +MOVJ EC00140 VJ=10.0
MOVL C00141 V=10.0 +MOVJ EC00141 VJ=10.0
MOVL C00142 V=10.0 +MOVJ EC00142 VJ=10.0
MOVL C00143 V=10.0 +MOVJ EC00143 VJ=10.0
MOVL C00144 V=10.0 +MOVJ EC00144 VJ=10.0
MOVL C00145 V=10.0 +MOVJ EC00145 VJ=10.0
MOVL C00146 V=10.0 +MOVJ EC00146 VJ=10.0
MOVL C00147 V=10.0 +MOVJ EC00147 VJ=10.0
MOVL C00148 V=10.0 +MOVJ EC00148 VJ=10.0
MOVL C00149 V=10.0 +MOVJ EC00149 VJ=10.0
END
