/JOB
//NAME AAA
//POS
///NPOS 68,0,68,0,0,0
///TOOL 12
///POSTYPE PULSE
///PULSE
C00000=-29140,78347,25053,12373,-44052,-13811
C00001=-29377,77884,24485,12315,-43910,-13726
C00002=-29580,77535,24057,12262,-43800,-13651
C00003=-29789,77220,23673,12205,-43698,-13573
C00004=-30001,76940,23330,12144,-43604,-13491
C00005=-30217,76690,23026,12081,-43517,-13407
C00006=-30436,76470,22756,12014,-43436,-13321
C00007=-30657,76274,22518,11945,-43362,-13232
C00008=-30880,76099,22305,11874,-43292,-13142
C00009=-31149,75913,22077,11787,-43213,-13033
C00010=-31374,75771,21905,11713,-43151,-12940
C00011=-31600,75638,21743,11638,-43091,-12847
C00012=-31826,75510,21588,11562,-43032,-12754
C00013=-32052,75384,21434,11486,-42974,-12660
C00014=-32279,75254,21276,11410,-42916,-12567
C00015=-32505,75116,21109,11334,-42855,-12473
C00016=-32730,74968,20929,11258,-42793,-12380
C00017=-32999,74768,20686,11169,-42714,-12269
C00018=-33222,74578,20455,11096,-42643,-12178
C00019=-33443,74361,20193,11024,-42566,-12089
C00020=-33661,74113,19892,10955,-42483,-12002
C00021=-33875,73829,19549,10888,-42393,-11917
C00022=-34084,73505,19157,10825,-42294,-11835
C00023=-34286,73138,18714,10767,-42187,-11757
C00024=-34480,72726,18217,10713,-42072,-11684
C00025=-34700,72173,17550,10655,-41922,-11603
C00026=-34871,71666,16940,10613,-41789,-11543
C00027=-35030,71120,16285,10578,-41649,-11488
C00028=-35176,70540,15590,10548,-41505,-11440
C00029=-35309,69932,14863,10525,-41356,-11397
C00030=-35431,69300,14108,10506,-41205,-11361
C00031=-35540,68649,13333,10493,-41052,-11330
C00032=-35639,67983,12542,10485,-40898,-11304
C00033=-35727,67306,11739,10481,-40744,-11283
C00034=-35727,67170,11839,10454,-40874,-11267
C00035=-35639,67849,12643,10458,-41027,-11288
C00036=-35540,68515,13434,10466,-41181,-11314
C00037=-35431,69167,14210,10480,-41334,-11345
C00038=-35309,69800,14964,10498,-41485,-11381
C00039=-35176,70409,15692,10522,-41633,-11423
C00040=-35029,70989,16387,10551,-41778,-11472
C00041=-34871,71535,17043,10587,-41917,-11527
C00042=-34700,72043,17653,10628,-42050,-11587
C00043=-34480,72597,18320,10686,-42199,-11668
C00044=-34286,73009,18817,10740,-42315,-11741
C00045=-34084,73377,19260,10799,-42422,-11819
C00046=-33875,73701,19652,10862,-42520,-11900
C00047=-33661,73985,19996,10928,-42611,-11985
C00048=-33443,74234,20297,10997,-42694,-12073
C00049=-33222,74450,20560,11069,-42770,-12162
C00050=-32999,74641,20790,11142,-42841,-12253
C00051=-32730,74841,21033,11231,-42920,-12364
C00052=-32505,74990,21214,11307,-42982,-12456
C00053=-32279,75127,21380,11383,-43042,-12550
C00054=-32052,75257,21538,11459,-43101,-12643
C00055=-31826,75384,21693,11535,-43159,-12737
C00056=-31600,75512,21848,11610,-43218,-12830
C00057=-31374,75645,22010,11685,-43278,-12923
C00058=-31149,75787,22182,11759,-43340,-13015
C00059=-30880,75974,22410,11847,-43418,-13125
C00060=-30657,76149,22623,11917,-43488,-13215
C00061=-30436,76345,22862,11986,-43563,-13303
C00062=-30217,76566,23131,12053,-43643,-13390
C00063=-30001,76815,23435,12116,-43730,-13474
C00064=-29789,77096,23779,12177,-43825,-13555
C00065=-29580,77411,24163,12234,-43927,-13634
C00066=-29377,77760,24591,12287,-44036,-13708
C00067=-29140,78224,25160,12345,-44178,-13794
EC00000=-29914,-209393
EC00001=-29914,-209393
EC00002=-29914,-209393
EC00003=-29914,-209393
EC00004=-29914,-209393
EC00005=-29914,-209393
EC00006=-29914,-209393
EC00007=-29914,-209393
EC00008=-29914,-209393
EC00009=-29914,-209393
EC00010=-29914,-209393
EC00011=-29914,-209393
EC00012=-29914,-209393
EC00013=-29914,-209393
EC00014=-29914,-209393
EC00015=-29914,-209393
EC00016=-29914,-209393
EC00017=-29914,-209393
EC00018=-29914,-209393
EC00019=-29914,-209393
EC00020=-29914,-209393
EC00021=-29914,-209393
EC00022=-29914,-209393
EC00023=-29914,-209393
EC00024=-29914,-209393
EC00025=-29914,-209393
EC00026=-29914,-209393
EC00027=-29914,-209393
EC00028=-29914,-209393
EC00029=-29914,-209393
EC00030=-29914,-209393
EC00031=-29914,-209393
EC00032=-29914,-209393
EC00033=-29914,-209393
EC00034=-29914,-209393
EC00035=-29914,-209393
EC00036=-29914,-209393
EC00037=-29914,-209393
EC00038=-29914,-209393
EC00039=-29914,-209393
EC00040=-29914,-209393
EC00041=-29914,-209393
EC00042=-29914,-209393
EC00043=-29914,-209393
EC00044=-29914,-209393
EC00045=-29914,-209393
EC00046=-29914,-209393
EC00047=-29914,-209393
EC00048=-29914,-209393
EC00049=-29914,-209393
EC00050=-29914,-209393
EC00051=-29914,-209393
EC00052=-29914,-209393
EC00053=-29914,-209393
EC00054=-29914,-209393
EC00055=-29914,-209393
EC00056=-29914,-209393
EC00057=-29914,-209393
EC00058=-29914,-209393
EC00059=-29914,-209393
EC00060=-29914,-209393
EC00061=-29914,-209393
EC00062=-29914,-209393
EC00063=-29914,-209393
EC00064=-29914,-209393
EC00065=-29914,-209393
EC00066=-29914,-209393
EC00067=-29914,-209393
//INST
///DATE 2023/05/13 16:05
///ATTR SC,RW
///GROUP1 RB1
///GROUP2 ST1
NOP
MOVL C00000 V=10.0 +MOVJ EC00000
MOVL C00001 V=5.0 +MOVJ EC00001
MOVL C00002 V=5.0 +MOVJ EC00002
MOVL C00003 V=5.0 +MOVJ EC00003
MOVL C00004 V=5.0 +MOVJ EC00004
MOVL C00005 V=5.0 +MOVJ EC00005
MOVL C00006 V=5.0 +MOVJ EC00006
MOVL C00007 V=5.0 +MOVJ EC00007
MOVL C00008 V=5.0 +MOVJ EC00008
MOVL C00009 V=5.0 +MOVJ EC00009
MOVL C00010 V=5.0 +MOVJ EC00010
MOVL C00011 V=5.0 +MOVJ EC00011
MOVL C00012 V=5.0 +MOVJ EC00012
MOVL C00013 V=5.0 +MOVJ EC00013
MOVL C00014 V=5.0 +MOVJ EC00014
MOVL C00015 V=5.0 +MOVJ EC00015
MOVL C00016 V=5.0 +MOVJ EC00016
MOVL C00017 V=5.0 +MOVJ EC00017
MOVL C00018 V=5.0 +MOVJ EC00018
MOVL C00019 V=5.0 +MOVJ EC00019
MOVL C00020 V=5.0 +MOVJ EC00020
MOVL C00021 V=5.0 +MOVJ EC00021
MOVL C00022 V=5.0 +MOVJ EC00022
MOVL C00023 V=5.0 +MOVJ EC00023
MOVL C00024 V=5.0 +MOVJ EC00024
MOVL C00025 V=5.0 +MOVJ EC00025
MOVL C00026 V=5.0 +MOVJ EC00026
MOVL C00027 V=5.0 +MOVJ EC00027
MOVL C00028 V=5.0 +MOVJ EC00028
MOVL C00029 V=5.0 +MOVJ EC00029
MOVL C00030 V=5.0 +MOVJ EC00030
MOVL C00031 V=5.0 +MOVJ EC00031
MOVL C00032 V=5.0 +MOVJ EC00032
MOVL C00033 V=5.0 +MOVJ EC00033
MOVL C00034 V=10.0 +MOVJ EC00034
MOVL C00035 V=5.0 +MOVJ EC00035
MOVL C00036 V=5.0 +MOVJ EC00036
MOVL C00037 V=5.0 +MOVJ EC00037
MOVL C00038 V=5.0 +MOVJ EC00038
MOVL C00039 V=5.0 +MOVJ EC00039
MOVL C00040 V=5.0 +MOVJ EC00040
MOVL C00041 V=5.0 +MOVJ EC00041
MOVL C00042 V=5.0 +MOVJ EC00042
MOVL C00043 V=5.0 +MOVJ EC00043
MOVL C00044 V=5.0 +MOVJ EC00044
MOVL C00045 V=5.0 +MOVJ EC00045
MOVL C00046 V=5.0 +MOVJ EC00046
MOVL C00047 V=5.0 +MOVJ EC00047
MOVL C00048 V=5.0 +MOVJ EC00048
MOVL C00049 V=5.0 +MOVJ EC00049
MOVL C00050 V=5.0 +MOVJ EC00050
MOVL C00051 V=5.0 +MOVJ EC00051
MOVL C00052 V=5.0 +MOVJ EC00052
MOVL C00053 V=5.0 +MOVJ EC00053
MOVL C00054 V=5.0 +MOVJ EC00054
MOVL C00055 V=5.0 +MOVJ EC00055
MOVL C00056 V=5.0 +MOVJ EC00056
MOVL C00057 V=5.0 +MOVJ EC00057
MOVL C00058 V=5.0 +MOVJ EC00058
MOVL C00059 V=5.0 +MOVJ EC00059
MOVL C00060 V=5.0 +MOVJ EC00060
MOVL C00061 V=5.0 +MOVJ EC00061
MOVL C00062 V=5.0 +MOVJ EC00062
MOVL C00063 V=5.0 +MOVJ EC00063
MOVL C00064 V=5.0 +MOVJ EC00064
MOVL C00065 V=5.0 +MOVJ EC00065
MOVL C00066 V=5.0 +MOVJ EC00066
MOVL C00067 V=5.0 +MOVJ EC00067
END
