/JOB
//NAME AAA
//POS
///NPOS 50,0,50,0,0,0
///TOOL 9
///POSTYPE PULSE
///PULSE
C00000=-35202,63672,10736,10429,-42036,-11362
C00001=-35287,64834,12152,10343,-42296,-11292
C00002=-35266,66306,13997,10277,-42672,-11256
C00003=-34933,65963,13630,10412,-42662,-11407
C00004=-34625,65716,13361,10535,-42659,-11546
C00005=-34312,65527,13142,10660,-42659,-11687
C00006=-34063,65450,13038,10758,-42665,-11798
C00007=-33850,65419,12979,10841,-42670,-11893
C00008=-33643,65415,12942,10923,-42675,-11986
C00009=-33421,65413,12902,11010,-42679,-12085
C00010=-33199,65418,12866,11097,-42683,-12184
C00011=-32978,65447,12857,11183,-42690,-12283
C00012=-32754,65504,12876,11269,-42700,-12382
C00013=-32538,65590,12928,11351,-42715,-12477
C00014=-32332,65699,13004,11429,-42732,-12567
C00015=-32104,65837,13105,11515,-42753,-12667
C00016=-31887,65973,13202,11596,-42770,-12762
C00017=-31661,66106,13286,11682,-42783,-12862
C00018=-31402,66260,13378,11781,-42795,-12977
C00019=-31138,66416,13461,11884,-42801,-13095
C00020=-30872,66575,13537,11988,-42802,-13214
C00021=-30580,66748,13604,12104,-42795,-13346
C00022=-30280,66918,13649,12225,-42777,-13483
C00023=-29991,67074,13667,12345,-42749,-13617
C00024=-29661,67232,13643,12485,-42700,-13773
C00025=-29303,67403,13591,12641,-42632,-13944
C00026=-28919,67591,13507,12813,-42542,-14130
C00027=-28536,67799,13414,12989,-42436,-14319
C00028=-28164,68030,13322,13164,-42319,-14505
C00029=-27792,68299,13239,13343,-42188,-14693
C00030=-27439,68601,13178,13517,-42052,-14875
C00031=-27082,68945,13121,13698,-41899,-15061
C00032=-26727,69342,13086,13882,-41733,-15250
C00033=-26409,69753,13080,14052,-41573,-15421
C00034=-26107,70213,13117,14217,-41412,-15586
C00035=-25848,70674,13198,14360,-41270,-15729
C00036=-25611,71164,13324,14492,-41139,-15860
C00037=-25372,71721,13498,14627,-41002,-15993
C00038=-25154,72288,13695,14752,-40872,-16117
C00039=-24955,72886,13951,14866,-40758,-16228
C00040=-24801,73450,14255,14950,-40684,-16313
C00041=-24679,74016,14634,15010,-40648,-16376
C00042=-24570,74618,15093,15056,-40639,-16427
C00043=-24470,75205,15551,15096,-40637,-16474
C00044=-24373,75840,16076,15132,-40649,-16516
C00045=-24303,76449,16653,15143,-40701,-16539
C00046=-24244,77048,17256,15145,-40772,-16553
C00047=-24177,77672,17872,15150,-40839,-16571
C00048=-24098,78319,18475,15166,-40889,-16598
C00049=-24034,78903,19054,15171,-40955,-16615
EC00000=-27764,-171024
EC00001=-25785,-179451
EC00002=-22564,-191347
EC00003=-20096,-187587
EC00004=-17749,-184504
EC00005=-15479,-181211
EC00006=-13894,-178191
EC00007=-12801,-174895
EC00008=-11906,-171181
EC00009=-10933,-167106
EC00010=-9847,-163218
EC00011=-8675,-159606
EC00012=-7435,-156023
EC00013=-6236,-152555
EC00014=-5075,-149178
EC00015=-3728,-145482
EC00016=-2327,-142191
EC00017=-728,-138946
EC00018=1287,-135625
EC00019=3516,-132572
EC00020=5914,-129871
EC00021=8725,-127318
EC00022=11795,-125211
EC00023=14907,-123636
EC00024=18627,-122384
EC00025=22799,-121371
EC00026=27432,-120672
EC00027=32170,-120017
EC00028=36923,-119373
EC00029=41817,-118732
EC00030=46621,-118120
EC00031=51650,-117583
EC00032=56823,-117294
EC00033=61621,-117177
EC00034=66347,-117175
EC00035=70524,-117254
EC00036=74483,-117338
EC00037=78603,-117527
EC00038=82512,-117758
EC00039=86156,-118051
EC00040=89023,-118374
EC00041=91276,-118781
EC00042=93152,-119400
EC00043=94764,-120298
EC00044=96139,-121578
EC00045=96725,-123114
EC00046=96859,-124938
EC00047=96946,-127046
EC00048=97016,-129672
EC00049=96864,-131841
//INST
///DATE 2023/03/07 17:24
///ATTR SC,RW
///GROUP1 RB1
///GROUP2 ST1
NOP
MOVL C00000 V=10.0 +MOVJ EC00000 VJ=10.0
MOVL C00001 V=51.0 +MOVJ EC00001 VJ=51.0
MOVL C00002 V=108.1 +MOVJ EC00002 VJ=108.1
MOVL C00003 V=45.0 +MOVJ EC00003 VJ=45.0
MOVL C00004 V=43.6 +MOVJ EC00004 VJ=43.6
MOVL C00005 V=39.4 +MOVJ EC00005 VJ=39.4
MOVL C00006 V=32.8 +MOVJ EC00006 VJ=32.8
MOVL C00007 V=28.3 +MOVJ EC00007 VJ=28.3
MOVL C00008 V=26.2 +MOVJ EC00008 VJ=26.2
MOVL C00009 V=26.9 +MOVJ EC00009 VJ=26.9
MOVL C00010 V=28.3 +MOVJ EC00010 VJ=28.3
MOVL C00011 V=28.9 +MOVJ EC00011 VJ=28.9
MOVL C00012 V=28.7 +MOVJ EC00012 VJ=28.7
MOVL C00013 V=28.0 +MOVJ EC00013 VJ=28.0
MOVL C00014 V=27.4 +MOVJ EC00014 VJ=27.4
MOVL C00015 V=27.5 +MOVJ EC00015 VJ=27.5
MOVL C00016 V=28.5 +MOVJ EC00016 VJ=28.5
MOVL C00017 V=30.1 +MOVJ EC00017 VJ=30.1
MOVL C00018 V=31.5 +MOVJ EC00018 VJ=31.5
MOVL C00019 V=33.0 +MOVJ EC00019 VJ=33.0
MOVL C00020 V=34.4 +MOVJ EC00020 VJ=34.4
MOVL C00021 V=36.2 +MOVJ EC00021 VJ=36.2
MOVL C00022 V=38.6 +MOVJ EC00022 VJ=38.6
MOVL C00023 V=41.4 +MOVJ EC00023 VJ=41.4
MOVL C00024 V=45.7 +MOVJ EC00024 VJ=45.7
MOVL C00025 V=48.7 +MOVJ EC00025 VJ=48.7
MOVL C00026 V=52.0 +MOVJ EC00026 VJ=52.0
MOVL C00027 V=53.4 +MOVJ EC00027 VJ=53.4
MOVL C00028 V=53.9 +MOVJ EC00028 VJ=53.9
MOVL C00029 V=53.6 +MOVJ EC00029 VJ=53.6
MOVL C00030 V=52.8 +MOVJ EC00030 VJ=52.8
MOVL C00031 V=53.3 +MOVJ EC00031 VJ=53.3
MOVL C00032 V=53.3 +MOVJ EC00032 VJ=53.3
MOVL C00033 V=52.8 +MOVJ EC00033 VJ=52.8
MOVL C00034 V=50.8 +MOVJ EC00034 VJ=50.8
MOVL C00035 V=48.2 +MOVJ EC00035 VJ=48.2
MOVL C00036 V=45.4 +MOVJ EC00036 VJ=45.4
MOVL C00037 V=43.9 +MOVJ EC00037 VJ=43.9
MOVL C00038 V=43.0 +MOVJ EC00038 VJ=43.0
MOVL C00039 V=40.0 +MOVJ EC00039 VJ=40.0
MOVL C00040 V=35.4 +MOVJ EC00040 VJ=35.4
MOVL C00041 V=30.5 +MOVJ EC00041 VJ=30.5
MOVL C00042 V=27.7 +MOVJ EC00042 VJ=27.7
MOVL C00043 V=28.0 +MOVJ EC00043 VJ=28.0
MOVL C00044 V=27.4 +MOVJ EC00044 VJ=27.4
MOVL C00045 V=24.8 +MOVJ EC00045 VJ=24.8
MOVL C00046 V=24.2 +MOVJ EC00046 VJ=24.2
MOVL C00047 V=24.8 +MOVJ EC00047 VJ=24.8
MOVL C00048 V=27.3 +MOVJ EC00048 VJ=27.3
MOVL C00049 V=42.1 +MOVJ EC00049 VJ=42.1
END
