/JOB
//NAME AAA
//POS
///NPOS 18,0,18,0,0,0
///TOOL 10
///POSTYPE PULSE
///PULSE
C00000=-23139,74862,13482,15903,-39797,-17250
C00001=-23118,76727,15777,15764,-40238,-17173
C00002=-23101,76672,15702,15775,-40224,-17184
C00003=-23064,75174,13618,15954,-39736,-17297
C00004=-23052,75309,13803,15943,-39781,-17294
C00005=-23070,76629,15587,15801,-40183,-17206
C00006=-23159,75182,14173,15811,-40045,-17192
C00007=-23090,76396,15449,15783,-40212,-17191
C00008=-23097,76314,15447,15768,-40250,-17180
C00009=-23019,75598,14170,15929,-39861,-17293
C00010=-23030,75664,14377,15895,-39949,-17270
C00011=-23056,76282,15297,15806,-40185,-17212
C00012=-23054,76288,15360,15795,-40219,-17206
C00013=-23071,75727,14706,15826,-40106,-17221
C00014=-23035,76174,15208,15813,-40189,-17221
C00015=-23031,75882,14807,15846,-40096,-17241
C00016=-23028,75904,14902,15831,-40142,-17233
C00017=-23025,76045,15074,15822,-40175,-17228
EC00000=126349,-125788
EC00001=125232,-128303
EC00002=125704,-128383
EC00003=128032,-126665
EC00004=128299,-126805
EC00005=126552,-128401
EC00006=125621,-126255
EC00007=126536,-127348
EC00008=126262,-127554
EC00009=128913,-127323
EC00010=128536,-127356
EC00011=127423,-127549
EC00012=127117,-128446
EC00013=127199,-127798
EC00014=127839,-128015
EC00015=128133,-127987
EC00016=128349,-127538
EC00017=128345,-127581
//INST
///DATE 2023/03/15 17:00
///ATTR SC,RW
///GROUP1 RB1
///GROUP2 ST1
NOP
MOVL C00000 V=10.0 +MOVJ EC00000
ARCON ASF#(140)
MOVL C00001 V=29.2 +MOVJ EC00001
ARCOF
MOVL C00002 V=10.0 +MOVJ EC00002
ARCON ASF#(140)
MOVL C00003 V=30.2 +MOVJ EC00003
ARCOF
MOVL C00004 V=10.0 +MOVJ EC00004
ARCON ASF#(140)
MOVL C00005 V=27.3 +MOVJ EC00005
ARCOF
MOVL C00006 V=10.0 +MOVJ EC00006
ARCON ASF#(140)
MOVL C00007 V=27.9 +MOVJ EC00007
ARCOF
MOVL C00008 V=10.0 +MOVJ EC00008
ARCON ASF#(140)
MOVL C00009 V=30.1 +MOVJ EC00009
ARCOF
MOVL C00010 V=10.0 +MOVJ EC00010
ARCON ASF#(140)
MOVL C00011 V=26.2 +MOVJ EC00011
ARCOF
MOVL C00012 V=10.0 +MOVJ EC00012
ARCON ASF#(140)
MOVL C00013 V=23.3 +MOVJ EC00013
ARCOF
MOVL C00014 V=10.0 +MOVJ EC00014
ARCON ASF#(140)
MOVL C00015 V=21.8 +MOVJ EC00015
ARCOF
MOVL C00016 V=10.0 +MOVJ EC00016
ARCON ASF#(140)
MOVL C00017 V=20.6 +MOVJ EC00017
ARCOF
END
