/JOB
//NAME AAA
//POS
///NPOS 100,0,0,0,0,0
///TOOL 1
///POSTYPE PULSE
///PULSE
C00000=-50504,122519,83908,3364,-55540,-3924
C00001=-47258,106997,63172,4736,-50925,-5425
C00002=-47258,106974,63225,4733,-50970,-5422
C00003=-50504,122513,83983,3362,-55589,-3923
C00004=-50504,122508,84059,3360,-55639,-3921
C00005=-47258,106951,63278,4730,-51014,-5420
C00006=-47258,106928,63331,4727,-51058,-5418
C00007=-50504,122502,84134,3358,-55688,-3919
C00008=-50504,122497,84211,3356,-55737,-3918
C00009=-47258,106906,63385,4724,-51103,-5416
C00010=-47258,106883,63439,4721,-51147,-5414
C00011=-50504,122493,84287,3354,-55787,-3916
C00012=-50504,122488,84364,3352,-55836,-3915
C00013=-47258,106861,63492,4719,-51192,-5412
C00014=-47258,106838,63547,4716,-51236,-5410
C00015=-50504,122484,84441,3350,-55886,-3913
C00016=-50504,122480,84519,3348,-55936,-3912
C00017=-47258,106816,63601,4713,-51281,-5408
C00018=-47258,106794,63655,4710,-51326,-5406
C00019=-50504,122476,84597,3346,-55985,-3910
C00020=-50504,122473,84675,3345,-56035,-3908
C00021=-47258,106773,63710,4707,-51370,-5404
C00022=-47258,106751,63765,4704,-51415,-5401
C00023=-50504,122470,84754,3343,-56085,-3907
C00024=-50504,122467,84833,3341,-56135,-3905
C00025=-47258,106730,63820,4701,-51460,-5399
C00026=-47258,106708,63876,4698,-51505,-5397
C00027=-50504,122465,84913,3339,-56186,-3904
C00028=-50504,122462,84993,3337,-56236,-3902
C00029=-47258,106687,63931,4695,-51550,-5395
C00030=-47258,106666,63987,4693,-51595,-5393
C00031=-50504,122461,85073,3335,-56286,-3901
C00032=-50504,122459,85154,3333,-56337,-3899
C00033=-47258,106646,64043,4690,-51640,-5391
C00034=-47258,106625,64099,4687,-51685,-5389
C00035=-50504,122458,85235,3331,-56387,-3897
C00036=-50504,122456,85316,3329,-56438,-3896
C00037=-47258,106605,64156,4684,-51730,-5387
C00038=-47258,106584,64212,4681,-51775,-5385
C00039=-50504,122456,85398,3327,-56488,-3894
C00040=-50504,122455,85481,3325,-56539,-3893
C00041=-47258,106564,64269,4678,-51820,-5382
C00042=-47258,106544,64326,4675,-51865,-5380
C00043=-50504,122455,85563,3323,-56590,-3891
C00044=-50504,122455,85646,3322,-56641,-3889
C00045=-47258,106525,64384,4673,-51910,-5378
C00046=-47258,106505,64441,4670,-51956,-5376
C00047=-50504,122456,85730,3320,-56692,-3888
C00048=-50504,122456,85814,3318,-56743,-3886
C00049=-47258,106486,64499,4667,-52001,-5374
C00050=-47258,106466,64557,4664,-52047,-5372
C00051=-50504,122457,85898,3316,-56795,-3885
C00052=-50504,122459,85983,3314,-56846,-3883
C00053=-47258,106447,64615,4661,-52092,-5370
C00054=-47258,106428,64673,4658,-52138,-5368
C00055=-50504,122460,86068,3312,-56898,-3881
C00056=-50504,122462,86154,3310,-56949,-3880
C00057=-47258,106410,64732,4655,-52183,-5366
C00058=-47258,106391,64791,4653,-52229,-5364
C00059=-50504,122465,86240,3308,-57001,-3878
C00060=-50504,122467,86326,3306,-57053,-3877
C00061=-47258,106373,64850,4650,-52274,-5361
C00062=-47258,106354,64909,4647,-52320,-5359
C00063=-50504,122470,86413,3304,-57105,-3875
C00064=-50504,122473,86501,3303,-57157,-3873
C00065=-47258,106336,64969,4644,-52366,-5357
C00066=-47258,106319,65028,4641,-52412,-5355
C00067=-50504,122477,86588,3301,-57209,-3872
C00068=-50504,122481,86677,3299,-57261,-3870
C00069=-47258,106301,65088,4639,-52457,-5353
C00070=-47258,106283,65148,4636,-52503,-5351
C00071=-50504,122485,86765,3297,-57313,-3869
C00072=-50504,122490,86854,3295,-57366,-3867
C00073=-47258,106266,65209,4633,-52549,-5349
C00074=-47258,106249,65269,4630,-52595,-5347
C00075=-50504,122494,86944,3293,-57418,-3865
C00076=-50504,122500,87034,3291,-57471,-3864
C00077=-47258,106232,65330,4627,-52641,-5345
C00078=-47258,106215,65391,4625,-52687,-5343
C00079=-50504,122505,87124,3289,-57523,-3862
C00080=-50504,122511,87215,3288,-57576,-3861
C00081=-47258,106198,65453,4622,-52734,-5340
C00082=-47258,106182,65514,4619,-52780,-5338
C00083=-50504,122517,87306,3286,-57629,-3859
C00084=-50504,122524,87398,3284,-57682,-3857
C00085=-47258,106166,65576,4616,-52826,-5336
C00086=-47258,106149,65638,4613,-52872,-5334
C00087=-50504,122531,87490,3282,-57735,-3856
C00088=-50504,122538,87583,3280,-57789,-3854
C00089=-47258,106133,65700,4611,-52919,-5332
C00090=-47258,106118,65763,4608,-52965,-5330
C00091=-50504,122545,87676,3278,-57842,-3853
C00092=-50504,122553,87770,3276,-57896,-3851
C00093=-47258,106102,65825,4605,-53011,-5328
C00094=-47258,106087,65888,4602,-53058,-5326
C00095=-50504,122561,87864,3274,-57949,-3849
C00096=-50504,122570,87959,3272,-58003,-3848
C00097=-47258,106071,65951,4600,-53104,-5324
C00098=-47258,106056,66015,4597,-53151,-5322
C00099=-50504,122579,88054,3271,-58057,-3846
//INST
///DATE 2023/01/03 15:25
///COMM Generated using RoboDK
///ATTR SC,RW
///GROUP1 RB1
NOP
'Using Motoman MA2010 Base (ta
'rgets wrt base):
'0.0,0.0,0.0,0.0,0.0,0.0
MOVJ C00000 VJ=1.0 PL=0
MOVL C00001 V=20.0 PL=0
MOVJ C00002 VJ=1.0 PL=0
MOVL C00003 V=20.0 PL=0
MOVJ C00004 VJ=1.0 PL=0
MOVL C00005 V=20.0 PL=0
MOVJ C00006 VJ=1.0 PL=0
MOVL C00007 V=20.0 PL=0
MOVJ C00008 VJ=1.0 PL=0
MOVL C00009 V=20.0 PL=0
MOVJ C00010 VJ=1.0 PL=0
MOVL C00011 V=20.0 PL=0
MOVJ C00012 VJ=1.0 PL=0
MOVL C00013 V=20.0 PL=0
MOVJ C00014 VJ=1.0 PL=0
MOVL C00015 V=20.0 PL=0
MOVJ C00016 VJ=1.0 PL=0
MOVL C00017 V=20.0 PL=0
MOVJ C00018 VJ=1.0 PL=0
MOVL C00019 V=20.0 PL=0
MOVJ C00020 VJ=1.0 PL=0
MOVL C00021 V=20.0 PL=0
MOVJ C00022 VJ=1.0 PL=0
MOVL C00023 V=20.0 PL=0
MOVJ C00024 VJ=1.0 PL=0
MOVL C00025 V=20.0 PL=0
MOVJ C00026 VJ=1.0 PL=0
MOVL C00027 V=20.0 PL=0
MOVJ C00028 VJ=1.0 PL=0
MOVL C00029 V=20.0 PL=0
MOVJ C00030 VJ=1.0 PL=0
MOVL C00031 V=20.0 PL=0
MOVJ C00032 VJ=1.0 PL=0
MOVL C00033 V=20.0 PL=0
MOVJ C00034 VJ=1.0 PL=0
MOVL C00035 V=20.0 PL=0
MOVJ C00036 VJ=1.0 PL=0
MOVL C00037 V=20.0 PL=0
MOVJ C00038 VJ=1.0 PL=0
MOVL C00039 V=20.0 PL=0
MOVJ C00040 VJ=1.0 PL=0
MOVL C00041 V=20.0 PL=0
MOVJ C00042 VJ=1.0 PL=0
MOVL C00043 V=20.0 PL=0
MOVJ C00044 VJ=1.0 PL=0
MOVL C00045 V=20.0 PL=0
MOVJ C00046 VJ=1.0 PL=0
MOVL C00047 V=20.0 PL=0
MOVJ C00048 VJ=1.0 PL=0
MOVL C00049 V=20.0 PL=0
MOVJ C00050 VJ=1.0 PL=0
MOVL C00051 V=20.0 PL=0
MOVJ C00052 VJ=1.0 PL=0
MOVL C00053 V=20.0 PL=0
MOVJ C00054 VJ=1.0 PL=0
MOVL C00055 V=20.0 PL=0
MOVJ C00056 VJ=1.0 PL=0
MOVL C00057 V=20.0 PL=0
MOVJ C00058 VJ=1.0 PL=0
MOVL C00059 V=20.0 PL=0
MOVJ C00060 VJ=1.0 PL=0
MOVL C00061 V=20.0 PL=0
MOVJ C00062 VJ=1.0 PL=0
MOVL C00063 V=20.0 PL=0
MOVJ C00064 VJ=1.0 PL=0
MOVL C00065 V=20.0 PL=0
MOVJ C00066 VJ=1.0 PL=0
MOVL C00067 V=20.0 PL=0
MOVJ C00068 VJ=1.0 PL=0
MOVL C00069 V=20.0 PL=0
MOVJ C00070 VJ=1.0 PL=0
MOVL C00071 V=20.0 PL=0
MOVJ C00072 VJ=1.0 PL=0
MOVL C00073 V=20.0 PL=0
MOVJ C00074 VJ=1.0 PL=0
MOVL C00075 V=20.0 PL=0
MOVJ C00076 VJ=1.0 PL=0
MOVL C00077 V=20.0 PL=0
MOVJ C00078 VJ=1.0 PL=0
MOVL C00079 V=20.0 PL=0
MOVJ C00080 VJ=1.0 PL=0
MOVL C00081 V=20.0 PL=0
MOVJ C00082 VJ=1.0 PL=0
MOVL C00083 V=20.0 PL=0
MOVJ C00084 VJ=1.0 PL=0
MOVL C00085 V=20.0 PL=0
MOVJ C00086 VJ=1.0 PL=0
MOVL C00087 V=20.0 PL=0
MOVJ C00088 VJ=1.0 PL=0
MOVL C00089 V=20.0 PL=0
MOVJ C00090 VJ=1.0 PL=0
MOVL C00091 V=20.0 PL=0
MOVJ C00092 VJ=1.0 PL=0
MOVL C00093 V=20.0 PL=0
MOVJ C00094 VJ=1.0 PL=0
MOVL C00095 V=20.0 PL=0
MOVJ C00096 VJ=1.0 PL=0
MOVL C00097 V=20.0 PL=0
MOVJ C00098 VJ=1.0 PL=0
MOVL C00099 V=20.0 PL=0
END
