/JOB
//NAME AAA
//POS
///NPOS 200,0,0,0,0,0
///TOOL 1
///POSTYPE PULSE
///PULSE
C00000=-47639,107933,64405,4583,-51181,-5255
C00001=-47639,107933,64405,4583,-51181,-5255
C00002=-49600,116712,76081,3751,-53750,-4348
C00003=-47627,108030,64533,4585,-51211,-5259
C00004=-47627,108008,64587,4583,-51255,-5257
C00005=-47627,108008,64587,4583,-51255,-5257
C00006=-49612,116583,75992,3747,-53761,-4343
C00007=-47639,107911,64459,4580,-51225,-5253
C00008=-47639,107888,64513,4577,-51270,-5251
C00009=-47639,107888,64513,4577,-51270,-5251
C00010=-49600,116684,76210,3747,-53844,-4345
C00011=-47627,107986,64641,4580,-51300,-5254
C00012=-47627,107964,64695,4577,-51344,-5252
C00013=-47627,107964,64695,4577,-51344,-5252
C00014=-49612,116556,76121,3742,-53854,-4339
C00015=-47639,107866,64567,4575,-51315,-5249
C00016=-47639,107844,64621,4572,-51359,-5247
C00017=-47639,107844,64621,4572,-51359,-5247
C00018=-49600,116657,76340,3743,-53937,-4341
C00019=-47627,107942,64750,4574,-51389,-5250
C00020=-47627,107920,64805,4571,-51433,-5248
C00021=-47627,107920,64805,4571,-51433,-5248
C00022=-49612,116529,76251,3738,-53948,-4336
C00023=-47639,107822,64676,4569,-51404,-5245
C00024=-47639,107801,64730,4566,-51448,-5243
C00025=-47639,107801,64730,4566,-51448,-5243
C00026=-49600,116631,76472,3738,-54031,-4338
C00027=-47627,107899,64859,4569,-51478,-5246
C00028=-47627,107877,64915,4566,-51523,-5244
C00029=-47627,107877,64915,4566,-51523,-5244
C00030=-49612,116503,76383,3734,-54042,-4332
C00031=-47639,107779,64785,4563,-51493,-5241
C00032=-47639,107758,64841,4561,-51538,-5239
C00033=-47639,107758,64841,4561,-51538,-5239
C00034=-49600,116606,76604,3734,-54126,-4334
C00035=-47627,107856,64970,4563,-51568,-5242
C00036=-47627,107835,65025,4560,-51613,-5240
C00037=-47627,107835,65025,4560,-51613,-5240
C00038=-49612,116478,76515,3729,-54136,-4329
C00039=-47639,107737,64896,4558,-51583,-5236
C00040=-47639,107716,64952,4555,-51628,-5234
C00041=-47639,107716,64952,4555,-51628,-5234
C00042=-49600,116582,76738,3730,-54220,-4331
C00043=-47627,107814,65081,4557,-51658,-5238
C00044=-47627,107793,65137,4555,-51702,-5236
C00045=-47627,107793,65137,4555,-51702,-5236
C00046=-49612,116454,76649,3725,-54231,-4326
C00047=-47639,107695,65008,4552,-51673,-5232
C00048=-47639,107674,65064,4549,-51718,-5230
C00049=-47639,107674,65064,4549,-51718,-5230
C00050=-49600,116559,76872,3725,-54315,-4328
C00051=-47627,107773,65193,4552,-51747,-5234
C00052=-47627,107752,65250,4549,-51793,-5232
C00053=-47627,107752,65250,4549,-51793,-5232
C00054=-49612,116431,76784,3720,-54325,-4322
C00055=-47639,107654,65120,4547,-51763,-5228
C00056=-47639,107634,65177,4544,-51808,-5226
C00057=-47639,107634,65177,4544,-51808,-5226
C00058=-49600,116536,77008,3721,-54410,-4324
C00059=-47627,107732,65306,4546,-51838,-5230
C00060=-47627,107712,65363,4544,-51883,-5228
C00061=-47627,107712,65363,4544,-51883,-5228
C00062=-49612,116409,76920,3716,-54421,-4319
C00063=-47639,107613,65233,4541,-51853,-5224
C00064=-47639,107594,65290,4538,-51898,-5222
C00065=-47639,107594,65290,4538,-51898,-5222
C00066=-49600,116515,77145,3717,-54505,-4321
C00067=-47627,107692,65420,4541,-51928,-5226
C00068=-47627,107673,65478,4538,-51973,-5224
C00069=-47627,107673,65478,4538,-51973,-5224
C00070=-49612,116387,77058,3712,-54516,-4315
C00071=-47639,107574,65347,4536,-51943,-5220
C00072=-47639,107554,65405,4533,-51989,-5218
C00073=-47639,107554,65405,4533,-51989,-5218
C00074=-49600,116494,77284,3712,-54601,-4317
C00075=-47627,107653,65535,4535,-52019,-5222
C00076=-47627,107634,65593,4533,-52064,-5220
C00077=-47627,107634,65593,4533,-52064,-5220
C00078=-49612,116367,77196,3707,-54611,-4312
C00079=-47639,107535,65462,4530,-52034,-5216
C00080=-47627,107614,65651,4530,-52109,-5218
C00081=-47627,107614,65651,4530,-52109,-5218
C00082=-49612,116357,77266,3705,-54659,-4310
C00083=-47639,107515,65520,4527,-52079,-5214
C00084=-47639,107496,65578,4525,-52125,-5212
C00085=-47639,107496,65578,4525,-52125,-5212
C00086=-49600,116465,77493,3706,-54744,-4312
C00087=-47627,107595,65709,4527,-52155,-5216
C00088=-47627,107577,65767,4524,-52200,-5214
C00089=-47627,107577,65767,4524,-52200,-5214
C00090=-49612,116338,77406,3701,-54755,-4307
C00091=-47639,107477,65637,4522,-52170,-5210
C00092=-47639,107459,65695,4519,-52216,-5208
C00093=-47639,107459,65695,4519,-52216,-5208
C00094=-49600,116446,77635,3701,-54841,-4309
C00095=-47627,107558,65826,4522,-52246,-5212
C00096=-47627,107539,65885,4519,-52291,-5210
C00097=-47627,107539,65885,4519,-52291,-5210
C00098=-49612,116319,77548,3697,-54852,-4303
C00099=-47639,107440,65754,4516,-52261,-5206
C00100=-47639,107422,65813,4514,-52307,-5204
C00101=-47639,107422,65813,4514,-52307,-5204
C00102=-49600,116429,77777,3697,-54937,-4305
C00103=-47627,107521,65944,4516,-52337,-5208
C00104=-47627,107503,66003,4513,-52383,-5206
C00105=-47627,107503,66003,4513,-52383,-5206
C00106=-49612,116302,77690,3692,-54948,-4300
C00107=-47639,107403,65872,4511,-52353,-5202
C00108=-47639,107385,65932,4508,-52398,-5200
C00109=-47639,107385,65932,4508,-52398,-5200
C00110=-49600,116412,77921,3693,-55034,-4302
C00111=-47627,107485,66063,4511,-52428,-5203
C00112=-47627,107467,66122,4508,-52474,-5201
C00113=-47627,107467,66122,4508,-52474,-5201
C00114=-49612,116286,77834,3688,-55045,-4297
C00115=-47639,107367,65991,4505,-52444,-5198
C00116=-47639,107350,66051,4503,-52490,-5196
C00117=-47639,107350,66051,4503,-52490,-5196
C00118=-49600,116397,78066,3689,-55131,-4299
C00119=-47627,107450,66182,4505,-52520,-5199
C00120=-47639,107332,66111,4500,-52536,-5194
C00121=-47639,107332,66111,4500,-52536,-5194
C00122=-49600,116389,78139,3687,-55180,-4297
C00123=-47627,107432,66243,4503,-52566,-5197
C00124=-47627,107415,66303,4500,-52612,-5195
C00125=-47627,107415,66303,4500,-52612,-5195
C00126=-49612,116263,78052,3682,-55191,-4292
C00127=-47639,107315,66171,4497,-52582,-5192
C00128=-47639,107298,66232,4495,-52628,-5190
C00129=-47639,107298,66232,4495,-52628,-5190
C00130=-49600,116375,78286,3682,-55277,-4294
C00131=-47627,107398,66364,4497,-52658,-5193
C00132=-47627,107381,66425,4494,-52704,-5191
C00133=-47627,107381,66425,4494,-52704,-5191
C00134=-49612,116249,78200,3677,-55288,-4288
C00135=-47639,107281,66293,4492,-52674,-5188
C00136=-47639,107264,66354,4489,-52720,-5186
C00137=-47639,107264,66354,4489,-52720,-5186
C00138=-49600,116362,78434,3678,-55375,-4290
C00139=-47627,107364,66486,4492,-52750,-5189
C00140=-47627,107347,66547,4489,-52796,-5187
C00141=-47627,107347,66547,4489,-52796,-5187
C00142=-49612,116236,78348,3673,-55386,-4285
C00143=-47639,107247,66415,4486,-52766,-5184
C00144=-47639,107231,66477,4484,-52812,-5181
C00145=-47639,107231,66477,4484,-52812,-5181
C00146=-49600,116349,78584,3674,-55473,-4287
C00147=-47627,107331,66609,4486,-52842,-5185
C00148=-47627,107315,66671,4484,-52888,-5183
C00149=-47627,107315,66671,4484,-52888,-5183
C00150=-49612,116223,78498,3669,-55484,-4281
C00151=-47639,107214,66538,4481,-52858,-5179
C00152=-47639,107198,66600,4478,-52904,-5177
C00153=-47639,107198,66600,4478,-52904,-5177
C00154=-49600,116338,78734,3669,-55571,-4283
C00155=-47627,107299,66733,4481,-52935,-5181
C00156=-47627,107283,66795,4478,-52981,-5179
C00157=-47627,107283,66795,4478,-52981,-5179
C00158=-49612,116212,78649,3665,-55583,-4278
C00159=-47639,107182,66662,4476,-52951,-5175
C00160=-47627,107267,66857,4476,-53027,-5177
C00161=-47627,107267,66857,4476,-53027,-5177
C00162=-49612,116207,78724,3663,-55632,-4276
C00163=-47639,107166,66725,4473,-52997,-5173
C00164=-47639,107151,66787,4470,-53043,-5171
C00165=-47639,107151,66787,4470,-53043,-5171
C00166=-49600,116323,78963,3663,-55720,-4278
C00167=-47627,107252,66920,4473,-53074,-5175
C00168=-47627,107237,66983,4470,-53120,-5173
C00169=-47627,107237,66983,4470,-53120,-5173
C00170=-49612,116197,78877,3658,-55731,-4273
C00171=-47639,107135,66850,4468,-53090,-5169
C00172=-47639,107120,66913,4465,-53136,-5167
C00173=-47639,107120,66913,4465,-53136,-5167
C00174=-49600,116314,79117,3659,-55819,-4275
C00175=-47627,107221,67046,4467,-53167,-5171
C00176=-47627,107206,67110,4465,-53213,-5169
C00177=-47627,107206,67110,4465,-53213,-5169
C00178=-49612,116188,79032,3654,-55830,-4269
C00179=-47639,107105,66977,4462,-53183,-5165
C00180=-47639,107090,67040,4460,-53230,-5163
C00181=-47639,107090,67040,4460,-53230,-5163
C00182=-49600,116306,79272,3655,-55918,-4271
C00183=-47627,107192,67174,4462,-53260,-5167
C00184=-47627,107177,67237,4459,-53307,-5165
C00185=-47627,107177,67237,4459,-53307,-5165
C00186=-49612,116181,79187,3650,-55930,-4266
C00187=-47639,107076,67104,4457,-53276,-5161
C00188=-47639,107061,67168,4454,-53323,-5159
C00189=-47639,107061,67168,4454,-53323,-5159
C00190=-49600,116299,79429,3651,-56018,-4268
C00191=-47627,107163,67302,4457,-53354,-5163
C00192=-47627,107149,67366,4454,-53400,-5161
C00193=-47627,107149,67366,4454,-53400,-5161
C00194=-49612,116174,79344,3646,-56030,-4262
C00195=-47639,107047,67232,4452,-53370,-5157
C00196=-47639,107033,67297,4449,-53417,-5155
C00197=-47639,107033,67297,4449,-53417,-5155
C00198=-49600,116294,79587,3646,-56118,-4264
C00199=-47627,107135,67431,4451,-53447,-5159
//INST
///DATE 2023/01/12 17:06
///ATTR SC,RW
///GROUP1 RB1
NOP
'Using Motoman MA2010 Base (ta
'rgets wrt base):
'0.0,0.0,0.0,0.0,0.0,0.0
MOVJ C00000 VJ=1.0 PL=0
ARCON
MOVC C00001 V=5.0 PL=1
MOVC C00002 V=5.0 PL=1
MOVC C00003 V=5.0 PL=0
ARCOF
MOVJ C00004 VJ=1.0 PL=0
ARCON
MOVC C00005 V=5.0 PL=1
MOVC C00006 V=5.0 PL=1
MOVC C00007 V=5.0 PL=0
ARCOF
MOVJ C00008 VJ=1.0 PL=0
ARCON
MOVC C00009 V=5.0 PL=1
MOVC C00010 V=5.0 PL=1
MOVC C00011 V=5.0 PL=0
ARCOF
MOVJ C00012 VJ=1.0 PL=0
ARCON
MOVC C00013 V=50.0 PL=1
MOVC C00014 V=50.0 PL=1
MOVC C00015 V=50.0 PL=0
ARCOF
MOVJ C00016 VJ=1.0 PL=0
ARCON
MOVC C00017 V=50.0 PL=1
MOVC C00018 V=50.0 PL=1
MOVC C00019 V=50.0 PL=0
ARCOF
MOVJ C00020 VJ=1.0 PL=0
ARCON
MOVC C00021 V=50.0 PL=1
MOVC C00022 V=50.0 PL=1
MOVC C00023 V=50.0 PL=0
ARCOF
MOVJ C00024 VJ=1.0 PL=0
ARCON
MOVC C00025 V=50.0 PL=1
MOVC C00026 V=50.0 PL=1
MOVC C00027 V=50.0 PL=0
ARCOF
MOVJ C00028 VJ=1.0 PL=0
ARCON
MOVC C00029 V=50.0 PL=1
MOVC C00030 V=50.0 PL=1
MOVC C00031 V=50.0 PL=0
ARCOF
MOVJ C00032 VJ=1.0 PL=0
ARCON
MOVC C00033 V=50.0 PL=1
MOVC C00034 V=50.0 PL=1
MOVC C00035 V=50.0 PL=0
ARCOF
MOVJ C00036 VJ=1.0 PL=0
ARCON
MOVC C00037 V=50.0 PL=1
MOVC C00038 V=50.0 PL=1
MOVC C00039 V=50.0 PL=0
ARCOF
MOVJ C00040 VJ=1.0 PL=0
ARCON
MOVC C00041 V=50.0 PL=1
MOVC C00042 V=50.0 PL=1
MOVC C00043 V=50.0 PL=0
ARCOF
MOVJ C00044 VJ=1.0 PL=0
ARCON
MOVC C00045 V=50.0 PL=1
MOVC C00046 V=50.0 PL=1
MOVC C00047 V=50.0 PL=0
ARCOF
MOVJ C00048 VJ=1.0 PL=0
ARCON
MOVC C00049 V=50.0 PL=1
MOVC C00050 V=50.0 PL=1
MOVC C00051 V=50.0 PL=0
ARCOF
MOVJ C00052 VJ=1.0 PL=0
ARCON
MOVC C00053 V=50.0 PL=1
MOVC C00054 V=50.0 PL=1
MOVC C00055 V=50.0 PL=0
ARCOF
MOVJ C00056 VJ=1.0 PL=0
ARCON
MOVC C00057 V=50.0 PL=1
MOVC C00058 V=50.0 PL=1
MOVC C00059 V=50.0 PL=0
ARCOF
MOVJ C00060 VJ=1.0 PL=0
ARCON
MOVC C00061 V=50.0 PL=1
MOVC C00062 V=50.0 PL=1
MOVC C00063 V=50.0 PL=0
ARCOF
MOVJ C00064 VJ=1.0 PL=0
ARCON
MOVC C00065 V=50.0 PL=1
MOVC C00066 V=50.0 PL=1
MOVC C00067 V=50.0 PL=0
ARCOF
MOVJ C00068 VJ=1.0 PL=0
ARCON
MOVC C00069 V=50.0 PL=1
MOVC C00070 V=50.0 PL=1
MOVC C00071 V=50.0 PL=0
ARCOF
MOVJ C00072 VJ=1.0 PL=0
ARCON
MOVC C00073 V=50.0 PL=1
MOVC C00074 V=50.0 PL=1
MOVC C00075 V=50.0 PL=0
ARCOF
MOVJ C00076 VJ=1.0 PL=0
ARCON
MOVC C00077 V=50.0 PL=1
MOVC C00078 V=50.0 PL=1
MOVC C00079 V=50.0 PL=0
ARCOF
MOVJ C00080 VJ=1.0 PL=0
ARCON
MOVC C00081 V=50.0 PL=1
MOVC C00082 V=50.0 PL=1
MOVC C00083 V=50.0 PL=0
ARCOF
MOVJ C00084 VJ=1.0 PL=0
ARCON
MOVC C00085 V=50.0 PL=1
MOVC C00086 V=50.0 PL=1
MOVC C00087 V=50.0 PL=0
ARCOF
MOVJ C00088 VJ=1.0 PL=0
ARCON
MOVC C00089 V=50.0 PL=1
MOVC C00090 V=50.0 PL=1
MOVC C00091 V=50.0 PL=0
ARCOF
MOVJ C00092 VJ=1.0 PL=0
ARCON
MOVC C00093 V=50.0 PL=1
MOVC C00094 V=50.0 PL=1
MOVC C00095 V=50.0 PL=0
ARCOF
MOVJ C00096 VJ=1.0 PL=0
ARCON
MOVC C00097 V=50.0 PL=1
MOVC C00098 V=50.0 PL=1
MOVC C00099 V=50.0 PL=0
ARCOF
MOVJ C00100 VJ=1.0 PL=0
ARCON
MOVC C00101 V=50.0 PL=1
MOVC C00102 V=50.0 PL=1
MOVC C00103 V=50.0 PL=0
ARCOF
MOVJ C00104 VJ=1.0 PL=0
ARCON
MOVC C00105 V=50.0 PL=1
MOVC C00106 V=50.0 PL=1
MOVC C00107 V=50.0 PL=0
ARCOF
MOVJ C00108 VJ=1.0 PL=0
ARCON
MOVC C00109 V=50.0 PL=1
MOVC C00110 V=50.0 PL=1
MOVC C00111 V=50.0 PL=0
ARCOF
MOVJ C00112 VJ=1.0 PL=0
ARCON
MOVC C00113 V=50.0 PL=1
MOVC C00114 V=50.0 PL=1
MOVC C00115 V=50.0 PL=0
ARCOF
MOVJ C00116 VJ=1.0 PL=0
ARCON
MOVC C00117 V=50.0 PL=1
MOVC C00118 V=50.0 PL=1
MOVC C00119 V=50.0 PL=0
ARCOF
MOVJ C00120 VJ=1.0 PL=0
ARCON
MOVC C00121 V=50.0 PL=1
MOVC C00122 V=50.0 PL=1
MOVC C00123 V=50.0 PL=0
ARCOF
MOVJ C00124 VJ=1.0 PL=0
ARCON
MOVC C00125 V=50.0 PL=1
MOVC C00126 V=50.0 PL=1
MOVC C00127 V=50.0 PL=0
ARCOF
MOVJ C00128 VJ=1.0 PL=0
ARCON
MOVC C00129 V=50.0 PL=1
MOVC C00130 V=50.0 PL=1
MOVC C00131 V=50.0 PL=0
ARCOF
MOVJ C00132 VJ=1.0 PL=0
ARCON
MOVC C00133 V=50.0 PL=1
MOVC C00134 V=50.0 PL=1
MOVC C00135 V=50.0 PL=0
ARCOF
MOVJ C00136 VJ=1.0 PL=0
ARCON
MOVC C00137 V=50.0 PL=1
MOVC C00138 V=50.0 PL=1
MOVC C00139 V=50.0 PL=0
ARCOF
MOVJ C00140 VJ=1.0 PL=0
ARCON
MOVC C00141 V=50.0 PL=1
MOVC C00142 V=50.0 PL=1
MOVC C00143 V=50.0 PL=0
ARCOF
MOVJ C00144 VJ=1.0 PL=0
ARCON
MOVC C00145 V=50.0 PL=1
MOVC C00146 V=50.0 PL=1
MOVC C00147 V=50.0 PL=0
ARCOF
MOVJ C00148 VJ=1.0 PL=0
ARCON
MOVC C00149 V=50.0 PL=1
MOVC C00150 V=50.0 PL=1
MOVC C00151 V=50.0 PL=0
ARCOF
MOVJ C00152 VJ=1.0 PL=0
ARCON
MOVC C00153 V=50.0 PL=1
MOVC C00154 V=50.0 PL=1
MOVC C00155 V=50.0 PL=0
ARCOF
MOVJ C00156 VJ=1.0 PL=0
ARCON
MOVC C00157 V=50.0 PL=1
MOVC C00158 V=50.0 PL=1
MOVC C00159 V=50.0 PL=0
ARCOF
MOVJ C00160 VJ=1.0 PL=0
ARCON
MOVC C00161 V=50.0 PL=1
MOVC C00162 V=50.0 PL=1
MOVC C00163 V=50.0 PL=0
ARCOF
MOVJ C00164 VJ=1.0 PL=0
ARCON
MOVC C00165 V=50.0 PL=1
MOVC C00166 V=50.0 PL=1
MOVC C00167 V=50.0 PL=0
ARCOF
MOVJ C00168 VJ=1.0 PL=0
ARCON
MOVC C00169 V=50.0 PL=1
MOVC C00170 V=50.0 PL=1
MOVC C00171 V=50.0 PL=0
ARCOF
MOVJ C00172 VJ=1.0 PL=0
ARCON
MOVC C00173 V=50.0 PL=1
MOVC C00174 V=50.0 PL=1
MOVC C00175 V=50.0 PL=0
ARCOF
MOVJ C00176 VJ=1.0 PL=0
ARCON
MOVC C00177 V=50.0 PL=1
MOVC C00178 V=50.0 PL=1
MOVC C00179 V=50.0 PL=0
ARCOF
MOVJ C00180 VJ=1.0 PL=0
ARCON
MOVC C00181 V=50.0 PL=1
MOVC C00182 V=50.0 PL=1
MOVC C00183 V=50.0 PL=0
ARCOF
MOVJ C00184 VJ=1.0 PL=0
ARCON
MOVC C00185 V=50.0 PL=1
MOVC C00186 V=50.0 PL=1
MOVC C00187 V=50.0 PL=0
ARCOF
MOVJ C00188 VJ=1.0 PL=0
ARCON
MOVC C00189 V=50.0 PL=1
MOVC C00190 V=50.0 PL=1
MOVC C00191 V=50.0 PL=0
ARCOF
MOVJ C00192 VJ=1.0 PL=0
ARCON
MOVC C00193 V=50.0 PL=1
MOVC C00194 V=50.0 PL=1
MOVC C00195 V=50.0 PL=0
ARCOF
MOVJ C00196 VJ=1.0 PL=0
ARCON
MOVC C00197 V=50.0 PL=1
MOVC C00198 V=50.0 PL=1
MOVC C00199 V=50.0 PL=0
ARCOF
END
