/JOB
//NAME AAA
//POS
///NPOS 40,0,20,0,0,0
///TOOL 12
///POSTYPE PULSE
///PULSE
C00000=-33673,67024,11926,11218,-41245,-12158
C00001=-16140,71923,-12994,-69103,-80471,70184
C00002=-33563,67748,12783,11226,-41411,-12186
C00003=-16237,71477,-14023,-69094,-80378,70354
C00004=-33464,68410,13569,11232,-41564,-12211
C00005=-16325,71075,-14951,-69086,-80294,70507
C00006=-33355,69141,14439,11238,-41734,-12237
C00007=-16424,70636,-15965,-69076,-80202,70675
C00008=-33257,69809,15235,11243,-41890,-12261
C00009=-16514,70241,-16881,-69067,-80118,70826
C00010=-33150,70547,16117,11248,-42064,-12287
C00011=-16615,69810,-17881,-69056,-80027,70992
C00012=-33054,71222,16925,11252,-42224,-12309
C00013=-16707,69422,-18784,-69045,-79945,71142
C00014=-32948,71967,17820,11256,-42402,-12334
C00015=-16809,68998,-19771,-69034,-79854,71307
C00016=-32852,72649,18640,11259,-42565,-12355
C00017=-16903,68616,-20662,-69023,-79773,71455
C00018=-32747,73402,19549,11261,-42747,-12378
C00019=-17007,68199,-21636,-69010,-79683,71618
C00020=-32653,74091,20382,11263,-42915,-12399
C00021=-17103,67823,-22516,-68998,-79602,71765
C00022=-32549,74852,21305,11264,-43101,-12421
C00023=-17209,67413,-23478,-68984,-79513,71926
C00024=-32455,75549,22151,11265,-43273,-12441
C00025=-17307,67043,-24347,-68971,-79433,72072
C00026=-32353,76319,23089,11265,-43464,-12462
C00027=-17415,66639,-25297,-68956,-79345,72232
C00028=-32261,77024,23949,11265,-43639,-12480
C00029=-17514,66274,-26156,-68942,-79265,72377
C00030=-32159,77804,24903,11263,-43835,-12500
C00031=-17625,65876,-27095,-68926,-79177,72535
C00032=-32068,78518,25777,11262,-44015,-12518
C00033=-17726,65518,-27944,-68911,-79097,72679
C00034=-31968,79308,26748,11260,-44215,-12536
C00035=-17839,65126,-28872,-68894,-79010,72836
C00036=-31877,80030,27638,11257,-44400,-12553
C00037=-17942,64772,-29711,-68878,-78931,72978
C00038=-31787,80758,28536,11254,-44587,-12569
C00039=-18047,64422,-30546,-68861,-78852,73120
EC00000=-29914,123904
EC00001=-29914,123904
EC00002=-29914,123904
EC00003=-29914,123904
EC00004=-29914,123904
EC00005=-29914,123904
EC00006=-29914,123904
EC00007=-29914,123904
EC00008=-29914,123904
EC00009=-29914,123904
EC00010=-29914,123904
EC00011=-29914,123904
EC00012=-29914,123904
EC00013=-29914,123904
EC00014=-29914,123904
EC00015=-29914,123904
EC00016=-29914,123904
EC00017=-29914,123904
EC00018=-29914,123904
EC00019=-29914,123904
//INST
///DATE 2023/07/27 12:04
///ATTR SC,RW
///GROUP1 RB1,ST1
///GROUP2 RB2
NOP
MOVJ C00000 EC00000 VJ=1.0 +MOVJ C00001 VJ=1.0
MOVL C00002 EC00001 V=5.0 +MOVL C00003 V=5.0
MOVL C00004 EC00002 V=5.0 +MOVL C00005 V=5.0
MOVL C00006 EC00003 V=5.0 +MOVL C00007 V=5.0
MOVL C00008 EC00004 V=5.0 +MOVL C00009 V=5.0
MOVL C00010 EC00005 V=5.0 +MOVL C00011 V=5.0
MOVL C00012 EC00006 V=5.0 +MOVL C00013 V=5.0
MOVL C00014 EC00007 V=5.0 +MOVL C00015 V=5.0
MOVL C00016 EC00008 V=5.0 +MOVL C00017 V=5.0
MOVL C00018 EC00009 V=5.0 +MOVL C00019 V=5.0
MOVL C00020 EC00010 V=5.0 +MOVL C00021 V=5.0
MOVL C00022 EC00011 V=5.0 +MOVL C00023 V=5.0
MOVL C00024 EC00012 V=5.0 +MOVL C00025 V=5.0
MOVL C00026 EC00013 V=5.0 +MOVL C00027 V=5.0
MOVL C00028 EC00014 V=5.0 +MOVL C00029 V=5.0
MOVL C00030 EC00015 V=5.0 +MOVL C00031 V=5.0
MOVL C00032 EC00016 V=5.0 +MOVL C00033 V=5.0
MOVL C00034 EC00017 V=5.0 +MOVL C00035 V=5.0
MOVL C00036 EC00018 V=5.0 +MOVL C00037 V=5.0
MOVL C00038 EC00019 V=5.0 +MOVL C00039 V=5.0
END
