/JOB
//NAME AAA
//POS
///NPOS 33,0,33,0,0,0
///TOOL 12
///POSTYPE PULSE
///PULSE
C00000=-24803,79135,19960,14777,-41253,-16209
C00001=-25010,78343,19405,14686,-41284,-16109
C00002=-25289,77539,18997,14543,-41397,-15961
C00003=-25655,76749,18755,14344,-41588,-15761
C00004=-26076,76007,18605,14118,-41804,-15533
C00005=-26532,75328,18509,13881,-42016,-15291
C00006=-27120,74611,18456,13588,-42255,-14986
C00007=-27636,74097,18455,13340,-42435,-14724
C00008=-28163,73653,18466,13096,-42587,-14463
C00009=-28685,73265,18465,12863,-42706,-14210
C00010=-29194,72919,18434,12645,-42790,-13969
C00011=-29681,72600,18363,12444,-42840,-13743
C00012=-30143,72296,18247,12259,-42859,-13533
C00013=-30662,71937,18042,12059,-42846,-13301
C00014=-31063,71633,17817,11910,-42810,-13126
C00015=-31434,71318,17543,11777,-42755,-12967
C00016=-31776,70988,17222,11658,-42683,-12823
C00017=-32092,70643,16863,11552,-42600,-12693
C00018=-32385,70287,16476,11456,-42508,-12573
C00019=-32715,69855,15991,11351,-42391,-12440
C00020=-32977,69503,15589,11268,-42293,-12335
C00021=-33233,69172,15206,11186,-42197,-12232
C00022=-33479,68847,14828,11108,-42102,-12133
C00023=-33631,68377,14277,11072,-41988,-12079
C00024=-33826,67960,13784,11017,-41877,-12005
C00025=-33998,67506,13247,10973,-41760,-11942
C00026=-34172,66905,12535,10934,-41612,-11883
C00027=-34286,66346,11874,10916,-41481,-11848
C00028=-34370,65733,11149,10912,-41342,-11827
C00029=-34423,65067,10362,10922,-41196,-11822
C00030=-34449,64363,9532,10944,-41046,-11830
C00031=-34457,63648,8690,10974,-40897,-11846
C00032=-34455,62935,7853,11007,-40751,-11866
EC00000=79503,-150849
EC00001=76720,-149255
EC00002=72792,-147063
EC00003=67468,-144520
EC00004=61426,-141931
EC00005=54983,-139596
EC00006=46826,-137254
EC00007=39799,-135688
EC00008=32783,-134479
EC00009=25969,-133636
EC00010=19482,-133163
EC00011=13389,-133065
EC00012=7734,-133355
EC00013=1556,-134234
EC00014=-3065,-135437
EC00015=-7185,-137109
EC00016=-10792,-139290
EC00017=-13895,-141997
EC00018=-16531,-145217
EC00019=-19145,-149730
EC00020=-20923,-154060
EC00021=-22385,-158956
EC00022=-23585,-163832
EC00023=-23542,-167890
EC00024=-24279,-171078
EC00025=-24823,-173844
EC00026=-25270,-176541
EC00027=-25503,-178185
EC00028=-25628,-179265
EC00029=-25683,-179796
EC00030=-25685,-179938
EC00031=-25685,-179941
EC00032=-25685,-179941
//INST
///DATE 2023/05/26 13:29
///ATTR SC,RW
///GROUP1 RB1
///GROUP2 ST1
NOP
MOVL C00000 V=23.2 +MOVJ EC00000 VJ=10.0
MOVL C00001 V=30.4 +MOVJ EC00001 VJ=10.0
MOVL C00002 V=38.3 +MOVJ EC00002 VJ=10.0
MOVL C00003 V=47.3 +MOVJ EC00003 VJ=10.0
MOVL C00004 V=51.3 +MOVJ EC00004 VJ=10.0
MOVL C00005 V=52.6 +MOVJ EC00005 VJ=10.0
MOVL C00006 V=53.3 +MOVJ EC00006 VJ=10.0
MOVL C00007 V=53.5 +MOVJ EC00007 VJ=10.0
MOVL C00008 V=52.4 +MOVJ EC00008 VJ=10.0
MOVL C00009 V=50.4 +MOVJ EC00009 VJ=10.0
MOVL C00010 V=47.8 +MOVJ EC00010 VJ=10.0
MOVL C00011 V=44.9 +MOVJ EC00011 VJ=10.0
MOVL C00012 V=42.0 +MOVJ EC00012 VJ=10.0
MOVL C00013 V=38.8 +MOVJ EC00013 VJ=10.0
MOVL C00014 V=35.8 +MOVJ EC00014 VJ=10.0
MOVL C00015 V=33.2 +MOVJ EC00015 VJ=10.0
MOVL C00016 V=30.8 +MOVJ EC00016 VJ=10.0
MOVL C00017 V=28.6 +MOVJ EC00017 VJ=10.0
MOVL C00018 V=26.9 +MOVJ EC00018 VJ=10.0
MOVL C00019 V=25.5 +MOVJ EC00019 VJ=10.0
MOVL C00020 V=24.4 +MOVJ EC00020 VJ=10.0
MOVL C00021 V=23.6 +MOVJ EC00021 VJ=10.0
MOVL C00022 V=22.8 +MOVJ EC00022 VJ=10.0
MOVL C00023 V=22.3 +MOVJ EC00023 VJ=10.0
MOVL C00024 V=20.1 +MOVJ EC00024 VJ=10.0
MOVL C00025 V=19.2 +MOVJ EC00025 VJ=10.0
MOVL C00026 V=18.5 +MOVJ EC00026 VJ=10.0
MOVL C00027 V=18.2 +MOVJ EC00027 VJ=10.0
MOVL C00028 V=18.4 +MOVJ EC00028 VJ=10.0
MOVL C00029 V=19.0 +MOVJ EC00029 VJ=10.0
MOVL C00030 V=19.7 +MOVJ EC00030 VJ=10.0
MOVL C00031 V=20.0 +MOVJ EC00031 VJ=10.0
MOVL C00032 V=20.0 +MOVJ EC00032 VJ=10.0
END
