/JOB
//NAME AAA
//POS
///NPOS 50,0,50,0,0,0
///TOOL 9
///POSTYPE PULSE
///PULSE
C00000=-41076,78741,18394,8657,-38431,-9071
C00001=-40934,78806,18782,8678,-38648,-9114
C00002=-40739,78769,19192,8710,-38934,-9175
C00003=-40535,78725,19595,8745,-39221,-9239
C00004=-40331,78695,19992,8782,-39497,-9304
C00005=-40107,78634,20378,8825,-39785,-9377
C00006=-39855,78534,20755,8876,-40089,-9461
C00007=-39595,78394,21073,8933,-40379,-9549
C00008=-39304,78225,21382,9000,-40682,-9650
C00009=-39015,78044,21642,9071,-40960,-9752
C00010=-38715,77850,21868,9147,-41227,-9860
C00011=-38375,77617,22073,9237,-41504,-9985
C00012=-38019,77355,22224,9336,-41765,-10118
C00013=-37646,77094,22354,9442,-42016,-10259
C00014=-37299,76867,22457,9544,-42230,-10392
C00015=-36954,76661,22547,9647,-42426,-10526
C00016=-36594,76478,22645,9757,-42617,-10666
C00017=-36243,76314,22726,9865,-42788,-10804
C00018=-35870,76162,22808,9983,-42956,-10952
C00019=-35517,76052,22896,10095,-43105,-11093
C00020=-35192,75996,23007,10198,-43237,-11223
C00021=-34885,75988,23145,10296,-43360,-11346
C00022=-34607,76030,23313,10384,-43473,-11456
C00023=-34339,76108,23507,10467,-43582,-11562
C00024=-34078,76212,23717,10549,-43688,-11666
C00025=-33836,76335,23934,10624,-43786,-11762
C00026=-33608,76476,24161,10695,-43879,-11852
C00027=-33408,76638,24399,10756,-43965,-11930
C00028=-33197,76839,24681,10818,-44060,-12012
C00029=-32990,77056,24977,10880,-44155,-12092
C00030=-32795,77263,25254,10938,-44242,-12168
C00031=-32589,77458,25514,11000,-44326,-12248
C00032=-32380,77643,25760,11064,-44407,-12330
C00033=-32193,77810,25977,11122,-44478,-12404
C00034=-32014,77972,26187,11176,-44545,-12475
C00035=-31835,78169,26438,11230,-44620,-12544
C00036=-31677,78347,26662,11277,-44686,-12606
C00037=-31526,78522,26883,11321,-44751,-12664
C00038=-31373,78691,27098,11366,-44814,-12723
C00039=-31221,78814,27255,11413,-44866,-12783
C00040=-31051,78900,27364,11468,-44911,-12852
C00041=-30865,78953,27430,11531,-44949,-12929
C00042=-30694,79026,27520,11587,-44988,-12999
C00043=-30556,79144,27666,11629,-45035,-13054
C00044=-30431,79282,27839,11666,-45087,-13102
C00045=-30276,79334,27905,11717,-45121,-13166
C00046=-30113,79330,27895,11774,-45138,-13235
C00047=-29930,79392,27946,11838,-45162,-13312
C00048=-29793,79503,28078,11880,-45204,-13366
C00049=-29677,79756,28385,11909,-45277,-13408
EC00000=-146641,114748
EC00001=-145678,117266
EC00002=-143471,119839
EC00003=-141044,122314
EC00004=-138605,124633
EC00005=-135683,126735
EC00006=-132256,128834
EC00007=-128604,130690
EC00008=-124430,132418
EC00009=-120220,133766
EC00010=-115859,134891
EC00011=-110940,135969
EC00012=-105835,136888
EC00013=-100558,137643
EC00014=-95738,138174
EC00015=-91040,138573
EC00016=-86231,138848
EC00017=-81600,138962
EC00018=-76747,138856
EC00019=-72243,138569
EC00020=-68192,138042
EC00021=-64446,137264
EC00022=-61161,136344
EC00023=-58083,135200
EC00024=-55159,133864
EC00025=-52541,132323
EC00026=-50171,130557
EC00027=-48202,128685
EC00028=-46272,126339
EC00029=-44500,123633
EC00030=-42944,120808
EC00031=-41428,117361
EC00032=-40016,113538
EC00033=-38899,109769
EC00034=-37998,105876
EC00035=-37245,101871
EC00036=-36715,98086
EC00037=-36285,94453
EC00038=-35922,90700
EC00039=-35583,86832
EC00040=-35144,82678
EC00041=-34564,78385
EC00042=-34067,74611
EC00043=-33824,71478
EC00044=-33738,68479
EC00045=-33511,64758
EC00046=-33035,61329
EC00047=-32056,58744
EC00048=-31821,55992
EC00049=-31610,54150
//INST
///DATE 2023/03/05 17:31
///ATTR SC,RW
///GROUP1 RB1
///GROUP2 ST1
NOP
MOVL C00000 V=10.0 +MOVJ EC00000 VJ=10.0
ARCON ASF#(160)
MOVL C00001 V=32.6 +MOVJ EC00001 VJ=32.6
MOVL C00002 V=39.4 +MOVJ EC00002 VJ=39.4
MOVL C00003 V=40.5 +MOVJ EC00003 VJ=40.5
MOVL C00004 V=40.2 +MOVJ EC00004 VJ=40.2
MOVL C00005 V=42.3 +MOVJ EC00005 VJ=42.3
MOVL C00006 V=44.6 +MOVJ EC00006 VJ=44.6
MOVL C00007 V=47.6 +MOVJ EC00007 VJ=47.6
MOVL C00008 V=48.7 +MOVJ EC00008 VJ=48.7
MOVL C00009 V=49.7 +MOVJ EC00009 VJ=49.7
MOVL C00010 V=50.5 +MOVJ EC00010 VJ=50.5
MOVL C00011 V=52.0 +MOVJ EC00011 VJ=52.0
MOVL C00012 V=54.2 +MOVJ EC00012 VJ=54.2
MOVL C00013 V=53.9 +MOVJ EC00013 VJ=53.9
MOVL C00014 V=53.1 +MOVJ EC00014 VJ=53.1
MOVL C00015 V=52.3 +MOVJ EC00015 VJ=52.3
MOVL C00016 V=50.2 +MOVJ EC00016 VJ=50.2
MOVL C00017 V=49.8 +MOVJ EC00017 VJ=49.8
MOVL C00018 V=48.6 +MOVJ EC00018 VJ=48.6
MOVL C00019 V=46.7 +MOVJ EC00019 VJ=46.7
MOVL C00020 V=43.6 +MOVJ EC00020 VJ=43.6
MOVL C00021 V=40.7 +MOVJ EC00021 VJ=40.7
MOVL C00022 V=37.6 +MOVJ EC00022 VJ=37.6
MOVL C00023 V=35.5 +MOVJ EC00023 VJ=35.5
MOVL C00024 V=34.2 +MOVJ EC00024 VJ=34.2
MOVL C00025 V=32.8 +MOVJ EC00025 VJ=32.8
MOVL C00026 V=31.5 +MOVJ EC00026 VJ=31.5
MOVL C00027 V=29.5 +MOVJ EC00027 VJ=29.5
MOVL C00028 V=28.0 +MOVJ EC00028 VJ=28.0
MOVL C00029 V=27.1 +MOVJ EC00029 VJ=27.1
MOVL C00030 V=26.7 +MOVJ EC00030 VJ=26.7
MOVL C00031 V=26.9 +MOVJ EC00031 VJ=26.9
MOVL C00032 V=26.8 +MOVJ EC00032 VJ=26.8
MOVL C00033 V=26.0 +MOVJ EC00033 VJ=26.0
MOVL C00034 V=25.0 +MOVJ EC00034 VJ=25.0
MOVL C00035 V=23.3 +MOVJ EC00035 VJ=23.3
MOVL C00036 V=22.3 +MOVJ EC00036 VJ=22.3
MOVL C00037 V=21.6 +MOVJ EC00037 VJ=21.6
MOVL C00038 V=21.1 +MOVJ EC00038 VJ=21.1
MOVL C00039 V=21.5 +MOVJ EC00039 VJ=21.5
MOVL C00040 V=22.6 +MOVJ EC00040 VJ=22.6
MOVL C00041 V=23.8 +MOVJ EC00041 VJ=23.8
MOVL C00042 V=22.5 +MOVJ EC00042 VJ=22.5
MOVL C00043 V=19.7 +MOVJ EC00043 VJ=19.7
MOVL C00044 V=18.0 +MOVJ EC00044 VJ=18.0
MOVL C00045 V=20.3 +MOVJ EC00045 VJ=20.3
MOVL C00046 V=23.3 +MOVJ EC00046 VJ=23.3
MOVL C00047 V=25.4 +MOVJ EC00047 VJ=25.4
MOVL C00048 V=26.6 +MOVJ EC00048 VJ=26.6
MOVL C00049 V=17.4 +MOVJ EC00049 VJ=17.4
ARCOF
END
