/JOB
//NAME AAA
//POS
///NPOS 98,0,98,0,0,0
///TOOL 12
///POSTYPE PULSE
///PULSE
C00000=-32403,71793,21533,10978,-44801,-12271
C00001=-32446,71504,21188,10975,-44733,-12260
C00002=-32447,71501,21185,10974,-44733,-12260
C00003=-32448,71501,21184,10974,-44733,-12260
C00004=-32449,71500,21184,10974,-44732,-12259
C00005=-32449,71500,21185,10974,-44733,-12259
C00006=-32450,71501,21186,10973,-44733,-12259
C00007=-32451,71502,21187,10973,-44733,-12258
C00008=-32451,71504,21189,10973,-44733,-12258
C00009=-32452,71506,21192,10973,-44734,-12258
C00010=-32452,71508,21195,10972,-44734,-12258
C00011=-32452,71510,21198,10972,-44735,-12258
C00012=-32452,71513,21200,10972,-44736,-12258
C00013=-32452,71515,21203,10972,-44736,-12257
C00014=-32452,71518,21206,10972,-44737,-12258
C00015=-32451,71520,21209,10972,-44737,-12258
C00016=-32451,71521,21211,10972,-44738,-12258
C00017=-32450,71523,21212,10972,-44738,-12258
C00018=-32449,71524,21213,10973,-44738,-12258
C00019=-32449,71524,21214,10973,-44738,-12259
C00020=-32448,71524,21214,10973,-44738,-12259
C00021=-32447,71524,21213,10973,-44738,-12259
C00022=-32447,71523,21212,10974,-44738,-12260
C00023=-32446,71521,21210,10974,-44737,-12260
C00024=-32446,71520,21207,10974,-44737,-12260
C00025=-32445,71518,21205,10974,-44737,-12260
C00026=-32445,71515,21202,10975,-44736,-12261
C00027=-32445,71513,21199,10975,-44735,-12261
C00028=-32445,71510,21196,10975,-44735,-12261
C00029=-32445,71508,21193,10975,-44734,-12261
C00030=-32446,71500,21184,10975,-44732,-12260
C00031=-32482,71206,20831,10975,-44663,-12253
C00032=-32502,71202,20912,10957,-44712,-12238
C00033=-32467,71496,21264,10958,-44781,-12245
C00034=-32466,71503,21274,10958,-44783,-12246
C00035=-32466,71505,21276,10958,-44783,-12246
C00036=-32466,71508,21279,10957,-44784,-12246
C00037=-32466,71510,21282,10957,-44785,-12245
C00038=-32466,71512,21285,10957,-44785,-12245
C00039=-32467,71514,21287,10957,-44786,-12245
C00040=-32467,71516,21289,10957,-44786,-12245
C00041=-32468,71517,21291,10956,-44786,-12244
C00042=-32468,71518,21292,10956,-44786,-12244
C00043=-32469,71518,21293,10956,-44787,-12244
C00044=-32470,71518,21293,10955,-44787,-12243
C00045=-32471,71517,21292,10955,-44786,-12243
C00046=-32471,71516,21291,10955,-44786,-12243
C00047=-32472,71515,21290,10955,-44786,-12243
C00048=-32472,71513,21287,10955,-44785,-12242
C00049=-32473,71511,21285,10955,-44785,-12242
C00050=-32473,71509,21282,10955,-44784,-12242
C00051=-32473,71507,21280,10955,-44784,-12242
C00052=-32473,71504,21277,10955,-44783,-12242
C00053=-32473,71502,21274,10955,-44783,-12243
C00054=-32473,71500,21271,10955,-44782,-12243
C00055=-32472,71498,21269,10955,-44782,-12243
C00056=-32472,71496,21267,10956,-44781,-12243
C00057=-32471,71495,21265,10956,-44781,-12244
C00058=-32470,71494,21264,10956,-44781,-12244
C00059=-32470,71494,21263,10957,-44781,-12244
C00060=-32469,71494,21263,10957,-44781,-12244
C00061=-32468,71495,21264,10957,-44781,-12245
C00062=-32468,71496,21265,10957,-44781,-12245
C00063=-32467,71499,21268,10957,-44782,-12245
C00064=-32424,71788,21613,10961,-44850,-12256
C00065=-32444,71783,21693,10944,-44898,-12241
C00066=-32487,71493,21348,10941,-44830,-12231
C00067=-32488,71490,21344,10940,-44830,-12230
C00068=-32488,71488,21342,10940,-44829,-12230
C00069=-32489,71488,21342,10940,-44829,-12230
C00070=-32490,71487,21341,10940,-44829,-12230
C00071=-32490,71487,21341,10939,-44829,-12229
C00072=-32491,71488,21342,10939,-44829,-12229
C00073=-32492,71489,21344,10939,-44829,-12229
C00074=-32492,71490,21346,10939,-44830,-12228
C00075=-32493,71492,21348,10938,-44830,-12228
C00076=-32493,71494,21350,10938,-44831,-12228
C00077=-32493,71496,21353,10938,-44831,-12228
C00078=-32493,71498,21356,10938,-44832,-12228
C00079=-32493,71501,21359,10938,-44832,-12228
C00080=-32493,71503,21362,10938,-44833,-12228
C00081=-32493,71505,21364,10938,-44833,-12228
C00082=-32492,71507,21366,10938,-44834,-12228
C00083=-32492,71509,21368,10938,-44834,-12228
C00084=-32491,71510,21370,10938,-44834,-12228
C00085=-32491,71511,21370,10938,-44835,-12228
C00086=-32490,71511,21371,10939,-44835,-12229
C00087=-32489,71511,21371,10939,-44835,-12229
C00088=-32488,71511,21370,10939,-44835,-12229
C00089=-32488,71510,21368,10939,-44834,-12230
C00090=-32487,71508,21367,10940,-44834,-12230
C00091=-32487,71507,21365,10940,-44834,-12230
C00092=-32486,71505,21362,10940,-44833,-12230
C00093=-32486,71502,21359,10940,-44833,-12231
C00094=-32486,71500,21356,10941,-44832,-12231
C00095=-32486,71498,21353,10941,-44831,-12231
C00096=-32487,71490,21344,10941,-44830,-12231
C00097=-32523,71195,20991,10940,-44760,-12223
EC00000=-13930,238105
EC00001=-13930,227802
EC00002=-13930,211218
EC00003=-13930,196108
EC00004=-13930,179486
EC00005=-13930,164376
EC00006=-13930,147755
EC00007=-13930,131134
EC00008=-13930,116023
EC00009=-13930,99402
EC00010=-13930,84292
EC00011=-13930,67671
EC00012=-13930,52560
EC00013=-13930,35939
EC00014=-13930,19318
EC00015=-13930,4208
EC00016=-13930,-12414
EC00017=-13930,-27524
EC00018=-13930,-44145
EC00019=-13930,-60767
EC00020=-13930,-75877
EC00021=-13930,-92498
EC00022=-13930,-107608
EC00023=-13930,-124230
EC00024=-13930,-139340
EC00025=-13930,-155961
EC00026=-13930,-172582
EC00027=-13930,-187693
EC00028=-13930,-204314
EC00029=-13930,-219424
EC00030=-13930,-235926
EC00031=-13930,-244800
EC00032=-14179,-235373
EC00033=-14179,-226553
EC00034=-14179,-211653
EC00035=-14179,-196634
EC00036=-14179,-180114
EC00037=-14179,-165095
EC00038=-14179,-150076
EC00039=-14179,-133556
EC00040=-14179,-118537
EC00041=-14179,-103518
EC00042=-14179,-86998
EC00043=-14179,-71979
EC00044=-14179,-56960
EC00045=-14179,-40440
EC00046=-14179,-25421
EC00047=-14179,-10403
EC00048=-14179,6118
EC00049=-14179,21137
EC00050=-14179,36155
EC00051=-14179,51174
EC00052=-14179,67694
EC00053=-14179,82713
EC00054=-14179,97732
EC00055=-14179,114252
EC00056=-14179,129271
EC00057=-14179,144290
EC00058=-14179,160810
EC00059=-14179,175829
EC00060=-14179,190848
EC00061=-14179,207368
EC00062=-14179,222387
EC00063=-14179,237369
EC00064=-14179,247609
EC00065=-14418,257094
EC00066=-14418,246885
EC00067=-14418,231948
EC00068=-14418,215477
EC00069=-14418,200504
EC00070=-14418,185530
EC00071=-14418,169060
EC00072=-14418,154086
EC00073=-14418,139113
EC00074=-14418,122643
EC00075=-14418,107669
EC00076=-14418,92696
EC00077=-14418,76225
EC00078=-14418,61252
EC00079=-14418,46279
EC00080=-14418,29808
EC00081=-14418,14835
EC00082=-14418,-138
EC00083=-14418,-16609
EC00084=-14418,-31582
EC00085=-14418,-46556
EC00086=-14418,-63026
EC00087=-14418,-78000
EC00088=-14418,-92973
EC00089=-14418,-109443
EC00090=-14418,-124417
EC00091=-14418,-139390
EC00092=-14418,-155861
EC00093=-14418,-170834
EC00094=-14418,-185807
EC00095=-14418,-202278
EC00096=-14418,-217133
EC00097=-14418,-225927
//INST
///DATE 2023/06/01 17:01
///ATTR SC,RW
///GROUP1 RB1
///GROUP2 ST1
NOP
MOVL C00000 V=10.0 +MOVJ EC00000 VJ=15.0
ARCON ASF#(403)
MOVL C00001 V=3.8 +MOVJ EC00001 VJ=13.7
MOVL C00002 V=0.1 +MOVJ EC00002 VJ=13.6
MOVL C00003 V=0.1 +MOVJ EC00003 VJ=13.6
MOVL C00004 V=0.1 +MOVJ EC00004 VJ=13.6
MOVL C00005 V=0.1 +MOVJ EC00005 VJ=13.6
MOVL C00006 V=0.1 +MOVJ EC00006 VJ=13.6
MOVL C00007 V=0.1 +MOVJ EC00007 VJ=13.6
MOVL C00008 V=0.1 +MOVJ EC00008 VJ=13.6
MOVL C00009 V=0.1 +MOVJ EC00009 VJ=13.6
MOVL C00010 V=0.1 +MOVJ EC00010 VJ=13.6
MOVL C00011 V=0.1 +MOVJ EC00011 VJ=13.6
MOVL C00012 V=0.1 +MOVJ EC00012 VJ=13.6
MOVL C00013 V=0.1 +MOVJ EC00013 VJ=13.6
MOVL C00014 V=0.1 +MOVJ EC00014 VJ=13.6
MOVL C00015 V=0.1 +MOVJ EC00015 VJ=13.6
MOVL C00016 V=0.1 +MOVJ EC00016 VJ=13.6
MOVL C00017 V=0.1 +MOVJ EC00017 VJ=13.6
MOVL C00018 V=0.1 +MOVJ EC00018 VJ=13.6
MOVL C00019 V=0.1 +MOVJ EC00019 VJ=13.6
MOVL C00020 V=0.1 +MOVJ EC00020 VJ=13.6
MOVL C00021 V=0.1 +MOVJ EC00021 VJ=13.6
MOVL C00022 V=0.1 +MOVJ EC00022 VJ=13.6
MOVL C00023 V=0.1 +MOVJ EC00023 VJ=13.6
MOVL C00024 V=0.1 +MOVJ EC00024 VJ=13.6
MOVL C00025 V=0.1 +MOVJ EC00025 VJ=13.6
MOVL C00026 V=0.1 +MOVJ EC00026 VJ=13.7
MOVL C00027 V=0.1 +MOVJ EC00027 VJ=13.7
MOVL C00028 V=0.1 +MOVJ EC00028 VJ=13.7
MOVL C00029 V=0.1 +MOVJ EC00029 VJ=13.7
MOVL C00030 V=0.1 +MOVJ EC00030 VJ=13.7
MOVL C00031 V=4.1 +MOVJ EC00031 VJ=13.7
ARCOF
MOVL C00032 V=10.0 +MOVJ EC00032 VJ=15.0
ARCON ASF#(403)
MOVL C00033 V=4.1 +MOVJ EC00033 VJ=13.6
MOVL C00034 V=0.1 +MOVJ EC00034 VJ=13.6
MOVL C00035 V=0.1 +MOVJ EC00035 VJ=13.6
MOVL C00036 V=0.1 +MOVJ EC00036 VJ=13.6
MOVL C00037 V=0.1 +MOVJ EC00037 VJ=13.6
MOVL C00038 V=0.1 +MOVJ EC00038 VJ=13.6
MOVL C00039 V=0.1 +MOVJ EC00039 VJ=13.6
MOVL C00040 V=0.1 +MOVJ EC00040 VJ=13.6
MOVL C00041 V=0.1 +MOVJ EC00041 VJ=13.5
MOVL C00042 V=0.1 +MOVJ EC00042 VJ=13.5
MOVL C00043 V=0.1 +MOVJ EC00043 VJ=13.5
MOVL C00044 V=0.1 +MOVJ EC00044 VJ=13.5
MOVL C00045 V=0.1 +MOVJ EC00045 VJ=13.5
MOVL C00046 V=0.1 +MOVJ EC00046 VJ=13.5
MOVL C00047 V=0.1 +MOVJ EC00047 VJ=13.5
MOVL C00048 V=0.1 +MOVJ EC00048 VJ=13.5
MOVL C00049 V=0.1 +MOVJ EC00049 VJ=13.5
MOVL C00050 V=0.1 +MOVJ EC00050 VJ=13.5
MOVL C00051 V=0.1 +MOVJ EC00051 VJ=13.5
MOVL C00052 V=0.1 +MOVJ EC00052 VJ=13.5
MOVL C00053 V=0.1 +MOVJ EC00053 VJ=13.5
MOVL C00054 V=0.1 +MOVJ EC00054 VJ=13.5
MOVL C00055 V=0.1 +MOVJ EC00055 VJ=13.5
MOVL C00056 V=0.1 +MOVJ EC00056 VJ=13.5
MOVL C00057 V=0.1 +MOVJ EC00057 VJ=13.5
MOVL C00058 V=0.1 +MOVJ EC00058 VJ=13.6
MOVL C00059 V=0.1 +MOVJ EC00059 VJ=13.6
MOVL C00060 V=0.1 +MOVJ EC00060 VJ=13.6
MOVL C00061 V=0.1 +MOVJ EC00061 VJ=13.6
MOVL C00062 V=0.1 +MOVJ EC00062 VJ=13.6
MOVL C00063 V=0.1 +MOVJ EC00063 VJ=13.6
MOVL C00064 V=3.8 +MOVJ EC00064 VJ=13.6
ARCOF
MOVL C00065 V=10.0 +MOVJ EC00065 VJ=15.0
ARCON ASF#(403)
MOVL C00066 V=3.8 +MOVJ EC00066 VJ=13.5
MOVL C00067 V=0.1 +MOVJ EC00067 VJ=13.5
MOVL C00068 V=0.1 +MOVJ EC00068 VJ=13.5
MOVL C00069 V=0.1 +MOVJ EC00069 VJ=13.5
MOVL C00070 V=0.1 +MOVJ EC00070 VJ=13.5
MOVL C00071 V=0.1 +MOVJ EC00071 VJ=13.5
MOVL C00072 V=0.1 +MOVJ EC00072 VJ=13.5
MOVL C00073 V=0.1 +MOVJ EC00073 VJ=13.5
MOVL C00074 V=0.1 +MOVJ EC00074 VJ=13.5
MOVL C00075 V=0.1 +MOVJ EC00075 VJ=13.5
MOVL C00076 V=0.1 +MOVJ EC00076 VJ=13.5
MOVL C00077 V=0.1 +MOVJ EC00077 VJ=13.4
MOVL C00078 V=0.1 +MOVJ EC00078 VJ=13.4
MOVL C00079 V=0.1 +MOVJ EC00079 VJ=13.4
MOVL C00080 V=0.1 +MOVJ EC00080 VJ=13.4
MOVL C00081 V=0.1 +MOVJ EC00081 VJ=13.4
MOVL C00082 V=0.1 +MOVJ EC00082 VJ=13.4
MOVL C00083 V=0.1 +MOVJ EC00083 VJ=13.4
MOVL C00084 V=0.1 +MOVJ EC00084 VJ=13.4
MOVL C00085 V=0.1 +MOVJ EC00085 VJ=13.5
MOVL C00086 V=0.1 +MOVJ EC00086 VJ=13.5
MOVL C00087 V=0.1 +MOVJ EC00087 VJ=13.5
MOVL C00088 V=0.1 +MOVJ EC00088 VJ=13.5
MOVL C00089 V=0.1 +MOVJ EC00089 VJ=13.5
MOVL C00090 V=0.1 +MOVJ EC00090 VJ=13.5
MOVL C00091 V=0.1 +MOVJ EC00091 VJ=13.5
MOVL C00092 V=0.1 +MOVJ EC00092 VJ=13.5
MOVL C00093 V=0.1 +MOVJ EC00093 VJ=13.5
MOVL C00094 V=0.1 +MOVJ EC00094 VJ=13.5
MOVL C00095 V=0.1 +MOVJ EC00095 VJ=13.5
MOVL C00096 V=0.1 +MOVJ EC00096 VJ=13.5
MOVL C00097 V=4.1 +MOVJ EC00097 VJ=13.5
ARCOF
END
