/JOB
//NAME AAA
//POS
///NPOS 50,0,50,0,0,0
///TOOL 9
///POSTYPE PULSE
///PULSE
C00000=-31567,61663,10281,11623,-43221,-12845
C00001=-31307,61584,10054,11738,-43157,-12970
C00002=-30919,61372,9589,11917,-43035,-13161
C00003=-30593,61268,9268,12066,-42937,-13320
C00004=-30290,61226,9016,12205,-42847,-13469
C00005=-30019,61232,8826,12330,-42767,-13602
C00006=-29770,61256,8663,12445,-42691,-13725
C00007=-29495,61302,8497,12572,-42606,-13861
C00008=-29222,61373,8349,12700,-42519,-13997
C00009=-28976,61486,8264,12814,-42447,-14119
C00010=-28735,61622,8203,12926,-42376,-14238
C00011=-28502,61780,8166,13035,-42308,-14354
C00012=-28237,61968,8123,13159,-42225,-14486
C00013=-27961,62169,8065,13292,-42131,-14626
C00014=-27688,62380,8007,13425,-42030,-14765
C00015=-27419,62602,7947,13559,-41923,-14905
C00016=-27130,62865,7891,13705,-41800,-15055
C00017=-26857,63146,7853,13846,-41679,-15200
C00018=-26585,63438,7806,13990,-41546,-15345
C00019=-26299,63774,7764,14145,-41397,-15501
C00020=-26042,64104,7735,14287,-41254,-15643
C00021=-25792,64460,7721,14429,-41107,-15783
C00022=-25550,64836,7719,14570,-40956,-15920
C00023=-25305,65279,7760,14714,-40799,-16060
C00024=-25073,65753,7834,14854,-40644,-16195
C00025=-24872,66212,7925,14978,-40502,-16314
C00026=-24665,66730,8044,15109,-40349,-16437
C00027=-24487,67216,8166,15224,-40209,-16546
C00028=-24327,67709,8316,15330,-40079,-16644
C00029=-24178,68241,8510,15431,-39955,-16737
C00030=-24070,68689,8706,15503,-39867,-16804
C00031=-23968,69198,8972,15571,-39789,-16866
C00032=-23883,69672,9239,15626,-39727,-16918
C00033=-23813,70095,9485,15671,-39675,-16961
C00034=-23738,70576,9774,15720,-39621,-17006
C00035=-23671,71090,10117,15761,-39581,-17045
C00036=-23622,71566,10474,15786,-39564,-17071
C00037=-23582,72015,10833,15803,-39562,-17090
C00038=-23546,72481,11219,15817,-39566,-17107
C00039=-23513,72900,11566,15829,-39570,-17121
C00040=-23483,73325,11935,15836,-39583,-17132
C00041=-23458,73762,12343,15836,-39613,-17138
C00042=-23431,74232,12786,15835,-39648,-17144
C00043=-23401,74696,13220,15837,-39680,-17151
C00044=-23383,75114,13657,15825,-39735,-17149
C00045=-23385,75596,14269,15783,-39859,-17123
C00046=-23380,76053,14831,15749,-39967,-17104
C00047=-23340,76546,15300,15751,-40008,-17115
C00048=-23302,77168,15951,15738,-40092,-17116
C00049=-23257,77716,16492,15737,-40150,-17126
EC00000=14816,-180390
EC00001=16784,-177651
EC00002=19985,-174114
EC00003=22670,-171232
EC00004=25009,-167986
EC00005=27046,-164765
EC00006=28940,-161766
EC00007=31086,-158511
EC00008=33301,-155366
EC00009=35360,-152713
EC00010=37442,-150243
EC00011=39557,-148137
EC00012=42073,-145958
EC00013=44839,-143931
EC00014=47702,-142156
EC00015=50653,-140579
EC00016=53932,-139005
EC00017=57170,-137713
EC00018=60530,-136585
EC00019=64210,-135596
EC00020=67644,-134866
EC00021=71124,-134321
EC00022=74612,-133808
EC00023=78282,-133438
EC00024=81919,-133083
EC00025=85220,-132783
EC00026=88776,-132468
EC00027=91987,-132159
EC00028=95037,-131780
EC00029=98080,-131271
EC00030=100420,-130745
EC00031=102802,-130100
EC00032=104884,-129540
EC00033=106685,-129077
EC00034=108674,-128586
EC00035=110581,-128120
EC00036=112113,-127660
EC00037=113436,-127148
EC00038=114758,-126560
EC00039=115955,-126034
EC00040=117044,-125598
EC00041=117950,-125293
EC00042=118887,-125031
EC00043=119834,-124843
EC00044=120291,-124932
EC00045=119909,-125540
EC00046=119641,-126158
EC00047=120256,-126833
EC00048=120068,-128874
EC00049=120557,-129714
//INST
///DATE 2023/03/08 17:54
///ATTR SC,RW
///GROUP1 RB1
///GROUP2 ST1
NOP
MOVL C00000 V=10.0 +MOVJ EC00000 VJ=10.0
ARCON ASF#(140)
MOVL C00001 V=41.1 +MOVJ EC00001 VJ=41.1
MOVL C00002 V=55.9 +MOVJ EC00002 VJ=55.9
MOVL C00003 V=50.4 +MOVJ EC00003 VJ=50.4
MOVL C00004 V=42.7 +MOVJ EC00004 VJ=42.7
MOVL C00005 V=38.9 +MOVJ EC00005 VJ=38.9
MOVL C00006 V=38.7 +MOVJ EC00006 VJ=38.7
MOVL C00007 V=39.0 +MOVJ EC00007 VJ=39.0
MOVL C00008 V=39.3 +MOVJ EC00008 VJ=39.3
MOVL C00009 V=37.5 +MOVJ EC00009 VJ=37.5
MOVL C00010 V=37.3 +MOVJ EC00010 VJ=37.3
MOVL C00011 V=37.7 +MOVJ EC00011 VJ=37.7
MOVL C00012 V=39.2 +MOVJ EC00012 VJ=39.2
MOVL C00013 V=41.7 +MOVJ EC00013 VJ=41.7
MOVL C00014 V=43.5 +MOVJ EC00014 VJ=43.5
MOVL C00015 V=45.1 +MOVJ EC00015 VJ=45.1
MOVL C00016 V=45.7 +MOVJ EC00016 VJ=45.7
MOVL C00017 V=46.0 +MOVJ EC00017 VJ=46.0
MOVL C00018 V=48.3 +MOVJ EC00018 VJ=48.3
MOVL C00019 V=49.5 +MOVJ EC00019 VJ=49.5
MOVL C00020 V=50.4 +MOVJ EC00020 VJ=50.4
MOVL C00021 V=50.9 +MOVJ EC00021 VJ=50.9
MOVL C00022 V=50.7 +MOVJ EC00022 VJ=50.7
MOVL C00023 V=48.6 +MOVJ EC00023 VJ=48.6
MOVL C00024 V=46.7 +MOVJ EC00024 VJ=46.7
MOVL C00025 V=45.4 +MOVJ EC00025 VJ=45.4
MOVL C00026 V=44.6 +MOVJ EC00026 VJ=44.6
MOVL C00027 V=43.9 +MOVJ EC00027 VJ=43.9
MOVL C00028 V=41.3 +MOVJ EC00028 VJ=41.3
MOVL C00029 V=38.0 +MOVJ EC00029 VJ=38.0
MOVL C00030 V=34.3 +MOVJ EC00030 VJ=34.3
MOVL C00031 V=30.6 +MOVJ EC00031 VJ=30.6
MOVL C00032 V=29.2 +MOVJ EC00032 VJ=29.2
MOVL C00033 V=28.7 +MOVJ EC00033 VJ=28.7
MOVL C00034 V=28.2 +MOVJ EC00034 VJ=28.2
MOVL C00035 V=26.2 +MOVJ EC00035 VJ=26.2
MOVL C00036 V=23.6 +MOVJ EC00036 VJ=23.6
MOVL C00037 V=22.0 +MOVJ EC00037 VJ=22.0
MOVL C00038 V=21.2 +MOVJ EC00038 VJ=21.2
MOVL C00039 V=21.2 +MOVJ EC00039 VJ=21.2
MOVL C00040 V=20.8 +MOVJ EC00040 VJ=20.8
MOVL C00041 V=20.3 +MOVJ EC00041 VJ=20.3
MOVL C00042 V=20.4 +MOVJ EC00042 VJ=20.4
MOVL C00043 V=21.0 +MOVJ EC00043 VJ=21.0
MOVL C00044 V=20.8 +MOVJ EC00044 VJ=20.8
MOVL C00045 V=22.5 +MOVJ EC00045 VJ=22.5
MOVL C00046 V=22.6 +MOVJ EC00046 VJ=22.6
MOVL C00047 V=24.8 +MOVJ EC00047 VJ=24.8
MOVL C00048 V=28.3 +MOVJ EC00048 VJ=28.3
MOVL C00049 V=24.7 +MOVJ EC00049 VJ=24.7
ARCOF
END
