/JOB
//NAME AAA
//POS
///NPOS 23,0,23,0,0,0
///TOOL 12
///POSTYPE PULSE
///PULSE
C00000=-30701,70912,16459,12146,-42403,-13347
C00001=-30701,70912,16459,12146,-42403,-13347
C00002=-30701,70912,16459,12146,-42403,-13347
C00003=-30701,70912,16459,12146,-42403,-13347
C00004=-30701,70912,16459,12146,-42403,-13347
C00005=-30701,70912,16459,12146,-42403,-13347
C00006=-30701,70912,16459,12146,-42403,-13347
C00007=-30701,70912,16459,12146,-42403,-13347
C00008=-30701,70912,16459,12146,-42403,-13347
C00009=-30701,70912,16459,12146,-42403,-13347
C00010=-30701,70912,16459,12146,-42403,-13347
C00011=-30701,70912,16459,12146,-42403,-13347
C00012=-30701,70912,16459,12146,-42403,-13347
C00013=-30701,70912,16459,12146,-42403,-13347
C00014=-30701,70912,16459,12146,-42403,-13347
C00015=-30701,70912,16459,12146,-42403,-13347
C00016=-30701,70912,16459,12146,-42403,-13347
C00017=-30701,70912,16459,12146,-42403,-13347
C00018=-30701,70912,16459,12146,-42403,-13347
C00019=-30701,70912,16459,12146,-42403,-13347
C00020=-30701,70912,16459,12146,-42403,-13347
C00021=-30701,70912,16459,12146,-42403,-13347
C00022=-30701,70912,16459,12146,-42403,-13347
EC00000=10286,-238850
EC00001=10286,-217938
EC00002=10286,-194935
EC00003=10286,-171932
EC00004=10286,-148929
EC00005=10286,-128016
EC00006=10286,-105013
EC00007=10286,-82010
EC00008=10286,-59007
EC00009=10286,-38095
EC00010=10286,-15091
EC00011=10286,7912
EC00012=10286,30915
EC00013=10286,53919
EC00014=10286,74831
EC00015=10286,97834
EC00016=10286,120837
EC00017=10286,143840
EC00018=10286,164753
EC00019=10286,187756
EC00020=10286,210759
EC00021=10286,233762
EC00022=10286,256766
//INST
///DATE 2023/06/22 16:41
///ATTR SC,RW
///GROUP1 RB1
///GROUP2 ST1
NOP
MOVJ C00000 VJ=1.0 +MOVJ EC00000 VJ=10.0
ARCON ASF#(200)
MOVL C00001 V=0.1 +MOVJ EC00001 VJ=9.4
MOVL C00002 V=0.1 +MOVJ EC00002 VJ=9.4
MOVL C00003 V=0.1 +MOVJ EC00003 VJ=9.4
MOVL C00004 V=0.1 +MOVJ EC00004 VJ=9.4
MOVL C00005 V=0.1 +MOVJ EC00005 VJ=9.4
MOVL C00006 V=0.1 +MOVJ EC00006 VJ=9.4
MOVL C00007 V=0.1 +MOVJ EC00007 VJ=9.4
MOVL C00008 V=0.1 +MOVJ EC00008 VJ=9.4
MOVL C00009 V=0.1 +MOVJ EC00009 VJ=9.4
MOVL C00010 V=0.1 +MOVJ EC00010 VJ=9.4
MOVL C00011 V=0.1 +MOVJ EC00011 VJ=9.4
MOVL C00012 V=0.1 +MOVJ EC00012 VJ=9.4
MOVL C00013 V=0.1 +MOVJ EC00013 VJ=9.4
MOVL C00014 V=0.1 +MOVJ EC00014 VJ=9.4
MOVL C00015 V=0.1 +MOVJ EC00015 VJ=9.4
MOVL C00016 V=0.1 +MOVJ EC00016 VJ=9.4
MOVL C00017 V=0.1 +MOVJ EC00017 VJ=9.4
MOVL C00018 V=0.1 +MOVJ EC00018 VJ=9.4
MOVL C00019 V=0.1 +MOVJ EC00019 VJ=9.4
MOVL C00020 V=0.1 +MOVJ EC00020 VJ=9.4
MOVL C00021 V=0.1 +MOVJ EC00021 VJ=9.4
MOVL C00022 V=0.1 +MOVJ EC00022 VJ=9.4
ARCOF
END
