/JOB
//NAME AAA
//POS
///NPOS 10,0,10,0,0,0
///TOOL 12
///POSTYPE PULSE
///PULSE
C00000=-23097,76314,15446,15768,-40250,-17180
C00001=-23018,75597,14170,15929,-39860,-17293
C00002=-23030,75663,14377,15895,-39949,-17270
C00003=-23055,76281,15297,15806,-40184,-17212
C00004=-23053,76287,15360,15795,-40219,-17206
C00005=-23070,75727,14706,15826,-40105,-17221
C00006=-23034,76173,15208,15813,-40188,-17221
C00007=-23030,75881,14806,15846,-40095,-17241
C00008=-23028,75904,14902,15831,-40141,-17233
C00009=-23024,76045,15073,15822,-40174,-17228
EC00000=126261,-127554
EC00001=128913,-127323
EC00002=128535,-127356
EC00003=127422,-127549
EC00004=127117,-128446
EC00005=127198,-127798
EC00006=127839,-128015
EC00007=128132,-127987
EC00008=128349,-127538
EC00009=128345,-127580
//INST
///DATE 2023/05/04 14:35
///ATTR SC,RW
///GROUP1 RB1
///GROUP2 ST1
NOP
MOVL C00000 V=10.0 +MOVJ EC00000
ARCON ASF#(110)
MOVL C00001 V=24.1 +MOVJ EC00001
ARCOF
MOVL C00002 V=10.0 +MOVJ EC00002
ARCON ASF#(110)
MOVL C00003 V=20.9 +MOVJ EC00003
ARCOF
MOVL C00004 V=10.0 +MOVJ EC00004
ARCON ASF#(110)
MOVL C00005 V=18.6 +MOVJ EC00005
ARCOF
MOVL C00006 V=10.0 +MOVJ EC00006
ARCON ASF#(110)
MOVL C00007 V=17.4 +MOVJ EC00007
ARCOF
MOVL C00008 V=10.0 +MOVJ EC00008
ARCON ASF#(110)
MOVL C00009 V=16.5 +MOVJ EC00009
ARCOF
END
