/JOB
//NAME AAA
//POS
///NPOS 7764,0,7764,0,0,0
///TOOL 12
///POSTYPE PULSE
///PULSE
C00000=-33898,68982,34673,9071,-54020,-10683
C00001=-33898,70349,29615,9543,-50253,-11033
C00002=-33898,70349,29615,9543,-50253,-11033
C00003=-33898,70349,29615,9543,-50253,-11033
C00004=-33898,70349,29615,9543,-50253,-11033
C00005=-33898,70349,29615,9543,-50253,-11033
C00006=-33898,70349,29615,9543,-50253,-11033
C00007=-33898,70349,29615,9543,-50253,-11033
C00008=-33898,70349,29615,9543,-50253,-11033
C00009=-33898,70349,29615,9543,-50253,-11033
C00010=-33898,70349,29615,9543,-50253,-11033
C00011=-33898,70349,29615,9543,-50253,-11033
C00012=-33898,70349,29615,9543,-50253,-11033
C00013=-33898,70349,29615,9543,-50253,-11033
C00014=-33898,70349,29615,9543,-50253,-11033
C00015=-33898,70349,29615,9543,-50253,-11033
C00016=-33898,70349,29615,9543,-50253,-11033
C00017=-33898,70349,29615,9543,-50253,-11033
C00018=-33898,70349,29615,9543,-50253,-11033
C00019=-33898,70349,29615,9543,-50253,-11033
C00020=-33898,70349,29615,9543,-50253,-11033
C00021=-33898,70349,29615,9543,-50253,-11033
C00022=-33898,70349,29615,9543,-50253,-11033
C00023=-33898,70349,29615,9543,-50253,-11033
C00024=-33898,70349,29615,9543,-50253,-11033
C00025=-33898,70349,29615,9543,-50253,-11033
C00026=-33898,70349,29615,9543,-50253,-11033
C00027=-33898,70349,29615,9543,-50253,-11033
C00028=-33898,70349,29615,9543,-50253,-11033
C00029=-33898,70349,29615,9543,-50253,-11033
C00030=-33898,70349,29615,9543,-50253,-11033
C00031=-33898,70349,29615,9543,-50253,-11033
C00032=-33898,70349,29615,9543,-50253,-11033
C00033=-33898,70349,29615,9543,-50253,-11033
C00034=-33898,70349,29615,9543,-50253,-11033
C00035=-33898,70349,29615,9543,-50253,-11033
C00036=-33898,70349,29615,9543,-50253,-11033
C00037=-33898,70349,29615,9543,-50253,-11033
C00038=-33898,70349,29615,9543,-50253,-11033
C00039=-33898,70349,29615,9543,-50253,-11033
C00040=-33898,70349,29615,9543,-50253,-11033
C00041=-33898,70349,29615,9543,-50253,-11033
C00042=-33898,70349,29615,9543,-50253,-11033
C00043=-33898,70349,29615,9543,-50253,-11033
C00044=-33898,70349,29615,9543,-50253,-11033
C00045=-33898,70349,29615,9543,-50253,-11033
C00046=-33898,70349,29615,9543,-50253,-11033
C00047=-33898,70349,29615,9543,-50253,-11033
C00048=-33898,70349,29615,9543,-50253,-11033
C00049=-33898,70349,29615,9543,-50253,-11033
C00050=-33898,70349,29615,9543,-50253,-11033
C00051=-33898,70349,29615,9543,-50253,-11033
C00052=-33898,70349,29615,9543,-50253,-11033
C00053=-33898,70349,29615,9543,-50253,-11033
C00054=-33898,70349,29615,9543,-50253,-11033
C00055=-33898,70349,29615,9543,-50253,-11033
C00056=-33898,70349,29615,9543,-50253,-11033
C00057=-33898,70349,29615,9543,-50253,-11033
C00058=-33898,70349,29615,9543,-50253,-11033
C00059=-33898,70349,29615,9543,-50253,-11033
C00060=-33898,70349,29615,9543,-50253,-11033
C00061=-33898,70349,29615,9543,-50253,-11033
C00062=-33898,70349,29615,9543,-50253,-11033
C00063=-33898,70349,29615,9543,-50253,-11033
C00064=-33898,70349,29615,9543,-50253,-11033
C00065=-33898,70349,29615,9543,-50253,-11033
C00066=-33898,70349,29615,9543,-50253,-11033
C00067=-33898,70349,29615,9543,-50253,-11033
C00068=-33898,70349,29615,9543,-50253,-11033
C00069=-33898,70349,29615,9543,-50253,-11033
C00070=-33898,70349,29615,9543,-50253,-11033
C00071=-33898,70349,29615,9543,-50253,-11033
C00072=-33898,70349,29615,9543,-50253,-11033
C00073=-33898,70349,29615,9543,-50253,-11033
C00074=-33898,70349,29615,9543,-50253,-11033
C00075=-33898,70349,29615,9543,-50253,-11033
C00076=-33898,70349,29615,9543,-50253,-11033
C00077=-33898,70349,29615,9543,-50253,-11033
C00078=-33898,70349,29615,9543,-50253,-11033
C00079=-33898,70349,29615,9543,-50253,-11033
C00080=-33898,70349,29615,9543,-50253,-11033
C00081=-33898,70349,29615,9543,-50253,-11033
C00082=-33898,70349,29615,9543,-50253,-11033
C00083=-33898,70349,29615,9543,-50253,-11033
C00084=-33898,70349,29615,9543,-50253,-11033
C00085=-33898,70349,29615,9543,-50253,-11033
C00086=-33898,70349,29615,9543,-50253,-11033
C00087=-33898,70349,29615,9543,-50253,-11033
C00088=-33898,70349,29615,9543,-50253,-11033
C00089=-33898,70349,29615,9543,-50253,-11033
C00090=-33898,70349,29615,9543,-50253,-11033
C00091=-33898,70349,29615,9543,-50253,-11033
C00092=-33898,70349,29615,9543,-50253,-11033
C00093=-33898,70349,29615,9543,-50253,-11033
C00094=-33898,70349,29615,9543,-50253,-11033
C00095=-33898,70349,29615,9543,-50253,-11033
C00096=-33898,70349,29615,9543,-50253,-11033
C00097=-33898,70349,29615,9543,-50253,-11033
C00098=-33898,70349,29615,9543,-50253,-11033
C00099=-33898,70349,29615,9543,-50253,-11033
C00100=-33898,70349,29615,9543,-50253,-11033
C00101=-33898,70349,29615,9543,-50253,-11033
C00102=-33898,70349,29615,9543,-50253,-11033
C00103=-33898,70349,29615,9543,-50253,-11033
C00104=-33898,70349,29615,9543,-50253,-11033
C00105=-33898,70349,29615,9543,-50253,-11033
C00106=-33898,70349,29615,9543,-50253,-11033
C00107=-33898,70349,29615,9543,-50253,-11033
C00108=-33898,70349,29615,9543,-50253,-11033
C00109=-33898,70349,29615,9543,-50253,-11033
C00110=-33898,70349,29615,9543,-50253,-11033
C00111=-33898,70349,29615,9543,-50253,-11033
C00112=-33898,70349,29615,9543,-50253,-11033
C00113=-33898,70349,29615,9543,-50253,-11033
C00114=-33898,70349,29615,9543,-50253,-11033
C00115=-33898,70349,29615,9543,-50253,-11033
C00116=-33898,70349,29615,9543,-50253,-11033
C00117=-33898,70349,29615,9543,-50253,-11033
C00118=-33898,70349,29615,9543,-50253,-11033
C00119=-33898,70349,29615,9543,-50253,-11033
C00120=-33898,70349,29615,9543,-50253,-11033
C00121=-33898,70349,29615,9543,-50253,-11033
C00122=-33898,70349,29615,9543,-50253,-11033
C00123=-33898,70349,29615,9543,-50253,-11033
C00124=-33898,70349,29615,9543,-50253,-11033
C00125=-33898,70349,29615,9543,-50253,-11033
C00126=-33898,70349,29615,9543,-50253,-11033
C00127=-33898,70349,29615,9543,-50253,-11033
C00128=-33898,70349,29615,9543,-50253,-11033
C00129=-33898,70349,29615,9543,-50253,-11033
C00130=-33898,70349,29615,9543,-50253,-11033
C00131=-33898,70349,29615,9543,-50253,-11033
C00132=-33898,70349,29615,9543,-50253,-11033
C00133=-33898,70349,29615,9543,-50253,-11033
C00134=-33898,70349,29615,9543,-50253,-11033
C00135=-33898,70349,29615,9543,-50253,-11033
C00136=-33898,70349,29615,9543,-50253,-11033
C00137=-33898,70349,29615,9543,-50253,-11033
C00138=-33898,70349,29615,9543,-50253,-11033
C00139=-33898,70349,29615,9543,-50253,-11033
C00140=-33898,70349,29615,9543,-50253,-11033
C00141=-33898,70349,29615,9543,-50253,-11033
C00142=-33898,70349,29615,9543,-50253,-11033
C00143=-33898,70349,29615,9543,-50253,-11033
C00144=-33898,70349,29615,9543,-50253,-11033
C00145=-33898,70349,29615,9543,-50253,-11033
C00146=-33898,70349,29615,9543,-50253,-11033
C00147=-33898,70349,29615,9543,-50253,-11033
C00148=-33898,70349,29615,9543,-50253,-11033
C00149=-33898,70349,29615,9543,-50253,-11033
C00150=-33898,70349,29615,9543,-50253,-11033
C00151=-33898,70349,29615,9543,-50253,-11033
C00152=-33898,70349,29615,9543,-50253,-11033
C00153=-33898,70349,29615,9543,-50253,-11033
C00154=-33898,70349,29615,9543,-50253,-11033
C00155=-33898,70349,29615,9543,-50253,-11033
C00156=-33898,70349,29615,9543,-50253,-11033
C00157=-33898,70349,29615,9543,-50253,-11033
C00158=-33898,70349,29615,9543,-50253,-11033
C00159=-33898,70349,29615,9543,-50253,-11033
C00160=-33898,70349,29615,9543,-50253,-11033
C00161=-33898,70349,29615,9543,-50253,-11033
C00162=-33898,70349,29615,9543,-50253,-11033
C00163=-33898,70349,29615,9543,-50253,-11033
C00164=-33898,70349,29615,9543,-50253,-11033
C00165=-33898,70349,29615,9543,-50253,-11033
C00166=-33898,70349,29615,9543,-50253,-11033
C00167=-33898,70349,29615,9543,-50253,-11033
C00168=-33898,70349,29615,9543,-50253,-11033
C00169=-33898,70349,29615,9543,-50253,-11033
C00170=-33898,70349,29615,9543,-50253,-11033
C00171=-33898,70349,29615,9543,-50253,-11033
C00172=-33898,70349,29615,9543,-50253,-11033
C00173=-33898,70349,29615,9543,-50253,-11033
C00174=-33898,70349,29615,9543,-50253,-11033
C00175=-33898,70349,29615,9543,-50253,-11033
C00176=-33898,70349,29615,9543,-50253,-11033
C00177=-33898,70349,29615,9543,-50253,-11033
C00178=-33898,70349,29615,9543,-50253,-11033
C00179=-34021,70535,29922,9489,-50331,-10974
C00180=-34021,70535,29922,9489,-50331,-10974
C00181=-34021,70535,29922,9489,-50331,-10974
C00182=-34021,70535,29922,9489,-50331,-10974
C00183=-34021,70535,29922,9489,-50331,-10974
C00184=-34021,70535,29922,9489,-50331,-10974
C00185=-34021,70535,29922,9489,-50331,-10974
C00186=-34021,70535,29922,9489,-50331,-10974
C00187=-34021,70535,29922,9489,-50331,-10974
C00188=-34021,70535,29922,9489,-50331,-10974
C00189=-34021,70535,29922,9489,-50331,-10974
C00190=-34021,70535,29922,9489,-50331,-10974
C00191=-34021,70535,29922,9489,-50331,-10974
C00192=-34021,70535,29922,9489,-50331,-10974
C00193=-34021,70535,29922,9489,-50331,-10974
C00194=-34021,70535,29922,9489,-50331,-10974
C00195=-34021,70535,29922,9489,-50331,-10974
C00196=-34021,70535,29922,9489,-50331,-10974
C00197=-34021,70535,29922,9489,-50331,-10974
C00198=-34021,70535,29922,9489,-50331,-10974
C00199=-34021,70535,29922,9489,-50331,-10974
C00200=-34021,70535,29922,9489,-50331,-10974
C00201=-34021,70535,29922,9489,-50331,-10974
C00202=-34021,70535,29922,9489,-50331,-10974
C00203=-34021,70535,29922,9489,-50331,-10974
C00204=-34021,70535,29922,9489,-50331,-10974
C00205=-34021,70535,29922,9489,-50331,-10974
C00206=-34021,70535,29922,9489,-50331,-10974
C00207=-34021,70535,29922,9489,-50331,-10974
C00208=-34021,70535,29922,9489,-50331,-10974
C00209=-34021,70535,29922,9489,-50331,-10974
C00210=-34021,70535,29922,9489,-50331,-10974
C00211=-34021,70535,29922,9489,-50331,-10974
C00212=-34021,70535,29922,9489,-50331,-10974
C00213=-34021,70535,29922,9489,-50331,-10974
C00214=-34021,70535,29922,9489,-50331,-10974
C00215=-34021,70535,29922,9489,-50331,-10974
C00216=-34021,70535,29922,9489,-50331,-10974
C00217=-34021,70535,29922,9489,-50331,-10974
C00218=-34021,70535,29922,9489,-50331,-10974
C00219=-34021,70535,29922,9489,-50331,-10974
C00220=-34021,70535,29922,9489,-50331,-10974
C00221=-34021,70535,29922,9489,-50331,-10974
C00222=-34021,70535,29922,9489,-50331,-10974
C00223=-34021,70535,29922,9489,-50331,-10974
C00224=-34021,70535,29922,9489,-50331,-10974
C00225=-34021,70535,29922,9489,-50331,-10974
C00226=-34021,70535,29922,9489,-50331,-10974
C00227=-34021,70535,29922,9489,-50331,-10974
C00228=-34021,70535,29922,9489,-50331,-10974
C00229=-34021,70535,29922,9489,-50331,-10974
C00230=-34021,70535,29922,9489,-50331,-10974
C00231=-34021,70535,29922,9489,-50331,-10974
C00232=-34021,70535,29922,9489,-50331,-10974
C00233=-34021,70535,29922,9489,-50331,-10974
C00234=-34021,70535,29922,9489,-50331,-10974
C00235=-34021,70535,29922,9489,-50331,-10974
C00236=-34021,70535,29922,9489,-50331,-10974
C00237=-34021,70535,29922,9489,-50331,-10974
C00238=-34021,70535,29922,9489,-50331,-10974
C00239=-34021,70535,29922,9489,-50331,-10974
C00240=-34021,70535,29922,9489,-50331,-10974
C00241=-34021,70535,29922,9489,-50331,-10974
C00242=-34021,70535,29922,9489,-50331,-10974
C00243=-34021,70535,29922,9489,-50331,-10974
C00244=-34021,70535,29922,9489,-50331,-10974
C00245=-34021,70535,29922,9489,-50331,-10974
C00246=-34021,70535,29922,9489,-50331,-10974
C00247=-34021,70535,29922,9489,-50331,-10974
C00248=-34021,70535,29922,9489,-50331,-10974
C00249=-34021,70535,29922,9489,-50331,-10974
C00250=-34021,70535,29922,9489,-50331,-10974
C00251=-34021,70535,29922,9489,-50331,-10974
C00252=-34021,70535,29922,9489,-50331,-10974
C00253=-34021,70535,29922,9489,-50331,-10974
C00254=-34021,70535,29922,9489,-50331,-10974
C00255=-34021,70535,29922,9489,-50331,-10974
C00256=-34021,70535,29922,9489,-50331,-10974
C00257=-34021,70535,29922,9489,-50331,-10974
C00258=-34021,70535,29922,9489,-50331,-10974
C00259=-34021,70535,29922,9489,-50331,-10974
C00260=-34021,70535,29922,9489,-50331,-10974
C00261=-34021,70535,29922,9489,-50331,-10974
C00262=-34021,70535,29922,9489,-50331,-10974
C00263=-34021,70535,29922,9489,-50331,-10974
C00264=-34021,70535,29922,9489,-50331,-10974
C00265=-34021,70535,29922,9489,-50331,-10974
C00266=-34021,70535,29922,9489,-50331,-10974
C00267=-34021,70535,29922,9489,-50331,-10974
C00268=-34021,70535,29922,9489,-50331,-10974
C00269=-34021,70535,29922,9489,-50331,-10974
C00270=-34021,70535,29922,9489,-50331,-10974
C00271=-34021,70535,29922,9489,-50331,-10974
C00272=-34021,70535,29922,9489,-50331,-10974
C00273=-34021,70535,29922,9489,-50331,-10974
C00274=-34021,70535,29922,9489,-50331,-10974
C00275=-34021,70535,29922,9489,-50331,-10974
C00276=-34021,70535,29922,9489,-50331,-10974
C00277=-34021,70535,29922,9489,-50331,-10974
C00278=-34021,70535,29922,9489,-50331,-10974
C00279=-34021,70535,29922,9489,-50331,-10974
C00280=-34021,70535,29922,9489,-50331,-10974
C00281=-34021,70535,29922,9489,-50331,-10974
C00282=-34021,70535,29922,9489,-50331,-10974
C00283=-34021,70535,29922,9489,-50331,-10974
C00284=-34021,70535,29922,9489,-50331,-10974
C00285=-34021,70535,29922,9489,-50331,-10974
C00286=-34021,70535,29922,9489,-50331,-10974
C00287=-34021,70535,29922,9489,-50331,-10974
C00288=-34021,70535,29922,9489,-50331,-10974
C00289=-34021,70535,29922,9489,-50331,-10974
C00290=-34021,70535,29922,9489,-50331,-10974
C00291=-34021,70535,29922,9489,-50331,-10974
C00292=-34021,70535,29922,9489,-50331,-10974
C00293=-34021,70535,29922,9489,-50331,-10974
C00294=-34021,70535,29922,9489,-50331,-10974
C00295=-34021,70535,29922,9489,-50331,-10974
C00296=-34021,70535,29922,9489,-50331,-10974
C00297=-34021,70535,29922,9489,-50331,-10974
C00298=-34021,70535,29922,9489,-50331,-10974
C00299=-34021,70535,29922,9489,-50331,-10974
C00300=-34021,70535,29922,9489,-50331,-10974
C00301=-34021,70535,29922,9489,-50331,-10974
C00302=-34021,70535,29922,9489,-50331,-10974
C00303=-34021,70535,29922,9489,-50331,-10974
C00304=-34021,70535,29922,9489,-50331,-10974
C00305=-34021,70535,29922,9489,-50331,-10974
C00306=-34021,70535,29922,9489,-50331,-10974
C00307=-34021,70535,29922,9489,-50331,-10974
C00308=-34021,70535,29922,9489,-50331,-10974
C00309=-34021,70535,29922,9489,-50331,-10974
C00310=-34021,70535,29922,9489,-50331,-10974
C00311=-34021,70535,29922,9489,-50331,-10974
C00312=-34021,70535,29922,9489,-50331,-10974
C00313=-34021,70535,29922,9489,-50331,-10974
C00314=-34021,70535,29922,9489,-50331,-10974
C00315=-34021,70535,29922,9489,-50331,-10974
C00316=-34021,70535,29922,9489,-50331,-10974
C00317=-34021,70535,29922,9489,-50331,-10974
C00318=-34021,70535,29922,9489,-50331,-10974
C00319=-34021,70535,29922,9489,-50331,-10974
C00320=-34021,70535,29922,9489,-50331,-10974
C00321=-34021,70535,29922,9489,-50331,-10974
C00322=-34021,70535,29922,9489,-50331,-10974
C00323=-34021,70535,29922,9489,-50331,-10974
C00324=-34021,70535,29922,9489,-50331,-10974
C00325=-34021,70535,29922,9489,-50331,-10974
C00326=-34021,70535,29922,9489,-50331,-10974
C00327=-34021,70535,29922,9489,-50331,-10974
C00328=-34021,70535,29922,9489,-50331,-10974
C00329=-34021,70535,29922,9489,-50331,-10974
C00330=-34021,70535,29922,9489,-50331,-10974
C00331=-34021,70535,29922,9489,-50331,-10974
C00332=-34021,70535,29922,9489,-50331,-10974
C00333=-34021,70535,29922,9489,-50331,-10974
C00334=-34021,70535,29922,9489,-50331,-10974
C00335=-34021,70535,29922,9489,-50331,-10974
C00336=-34021,70535,29922,9489,-50331,-10974
C00337=-34021,70535,29922,9489,-50331,-10974
C00338=-34021,70535,29922,9489,-50331,-10974
C00339=-34021,70535,29922,9489,-50331,-10974
C00340=-34021,70535,29922,9489,-50331,-10974
C00341=-34021,70535,29922,9489,-50331,-10974
C00342=-34021,70535,29922,9489,-50331,-10974
C00343=-34021,70535,29922,9489,-50331,-10974
C00344=-34021,70535,29922,9489,-50331,-10974
C00345=-34021,70535,29922,9489,-50331,-10974
C00346=-34021,70535,29922,9489,-50331,-10974
C00347=-34021,70535,29922,9489,-50331,-10974
C00348=-34021,70535,29922,9489,-50331,-10974
C00349=-34021,70535,29922,9489,-50331,-10974
C00350=-34021,70535,29922,9489,-50331,-10974
C00351=-34021,70535,29922,9489,-50331,-10974
C00352=-34021,70535,29922,9489,-50331,-10974
C00353=-34021,70535,29922,9489,-50331,-10974
C00354=-34021,70535,29922,9489,-50331,-10974
C00355=-34021,70535,29922,9489,-50331,-10974
C00356=-34021,70535,29922,9489,-50331,-10974
C00357=-34144,70724,30231,9435,-50409,-10915
C00358=-34144,70724,30231,9435,-50409,-10915
C00359=-34144,70724,30231,9435,-50409,-10915
C00360=-34144,70724,30231,9435,-50409,-10915
C00361=-34144,70724,30231,9435,-50409,-10915
C00362=-34144,70724,30231,9435,-50409,-10915
C00363=-34144,70724,30231,9435,-50409,-10915
C00364=-34144,70724,30231,9435,-50409,-10915
C00365=-34144,70724,30231,9435,-50409,-10915
C00366=-34144,70724,30231,9435,-50409,-10915
C00367=-34144,70724,30231,9435,-50409,-10915
C00368=-34144,70724,30231,9435,-50409,-10915
C00369=-34144,70724,30231,9435,-50409,-10915
C00370=-34144,70724,30231,9435,-50409,-10915
C00371=-34144,70724,30231,9435,-50409,-10915
C00372=-34144,70724,30231,9435,-50409,-10915
C00373=-34144,70724,30231,9435,-50409,-10915
C00374=-34144,70724,30231,9435,-50409,-10915
C00375=-34144,70724,30231,9435,-50409,-10915
C00376=-34144,70724,30231,9435,-50409,-10915
C00377=-34144,70724,30231,9435,-50409,-10915
C00378=-34144,70724,30231,9435,-50409,-10915
C00379=-34144,70724,30231,9435,-50409,-10915
C00380=-34144,70724,30231,9435,-50409,-10915
C00381=-34144,70724,30231,9435,-50409,-10915
C00382=-34144,70724,30231,9435,-50409,-10915
C00383=-34144,70724,30231,9435,-50409,-10915
C00384=-34144,70724,30231,9435,-50409,-10915
C00385=-34144,70724,30231,9435,-50409,-10915
C00386=-34144,70724,30231,9435,-50409,-10915
C00387=-34144,70724,30231,9435,-50409,-10915
C00388=-34144,70724,30231,9435,-50409,-10915
C00389=-34144,70724,30231,9435,-50409,-10915
C00390=-34144,70724,30231,9435,-50409,-10915
C00391=-34144,70724,30231,9435,-50409,-10915
C00392=-34144,70724,30231,9435,-50409,-10915
C00393=-34144,70724,30231,9435,-50409,-10915
C00394=-34144,70724,30231,9435,-50409,-10915
C00395=-34144,70724,30231,9435,-50409,-10915
C00396=-34144,70724,30231,9435,-50409,-10915
C00397=-34144,70724,30231,9435,-50409,-10915
C00398=-34144,70724,30231,9435,-50409,-10915
C00399=-34144,70724,30231,9435,-50409,-10915
C00400=-34144,70724,30231,9435,-50409,-10915
C00401=-34144,70724,30231,9435,-50409,-10915
C00402=-34144,70724,30231,9435,-50409,-10915
C00403=-34144,70724,30231,9435,-50409,-10915
C00404=-34144,70724,30231,9435,-50409,-10915
C00405=-34144,70724,30231,9435,-50409,-10915
C00406=-34144,70724,30231,9435,-50409,-10915
C00407=-34144,70724,30231,9435,-50409,-10915
C00408=-34144,70724,30231,9435,-50409,-10915
C00409=-34144,70724,30231,9435,-50409,-10915
C00410=-34144,70724,30231,9435,-50409,-10915
C00411=-34144,70724,30231,9435,-50409,-10915
C00412=-34144,70724,30231,9435,-50409,-10915
C00413=-34144,70724,30231,9435,-50409,-10915
C00414=-34144,70724,30231,9435,-50409,-10915
C00415=-34144,70724,30231,9435,-50409,-10915
C00416=-34144,70724,30231,9435,-50409,-10915
C00417=-34144,70724,30231,9435,-50409,-10915
C00418=-34144,70724,30231,9435,-50409,-10915
C00419=-34144,70724,30231,9435,-50409,-10915
C00420=-34144,70724,30231,9435,-50409,-10915
C00421=-34144,70724,30231,9435,-50409,-10915
C00422=-34144,70724,30231,9435,-50409,-10915
C00423=-34144,70724,30231,9435,-50409,-10915
C00424=-34144,70724,30231,9435,-50409,-10915
C00425=-34144,70724,30231,9435,-50409,-10915
C00426=-34144,70724,30231,9435,-50409,-10915
C00427=-34144,70724,30231,9435,-50409,-10915
C00428=-34144,70724,30231,9435,-50409,-10915
C00429=-34144,70724,30231,9435,-50409,-10915
C00430=-34144,70724,30231,9435,-50409,-10915
C00431=-34144,70724,30231,9435,-50409,-10915
C00432=-34144,70724,30231,9435,-50409,-10915
C00433=-34144,70724,30231,9435,-50409,-10915
C00434=-34144,70724,30231,9435,-50409,-10915
C00435=-34144,70724,30231,9435,-50409,-10915
C00436=-34144,70724,30231,9435,-50409,-10915
C00437=-34144,70724,30231,9435,-50409,-10915
C00438=-34144,70724,30231,9435,-50409,-10915
C00439=-34144,70724,30231,9435,-50409,-10915
C00440=-34144,70724,30231,9435,-50409,-10915
C00441=-34144,70724,30231,9435,-50409,-10915
C00442=-34144,70724,30231,9435,-50409,-10915
C00443=-34144,70724,30231,9435,-50409,-10915
C00444=-34144,70724,30231,9435,-50409,-10915
C00445=-34144,70724,30231,9435,-50409,-10915
C00446=-34144,70724,30231,9435,-50409,-10915
C00447=-34144,70724,30231,9435,-50409,-10915
C00448=-34144,70724,30231,9435,-50409,-10915
C00449=-34144,70724,30231,9435,-50409,-10915
C00450=-34144,70724,30231,9435,-50409,-10915
C00451=-34144,70724,30231,9435,-50409,-10915
C00452=-34144,70724,30231,9435,-50409,-10915
C00453=-34144,70724,30231,9435,-50409,-10915
C00454=-34144,70724,30231,9435,-50409,-10915
C00455=-34144,70724,30231,9435,-50409,-10915
C00456=-34144,70724,30231,9435,-50409,-10915
C00457=-34144,70724,30231,9435,-50409,-10915
C00458=-34144,70724,30231,9435,-50409,-10915
C00459=-34144,70724,30231,9435,-50409,-10915
C00460=-34144,70724,30231,9435,-50409,-10915
C00461=-34144,70724,30231,9435,-50409,-10915
C00462=-34144,70724,30231,9435,-50409,-10915
C00463=-34144,70724,30231,9435,-50409,-10915
C00464=-34144,70724,30231,9435,-50409,-10915
C00465=-34144,70724,30231,9435,-50409,-10915
C00466=-34144,70724,30231,9435,-50409,-10915
C00467=-34144,70724,30231,9435,-50409,-10915
C00468=-34144,70724,30231,9435,-50409,-10915
C00469=-34144,70724,30231,9435,-50409,-10915
C00470=-34144,70724,30231,9435,-50409,-10915
C00471=-34144,70724,30231,9435,-50409,-10915
C00472=-34144,70724,30231,9435,-50409,-10915
C00473=-34144,70724,30231,9435,-50409,-10915
C00474=-34144,70724,30231,9435,-50409,-10915
C00475=-34144,70724,30231,9435,-50409,-10915
C00476=-34144,70724,30231,9435,-50409,-10915
C00477=-34144,70724,30231,9435,-50409,-10915
C00478=-34144,70724,30231,9435,-50409,-10915
C00479=-34144,70724,30231,9435,-50409,-10915
C00480=-34144,70724,30231,9435,-50409,-10915
C00481=-34144,70724,30231,9435,-50409,-10915
C00482=-34144,70724,30231,9435,-50409,-10915
C00483=-34144,70724,30231,9435,-50409,-10915
C00484=-34144,70724,30231,9435,-50409,-10915
C00485=-34144,70724,30231,9435,-50409,-10915
C00486=-34144,70724,30231,9435,-50409,-10915
C00487=-34144,70724,30231,9435,-50409,-10915
C00488=-34144,70724,30231,9435,-50409,-10915
C00489=-34144,70724,30231,9435,-50409,-10915
C00490=-34144,70724,30231,9435,-50409,-10915
C00491=-34144,70724,30231,9435,-50409,-10915
C00492=-34144,70724,30231,9435,-50409,-10915
C00493=-34144,70724,30231,9435,-50409,-10915
C00494=-34144,70724,30231,9435,-50409,-10915
C00495=-34144,70724,30231,9435,-50409,-10915
C00496=-34144,70724,30231,9435,-50409,-10915
C00497=-34144,70724,30231,9435,-50409,-10915
C00498=-34144,70724,30231,9435,-50409,-10915
C00499=-34144,70724,30231,9435,-50409,-10915
C00500=-34144,70724,30231,9435,-50409,-10915
C00501=-34144,70724,30231,9435,-50409,-10915
C00502=-34144,70724,30231,9435,-50409,-10915
C00503=-34144,70724,30231,9435,-50409,-10915
C00504=-34144,70724,30231,9435,-50409,-10915
C00505=-34144,70724,30231,9435,-50409,-10915
C00506=-34144,70724,30231,9435,-50409,-10915
C00507=-34144,70724,30231,9435,-50409,-10915
C00508=-34144,70724,30231,9435,-50409,-10915
C00509=-34144,70724,30231,9435,-50409,-10915
C00510=-34144,70724,30231,9435,-50409,-10915
C00511=-34144,70724,30231,9435,-50409,-10915
C00512=-34144,70724,30231,9435,-50409,-10915
C00513=-34144,70724,30231,9435,-50409,-10915
C00514=-34144,70724,30231,9435,-50409,-10915
C00515=-34144,70724,30231,9435,-50409,-10915
C00516=-34144,70724,30231,9435,-50409,-10915
C00517=-34144,70724,30231,9435,-50409,-10915
C00518=-34144,70724,30231,9435,-50409,-10915
C00519=-34144,70724,30231,9435,-50409,-10915
C00520=-34144,70724,30231,9435,-50409,-10915
C00521=-34144,70724,30231,9435,-50409,-10915
C00522=-34144,70724,30231,9435,-50409,-10915
C00523=-34144,70724,30231,9435,-50409,-10915
C00524=-34144,70724,30231,9435,-50409,-10915
C00525=-34144,70724,30231,9435,-50409,-10915
C00526=-34144,70724,30231,9435,-50409,-10915
C00527=-34144,70724,30231,9435,-50409,-10915
C00528=-34144,70724,30231,9435,-50409,-10915
C00529=-34144,70724,30231,9435,-50409,-10915
C00530=-34144,70724,30231,9435,-50409,-10915
C00531=-34144,70724,30231,9435,-50409,-10915
C00532=-34144,70724,30231,9435,-50409,-10915
C00533=-34144,70724,30231,9435,-50409,-10915
C00534=-34144,70724,30231,9435,-50409,-10915
C00535=-34144,70724,30231,9435,-50409,-10915
C00536=-34267,70916,30541,9382,-50486,-10856
C00537=-34267,70916,30541,9382,-50486,-10856
C00538=-34267,70916,30541,9382,-50486,-10856
C00539=-34267,70916,30541,9382,-50486,-10856
C00540=-34267,70916,30541,9382,-50486,-10856
C00541=-34267,70916,30541,9382,-50486,-10856
C00542=-34267,70916,30541,9382,-50486,-10856
C00543=-34267,70916,30541,9382,-50486,-10856
C00544=-34267,70916,30541,9382,-50486,-10856
C00545=-34267,70916,30541,9382,-50486,-10856
C00546=-34267,70916,30541,9382,-50486,-10856
C00547=-34267,70916,30541,9382,-50486,-10856
C00548=-34267,70916,30541,9382,-50486,-10856
C00549=-34267,70916,30541,9382,-50486,-10856
C00550=-34267,70916,30541,9382,-50486,-10856
C00551=-34267,70916,30541,9382,-50486,-10856
C00552=-34267,70916,30541,9382,-50486,-10856
C00553=-34267,70916,30541,9382,-50486,-10856
C00554=-34267,70916,30541,9382,-50486,-10856
C00555=-34267,70916,30541,9382,-50486,-10856
C00556=-34267,70916,30541,9382,-50486,-10856
C00557=-34267,70916,30541,9382,-50486,-10856
C00558=-34267,70916,30541,9382,-50486,-10856
C00559=-34267,70916,30541,9382,-50486,-10856
C00560=-34267,70916,30541,9382,-50486,-10856
C00561=-34267,70916,30541,9382,-50486,-10856
C00562=-34267,70916,30541,9382,-50486,-10856
C00563=-34267,70916,30541,9382,-50486,-10856
C00564=-34267,70916,30541,9382,-50486,-10856
C00565=-34267,70916,30541,9382,-50486,-10856
C00566=-34267,70916,30541,9382,-50486,-10856
C00567=-34267,70916,30541,9382,-50486,-10856
C00568=-34267,70916,30541,9382,-50486,-10856
C00569=-34267,70916,30541,9382,-50486,-10856
C00570=-34267,70916,30541,9382,-50486,-10856
C00571=-34267,70916,30541,9382,-50486,-10856
C00572=-34267,70916,30541,9382,-50486,-10856
C00573=-34267,70916,30541,9382,-50486,-10856
C00574=-34267,70916,30541,9382,-50486,-10856
C00575=-34267,70916,30541,9382,-50486,-10856
C00576=-34267,70916,30541,9382,-50486,-10856
C00577=-34267,70916,30541,9382,-50486,-10856
C00578=-34267,70916,30541,9382,-50486,-10856
C00579=-34267,70916,30541,9382,-50486,-10856
C00580=-34267,70916,30541,9382,-50486,-10856
C00581=-34267,70916,30541,9382,-50486,-10856
C00582=-34267,70916,30541,9382,-50486,-10856
C00583=-34267,70916,30541,9382,-50486,-10856
C00584=-34267,70916,30541,9382,-50486,-10856
C00585=-34267,70916,30541,9382,-50486,-10856
C00586=-34267,70916,30541,9382,-50486,-10856
C00587=-34267,70916,30541,9382,-50486,-10856
C00588=-34267,70916,30541,9382,-50486,-10856
C00589=-34267,70916,30541,9382,-50486,-10856
C00590=-34267,70916,30541,9382,-50486,-10856
C00591=-34267,70916,30541,9382,-50486,-10856
C00592=-34267,70916,30541,9382,-50486,-10856
C00593=-34267,70916,30541,9382,-50486,-10856
C00594=-34267,70916,30541,9382,-50486,-10856
C00595=-34267,70916,30541,9382,-50486,-10856
C00596=-34267,70916,30541,9382,-50486,-10856
C00597=-34267,70916,30541,9382,-50486,-10856
C00598=-34267,70916,30541,9382,-50486,-10856
C00599=-34267,70916,30541,9382,-50486,-10856
C00600=-34267,70916,30541,9382,-50486,-10856
C00601=-34267,70916,30541,9382,-50486,-10856
C00602=-34267,70916,30541,9382,-50486,-10856
C00603=-34267,70916,30541,9382,-50486,-10856
C00604=-34267,70916,30541,9382,-50486,-10856
C00605=-34267,70916,30541,9382,-50486,-10856
C00606=-34267,70916,30541,9382,-50486,-10856
C00607=-34267,70916,30541,9382,-50486,-10856
C00608=-34267,70916,30541,9382,-50486,-10856
C00609=-34267,70916,30541,9382,-50486,-10856
C00610=-34267,70916,30541,9382,-50486,-10856
C00611=-34267,70916,30541,9382,-50486,-10856
C00612=-34267,70916,30541,9382,-50486,-10856
C00613=-34267,70916,30541,9382,-50486,-10856
C00614=-34267,70916,30541,9382,-50486,-10856
C00615=-34267,70916,30541,9382,-50486,-10856
C00616=-34267,70916,30541,9382,-50486,-10856
C00617=-34267,70916,30541,9382,-50486,-10856
C00618=-34267,70916,30541,9382,-50486,-10856
C00619=-34267,70916,30541,9382,-50486,-10856
C00620=-34267,70916,30541,9382,-50486,-10856
C00621=-34267,70916,30541,9382,-50486,-10856
C00622=-34267,70916,30541,9382,-50486,-10856
C00623=-34267,70916,30541,9382,-50486,-10856
C00624=-34267,70916,30541,9382,-50486,-10856
C00625=-34267,70916,30541,9382,-50486,-10856
C00626=-34267,70916,30541,9382,-50486,-10856
C00627=-34267,70916,30541,9382,-50486,-10856
C00628=-34267,70916,30541,9382,-50486,-10856
C00629=-34267,70916,30541,9382,-50486,-10856
C00630=-34267,70916,30541,9382,-50486,-10856
C00631=-34267,70916,30541,9382,-50486,-10856
C00632=-34267,70916,30541,9382,-50486,-10856
C00633=-34267,70916,30541,9382,-50486,-10856
C00634=-34267,70916,30541,9382,-50486,-10856
C00635=-34267,70916,30541,9382,-50486,-10856
C00636=-34267,70916,30541,9382,-50486,-10856
C00637=-34267,70916,30541,9382,-50486,-10856
C00638=-34267,70916,30541,9382,-50486,-10856
C00639=-34267,70916,30541,9382,-50486,-10856
C00640=-34267,70916,30541,9382,-50486,-10856
C00641=-34267,70916,30541,9382,-50486,-10856
C00642=-34267,70916,30541,9382,-50486,-10856
C00643=-34267,70916,30541,9382,-50486,-10856
C00644=-34267,70916,30541,9382,-50486,-10856
C00645=-34267,70916,30541,9382,-50486,-10856
C00646=-34267,70916,30541,9382,-50486,-10856
C00647=-34267,70916,30541,9382,-50486,-10856
C00648=-34267,70916,30541,9382,-50486,-10856
C00649=-34267,70916,30541,9382,-50486,-10856
C00650=-34267,70916,30541,9382,-50486,-10856
C00651=-34267,70916,30541,9382,-50486,-10856
C00652=-34267,70916,30541,9382,-50486,-10856
C00653=-34267,70916,30541,9382,-50486,-10856
C00654=-34267,70916,30541,9382,-50486,-10856
C00655=-34267,70916,30541,9382,-50486,-10856
C00656=-34267,70916,30541,9382,-50486,-10856
C00657=-34267,70916,30541,9382,-50486,-10856
C00658=-34267,70916,30541,9382,-50486,-10856
C00659=-34267,70916,30541,9382,-50486,-10856
C00660=-34267,70916,30541,9382,-50486,-10856
C00661=-34267,70916,30541,9382,-50486,-10856
C00662=-34267,70916,30541,9382,-50486,-10856
C00663=-34267,70916,30541,9382,-50486,-10856
C00664=-34267,70916,30541,9382,-50486,-10856
C00665=-34267,70916,30541,9382,-50486,-10856
C00666=-34267,70916,30541,9382,-50486,-10856
C00667=-34267,70916,30541,9382,-50486,-10856
C00668=-34267,70916,30541,9382,-50486,-10856
C00669=-34267,70916,30541,9382,-50486,-10856
C00670=-34267,70916,30541,9382,-50486,-10856
C00671=-34267,70916,30541,9382,-50486,-10856
C00672=-34267,70916,30541,9382,-50486,-10856
C00673=-34267,70916,30541,9382,-50486,-10856
C00674=-34267,70916,30541,9382,-50486,-10856
C00675=-34267,70916,30541,9382,-50486,-10856
C00676=-34267,70916,30541,9382,-50486,-10856
C00677=-34267,70916,30541,9382,-50486,-10856
C00678=-34267,70916,30541,9382,-50486,-10856
C00679=-34267,70916,30541,9382,-50486,-10856
C00680=-34267,70916,30541,9382,-50486,-10856
C00681=-34267,70916,30541,9382,-50486,-10856
C00682=-34267,70916,30541,9382,-50486,-10856
C00683=-34267,70916,30541,9382,-50486,-10856
C00684=-34267,70916,30541,9382,-50486,-10856
C00685=-34267,70916,30541,9382,-50486,-10856
C00686=-34267,70916,30541,9382,-50486,-10856
C00687=-34267,70916,30541,9382,-50486,-10856
C00688=-34267,70916,30541,9382,-50486,-10856
C00689=-34267,70916,30541,9382,-50486,-10856
C00690=-34267,70916,30541,9382,-50486,-10856
C00691=-34267,70916,30541,9382,-50486,-10856
C00692=-34267,70916,30541,9382,-50486,-10856
C00693=-34267,70916,30541,9382,-50486,-10856
C00694=-34267,70916,30541,9382,-50486,-10856
C00695=-34267,70916,30541,9382,-50486,-10856
C00696=-34267,70916,30541,9382,-50486,-10856
C00697=-34267,70916,30541,9382,-50486,-10856
C00698=-34267,70916,30541,9382,-50486,-10856
C00699=-34267,70916,30541,9382,-50486,-10856
C00700=-34267,70916,30541,9382,-50486,-10856
C00701=-34267,70916,30541,9382,-50486,-10856
C00702=-34267,70916,30541,9382,-50486,-10856
C00703=-34267,70916,30541,9382,-50486,-10856
C00704=-34267,70916,30541,9382,-50486,-10856
C00705=-34267,70916,30541,9382,-50486,-10856
C00706=-34267,70916,30541,9382,-50486,-10856
C00707=-34267,70916,30541,9382,-50486,-10856
C00708=-34267,70916,30541,9382,-50486,-10856
C00709=-34267,70916,30541,9382,-50486,-10856
C00710=-34267,70916,30541,9382,-50486,-10856
C00711=-34267,70916,30541,9382,-50486,-10856
C00712=-34267,70916,30541,9382,-50486,-10856
C00713=-34267,70916,30541,9382,-50486,-10856
C00714=-34267,70916,30541,9382,-50486,-10856
C00715=-34391,71110,30851,9329,-50563,-10797
C00716=-34391,71110,30851,9329,-50563,-10797
C00717=-34391,71110,30851,9329,-50563,-10797
C00718=-34391,71110,30851,9329,-50563,-10797
C00719=-34391,71110,30851,9329,-50563,-10797
C00720=-34391,71110,30851,9329,-50563,-10797
C00721=-34391,71110,30851,9329,-50563,-10797
C00722=-34391,71110,30851,9329,-50563,-10797
C00723=-34391,71110,30851,9329,-50563,-10797
C00724=-34391,71110,30851,9329,-50563,-10797
C00725=-34391,71110,30851,9329,-50563,-10797
C00726=-34391,71110,30851,9329,-50563,-10797
C00727=-34391,71110,30851,9329,-50563,-10797
C00728=-34391,71110,30851,9329,-50563,-10797
C00729=-34391,71110,30851,9329,-50563,-10797
C00730=-34391,71110,30851,9329,-50563,-10797
C00731=-34391,71110,30851,9329,-50563,-10797
C00732=-34391,71110,30851,9329,-50563,-10797
C00733=-34391,71110,30851,9329,-50563,-10797
C00734=-34391,71110,30851,9329,-50563,-10797
C00735=-34391,71110,30851,9329,-50563,-10797
C00736=-34391,71110,30851,9329,-50563,-10797
C00737=-34391,71110,30851,9329,-50563,-10797
C00738=-34391,71110,30851,9329,-50563,-10797
C00739=-34391,71110,30851,9329,-50563,-10797
C00740=-34391,71110,30851,9329,-50563,-10797
C00741=-34391,71110,30851,9329,-50563,-10797
C00742=-34391,71110,30851,9329,-50563,-10797
C00743=-34391,71110,30851,9329,-50563,-10797
C00744=-34391,71110,30851,9329,-50563,-10797
C00745=-34391,71110,30851,9329,-50563,-10797
C00746=-34391,71110,30851,9329,-50563,-10797
C00747=-34391,71110,30851,9329,-50563,-10797
C00748=-34391,71110,30851,9329,-50563,-10797
C00749=-34391,71110,30851,9329,-50563,-10797
C00750=-34391,71110,30851,9329,-50563,-10797
C00751=-34391,71110,30851,9329,-50563,-10797
C00752=-34391,71110,30851,9329,-50563,-10797
C00753=-34391,71110,30851,9329,-50563,-10797
C00754=-34391,71110,30851,9329,-50563,-10797
C00755=-34391,71110,30851,9329,-50563,-10797
C00756=-34391,71110,30851,9329,-50563,-10797
C00757=-34391,71110,30851,9329,-50563,-10797
C00758=-34391,71110,30851,9329,-50563,-10797
C00759=-34391,71110,30851,9329,-50563,-10797
C00760=-34391,71110,30851,9329,-50563,-10797
C00761=-34391,71110,30851,9329,-50563,-10797
C00762=-34391,71110,30851,9329,-50563,-10797
C00763=-34391,71110,30851,9329,-50563,-10797
C00764=-34391,71110,30851,9329,-50563,-10797
C00765=-34391,71110,30851,9329,-50563,-10797
C00766=-34391,71110,30851,9329,-50563,-10797
C00767=-34391,71110,30851,9329,-50563,-10797
C00768=-34391,71110,30851,9329,-50563,-10797
C00769=-34391,71110,30851,9329,-50563,-10797
C00770=-34391,71110,30851,9329,-50563,-10797
C00771=-34391,71110,30851,9329,-50563,-10797
C00772=-34391,71110,30851,9329,-50563,-10797
C00773=-34391,71110,30851,9329,-50563,-10797
C00774=-34391,71110,30851,9329,-50563,-10797
C00775=-34391,71110,30851,9329,-50563,-10797
C00776=-34391,71110,30851,9329,-50563,-10797
C00777=-34391,71110,30851,9329,-50563,-10797
C00778=-34391,71110,30851,9329,-50563,-10797
C00779=-34391,71110,30851,9329,-50563,-10797
C00780=-34391,71110,30851,9329,-50563,-10797
C00781=-34391,71110,30851,9329,-50563,-10797
C00782=-34391,71110,30851,9329,-50563,-10797
C00783=-34391,71110,30851,9329,-50563,-10797
C00784=-34391,71110,30851,9329,-50563,-10797
C00785=-34391,71110,30851,9329,-50563,-10797
C00786=-34391,71110,30851,9329,-50563,-10797
C00787=-34391,71110,30851,9329,-50563,-10797
C00788=-34391,71110,30851,9329,-50563,-10797
C00789=-34391,71110,30851,9329,-50563,-10797
C00790=-34391,71110,30851,9329,-50563,-10797
C00791=-34391,71110,30851,9329,-50563,-10797
C00792=-34391,71110,30851,9329,-50563,-10797
C00793=-34391,71110,30851,9329,-50563,-10797
C00794=-34391,71110,30851,9329,-50563,-10797
C00795=-34391,71110,30851,9329,-50563,-10797
C00796=-34391,71110,30851,9329,-50563,-10797
C00797=-34391,71110,30851,9329,-50563,-10797
C00798=-34391,71110,30851,9329,-50563,-10797
C00799=-34391,71110,30851,9329,-50563,-10797
C00800=-34391,71110,30851,9329,-50563,-10797
C00801=-34391,71110,30851,9329,-50563,-10797
C00802=-34391,71110,30851,9329,-50563,-10797
C00803=-34391,71110,30851,9329,-50563,-10797
C00804=-34391,71110,30851,9329,-50563,-10797
C00805=-34391,71110,30851,9329,-50563,-10797
C00806=-34391,71110,30851,9329,-50563,-10797
C00807=-34391,71110,30851,9329,-50563,-10797
C00808=-34391,71110,30851,9329,-50563,-10797
C00809=-34391,71110,30851,9329,-50563,-10797
C00810=-34391,71110,30851,9329,-50563,-10797
C00811=-34391,71110,30851,9329,-50563,-10797
C00812=-34391,71110,30851,9329,-50563,-10797
C00813=-34391,71110,30851,9329,-50563,-10797
C00814=-34391,71110,30851,9329,-50563,-10797
C00815=-34391,71110,30851,9329,-50563,-10797
C00816=-34391,71110,30851,9329,-50563,-10797
C00817=-34391,71110,30851,9329,-50563,-10797
C00818=-34391,71110,30851,9329,-50563,-10797
C00819=-34391,71110,30851,9329,-50563,-10797
C00820=-34391,71110,30851,9329,-50563,-10797
C00821=-34391,71110,30851,9329,-50563,-10797
C00822=-34391,71110,30851,9329,-50563,-10797
C00823=-34391,71110,30851,9329,-50563,-10797
C00824=-34391,71110,30851,9329,-50563,-10797
C00825=-34391,71110,30851,9329,-50563,-10797
C00826=-34391,71110,30851,9329,-50563,-10797
C00827=-34391,71110,30851,9329,-50563,-10797
C00828=-34391,71110,30851,9329,-50563,-10797
C00829=-34391,71110,30851,9329,-50563,-10797
C00830=-34391,71110,30851,9329,-50563,-10797
C00831=-34391,71110,30851,9329,-50563,-10797
C00832=-34391,71110,30851,9329,-50563,-10797
C00833=-34391,71110,30851,9329,-50563,-10797
C00834=-34391,71110,30851,9329,-50563,-10797
C00835=-34391,71110,30851,9329,-50563,-10797
C00836=-34391,71110,30851,9329,-50563,-10797
C00837=-34391,71110,30851,9329,-50563,-10797
C00838=-34391,71110,30851,9329,-50563,-10797
C00839=-34391,71110,30851,9329,-50563,-10797
C00840=-34391,71110,30851,9329,-50563,-10797
C00841=-34391,71110,30851,9329,-50563,-10797
C00842=-34391,71110,30851,9329,-50563,-10797
C00843=-34391,71110,30851,9329,-50563,-10797
C00844=-34391,71110,30851,9329,-50563,-10797
C00845=-34391,71110,30851,9329,-50563,-10797
C00846=-34391,71110,30851,9329,-50563,-10797
C00847=-34391,71110,30851,9329,-50563,-10797
C00848=-34391,71110,30851,9329,-50563,-10797
C00849=-34391,71110,30851,9329,-50563,-10797
C00850=-34391,71110,30851,9329,-50563,-10797
C00851=-34391,71110,30851,9329,-50563,-10797
C00852=-34391,71110,30851,9329,-50563,-10797
C00853=-34391,71110,30851,9329,-50563,-10797
C00854=-34391,71110,30851,9329,-50563,-10797
C00855=-34391,71110,30851,9329,-50563,-10797
C00856=-34391,71110,30851,9329,-50563,-10797
C00857=-34391,71110,30851,9329,-50563,-10797
C00858=-34391,71110,30851,9329,-50563,-10797
C00859=-34391,71110,30851,9329,-50563,-10797
C00860=-34391,71110,30851,9329,-50563,-10797
C00861=-34391,71110,30851,9329,-50563,-10797
C00862=-34391,71110,30851,9329,-50563,-10797
C00863=-34391,71110,30851,9329,-50563,-10797
C00864=-34391,71110,30851,9329,-50563,-10797
C00865=-34391,71110,30851,9329,-50563,-10797
C00866=-34391,71110,30851,9329,-50563,-10797
C00867=-34391,71110,30851,9329,-50563,-10797
C00868=-34391,71110,30851,9329,-50563,-10797
C00869=-34391,71110,30851,9329,-50563,-10797
C00870=-34391,71110,30851,9329,-50563,-10797
C00871=-34391,71110,30851,9329,-50563,-10797
C00872=-34391,71110,30851,9329,-50563,-10797
C00873=-34391,71110,30851,9329,-50563,-10797
C00874=-34391,71110,30851,9329,-50563,-10797
C00875=-34391,71110,30851,9329,-50563,-10797
C00876=-34391,71110,30851,9329,-50563,-10797
C00877=-34391,71110,30851,9329,-50563,-10797
C00878=-34391,71110,30851,9329,-50563,-10797
C00879=-34391,71110,30851,9329,-50563,-10797
C00880=-34391,71110,30851,9329,-50563,-10797
C00881=-34391,71110,30851,9329,-50563,-10797
C00882=-34391,71110,30851,9329,-50563,-10797
C00883=-34391,71110,30851,9329,-50563,-10797
C00884=-34391,71110,30851,9329,-50563,-10797
C00885=-34391,71110,30851,9329,-50563,-10797
C00886=-34391,71110,30851,9329,-50563,-10797
C00887=-34391,71110,30851,9329,-50563,-10797
C00888=-34391,71110,30851,9329,-50563,-10797
C00889=-34391,71110,30851,9329,-50563,-10797
C00890=-34391,71110,30851,9329,-50563,-10797
C00891=-34391,71110,30851,9329,-50563,-10797
C00892=-34391,71110,30851,9329,-50563,-10797
C00893=-34391,71110,30851,9329,-50563,-10797
C00894=-34391,71110,30851,9329,-50563,-10797
C00895=-34514,71307,31163,9276,-50639,-10739
C00896=-34514,71307,31163,9276,-50639,-10739
C00897=-34514,71307,31163,9276,-50639,-10739
C00898=-34514,71307,31163,9276,-50639,-10739
C00899=-34514,71307,31163,9276,-50639,-10739
C00900=-34514,71307,31163,9276,-50639,-10739
C00901=-34514,71307,31163,9276,-50639,-10739
C00902=-34514,71307,31163,9276,-50639,-10739
C00903=-34514,71307,31163,9276,-50639,-10739
C00904=-34514,71307,31163,9276,-50639,-10739
C00905=-34514,71307,31163,9276,-50639,-10739
C00906=-34514,71307,31163,9276,-50639,-10739
C00907=-34514,71307,31163,9276,-50639,-10739
C00908=-34514,71307,31163,9276,-50639,-10739
C00909=-34514,71307,31163,9276,-50639,-10739
C00910=-34514,71307,31163,9276,-50639,-10739
C00911=-34514,71307,31163,9276,-50639,-10739
C00912=-34514,71307,31163,9276,-50639,-10739
C00913=-34514,71307,31163,9276,-50639,-10739
C00914=-34514,71307,31163,9276,-50639,-10739
C00915=-34514,71307,31163,9276,-50639,-10739
C00916=-34514,71307,31163,9276,-50639,-10739
C00917=-34514,71307,31163,9276,-50639,-10739
C00918=-34514,71307,31163,9276,-50639,-10739
C00919=-34514,71307,31163,9276,-50639,-10739
C00920=-34514,71307,31163,9276,-50639,-10739
C00921=-34514,71307,31163,9276,-50639,-10739
C00922=-34514,71307,31163,9276,-50639,-10739
C00923=-34514,71307,31163,9276,-50639,-10739
C00924=-34514,71307,31163,9276,-50639,-10739
C00925=-34514,71307,31163,9276,-50639,-10739
C00926=-34514,71307,31163,9276,-50639,-10739
C00927=-34514,71307,31163,9276,-50639,-10739
C00928=-34514,71307,31163,9276,-50639,-10739
C00929=-34514,71307,31163,9276,-50639,-10739
C00930=-34514,71307,31163,9276,-50639,-10739
C00931=-34514,71307,31163,9276,-50639,-10739
C00932=-34514,71307,31163,9276,-50639,-10739
C00933=-34514,71307,31163,9276,-50639,-10739
C00934=-34514,71307,31163,9276,-50639,-10739
C00935=-34514,71307,31163,9276,-50639,-10739
C00936=-34514,71307,31163,9276,-50639,-10739
C00937=-34514,71307,31163,9276,-50639,-10739
C00938=-34514,71307,31163,9276,-50639,-10739
C00939=-34514,71307,31163,9276,-50639,-10739
C00940=-34514,71307,31163,9276,-50639,-10739
C00941=-34514,71307,31163,9276,-50639,-10739
C00942=-34514,71307,31163,9276,-50639,-10739
C00943=-34514,71307,31163,9276,-50639,-10739
C00944=-34514,71307,31163,9276,-50639,-10739
C00945=-34514,71307,31163,9276,-50639,-10739
C00946=-34514,71307,31163,9276,-50639,-10739
C00947=-34514,71307,31163,9276,-50639,-10739
C00948=-34514,71307,31163,9276,-50639,-10739
C00949=-34514,71307,31163,9276,-50639,-10739
C00950=-34514,71307,31163,9276,-50639,-10739
C00951=-34514,71307,31163,9276,-50639,-10739
C00952=-34514,71307,31163,9276,-50639,-10739
C00953=-34514,71307,31163,9276,-50639,-10739
C00954=-34514,71307,31163,9276,-50639,-10739
C00955=-34514,71307,31163,9276,-50639,-10739
C00956=-34514,71307,31163,9276,-50639,-10739
C00957=-34514,71307,31163,9276,-50639,-10739
C00958=-34514,71307,31163,9276,-50639,-10739
C00959=-34514,71307,31163,9276,-50639,-10739
C00960=-34514,71307,31163,9276,-50639,-10739
C00961=-34514,71307,31163,9276,-50639,-10739
C00962=-34514,71307,31163,9276,-50639,-10739
C00963=-34514,71307,31163,9276,-50639,-10739
C00964=-34514,71307,31163,9276,-50639,-10739
C00965=-34514,71307,31163,9276,-50639,-10739
C00966=-34514,71307,31163,9276,-50639,-10739
C00967=-34514,71307,31163,9276,-50639,-10739
C00968=-34514,71307,31163,9276,-50639,-10739
C00969=-34514,71307,31163,9276,-50639,-10739
C00970=-34514,71307,31163,9276,-50639,-10739
C00971=-34514,71307,31163,9276,-50639,-10739
C00972=-34514,71307,31163,9276,-50639,-10739
C00973=-34514,71307,31163,9276,-50639,-10739
C00974=-34514,71307,31163,9276,-50639,-10739
C00975=-34514,71307,31163,9276,-50639,-10739
C00976=-34514,71307,31163,9276,-50639,-10739
C00977=-34514,71307,31163,9276,-50639,-10739
C00978=-34514,71307,31163,9276,-50639,-10739
C00979=-34514,71307,31163,9276,-50639,-10739
C00980=-34514,71307,31163,9276,-50639,-10739
C00981=-34514,71307,31163,9276,-50639,-10739
C00982=-34514,71307,31163,9276,-50639,-10739
C00983=-34514,71307,31163,9276,-50639,-10739
C00984=-34514,71307,31163,9276,-50639,-10739
C00985=-34514,71307,31163,9276,-50639,-10739
C00986=-34514,71307,31163,9276,-50639,-10739
C00987=-34514,71307,31163,9276,-50639,-10739
C00988=-34514,71307,31163,9276,-50639,-10739
C00989=-34514,71307,31163,9276,-50639,-10739
C00990=-34514,71307,31163,9276,-50639,-10739
C00991=-34514,71307,31163,9276,-50639,-10739
C00992=-34514,71307,31163,9276,-50639,-10739
C00993=-34514,71307,31163,9276,-50639,-10739
C00994=-34514,71307,31163,9276,-50639,-10739
C00995=-34514,71307,31163,9276,-50639,-10739
C00996=-34514,71307,31163,9276,-50639,-10739
C00997=-34514,71307,31163,9276,-50639,-10739
C00998=-34514,71307,31163,9276,-50639,-10739
C00999=-34514,71307,31163,9276,-50639,-10739
C01000=-34514,71307,31163,9276,-50639,-10739
C01001=-34514,71307,31163,9276,-50639,-10739
C01002=-34514,71307,31163,9276,-50639,-10739
C01003=-34514,71307,31163,9276,-50639,-10739
C01004=-34514,71307,31163,9276,-50639,-10739
C01005=-34514,71307,31163,9276,-50639,-10739
C01006=-34514,71307,31163,9276,-50639,-10739
C01007=-34514,71307,31163,9276,-50639,-10739
C01008=-34514,71307,31163,9276,-50639,-10739
C01009=-34514,71307,31163,9276,-50639,-10739
C01010=-34514,71307,31163,9276,-50639,-10739
C01011=-34514,71307,31163,9276,-50639,-10739
C01012=-34514,71307,31163,9276,-50639,-10739
C01013=-34514,71307,31163,9276,-50639,-10739
C01014=-34514,71307,31163,9276,-50639,-10739
C01015=-34514,71307,31163,9276,-50639,-10739
C01016=-34514,71307,31163,9276,-50639,-10739
C01017=-34514,71307,31163,9276,-50639,-10739
C01018=-34514,71307,31163,9276,-50639,-10739
C01019=-34514,71307,31163,9276,-50639,-10739
C01020=-34514,71307,31163,9276,-50639,-10739
C01021=-34514,71307,31163,9276,-50639,-10739
C01022=-34514,71307,31163,9276,-50639,-10739
C01023=-34514,71307,31163,9276,-50639,-10739
C01024=-34514,71307,31163,9276,-50639,-10739
C01025=-34514,71307,31163,9276,-50639,-10739
C01026=-34514,71307,31163,9276,-50639,-10739
C01027=-34514,71307,31163,9276,-50639,-10739
C01028=-34514,71307,31163,9276,-50639,-10739
C01029=-34514,71307,31163,9276,-50639,-10739
C01030=-34514,71307,31163,9276,-50639,-10739
C01031=-34514,71307,31163,9276,-50639,-10739
C01032=-34514,71307,31163,9276,-50639,-10739
C01033=-34514,71307,31163,9276,-50639,-10739
C01034=-34514,71307,31163,9276,-50639,-10739
C01035=-34514,71307,31163,9276,-50639,-10739
C01036=-34514,71307,31163,9276,-50639,-10739
C01037=-34514,71307,31163,9276,-50639,-10739
C01038=-34514,71307,31163,9276,-50639,-10739
C01039=-34514,71307,31163,9276,-50639,-10739
C01040=-34514,71307,31163,9276,-50639,-10739
C01041=-34514,71307,31163,9276,-50639,-10739
C01042=-34514,71307,31163,9276,-50639,-10739
C01043=-34514,71307,31163,9276,-50639,-10739
C01044=-34514,71307,31163,9276,-50639,-10739
C01045=-34514,71307,31163,9276,-50639,-10739
C01046=-34514,71307,31163,9276,-50639,-10739
C01047=-34514,71307,31163,9276,-50639,-10739
C01048=-34514,71307,31163,9276,-50639,-10739
C01049=-34514,71307,31163,9276,-50639,-10739
C01050=-34514,71307,31163,9276,-50639,-10739
C01051=-34514,71307,31163,9276,-50639,-10739
C01052=-34514,71307,31163,9276,-50639,-10739
C01053=-34514,71307,31163,9276,-50639,-10739
C01054=-34514,71307,31163,9276,-50639,-10739
C01055=-34514,71307,31163,9276,-50639,-10739
C01056=-34514,71307,31163,9276,-50639,-10739
C01057=-34514,71307,31163,9276,-50639,-10739
C01058=-34514,71307,31163,9276,-50639,-10739
C01059=-34514,71307,31163,9276,-50639,-10739
C01060=-34514,71307,31163,9276,-50639,-10739
C01061=-34514,71307,31163,9276,-50639,-10739
C01062=-34514,71307,31163,9276,-50639,-10739
C01063=-34514,71307,31163,9276,-50639,-10739
C01064=-34514,71307,31163,9276,-50639,-10739
C01065=-34514,71307,31163,9276,-50639,-10739
C01066=-34514,71307,31163,9276,-50639,-10739
C01067=-34514,71307,31163,9276,-50639,-10739
C01068=-34514,71307,31163,9276,-50639,-10739
C01069=-34514,71307,31163,9276,-50639,-10739
C01070=-34514,71307,31163,9276,-50639,-10739
C01071=-34514,71307,31163,9276,-50639,-10739
C01072=-34514,71307,31163,9276,-50639,-10739
C01073=-34514,71307,31163,9276,-50639,-10739
C01074=-34514,71307,31163,9276,-50639,-10739
C01075=-34638,71506,31475,9223,-50714,-10680
C01076=-34638,71506,31475,9223,-50714,-10680
C01077=-34638,71506,31475,9223,-50714,-10680
C01078=-34638,71506,31475,9223,-50714,-10680
C01079=-34638,71506,31475,9223,-50714,-10680
C01080=-34638,71506,31475,9223,-50714,-10680
C01081=-34638,71506,31475,9223,-50714,-10680
C01082=-34638,71506,31475,9223,-50714,-10680
C01083=-34638,71506,31475,9223,-50714,-10680
C01084=-34638,71506,31475,9223,-50714,-10680
C01085=-34638,71506,31475,9223,-50714,-10680
C01086=-34638,71506,31475,9223,-50714,-10680
C01087=-34638,71506,31475,9223,-50714,-10680
C01088=-34638,71506,31475,9223,-50714,-10680
C01089=-34638,71506,31475,9223,-50714,-10680
C01090=-34638,71506,31475,9223,-50714,-10680
C01091=-34638,71506,31475,9223,-50714,-10680
C01092=-34638,71506,31475,9223,-50714,-10680
C01093=-34638,71506,31475,9223,-50714,-10680
C01094=-34638,71506,31475,9223,-50714,-10680
C01095=-34638,71506,31475,9223,-50714,-10680
C01096=-34638,71506,31475,9223,-50714,-10680
C01097=-34638,71506,31475,9223,-50714,-10680
C01098=-34638,71506,31475,9223,-50714,-10680
C01099=-34638,71506,31475,9223,-50714,-10680
C01100=-34638,71506,31475,9223,-50714,-10680
C01101=-34638,71506,31475,9223,-50714,-10680
C01102=-34638,71506,31475,9223,-50714,-10680
C01103=-34638,71506,31475,9223,-50714,-10680
C01104=-34638,71506,31475,9223,-50714,-10680
C01105=-34638,71506,31475,9223,-50714,-10680
C01106=-34638,71506,31475,9223,-50714,-10680
C01107=-34638,71506,31475,9223,-50714,-10680
C01108=-34638,71506,31475,9223,-50714,-10680
C01109=-34638,71506,31475,9223,-50714,-10680
C01110=-34638,71506,31475,9223,-50714,-10680
C01111=-34638,71506,31475,9223,-50714,-10680
C01112=-34638,71506,31475,9223,-50714,-10680
C01113=-34638,71506,31475,9223,-50714,-10680
C01114=-34638,71506,31475,9223,-50714,-10680
C01115=-34638,71506,31475,9223,-50714,-10680
C01116=-34638,71506,31475,9223,-50714,-10680
C01117=-34638,71506,31475,9223,-50714,-10680
C01118=-34638,71506,31475,9223,-50714,-10680
C01119=-34638,71506,31475,9223,-50714,-10680
C01120=-34638,71506,31475,9223,-50714,-10680
C01121=-34638,71506,31475,9223,-50714,-10680
C01122=-34638,71506,31475,9223,-50714,-10680
C01123=-34638,71506,31475,9223,-50714,-10680
C01124=-34638,71506,31475,9223,-50714,-10680
C01125=-34638,71506,31475,9223,-50714,-10680
C01126=-34638,71506,31475,9223,-50714,-10680
C01127=-34638,71506,31475,9223,-50714,-10680
C01128=-34638,71506,31475,9223,-50714,-10680
C01129=-34638,71506,31475,9223,-50714,-10680
C01130=-34638,71506,31475,9223,-50714,-10680
C01131=-34638,71506,31475,9223,-50714,-10680
C01132=-34638,71506,31475,9223,-50714,-10680
C01133=-34638,71506,31475,9223,-50714,-10680
C01134=-34638,71506,31475,9223,-50714,-10680
C01135=-34638,71506,31475,9223,-50714,-10680
C01136=-34638,71506,31475,9223,-50714,-10680
C01137=-34638,71506,31475,9223,-50714,-10680
C01138=-34638,71506,31475,9223,-50714,-10680
C01139=-34638,71506,31475,9223,-50714,-10680
C01140=-34638,71506,31475,9223,-50714,-10680
C01141=-34638,71506,31475,9223,-50714,-10680
C01142=-34638,71506,31475,9223,-50714,-10680
C01143=-34638,71506,31475,9223,-50714,-10680
C01144=-34638,71506,31475,9223,-50714,-10680
C01145=-34638,71506,31475,9223,-50714,-10680
C01146=-34638,71506,31475,9223,-50714,-10680
C01147=-34638,71506,31475,9223,-50714,-10680
C01148=-34638,71506,31475,9223,-50714,-10680
C01149=-34638,71506,31475,9223,-50714,-10680
C01150=-34638,71506,31475,9223,-50714,-10680
C01151=-34638,71506,31475,9223,-50714,-10680
C01152=-34638,71506,31475,9223,-50714,-10680
C01153=-34638,71506,31475,9223,-50714,-10680
C01154=-34638,71506,31475,9223,-50714,-10680
C01155=-34638,71506,31475,9223,-50714,-10680
C01156=-34638,71506,31475,9223,-50714,-10680
C01157=-34638,71506,31475,9223,-50714,-10680
C01158=-34638,71506,31475,9223,-50714,-10680
C01159=-34638,71506,31475,9223,-50714,-10680
C01160=-34638,71506,31475,9223,-50714,-10680
C01161=-34638,71506,31475,9223,-50714,-10680
C01162=-34638,71506,31475,9223,-50714,-10680
C01163=-34638,71506,31475,9223,-50714,-10680
C01164=-34638,71506,31475,9223,-50714,-10680
C01165=-34638,71506,31475,9223,-50714,-10680
C01166=-34638,71506,31475,9223,-50714,-10680
C01167=-34638,71506,31475,9223,-50714,-10680
C01168=-34638,71506,31475,9223,-50714,-10680
C01169=-34638,71506,31475,9223,-50714,-10680
C01170=-34638,71506,31475,9223,-50714,-10680
C01171=-34638,71506,31475,9223,-50714,-10680
C01172=-34638,71506,31475,9223,-50714,-10680
C01173=-34638,71506,31475,9223,-50714,-10680
C01174=-34638,71506,31475,9223,-50714,-10680
C01175=-34638,71506,31475,9223,-50714,-10680
C01176=-34638,71506,31475,9223,-50714,-10680
C01177=-34638,71506,31475,9223,-50714,-10680
C01178=-34638,71506,31475,9223,-50714,-10680
C01179=-34638,71506,31475,9223,-50714,-10680
C01180=-34638,71506,31475,9223,-50714,-10680
C01181=-34638,71506,31475,9223,-50714,-10680
C01182=-34638,71506,31475,9223,-50714,-10680
C01183=-34638,71506,31475,9223,-50714,-10680
C01184=-34638,71506,31475,9223,-50714,-10680
C01185=-34638,71506,31475,9223,-50714,-10680
C01186=-34638,71506,31475,9223,-50714,-10680
C01187=-34638,71506,31475,9223,-50714,-10680
C01188=-34638,71506,31475,9223,-50714,-10680
C01189=-34638,71506,31475,9223,-50714,-10680
C01190=-34638,71506,31475,9223,-50714,-10680
C01191=-34638,71506,31475,9223,-50714,-10680
C01192=-34638,71506,31475,9223,-50714,-10680
C01193=-34638,71506,31475,9223,-50714,-10680
C01194=-34638,71506,31475,9223,-50714,-10680
C01195=-34638,71506,31475,9223,-50714,-10680
C01196=-34638,71506,31475,9223,-50714,-10680
C01197=-34638,71506,31475,9223,-50714,-10680
C01198=-34638,71506,31475,9223,-50714,-10680
C01199=-34638,71506,31475,9223,-50714,-10680
C01200=-34638,71506,31475,9223,-50714,-10680
C01201=-34638,71506,31475,9223,-50714,-10680
C01202=-34638,71506,31475,9223,-50714,-10680
C01203=-34638,71506,31475,9223,-50714,-10680
C01204=-34638,71506,31475,9223,-50714,-10680
C01205=-34638,71506,31475,9223,-50714,-10680
C01206=-34638,71506,31475,9223,-50714,-10680
C01207=-34638,71506,31475,9223,-50714,-10680
C01208=-34638,71506,31475,9223,-50714,-10680
C01209=-34638,71506,31475,9223,-50714,-10680
C01210=-34638,71506,31475,9223,-50714,-10680
C01211=-34638,71506,31475,9223,-50714,-10680
C01212=-34638,71506,31475,9223,-50714,-10680
C01213=-34638,71506,31475,9223,-50714,-10680
C01214=-34638,71506,31475,9223,-50714,-10680
C01215=-34638,71506,31475,9223,-50714,-10680
C01216=-34638,71506,31475,9223,-50714,-10680
C01217=-34638,71506,31475,9223,-50714,-10680
C01218=-34638,71506,31475,9223,-50714,-10680
C01219=-34638,71506,31475,9223,-50714,-10680
C01220=-34638,71506,31475,9223,-50714,-10680
C01221=-34638,71506,31475,9223,-50714,-10680
C01222=-34638,71506,31475,9223,-50714,-10680
C01223=-34638,71506,31475,9223,-50714,-10680
C01224=-34638,71506,31475,9223,-50714,-10680
C01225=-34638,71506,31475,9223,-50714,-10680
C01226=-34638,71506,31475,9223,-50714,-10680
C01227=-34638,71506,31475,9223,-50714,-10680
C01228=-34638,71506,31475,9223,-50714,-10680
C01229=-34638,71506,31475,9223,-50714,-10680
C01230=-34638,71506,31475,9223,-50714,-10680
C01231=-34638,71506,31475,9223,-50714,-10680
C01232=-34638,71506,31475,9223,-50714,-10680
C01233=-34638,71506,31475,9223,-50714,-10680
C01234=-34638,71506,31475,9223,-50714,-10680
C01235=-34638,71506,31475,9223,-50714,-10680
C01236=-34638,71506,31475,9223,-50714,-10680
C01237=-34638,71506,31475,9223,-50714,-10680
C01238=-34638,71506,31475,9223,-50714,-10680
C01239=-34638,71506,31475,9223,-50714,-10680
C01240=-34638,71506,31475,9223,-50714,-10680
C01241=-34638,71506,31475,9223,-50714,-10680
C01242=-34638,71506,31475,9223,-50714,-10680
C01243=-34638,71506,31475,9223,-50714,-10680
C01244=-34638,71506,31475,9223,-50714,-10680
C01245=-34638,71506,31475,9223,-50714,-10680
C01246=-34638,71506,31475,9223,-50714,-10680
C01247=-34638,71506,31475,9223,-50714,-10680
C01248=-34638,71506,31475,9223,-50714,-10680
C01249=-34638,71506,31475,9223,-50714,-10680
C01250=-34638,71506,31475,9223,-50714,-10680
C01251=-34638,71506,31475,9223,-50714,-10680
C01252=-34638,71506,31475,9223,-50714,-10680
C01253=-34638,71506,31475,9223,-50714,-10680
C01254=-34638,71506,31475,9223,-50714,-10680
C01255=-34638,71506,31475,9223,-50714,-10680
C01256=-34762,71708,31789,9170,-50789,-10621
C01257=-34762,71708,31789,9170,-50789,-10621
C01258=-34762,71708,31789,9170,-50789,-10621
C01259=-34762,71708,31789,9170,-50789,-10621
C01260=-34762,71708,31789,9170,-50789,-10621
C01261=-34762,71708,31789,9170,-50789,-10621
C01262=-34762,71708,31789,9170,-50789,-10621
C01263=-34762,71708,31789,9170,-50789,-10621
C01264=-34762,71708,31789,9170,-50789,-10621
C01265=-34762,71708,31789,9170,-50789,-10621
C01266=-34762,71708,31789,9170,-50789,-10621
C01267=-34762,71708,31789,9170,-50789,-10621
C01268=-34762,71708,31789,9170,-50789,-10621
C01269=-34762,71708,31789,9170,-50789,-10621
C01270=-34762,71708,31789,9170,-50789,-10621
C01271=-34762,71708,31789,9170,-50789,-10621
C01272=-34762,71708,31789,9170,-50789,-10621
C01273=-34762,71708,31789,9170,-50789,-10621
C01274=-34762,71708,31789,9170,-50789,-10621
C01275=-34762,71708,31789,9170,-50789,-10621
C01276=-34762,71708,31789,9170,-50789,-10621
C01277=-34762,71708,31789,9170,-50789,-10621
C01278=-34762,71708,31789,9170,-50789,-10621
C01279=-34762,71708,31789,9170,-50789,-10621
C01280=-34762,71708,31789,9170,-50789,-10621
C01281=-34762,71708,31789,9170,-50789,-10621
C01282=-34762,71708,31789,9170,-50789,-10621
C01283=-34762,71708,31789,9170,-50789,-10621
C01284=-34762,71708,31789,9170,-50789,-10621
C01285=-34762,71708,31789,9170,-50789,-10621
C01286=-34762,71708,31789,9170,-50789,-10621
C01287=-34762,71708,31789,9170,-50789,-10621
C01288=-34762,71708,31789,9170,-50789,-10621
C01289=-34762,71708,31789,9170,-50789,-10621
C01290=-34762,71708,31789,9170,-50789,-10621
C01291=-34762,71708,31789,9170,-50789,-10621
C01292=-34762,71708,31789,9170,-50789,-10621
C01293=-34762,71708,31789,9170,-50789,-10621
C01294=-34762,71708,31789,9170,-50789,-10621
C01295=-34762,71708,31789,9170,-50789,-10621
C01296=-34762,71708,31789,9170,-50789,-10621
C01297=-34762,71708,31789,9170,-50789,-10621
C01298=-34762,71708,31789,9170,-50789,-10621
C01299=-34762,71708,31789,9170,-50789,-10621
C01300=-34762,71708,31789,9170,-50789,-10621
C01301=-34762,71708,31789,9170,-50789,-10621
C01302=-34762,71708,31789,9170,-50789,-10621
C01303=-34762,71708,31789,9170,-50789,-10621
C01304=-34762,71708,31789,9170,-50789,-10621
C01305=-34762,71708,31789,9170,-50789,-10621
C01306=-34762,71708,31789,9170,-50789,-10621
C01307=-34762,71708,31789,9170,-50789,-10621
C01308=-34762,71708,31789,9170,-50789,-10621
C01309=-34762,71708,31789,9170,-50789,-10621
C01310=-34762,71708,31789,9170,-50789,-10621
C01311=-34762,71708,31789,9170,-50789,-10621
C01312=-34762,71708,31789,9170,-50789,-10621
C01313=-34762,71708,31789,9170,-50789,-10621
C01314=-34762,71708,31789,9170,-50789,-10621
C01315=-34762,71708,31789,9170,-50789,-10621
C01316=-34762,71708,31789,9170,-50789,-10621
C01317=-34762,71708,31789,9170,-50789,-10621
C01318=-34762,71708,31789,9170,-50789,-10621
C01319=-34762,71708,31789,9170,-50789,-10621
C01320=-34762,71708,31789,9170,-50789,-10621
C01321=-34762,71708,31789,9170,-50789,-10621
C01322=-34762,71708,31789,9170,-50789,-10621
C01323=-34762,71708,31789,9170,-50789,-10621
C01324=-34762,71708,31789,9170,-50789,-10621
C01325=-34762,71708,31789,9170,-50789,-10621
C01326=-34762,71708,31789,9170,-50789,-10621
C01327=-34762,71708,31789,9170,-50789,-10621
C01328=-34762,71708,31789,9170,-50789,-10621
C01329=-34762,71708,31789,9170,-50789,-10621
C01330=-34762,71708,31789,9170,-50789,-10621
C01331=-34762,71708,31789,9170,-50789,-10621
C01332=-34762,71708,31789,9170,-50789,-10621
C01333=-34762,71708,31789,9170,-50789,-10621
C01334=-34762,71708,31789,9170,-50789,-10621
C01335=-34762,71708,31789,9170,-50789,-10621
C01336=-34762,71708,31789,9170,-50789,-10621
C01337=-34762,71708,31789,9170,-50789,-10621
C01338=-34762,71708,31789,9170,-50789,-10621
C01339=-34762,71708,31789,9170,-50789,-10621
C01340=-34762,71708,31789,9170,-50789,-10621
C01341=-34762,71708,31789,9170,-50789,-10621
C01342=-34762,71708,31789,9170,-50789,-10621
C01343=-34762,71708,31789,9170,-50789,-10621
C01344=-34762,71708,31789,9170,-50789,-10621
C01345=-34762,71708,31789,9170,-50789,-10621
C01346=-34762,71708,31789,9170,-50789,-10621
C01347=-34762,71708,31789,9170,-50789,-10621
C01348=-34762,71708,31789,9170,-50789,-10621
C01349=-34762,71708,31789,9170,-50789,-10621
C01350=-34762,71708,31789,9170,-50789,-10621
C01351=-34762,71708,31789,9170,-50789,-10621
C01352=-34762,71708,31789,9170,-50789,-10621
C01353=-34762,71708,31789,9170,-50789,-10621
C01354=-34762,71708,31789,9170,-50789,-10621
C01355=-34762,71708,31789,9170,-50789,-10621
C01356=-34762,71708,31789,9170,-50789,-10621
C01357=-34762,71708,31789,9170,-50789,-10621
C01358=-34762,71708,31789,9170,-50789,-10621
C01359=-34762,71708,31789,9170,-50789,-10621
C01360=-34762,71708,31789,9170,-50789,-10621
C01361=-34762,71708,31789,9170,-50789,-10621
C01362=-34762,71708,31789,9170,-50789,-10621
C01363=-34762,71708,31789,9170,-50789,-10621
C01364=-34762,71708,31789,9170,-50789,-10621
C01365=-34762,71708,31789,9170,-50789,-10621
C01366=-34762,71708,31789,9170,-50789,-10621
C01367=-34762,71708,31789,9170,-50789,-10621
C01368=-34762,71708,31789,9170,-50789,-10621
C01369=-34762,71708,31789,9170,-50789,-10621
C01370=-34762,71708,31789,9170,-50789,-10621
C01371=-34762,71708,31789,9170,-50789,-10621
C01372=-34762,71708,31789,9170,-50789,-10621
C01373=-34762,71708,31789,9170,-50789,-10621
C01374=-34762,71708,31789,9170,-50789,-10621
C01375=-34762,71708,31789,9170,-50789,-10621
C01376=-34762,71708,31789,9170,-50789,-10621
C01377=-34762,71708,31789,9170,-50789,-10621
C01378=-34762,71708,31789,9170,-50789,-10621
C01379=-34762,71708,31789,9170,-50789,-10621
C01380=-34762,71708,31789,9170,-50789,-10621
C01381=-34762,71708,31789,9170,-50789,-10621
C01382=-34762,71708,31789,9170,-50789,-10621
C01383=-34762,71708,31789,9170,-50789,-10621
C01384=-34762,71708,31789,9170,-50789,-10621
C01385=-34762,71708,31789,9170,-50789,-10621
C01386=-34762,71708,31789,9170,-50789,-10621
C01387=-34762,71708,31789,9170,-50789,-10621
C01388=-34762,71708,31789,9170,-50789,-10621
C01389=-34762,71708,31789,9170,-50789,-10621
C01390=-34762,71708,31789,9170,-50789,-10621
C01391=-34762,71708,31789,9170,-50789,-10621
C01392=-34762,71708,31789,9170,-50789,-10621
C01393=-34762,71708,31789,9170,-50789,-10621
C01394=-34762,71708,31789,9170,-50789,-10621
C01395=-34762,71708,31789,9170,-50789,-10621
C01396=-34762,71708,31789,9170,-50789,-10621
C01397=-34762,71708,31789,9170,-50789,-10621
C01398=-34762,71708,31789,9170,-50789,-10621
C01399=-34762,71708,31789,9170,-50789,-10621
C01400=-34762,71708,31789,9170,-50789,-10621
C01401=-34762,71708,31789,9170,-50789,-10621
C01402=-34762,71708,31789,9170,-50789,-10621
C01403=-34762,71708,31789,9170,-50789,-10621
C01404=-34762,71708,31789,9170,-50789,-10621
C01405=-34762,71708,31789,9170,-50789,-10621
C01406=-34762,71708,31789,9170,-50789,-10621
C01407=-34762,71708,31789,9170,-50789,-10621
C01408=-34762,71708,31789,9170,-50789,-10621
C01409=-34762,71708,31789,9170,-50789,-10621
C01410=-34762,71708,31789,9170,-50789,-10621
C01411=-34762,71708,31789,9170,-50789,-10621
C01412=-34762,71708,31789,9170,-50789,-10621
C01413=-34762,71708,31789,9170,-50789,-10621
C01414=-34762,71708,31789,9170,-50789,-10621
C01415=-34762,71708,31789,9170,-50789,-10621
C01416=-34762,71708,31789,9170,-50789,-10621
C01417=-34762,71708,31789,9170,-50789,-10621
C01418=-34762,71708,31789,9170,-50789,-10621
C01419=-34762,71708,31789,9170,-50789,-10621
C01420=-34762,71708,31789,9170,-50789,-10621
C01421=-34762,71708,31789,9170,-50789,-10621
C01422=-34762,71708,31789,9170,-50789,-10621
C01423=-34762,71708,31789,9170,-50789,-10621
C01424=-34762,71708,31789,9170,-50789,-10621
C01425=-34762,71708,31789,9170,-50789,-10621
C01426=-34762,71708,31789,9170,-50789,-10621
C01427=-34762,71708,31789,9170,-50789,-10621
C01428=-34762,71708,31789,9170,-50789,-10621
C01429=-34762,71708,31789,9170,-50789,-10621
C01430=-34762,71708,31789,9170,-50789,-10621
C01431=-34762,71708,31789,9170,-50789,-10621
C01432=-34762,71708,31789,9170,-50789,-10621
C01433=-34762,71708,31789,9170,-50789,-10621
C01434=-34762,71708,31789,9170,-50789,-10621
C01435=-34762,71708,31789,9170,-50789,-10621
C01436=-34762,71708,31789,9170,-50789,-10621
C01437=-34886,71912,32103,9117,-50863,-10563
C01438=-34886,71912,32103,9117,-50863,-10563
C01439=-34886,71912,32103,9117,-50863,-10563
C01440=-34886,71912,32103,9117,-50863,-10563
C01441=-34886,71912,32103,9117,-50863,-10563
C01442=-34886,71912,32103,9117,-50863,-10563
C01443=-34886,71912,32103,9117,-50863,-10563
C01444=-34886,71912,32103,9117,-50863,-10563
C01445=-34886,71912,32103,9117,-50863,-10563
C01446=-34886,71912,32103,9117,-50863,-10563
C01447=-34886,71912,32103,9117,-50863,-10563
C01448=-34886,71912,32103,9117,-50863,-10563
C01449=-34886,71912,32103,9117,-50863,-10563
C01450=-34886,71912,32103,9117,-50863,-10563
C01451=-34886,71912,32103,9117,-50863,-10563
C01452=-34886,71912,32103,9117,-50863,-10563
C01453=-34886,71912,32103,9117,-50863,-10563
C01454=-34886,71912,32103,9117,-50863,-10563
C01455=-34886,71912,32103,9117,-50863,-10563
C01456=-34886,71912,32103,9117,-50863,-10563
C01457=-34886,71912,32103,9117,-50863,-10563
C01458=-34886,71912,32103,9117,-50863,-10563
C01459=-34886,71912,32103,9117,-50863,-10563
C01460=-34886,71912,32103,9117,-50863,-10563
C01461=-34886,71912,32103,9117,-50863,-10563
C01462=-34886,71912,32103,9117,-50863,-10563
C01463=-34886,71912,32103,9117,-50863,-10563
C01464=-34886,71912,32103,9117,-50863,-10563
C01465=-34886,71912,32103,9117,-50863,-10563
C01466=-34886,71912,32103,9117,-50863,-10563
C01467=-34886,71912,32103,9117,-50863,-10563
C01468=-34886,71912,32103,9117,-50863,-10563
C01469=-34886,71912,32103,9117,-50863,-10563
C01470=-34886,71912,32103,9117,-50863,-10563
C01471=-34886,71912,32103,9117,-50863,-10563
C01472=-34886,71912,32103,9117,-50863,-10563
C01473=-34886,71912,32103,9117,-50863,-10563
C01474=-34886,71912,32103,9117,-50863,-10563
C01475=-34886,71912,32103,9117,-50863,-10563
C01476=-34886,71912,32103,9117,-50863,-10563
C01477=-34886,71912,32103,9117,-50863,-10563
C01478=-34886,71912,32103,9117,-50863,-10563
C01479=-34886,71912,32103,9117,-50863,-10563
C01480=-34886,71912,32103,9117,-50863,-10563
C01481=-34886,71912,32103,9117,-50863,-10563
C01482=-34886,71912,32103,9117,-50863,-10563
C01483=-34886,71912,32103,9117,-50863,-10563
C01484=-34886,71912,32103,9117,-50863,-10563
C01485=-34886,71912,32103,9117,-50863,-10563
C01486=-34886,71912,32103,9117,-50863,-10563
C01487=-34886,71912,32103,9117,-50863,-10563
C01488=-34886,71912,32103,9117,-50863,-10563
C01489=-34886,71912,32103,9117,-50863,-10563
C01490=-34886,71912,32103,9117,-50863,-10563
C01491=-34886,71912,32103,9117,-50863,-10563
C01492=-34886,71912,32103,9117,-50863,-10563
C01493=-34886,71912,32103,9117,-50863,-10563
C01494=-34886,71912,32103,9117,-50863,-10563
C01495=-34886,71912,32103,9117,-50863,-10563
C01496=-34886,71912,32103,9117,-50863,-10563
C01497=-34886,71912,32103,9117,-50863,-10563
C01498=-34886,71912,32103,9117,-50863,-10563
C01499=-34886,71912,32103,9117,-50863,-10563
C01500=-34886,71912,32103,9117,-50863,-10563
C01501=-34886,71912,32103,9117,-50863,-10563
C01502=-34886,71912,32103,9117,-50863,-10563
C01503=-34886,71912,32103,9117,-50863,-10563
C01504=-34886,71912,32103,9117,-50863,-10563
C01505=-34886,71912,32103,9117,-50863,-10563
C01506=-34886,71912,32103,9117,-50863,-10563
C01507=-34886,71912,32103,9117,-50863,-10563
C01508=-34886,71912,32103,9117,-50863,-10563
C01509=-34886,71912,32103,9117,-50863,-10563
C01510=-34886,71912,32103,9117,-50863,-10563
C01511=-34886,71912,32103,9117,-50863,-10563
C01512=-34886,71912,32103,9117,-50863,-10563
C01513=-34886,71912,32103,9117,-50863,-10563
C01514=-34886,71912,32103,9117,-50863,-10563
C01515=-34886,71912,32103,9117,-50863,-10563
C01516=-34886,71912,32103,9117,-50863,-10563
C01517=-34886,71912,32103,9117,-50863,-10563
C01518=-34886,71912,32103,9117,-50863,-10563
C01519=-34886,71912,32103,9117,-50863,-10563
C01520=-34886,71912,32103,9117,-50863,-10563
C01521=-34886,71912,32103,9117,-50863,-10563
C01522=-34886,71912,32103,9117,-50863,-10563
C01523=-34886,71912,32103,9117,-50863,-10563
C01524=-34886,71912,32103,9117,-50863,-10563
C01525=-34886,71912,32103,9117,-50863,-10563
C01526=-34886,71912,32103,9117,-50863,-10563
C01527=-34886,71912,32103,9117,-50863,-10563
C01528=-34886,71912,32103,9117,-50863,-10563
C01529=-34886,71912,32103,9117,-50863,-10563
C01530=-34886,71912,32103,9117,-50863,-10563
C01531=-34886,71912,32103,9117,-50863,-10563
C01532=-34886,71912,32103,9117,-50863,-10563
C01533=-34886,71912,32103,9117,-50863,-10563
C01534=-34886,71912,32103,9117,-50863,-10563
C01535=-34886,71912,32103,9117,-50863,-10563
C01536=-34886,71912,32103,9117,-50863,-10563
C01537=-34886,71912,32103,9117,-50863,-10563
C01538=-34886,71912,32103,9117,-50863,-10563
C01539=-34886,71912,32103,9117,-50863,-10563
C01540=-34886,71912,32103,9117,-50863,-10563
C01541=-34886,71912,32103,9117,-50863,-10563
C01542=-34886,71912,32103,9117,-50863,-10563
C01543=-34886,71912,32103,9117,-50863,-10563
C01544=-34886,71912,32103,9117,-50863,-10563
C01545=-34886,71912,32103,9117,-50863,-10563
C01546=-34886,71912,32103,9117,-50863,-10563
C01547=-34886,71912,32103,9117,-50863,-10563
C01548=-34886,71912,32103,9117,-50863,-10563
C01549=-34886,71912,32103,9117,-50863,-10563
C01550=-34886,71912,32103,9117,-50863,-10563
C01551=-34886,71912,32103,9117,-50863,-10563
C01552=-34886,71912,32103,9117,-50863,-10563
C01553=-34886,71912,32103,9117,-50863,-10563
C01554=-34886,71912,32103,9117,-50863,-10563
C01555=-34886,71912,32103,9117,-50863,-10563
C01556=-34886,71912,32103,9117,-50863,-10563
C01557=-34886,71912,32103,9117,-50863,-10563
C01558=-34886,71912,32103,9117,-50863,-10563
C01559=-34886,71912,32103,9117,-50863,-10563
C01560=-34886,71912,32103,9117,-50863,-10563
C01561=-34886,71912,32103,9117,-50863,-10563
C01562=-34886,71912,32103,9117,-50863,-10563
C01563=-34886,71912,32103,9117,-50863,-10563
C01564=-34886,71912,32103,9117,-50863,-10563
C01565=-34886,71912,32103,9117,-50863,-10563
C01566=-34886,71912,32103,9117,-50863,-10563
C01567=-34886,71912,32103,9117,-50863,-10563
C01568=-34886,71912,32103,9117,-50863,-10563
C01569=-34886,71912,32103,9117,-50863,-10563
C01570=-34886,71912,32103,9117,-50863,-10563
C01571=-34886,71912,32103,9117,-50863,-10563
C01572=-34886,71912,32103,9117,-50863,-10563
C01573=-34886,71912,32103,9117,-50863,-10563
C01574=-34886,71912,32103,9117,-50863,-10563
C01575=-34886,71912,32103,9117,-50863,-10563
C01576=-34886,71912,32103,9117,-50863,-10563
C01577=-34886,71912,32103,9117,-50863,-10563
C01578=-34886,71912,32103,9117,-50863,-10563
C01579=-34886,71912,32103,9117,-50863,-10563
C01580=-34886,71912,32103,9117,-50863,-10563
C01581=-34886,71912,32103,9117,-50863,-10563
C01582=-34886,71912,32103,9117,-50863,-10563
C01583=-34886,71912,32103,9117,-50863,-10563
C01584=-34886,71912,32103,9117,-50863,-10563
C01585=-34886,71912,32103,9117,-50863,-10563
C01586=-34886,71912,32103,9117,-50863,-10563
C01587=-34886,71912,32103,9117,-50863,-10563
C01588=-34886,71912,32103,9117,-50863,-10563
C01589=-34886,71912,32103,9117,-50863,-10563
C01590=-34886,71912,32103,9117,-50863,-10563
C01591=-34886,71912,32103,9117,-50863,-10563
C01592=-34886,71912,32103,9117,-50863,-10563
C01593=-34886,71912,32103,9117,-50863,-10563
C01594=-34886,71912,32103,9117,-50863,-10563
C01595=-34886,71912,32103,9117,-50863,-10563
C01596=-34886,71912,32103,9117,-50863,-10563
C01597=-34886,71912,32103,9117,-50863,-10563
C01598=-34886,71912,32103,9117,-50863,-10563
C01599=-34886,71912,32103,9117,-50863,-10563
C01600=-34886,71912,32103,9117,-50863,-10563
C01601=-34886,71912,32103,9117,-50863,-10563
C01602=-34886,71912,32103,9117,-50863,-10563
C01603=-34886,71912,32103,9117,-50863,-10563
C01604=-34886,71912,32103,9117,-50863,-10563
C01605=-34886,71912,32103,9117,-50863,-10563
C01606=-34886,71912,32103,9117,-50863,-10563
C01607=-34886,71912,32103,9117,-50863,-10563
C01608=-34886,71912,32103,9117,-50863,-10563
C01609=-34886,71912,32103,9117,-50863,-10563
C01610=-34886,71912,32103,9117,-50863,-10563
C01611=-34886,71912,32103,9117,-50863,-10563
C01612=-34886,71912,32103,9117,-50863,-10563
C01613=-34886,71912,32103,9117,-50863,-10563
C01614=-34886,71912,32103,9117,-50863,-10563
C01615=-34886,71912,32103,9117,-50863,-10563
C01616=-34886,71912,32103,9117,-50863,-10563
C01617=-34886,71912,32103,9117,-50863,-10563
C01618=-34886,71912,32103,9117,-50863,-10563
C01619=-35010,72119,32418,9065,-50936,-10505
C01620=-35010,72119,32418,9065,-50936,-10505
C01621=-35010,72119,32418,9065,-50936,-10505
C01622=-35010,72119,32418,9065,-50936,-10505
C01623=-35010,72119,32418,9065,-50936,-10505
C01624=-35010,72119,32418,9065,-50936,-10505
C01625=-35010,72119,32418,9065,-50936,-10505
C01626=-35010,72119,32418,9065,-50936,-10505
C01627=-35010,72119,32418,9065,-50936,-10505
C01628=-35010,72119,32418,9065,-50936,-10505
C01629=-35010,72119,32418,9065,-50936,-10505
C01630=-35010,72119,32418,9065,-50936,-10505
C01631=-35010,72119,32418,9065,-50936,-10505
C01632=-35010,72119,32418,9065,-50936,-10505
C01633=-35010,72119,32418,9065,-50936,-10505
C01634=-35010,72119,32418,9065,-50936,-10505
C01635=-35010,72119,32418,9065,-50936,-10505
C01636=-35010,72119,32418,9065,-50936,-10505
C01637=-35010,72119,32418,9065,-50936,-10505
C01638=-35010,72119,32418,9065,-50936,-10505
C01639=-35010,72119,32418,9065,-50936,-10505
C01640=-35010,72119,32418,9065,-50936,-10505
C01641=-35010,72119,32418,9065,-50936,-10505
C01642=-35010,72119,32418,9065,-50936,-10505
C01643=-35010,72119,32418,9065,-50936,-10505
C01644=-35010,72119,32418,9065,-50936,-10505
C01645=-35010,72119,32418,9065,-50936,-10505
C01646=-35010,72119,32418,9065,-50936,-10505
C01647=-35010,72119,32418,9065,-50936,-10505
C01648=-35010,72119,32418,9065,-50936,-10505
C01649=-35010,72119,32418,9065,-50936,-10505
C01650=-35010,72119,32418,9065,-50936,-10505
C01651=-35010,72119,32418,9065,-50936,-10505
C01652=-35010,72119,32418,9065,-50936,-10505
C01653=-35010,72119,32418,9065,-50936,-10505
C01654=-35010,72119,32418,9065,-50936,-10505
C01655=-35010,72119,32418,9065,-50936,-10505
C01656=-35010,72119,32418,9065,-50936,-10505
C01657=-35010,72119,32418,9065,-50936,-10505
C01658=-35010,72119,32418,9065,-50936,-10505
C01659=-35010,72119,32418,9065,-50936,-10505
C01660=-35010,72119,32418,9065,-50936,-10505
C01661=-35010,72119,32418,9065,-50936,-10505
C01662=-35010,72119,32418,9065,-50936,-10505
C01663=-35010,72119,32418,9065,-50936,-10505
C01664=-35010,72119,32418,9065,-50936,-10505
C01665=-35010,72119,32418,9065,-50936,-10505
C01666=-35010,72119,32418,9065,-50936,-10505
C01667=-35010,72119,32418,9065,-50936,-10505
C01668=-35010,72119,32418,9065,-50936,-10505
C01669=-35010,72119,32418,9065,-50936,-10505
C01670=-35010,72119,32418,9065,-50936,-10505
C01671=-35010,72119,32418,9065,-50936,-10505
C01672=-35010,72119,32418,9065,-50936,-10505
C01673=-35010,72119,32418,9065,-50936,-10505
C01674=-35010,72119,32418,9065,-50936,-10505
C01675=-35010,72119,32418,9065,-50936,-10505
C01676=-35010,72119,32418,9065,-50936,-10505
C01677=-35010,72119,32418,9065,-50936,-10505
C01678=-35010,72119,32418,9065,-50936,-10505
C01679=-35010,72119,32418,9065,-50936,-10505
C01680=-35010,72119,32418,9065,-50936,-10505
C01681=-35010,72119,32418,9065,-50936,-10505
C01682=-35010,72119,32418,9065,-50936,-10505
C01683=-35010,72119,32418,9065,-50936,-10505
C01684=-35010,72119,32418,9065,-50936,-10505
C01685=-35010,72119,32418,9065,-50936,-10505
C01686=-35010,72119,32418,9065,-50936,-10505
C01687=-35010,72119,32418,9065,-50936,-10505
C01688=-35010,72119,32418,9065,-50936,-10505
C01689=-35010,72119,32418,9065,-50936,-10505
C01690=-35010,72119,32418,9065,-50936,-10505
C01691=-35010,72119,32418,9065,-50936,-10505
C01692=-35010,72119,32418,9065,-50936,-10505
C01693=-35010,72119,32418,9065,-50936,-10505
C01694=-35010,72119,32418,9065,-50936,-10505
C01695=-35010,72119,32418,9065,-50936,-10505
C01696=-35010,72119,32418,9065,-50936,-10505
C01697=-35010,72119,32418,9065,-50936,-10505
C01698=-35010,72119,32418,9065,-50936,-10505
C01699=-35010,72119,32418,9065,-50936,-10505
C01700=-35010,72119,32418,9065,-50936,-10505
C01701=-35010,72119,32418,9065,-50936,-10505
C01702=-35010,72119,32418,9065,-50936,-10505
C01703=-35010,72119,32418,9065,-50936,-10505
C01704=-35010,72119,32418,9065,-50936,-10505
C01705=-35010,72119,32418,9065,-50936,-10505
C01706=-35010,72119,32418,9065,-50936,-10505
C01707=-35010,72119,32418,9065,-50936,-10505
C01708=-35010,72119,32418,9065,-50936,-10505
C01709=-35010,72119,32418,9065,-50936,-10505
C01710=-35010,72119,32418,9065,-50936,-10505
C01711=-35010,72119,32418,9065,-50936,-10505
C01712=-35010,72119,32418,9065,-50936,-10505
C01713=-35010,72119,32418,9065,-50936,-10505
C01714=-35010,72119,32418,9065,-50936,-10505
C01715=-35010,72119,32418,9065,-50936,-10505
C01716=-35010,72119,32418,9065,-50936,-10505
C01717=-35010,72119,32418,9065,-50936,-10505
C01718=-35010,72119,32418,9065,-50936,-10505
C01719=-35010,72119,32418,9065,-50936,-10505
C01720=-35010,72119,32418,9065,-50936,-10505
C01721=-35010,72119,32418,9065,-50936,-10505
C01722=-35010,72119,32418,9065,-50936,-10505
C01723=-35010,72119,32418,9065,-50936,-10505
C01724=-35010,72119,32418,9065,-50936,-10505
C01725=-35010,72119,32418,9065,-50936,-10505
C01726=-35010,72119,32418,9065,-50936,-10505
C01727=-35010,72119,32418,9065,-50936,-10505
C01728=-35010,72119,32418,9065,-50936,-10505
C01729=-35010,72119,32418,9065,-50936,-10505
C01730=-35010,72119,32418,9065,-50936,-10505
C01731=-35010,72119,32418,9065,-50936,-10505
C01732=-35010,72119,32418,9065,-50936,-10505
C01733=-35010,72119,32418,9065,-50936,-10505
C01734=-35010,72119,32418,9065,-50936,-10505
C01735=-35010,72119,32418,9065,-50936,-10505
C01736=-35010,72119,32418,9065,-50936,-10505
C01737=-35010,72119,32418,9065,-50936,-10505
C01738=-35010,72119,32418,9065,-50936,-10505
C01739=-35010,72119,32418,9065,-50936,-10505
C01740=-35010,72119,32418,9065,-50936,-10505
C01741=-35010,72119,32418,9065,-50936,-10505
C01742=-35010,72119,32418,9065,-50936,-10505
C01743=-35010,72119,32418,9065,-50936,-10505
C01744=-35010,72119,32418,9065,-50936,-10505
C01745=-35010,72119,32418,9065,-50936,-10505
C01746=-35010,72119,32418,9065,-50936,-10505
C01747=-35010,72119,32418,9065,-50936,-10505
C01748=-35010,72119,32418,9065,-50936,-10505
C01749=-35010,72119,32418,9065,-50936,-10505
C01750=-35010,72119,32418,9065,-50936,-10505
C01751=-35010,72119,32418,9065,-50936,-10505
C01752=-35010,72119,32418,9065,-50936,-10505
C01753=-35010,72119,32418,9065,-50936,-10505
C01754=-35010,72119,32418,9065,-50936,-10505
C01755=-35010,72119,32418,9065,-50936,-10505
C01756=-35010,72119,32418,9065,-50936,-10505
C01757=-35010,72119,32418,9065,-50936,-10505
C01758=-35010,72119,32418,9065,-50936,-10505
C01759=-35010,72119,32418,9065,-50936,-10505
C01760=-35010,72119,32418,9065,-50936,-10505
C01761=-35010,72119,32418,9065,-50936,-10505
C01762=-35010,72119,32418,9065,-50936,-10505
C01763=-35010,72119,32418,9065,-50936,-10505
C01764=-35010,72119,32418,9065,-50936,-10505
C01765=-35010,72119,32418,9065,-50936,-10505
C01766=-35010,72119,32418,9065,-50936,-10505
C01767=-35010,72119,32418,9065,-50936,-10505
C01768=-35010,72119,32418,9065,-50936,-10505
C01769=-35010,72119,32418,9065,-50936,-10505
C01770=-35010,72119,32418,9065,-50936,-10505
C01771=-35010,72119,32418,9065,-50936,-10505
C01772=-35010,72119,32418,9065,-50936,-10505
C01773=-35010,72119,32418,9065,-50936,-10505
C01774=-35010,72119,32418,9065,-50936,-10505
C01775=-35010,72119,32418,9065,-50936,-10505
C01776=-35010,72119,32418,9065,-50936,-10505
C01777=-35010,72119,32418,9065,-50936,-10505
C01778=-35010,72119,32418,9065,-50936,-10505
C01779=-35010,72119,32418,9065,-50936,-10505
C01780=-35010,72119,32418,9065,-50936,-10505
C01781=-35010,72119,32418,9065,-50936,-10505
C01782=-35010,72119,32418,9065,-50936,-10505
C01783=-35010,72119,32418,9065,-50936,-10505
C01784=-35010,72119,32418,9065,-50936,-10505
C01785=-35010,72119,32418,9065,-50936,-10505
C01786=-35010,72119,32418,9065,-50936,-10505
C01787=-35010,72119,32418,9065,-50936,-10505
C01788=-35010,72119,32418,9065,-50936,-10505
C01789=-35010,72119,32418,9065,-50936,-10505
C01790=-35010,72119,32418,9065,-50936,-10505
C01791=-35010,72119,32418,9065,-50936,-10505
C01792=-35010,72119,32418,9065,-50936,-10505
C01793=-35010,72119,32418,9065,-50936,-10505
C01794=-35010,72119,32418,9065,-50936,-10505
C01795=-35010,72119,32418,9065,-50936,-10505
C01796=-35010,72119,32418,9065,-50936,-10505
C01797=-35010,72119,32418,9065,-50936,-10505
C01798=-35010,72119,32418,9065,-50936,-10505
C01799=-35010,72119,32418,9065,-50936,-10505
C01800=-35010,72119,32418,9065,-50936,-10505
C01801=-35134,72329,32735,9013,-51009,-10446
C01802=-35134,72329,32735,9013,-51009,-10446
C01803=-35134,72329,32735,9013,-51009,-10446
C01804=-35134,72329,32735,9013,-51009,-10446
C01805=-35134,72329,32735,9013,-51009,-10446
C01806=-35134,72329,32735,9013,-51009,-10446
C01807=-35134,72329,32735,9013,-51009,-10446
C01808=-35134,72329,32735,9013,-51009,-10446
C01809=-35134,72329,32735,9013,-51009,-10446
C01810=-35134,72329,32735,9013,-51009,-10446
C01811=-35134,72329,32735,9013,-51009,-10446
C01812=-35134,72329,32735,9013,-51009,-10446
C01813=-35134,72329,32735,9013,-51009,-10446
C01814=-35134,72329,32735,9013,-51009,-10446
C01815=-35134,72329,32735,9013,-51009,-10446
C01816=-35134,72329,32735,9013,-51009,-10446
C01817=-35134,72329,32735,9013,-51009,-10446
C01818=-35134,72329,32735,9013,-51009,-10446
C01819=-35134,72329,32735,9013,-51009,-10446
C01820=-35134,72329,32735,9013,-51009,-10446
C01821=-35134,72329,32735,9013,-51009,-10446
C01822=-35134,72329,32735,9013,-51009,-10446
C01823=-35134,72329,32735,9013,-51009,-10446
C01824=-35134,72329,32735,9013,-51009,-10446
C01825=-35134,72329,32735,9013,-51009,-10446
C01826=-35134,72329,32735,9013,-51009,-10446
C01827=-35134,72329,32735,9013,-51009,-10446
C01828=-35134,72329,32735,9013,-51009,-10446
C01829=-35134,72329,32735,9013,-51009,-10446
C01830=-35134,72329,32735,9013,-51009,-10446
C01831=-35134,72329,32735,9013,-51009,-10446
C01832=-35134,72329,32735,9013,-51009,-10446
C01833=-35134,72329,32735,9013,-51009,-10446
C01834=-35134,72329,32735,9013,-51009,-10446
C01835=-35134,72329,32735,9013,-51009,-10446
C01836=-35134,72329,32735,9013,-51009,-10446
C01837=-35134,72329,32735,9013,-51009,-10446
C01838=-35134,72329,32735,9013,-51009,-10446
C01839=-35134,72329,32735,9013,-51009,-10446
C01840=-35134,72329,32735,9013,-51009,-10446
C01841=-35134,72329,32735,9013,-51009,-10446
C01842=-35134,72329,32735,9013,-51009,-10446
C01843=-35134,72329,32735,9013,-51009,-10446
C01844=-35134,72329,32735,9013,-51009,-10446
C01845=-35134,72329,32735,9013,-51009,-10446
C01846=-35134,72329,32735,9013,-51009,-10446
C01847=-35134,72329,32735,9013,-51009,-10446
C01848=-35134,72329,32735,9013,-51009,-10446
C01849=-35134,72329,32735,9013,-51009,-10446
C01850=-35134,72329,32735,9013,-51009,-10446
C01851=-35134,72329,32735,9013,-51009,-10446
C01852=-35134,72329,32735,9013,-51009,-10446
C01853=-35134,72329,32735,9013,-51009,-10446
C01854=-35134,72329,32735,9013,-51009,-10446
C01855=-35134,72329,32735,9013,-51009,-10446
C01856=-35134,72329,32735,9013,-51009,-10446
C01857=-35134,72329,32735,9013,-51009,-10446
C01858=-35134,72329,32735,9013,-51009,-10446
C01859=-35134,72329,32735,9013,-51009,-10446
C01860=-35134,72329,32735,9013,-51009,-10446
C01861=-35134,72329,32735,9013,-51009,-10446
C01862=-35134,72329,32735,9013,-51009,-10446
C01863=-35134,72329,32735,9013,-51009,-10446
C01864=-35134,72329,32735,9013,-51009,-10446
C01865=-35134,72329,32735,9013,-51009,-10446
C01866=-35134,72329,32735,9013,-51009,-10446
C01867=-35134,72329,32735,9013,-51009,-10446
C01868=-35134,72329,32735,9013,-51009,-10446
C01869=-35134,72329,32735,9013,-51009,-10446
C01870=-35134,72329,32735,9013,-51009,-10446
C01871=-35134,72329,32735,9013,-51009,-10446
C01872=-35134,72329,32735,9013,-51009,-10446
C01873=-35134,72329,32735,9013,-51009,-10446
C01874=-35134,72329,32735,9013,-51009,-10446
C01875=-35134,72329,32735,9013,-51009,-10446
C01876=-35134,72329,32735,9013,-51009,-10446
C01877=-35134,72329,32735,9013,-51009,-10446
C01878=-35134,72329,32735,9013,-51009,-10446
C01879=-35134,72329,32735,9013,-51009,-10446
C01880=-35134,72329,32735,9013,-51009,-10446
C01881=-35134,72329,32735,9013,-51009,-10446
C01882=-35134,72329,32735,9013,-51009,-10446
C01883=-35134,72329,32735,9013,-51009,-10446
C01884=-35134,72329,32735,9013,-51009,-10446
C01885=-35134,72329,32735,9013,-51009,-10446
C01886=-35134,72329,32735,9013,-51009,-10446
C01887=-35134,72329,32735,9013,-51009,-10446
C01888=-35134,72329,32735,9013,-51009,-10446
C01889=-35134,72329,32735,9013,-51009,-10446
C01890=-35134,72329,32735,9013,-51009,-10446
C01891=-35134,72329,32735,9013,-51009,-10446
C01892=-35134,72329,32735,9013,-51009,-10446
C01893=-35134,72329,32735,9013,-51009,-10446
C01894=-35134,72329,32735,9013,-51009,-10446
C01895=-35134,72329,32735,9013,-51009,-10446
C01896=-35134,72329,32735,9013,-51009,-10446
C01897=-35134,72329,32735,9013,-51009,-10446
C01898=-35134,72329,32735,9013,-51009,-10446
C01899=-35134,72329,32735,9013,-51009,-10446
C01900=-35134,72329,32735,9013,-51009,-10446
C01901=-35134,72329,32735,9013,-51009,-10446
C01902=-35134,72329,32735,9013,-51009,-10446
C01903=-35134,72329,32735,9013,-51009,-10446
C01904=-35134,72329,32735,9013,-51009,-10446
C01905=-35134,72329,32735,9013,-51009,-10446
C01906=-35134,72329,32735,9013,-51009,-10446
C01907=-35134,72329,32735,9013,-51009,-10446
C01908=-35134,72329,32735,9013,-51009,-10446
C01909=-35134,72329,32735,9013,-51009,-10446
C01910=-35134,72329,32735,9013,-51009,-10446
C01911=-35134,72329,32735,9013,-51009,-10446
C01912=-35134,72329,32735,9013,-51009,-10446
C01913=-35134,72329,32735,9013,-51009,-10446
C01914=-35134,72329,32735,9013,-51009,-10446
C01915=-35134,72329,32735,9013,-51009,-10446
C01916=-35134,72329,32735,9013,-51009,-10446
C01917=-35134,72329,32735,9013,-51009,-10446
C01918=-35134,72329,32735,9013,-51009,-10446
C01919=-35134,72329,32735,9013,-51009,-10446
C01920=-35134,72329,32735,9013,-51009,-10446
C01921=-35134,72329,32735,9013,-51009,-10446
C01922=-35134,72329,32735,9013,-51009,-10446
C01923=-35134,72329,32735,9013,-51009,-10446
C01924=-35134,72329,32735,9013,-51009,-10446
C01925=-35134,72329,32735,9013,-51009,-10446
C01926=-35134,72329,32735,9013,-51009,-10446
C01927=-35134,72329,32735,9013,-51009,-10446
C01928=-35134,72329,32735,9013,-51009,-10446
C01929=-35134,72329,32735,9013,-51009,-10446
C01930=-35134,72329,32735,9013,-51009,-10446
C01931=-35134,72329,32735,9013,-51009,-10446
C01932=-35134,72329,32735,9013,-51009,-10446
C01933=-35134,72329,32735,9013,-51009,-10446
C01934=-35134,72329,32735,9013,-51009,-10446
C01935=-35134,72329,32735,9013,-51009,-10446
C01936=-35134,72329,32735,9013,-51009,-10446
C01937=-35134,72329,32735,9013,-51009,-10446
C01938=-35134,72329,32735,9013,-51009,-10446
C01939=-35134,72329,32735,9013,-51009,-10446
C01940=-35134,72329,32735,9013,-51009,-10446
C01941=-35134,72329,32735,9013,-51009,-10446
C01942=-35134,72329,32735,9013,-51009,-10446
C01943=-35134,72329,32735,9013,-51009,-10446
C01944=-35134,72329,32735,9013,-51009,-10446
C01945=-35134,72329,32735,9013,-51009,-10446
C01946=-35134,72329,32735,9013,-51009,-10446
C01947=-35134,72329,32735,9013,-51009,-10446
C01948=-35134,72329,32735,9013,-51009,-10446
C01949=-35134,72329,32735,9013,-51009,-10446
C01950=-35134,72329,32735,9013,-51009,-10446
C01951=-35134,72329,32735,9013,-51009,-10446
C01952=-35134,72329,32735,9013,-51009,-10446
C01953=-35134,72329,32735,9013,-51009,-10446
C01954=-35134,72329,32735,9013,-51009,-10446
C01955=-35134,72329,32735,9013,-51009,-10446
C01956=-35134,72329,32735,9013,-51009,-10446
C01957=-35134,72329,32735,9013,-51009,-10446
C01958=-35134,72329,32735,9013,-51009,-10446
C01959=-35134,72329,32735,9013,-51009,-10446
C01960=-35134,72329,32735,9013,-51009,-10446
C01961=-35134,72329,32735,9013,-51009,-10446
C01962=-35134,72329,32735,9013,-51009,-10446
C01963=-35134,72329,32735,9013,-51009,-10446
C01964=-35134,72329,32735,9013,-51009,-10446
C01965=-35134,72329,32735,9013,-51009,-10446
C01966=-35134,72329,32735,9013,-51009,-10446
C01967=-35134,72329,32735,9013,-51009,-10446
C01968=-35134,72329,32735,9013,-51009,-10446
C01969=-35134,72329,32735,9013,-51009,-10446
C01970=-35134,72329,32735,9013,-51009,-10446
C01971=-35134,72329,32735,9013,-51009,-10446
C01972=-35134,72329,32735,9013,-51009,-10446
C01973=-35134,72329,32735,9013,-51009,-10446
C01974=-35134,72329,32735,9013,-51009,-10446
C01975=-35134,72329,32735,9013,-51009,-10446
C01976=-35134,72329,32735,9013,-51009,-10446
C01977=-35134,72329,32735,9013,-51009,-10446
C01978=-35134,72329,32735,9013,-51009,-10446
C01979=-35134,72329,32735,9013,-51009,-10446
C01980=-35134,72329,32735,9013,-51009,-10446
C01981=-35134,72329,32735,9013,-51009,-10446
C01982=-35134,72329,32735,9013,-51009,-10446
C01983=-35134,72329,32735,9013,-51009,-10446
C01984=-35258,72540,33052,8961,-51081,-10388
C01985=-35258,72540,33052,8961,-51081,-10388
C01986=-35258,72540,33052,8961,-51081,-10388
C01987=-35258,72540,33052,8961,-51081,-10388
C01988=-35258,72540,33052,8961,-51081,-10388
C01989=-35258,72540,33052,8961,-51081,-10388
C01990=-35258,72540,33052,8961,-51081,-10388
C01991=-35258,72540,33052,8961,-51081,-10388
C01992=-35258,72540,33052,8961,-51081,-10388
C01993=-35258,72540,33052,8961,-51081,-10388
C01994=-35258,72540,33052,8961,-51081,-10388
C01995=-35258,72540,33052,8961,-51081,-10388
C01996=-35258,72540,33052,8961,-51081,-10388
C01997=-35258,72540,33052,8961,-51081,-10388
C01998=-35258,72540,33052,8961,-51081,-10388
C01999=-35258,72540,33052,8961,-51081,-10388
C02000=-35258,72540,33052,8961,-51081,-10388
C02001=-35258,72540,33052,8961,-51081,-10388
C02002=-35258,72540,33052,8961,-51081,-10388
C02003=-35258,72540,33052,8961,-51081,-10388
C02004=-35258,72540,33052,8961,-51081,-10388
C02005=-35258,72540,33052,8961,-51081,-10388
C02006=-35258,72540,33052,8961,-51081,-10388
C02007=-35258,72540,33052,8961,-51081,-10388
C02008=-35258,72540,33052,8961,-51081,-10388
C02009=-35258,72540,33052,8961,-51081,-10388
C02010=-35258,72540,33052,8961,-51081,-10388
C02011=-35258,72540,33052,8961,-51081,-10388
C02012=-35258,72540,33052,8961,-51081,-10388
C02013=-35258,72540,33052,8961,-51081,-10388
C02014=-35258,72540,33052,8961,-51081,-10388
C02015=-35258,72540,33052,8961,-51081,-10388
C02016=-35258,72540,33052,8961,-51081,-10388
C02017=-35258,72540,33052,8961,-51081,-10388
C02018=-35258,72540,33052,8961,-51081,-10388
C02019=-35258,72540,33052,8961,-51081,-10388
C02020=-35258,72540,33052,8961,-51081,-10388
C02021=-35258,72540,33052,8961,-51081,-10388
C02022=-35258,72540,33052,8961,-51081,-10388
C02023=-35258,72540,33052,8961,-51081,-10388
C02024=-35258,72540,33052,8961,-51081,-10388
C02025=-35258,72540,33052,8961,-51081,-10388
C02026=-35258,72540,33052,8961,-51081,-10388
C02027=-35258,72540,33052,8961,-51081,-10388
C02028=-35258,72540,33052,8961,-51081,-10388
C02029=-35258,72540,33052,8961,-51081,-10388
C02030=-35258,72540,33052,8961,-51081,-10388
C02031=-35258,72540,33052,8961,-51081,-10388
C02032=-35258,72540,33052,8961,-51081,-10388
C02033=-35258,72540,33052,8961,-51081,-10388
C02034=-35258,72540,33052,8961,-51081,-10388
C02035=-35258,72540,33052,8961,-51081,-10388
C02036=-35258,72540,33052,8961,-51081,-10388
C02037=-35258,72540,33052,8961,-51081,-10388
C02038=-35258,72540,33052,8961,-51081,-10388
C02039=-35258,72540,33052,8961,-51081,-10388
C02040=-35258,72540,33052,8961,-51081,-10388
C02041=-35258,72540,33052,8961,-51081,-10388
C02042=-35258,72540,33052,8961,-51081,-10388
C02043=-35258,72540,33052,8961,-51081,-10388
C02044=-35258,72540,33052,8961,-51081,-10388
C02045=-35258,72540,33052,8961,-51081,-10388
C02046=-35258,72540,33052,8961,-51081,-10388
C02047=-35258,72540,33052,8961,-51081,-10388
C02048=-35258,72540,33052,8961,-51081,-10388
C02049=-35258,72540,33052,8961,-51081,-10388
C02050=-35258,72540,33052,8961,-51081,-10388
C02051=-35258,72540,33052,8961,-51081,-10388
C02052=-35258,72540,33052,8961,-51081,-10388
C02053=-35258,72540,33052,8961,-51081,-10388
C02054=-35258,72540,33052,8961,-51081,-10388
C02055=-35258,72540,33052,8961,-51081,-10388
C02056=-35258,72540,33052,8961,-51081,-10388
C02057=-35258,72540,33052,8961,-51081,-10388
C02058=-35258,72540,33052,8961,-51081,-10388
C02059=-35258,72540,33052,8961,-51081,-10388
C02060=-35258,72540,33052,8961,-51081,-10388
C02061=-35258,72540,33052,8961,-51081,-10388
C02062=-35258,72540,33052,8961,-51081,-10388
C02063=-35258,72540,33052,8961,-51081,-10388
C02064=-35258,72540,33052,8961,-51081,-10388
C02065=-35258,72540,33052,8961,-51081,-10388
C02066=-35258,72540,33052,8961,-51081,-10388
C02067=-35258,72540,33052,8961,-51081,-10388
C02068=-35258,72540,33052,8961,-51081,-10388
C02069=-35258,72540,33052,8961,-51081,-10388
C02070=-35258,72540,33052,8961,-51081,-10388
C02071=-35258,72540,33052,8961,-51081,-10388
C02072=-35258,72540,33052,8961,-51081,-10388
C02073=-35258,72540,33052,8961,-51081,-10388
C02074=-35258,72540,33052,8961,-51081,-10388
C02075=-35258,72540,33052,8961,-51081,-10388
C02076=-35258,72540,33052,8961,-51081,-10388
C02077=-35258,72540,33052,8961,-51081,-10388
C02078=-35258,72540,33052,8961,-51081,-10388
C02079=-35258,72540,33052,8961,-51081,-10388
C02080=-35258,72540,33052,8961,-51081,-10388
C02081=-35258,72540,33052,8961,-51081,-10388
C02082=-35258,72540,33052,8961,-51081,-10388
C02083=-35258,72540,33052,8961,-51081,-10388
C02084=-35258,72540,33052,8961,-51081,-10388
C02085=-35258,72540,33052,8961,-51081,-10388
C02086=-35258,72540,33052,8961,-51081,-10388
C02087=-35258,72540,33052,8961,-51081,-10388
C02088=-35258,72540,33052,8961,-51081,-10388
C02089=-35258,72540,33052,8961,-51081,-10388
C02090=-35258,72540,33052,8961,-51081,-10388
C02091=-35258,72540,33052,8961,-51081,-10388
C02092=-35258,72540,33052,8961,-51081,-10388
C02093=-35258,72540,33052,8961,-51081,-10388
C02094=-35258,72540,33052,8961,-51081,-10388
C02095=-35258,72540,33052,8961,-51081,-10388
C02096=-35258,72540,33052,8961,-51081,-10388
C02097=-35258,72540,33052,8961,-51081,-10388
C02098=-35258,72540,33052,8961,-51081,-10388
C02099=-35258,72540,33052,8961,-51081,-10388
C02100=-35258,72540,33052,8961,-51081,-10388
C02101=-35258,72540,33052,8961,-51081,-10388
C02102=-35258,72540,33052,8961,-51081,-10388
C02103=-35258,72540,33052,8961,-51081,-10388
C02104=-35258,72540,33052,8961,-51081,-10388
C02105=-35258,72540,33052,8961,-51081,-10388
C02106=-35258,72540,33052,8961,-51081,-10388
C02107=-35258,72540,33052,8961,-51081,-10388
C02108=-35258,72540,33052,8961,-51081,-10388
C02109=-35258,72540,33052,8961,-51081,-10388
C02110=-35258,72540,33052,8961,-51081,-10388
C02111=-35258,72540,33052,8961,-51081,-10388
C02112=-35258,72540,33052,8961,-51081,-10388
C02113=-35258,72540,33052,8961,-51081,-10388
C02114=-35258,72540,33052,8961,-51081,-10388
C02115=-35258,72540,33052,8961,-51081,-10388
C02116=-35258,72540,33052,8961,-51081,-10388
C02117=-35258,72540,33052,8961,-51081,-10388
C02118=-35258,72540,33052,8961,-51081,-10388
C02119=-35258,72540,33052,8961,-51081,-10388
C02120=-35258,72540,33052,8961,-51081,-10388
C02121=-35258,72540,33052,8961,-51081,-10388
C02122=-35258,72540,33052,8961,-51081,-10388
C02123=-35258,72540,33052,8961,-51081,-10388
C02124=-35258,72540,33052,8961,-51081,-10388
C02125=-35258,72540,33052,8961,-51081,-10388
C02126=-35258,72540,33052,8961,-51081,-10388
C02127=-35258,72540,33052,8961,-51081,-10388
C02128=-35258,72540,33052,8961,-51081,-10388
C02129=-35258,72540,33052,8961,-51081,-10388
C02130=-35258,72540,33052,8961,-51081,-10388
C02131=-35258,72540,33052,8961,-51081,-10388
C02132=-35258,72540,33052,8961,-51081,-10388
C02133=-35258,72540,33052,8961,-51081,-10388
C02134=-35258,72540,33052,8961,-51081,-10388
C02135=-35258,72540,33052,8961,-51081,-10388
C02136=-35258,72540,33052,8961,-51081,-10388
C02137=-35258,72540,33052,8961,-51081,-10388
C02138=-35258,72540,33052,8961,-51081,-10388
C02139=-35258,72540,33052,8961,-51081,-10388
C02140=-35258,72540,33052,8961,-51081,-10388
C02141=-35258,72540,33052,8961,-51081,-10388
C02142=-35258,72540,33052,8961,-51081,-10388
C02143=-35258,72540,33052,8961,-51081,-10388
C02144=-35258,72540,33052,8961,-51081,-10388
C02145=-35258,72540,33052,8961,-51081,-10388
C02146=-35258,72540,33052,8961,-51081,-10388
C02147=-35258,72540,33052,8961,-51081,-10388
C02148=-35258,72540,33052,8961,-51081,-10388
C02149=-35258,72540,33052,8961,-51081,-10388
C02150=-35258,72540,33052,8961,-51081,-10388
C02151=-35258,72540,33052,8961,-51081,-10388
C02152=-35258,72540,33052,8961,-51081,-10388
C02153=-35258,72540,33052,8961,-51081,-10388
C02154=-35258,72540,33052,8961,-51081,-10388
C02155=-35258,72540,33052,8961,-51081,-10388
C02156=-35258,72540,33052,8961,-51081,-10388
C02157=-35258,72540,33052,8961,-51081,-10388
C02158=-35258,72540,33052,8961,-51081,-10388
C02159=-35258,72540,33052,8961,-51081,-10388
C02160=-35258,72540,33052,8961,-51081,-10388
C02161=-35258,72540,33052,8961,-51081,-10388
C02162=-35258,72540,33052,8961,-51081,-10388
C02163=-35258,72540,33052,8961,-51081,-10388
C02164=-35258,72540,33052,8961,-51081,-10388
C02165=-35258,72540,33052,8961,-51081,-10388
C02166=-35258,72540,33052,8961,-51081,-10388
C02167=-35383,72755,33370,8909,-51152,-10330
C02168=-35383,72755,33370,8909,-51152,-10330
C02169=-35383,72755,33370,8909,-51152,-10330
C02170=-35383,72755,33370,8909,-51152,-10330
C02171=-35383,72755,33370,8909,-51152,-10330
C02172=-35383,72755,33370,8909,-51152,-10330
C02173=-35383,72755,33370,8909,-51152,-10330
C02174=-35383,72755,33370,8909,-51152,-10330
C02175=-35383,72755,33370,8909,-51152,-10330
C02176=-35383,72755,33370,8909,-51152,-10330
C02177=-35383,72755,33370,8909,-51152,-10330
C02178=-35383,72755,33370,8909,-51152,-10330
C02179=-35383,72755,33370,8909,-51152,-10330
C02180=-35383,72755,33370,8909,-51152,-10330
C02181=-35383,72755,33370,8909,-51152,-10330
C02182=-35383,72755,33370,8909,-51152,-10330
C02183=-35383,72755,33370,8909,-51152,-10330
C02184=-35383,72755,33370,8909,-51152,-10330
C02185=-35383,72755,33370,8909,-51152,-10330
C02186=-35383,72755,33370,8909,-51152,-10330
C02187=-35383,72755,33370,8909,-51152,-10330
C02188=-35383,72755,33370,8909,-51152,-10330
C02189=-35383,72755,33370,8909,-51152,-10330
C02190=-35383,72755,33370,8909,-51152,-10330
C02191=-35383,72755,33370,8909,-51152,-10330
C02192=-35383,72755,33370,8909,-51152,-10330
C02193=-35383,72755,33370,8909,-51152,-10330
C02194=-35383,72755,33370,8909,-51152,-10330
C02195=-35383,72755,33370,8909,-51152,-10330
C02196=-35383,72755,33370,8909,-51152,-10330
C02197=-35383,72755,33370,8909,-51152,-10330
C02198=-35383,72755,33370,8909,-51152,-10330
C02199=-35383,72755,33370,8909,-51152,-10330
C02200=-35383,72755,33370,8909,-51152,-10330
C02201=-35383,72755,33370,8909,-51152,-10330
C02202=-35383,72755,33370,8909,-51152,-10330
C02203=-35383,72755,33370,8909,-51152,-10330
C02204=-35383,72755,33370,8909,-51152,-10330
C02205=-35383,72755,33370,8909,-51152,-10330
C02206=-35383,72755,33370,8909,-51152,-10330
C02207=-35383,72755,33370,8909,-51152,-10330
C02208=-35383,72755,33370,8909,-51152,-10330
C02209=-35383,72755,33370,8909,-51152,-10330
C02210=-35383,72755,33370,8909,-51152,-10330
C02211=-35383,72755,33370,8909,-51152,-10330
C02212=-35383,72755,33370,8909,-51152,-10330
C02213=-35383,72755,33370,8909,-51152,-10330
C02214=-35383,72755,33370,8909,-51152,-10330
C02215=-35383,72755,33370,8909,-51152,-10330
C02216=-35383,72755,33370,8909,-51152,-10330
C02217=-35383,72755,33370,8909,-51152,-10330
C02218=-35383,72755,33370,8909,-51152,-10330
C02219=-35383,72755,33370,8909,-51152,-10330
