/JOB
//NAME AAA
//POS
///NPOS 1054,0,1054,0,0,0
///TOOL 12
///POSTYPE PULSE
///PULSE
C00000=-28040,69413,11191,13738,-40367,-14876
C00001=-28040,69413,11191,13738,-40367,-14876
C00002=-28040,69413,11191,13738,-40367,-14876
C00003=-28040,69413,11191,13738,-40367,-14876
C00004=-28040,69413,11191,13738,-40367,-14876
C00005=-28040,69413,11191,13738,-40367,-14876
C00006=-28040,69413,11191,13738,-40367,-14876
C00007=-28040,69413,11191,13738,-40367,-14876
C00008=-28040,69413,11191,13738,-40367,-14876
C00009=-28070,69422,11251,13719,-40394,-14858
C00010=-28104,69432,11317,13697,-40423,-14837
C00011=-28137,69442,11382,13675,-40452,-14817
C00012=-28171,69453,11448,13653,-40482,-14797
C00013=-28205,69463,11514,13631,-40511,-14776
C00014=-28238,69473,11580,13609,-40541,-14756
C00015=-28272,69483,11646,13587,-40570,-14735
C00016=-28309,69495,11718,13564,-40602,-14713
C00017=-28341,69504,11780,13543,-40630,-14694
C00018=-28373,69514,11843,13522,-40658,-14675
C00019=-28404,69524,11905,13502,-40686,-14655
C00020=-28436,69534,11968,13481,-40714,-14636
C00021=-28468,69543,12030,13460,-40741,-14617
C00022=-28500,69553,12092,13440,-40769,-14598
C00023=-28532,69563,12155,13419,-40797,-14578
C00024=-28564,69572,12217,13398,-40825,-14559
C00025=-28591,69583,12270,13381,-40848,-14543
C00026=-28618,69595,12324,13364,-40870,-14527
C00027=-28646,69608,12378,13347,-40892,-14511
C00028=-28674,69620,12432,13330,-40914,-14495
C00029=-28701,69633,12486,13313,-40936,-14478
C00030=-28729,69646,12540,13296,-40958,-14462
C00031=-28756,69658,12594,13279,-40980,-14446
C00032=-28784,69671,12647,13262,-41002,-14430
C00033=-28812,69684,12701,13245,-41024,-14414
C00034=-28836,69695,12748,13230,-41043,-14400
C00035=-28862,69707,12800,13214,-41064,-14384
C00036=-28889,69719,12852,13197,-41085,-14369
C00037=-28915,69731,12904,13181,-41107,-14353
C00038=-28941,69743,12955,13165,-41128,-14338
C00039=-28968,69755,13007,13148,-41149,-14322
C00040=-28994,69767,13059,13132,-41170,-14307
C00041=-29021,69780,13110,13116,-41191,-14291
C00042=-29045,69791,13157,13101,-41210,-14277
C00043=-29065,69802,13197,13089,-41226,-14265
C00044=-29088,69815,13241,13075,-41242,-14253
C00045=-29110,69828,13285,13062,-41259,-14240
C00046=-29132,69840,13329,13049,-41276,-14227
C00047=-29155,69853,13373,13036,-41293,-14214
C00048=-29177,69866,13416,13022,-41309,-14201
C00049=-29200,69878,13460,13009,-41326,-14189
C00050=-29222,69891,13504,12996,-41343,-14176
C00051=-29244,69904,13548,12982,-41360,-14163
C00052=-29264,69915,13586,12971,-41374,-14152
C00053=-29285,69927,13628,12958,-41391,-14139
C00054=-29307,69939,13670,12945,-41407,-14127
C00055=-29328,69951,13712,12932,-41423,-14115
C00056=-29348,69963,13751,12921,-41437,-14104
C00057=-29369,69975,13793,12908,-41454,-14091
C00058=-29391,69987,13835,12895,-41470,-14079
C00059=-29412,69999,13877,12882,-41486,-14067
C00060=-29434,70011,13919,12869,-41502,-14054
C00061=-29450,70021,13951,12860,-41514,-14045
C00062=-29469,70033,13988,12849,-41527,-14035
C00063=-29487,70045,14024,12838,-41540,-14024
C00064=-29505,70057,14060,12828,-41554,-14014
C00065=-29524,70068,14096,12817,-41567,-14004
C00066=-29540,70079,14129,12808,-41579,-13994
C00067=-29559,70091,14165,12797,-41592,-13984
C00068=-29577,70103,14201,12786,-41605,-13973
C00069=-29595,70115,14237,12776,-41618,-13963
C00070=-29614,70126,14273,12765,-41632,-13953
C00071=-29630,70137,14305,12756,-41643,-13944
C00072=-29648,70148,14340,12745,-41656,-13934
C00073=-29664,70159,14372,12736,-41668,-13924
C00074=-29681,70170,14407,12725,-41681,-13914
C00075=-29699,70182,14442,12715,-41693,-13904
C00076=-29715,70192,14474,12706,-41705,-13895
C00077=-29733,70204,14509,12695,-41718,-13885
C00078=-29749,70214,14541,12686,-41730,-13876
C00079=-29767,70226,14576,12676,-41742,-13866
C00080=-29783,70236,14608,12666,-41754,-13857
C00081=-29797,70246,14635,12658,-41764,-13849
C00082=-29812,70256,14665,12650,-41774,-13841
C00083=-29826,70266,14692,12642,-41784,-13833
C00084=-29841,70276,14722,12633,-41795,-13825
C00085=-29856,70287,14752,12625,-41805,-13816
C00086=-29870,70296,14779,12617,-41815,-13809
C00087=-29885,70307,14809,12608,-41826,-13800
C00088=-29898,70317,14836,12601,-41835,-13793
C00089=-29913,70327,14866,12592,-41846,-13784
C00090=-29928,70338,14896,12583,-41856,-13776
C00091=-29942,70347,14923,12576,-41866,-13768
C00092=-29955,70356,14949,12568,-41875,-13761
C00093=-29970,70367,14978,12560,-41886,-13753
C00094=-29983,70376,15005,12552,-41895,-13745
C00095=-29998,70386,15034,12544,-41905,-13737
C00096=-30011,70395,15060,12536,-41915,-13730
C00097=-30026,70406,15089,12528,-41925,-13721
C00098=-30039,70415,15116,12520,-41934,-13714
C00099=-30054,70425,15145,12512,-41945,-13706
C00100=-30067,70435,15171,12504,-41954,-13698
C00101=-30079,70443,15196,12497,-41963,-13692
C00102=-30091,70452,15219,12491,-41971,-13685
C00103=-30103,70461,15244,12484,-41980,-13678
C00104=-30114,70469,15267,12477,-41988,-13672
C00105=-30127,70478,15292,12470,-41996,-13665
C00106=-30138,70487,15315,12464,-42004,-13659
C00107=-30151,70496,15340,12457,-42013,-13652
C00108=-30162,70504,15362,12450,-42021,-13645
C00109=-30175,70514,15387,12443,-42030,-13639
C00110=-30186,70522,15410,12437,-42038,-13632
C00111=-30198,70531,15435,12430,-42046,-13625
C00112=-30210,70539,15458,12423,-42054,-13619
C00113=-30222,70548,15482,12416,-42063,-13612
C00114=-30234,70557,15507,12409,-42071,-13605
C00115=-30246,70566,15532,12403,-42080,-13599
C00116=-30257,70575,15554,12396,-42088,-13592
C00117=-30270,70584,15579,12389,-42096,-13586
C00118=-30282,70593,15603,12382,-42105,-13579
C00119=-30294,70602,15628,12375,-42114,-13572
C00120=-30305,70610,15650,12369,-42122,-13566
C00121=-30318,70619,15675,12362,-42130,-13559
C00122=-30328,70627,15696,12356,-42137,-13553
C00123=-30338,70635,15717,12350,-42145,-13547
C00124=-30348,70642,15737,12345,-42152,-13542
C00125=-30359,70650,15758,12339,-42159,-13536
C00126=-30369,70658,15780,12333,-42167,-13531
C00127=-30380,70666,15801,12327,-42174,-13525
C00128=-30389,70673,15820,12322,-42181,-13519
C00129=-30400,70681,15842,12316,-42188,-13514
C00130=-30410,70689,15863,12310,-42196,-13508
C00131=-30421,70697,15885,12304,-42203,-13502
C00132=-30431,70705,15906,12298,-42211,-13496
C00133=-30441,70712,15925,12293,-42217,-13491
C00134=-30451,70720,15946,12287,-42224,-13485
C00135=-30460,70727,15965,12282,-42231,-13480
C00136=-30471,70735,15986,12276,-42238,-13474
C00137=-30480,70742,16006,12270,-42245,-13469
C00138=-30490,70750,16027,12265,-42252,-13463
C00139=-30500,70757,16046,12259,-42259,-13458
C00140=-30510,70765,16067,12254,-42266,-13452
C00141=-30520,70772,16086,12248,-42273,-13447
C00142=-30530,70780,16107,12242,-42280,-13441
C00143=-30539,70787,16126,12237,-42287,-13436
C00144=-30547,70794,16143,12232,-42293,-13432
C00145=-30556,70801,16161,12227,-42299,-13427
C00146=-30565,70807,16178,12223,-42305,-13422
C00147=-30574,70814,16197,12218,-42312,-13417
C00148=-30582,70820,16213,12213,-42317,-13413
C00149=-30591,70827,16232,12208,-42324,-13408
C00150=-30599,70833,16249,12204,-42330,-13403
C00151=-30608,70840,16267,12199,-42336,-13398
C00152=-30616,70846,16284,12194,-42342,-13394
C00153=-30625,70853,16302,12189,-42349,-13389
C00154=-30634,70860,16321,12184,-42355,-13384
C00155=-30642,70866,16337,12179,-42361,-13379
C00156=-30651,70873,16356,12174,-42367,-13374
C00157=-30659,70880,16374,12169,-42373,-13370
C00158=-30668,70887,16392,12164,-42380,-13365
C00159=-30677,70894,16410,12160,-42386,-13360
C00160=-30685,70900,16427,12155,-42392,-13355
C00161=-30694,70907,16445,12150,-42398,-13351
C00162=-30702,70913,16463,12145,-42405,-13346
C00163=-30711,70920,16481,12140,-42411,-13341
C00164=-30720,70927,16499,12135,-42417,-13336
C00165=-30728,70933,16516,12131,-42423,-13331
C00166=-30735,70939,16530,12127,-42428,-13328
C00167=-30743,70944,16546,12122,-42434,-13323
C00168=-30750,70950,16563,12118,-42439,-13319
C00169=-30758,70956,16579,12114,-42445,-13315
C00170=-30766,70962,16595,12109,-42451,-13311
C00171=-30773,70968,16609,12105,-42456,-13307
C00172=-30780,70974,16625,12101,-42462,-13302
C00173=-30788,70980,16642,12097,-42467,-13298
C00174=-30796,70986,16658,12092,-42473,-13294
C00175=-30803,70991,16674,12088,-42479,-13290
C00176=-30811,70997,16690,12084,-42484,-13285
C00177=-30818,71003,16704,12080,-42489,-13282
C00178=-30826,71009,16720,12076,-42495,-13277
C00179=-30832,71014,16734,12072,-42500,-13274
C00180=-30840,71020,16750,12067,-42506,-13269
C00181=-30847,71025,16765,12064,-42511,-13266
C00182=-30854,71031,16780,12059,-42516,-13261
C00183=-30861,71036,16795,12055,-42521,-13258
C00184=-30869,71042,16811,12051,-42527,-13253
C00185=-30876,71048,16827,12047,-42533,-13249
C00186=-30883,71053,16841,12043,-42538,-13245
C00187=-30891,71059,16857,12039,-42543,-13241
C00188=-30897,71064,16869,12035,-42548,-13238
C00189=-30903,71069,16883,12032,-42553,-13234
C00190=-30909,71073,16896,12028,-42557,-13231
C00191=-30916,71079,16911,12024,-42563,-13227
C00192=-30923,71084,16925,12021,-42568,-13223
C00193=-30929,71088,16938,12017,-42572,-13220
C00194=-30935,71094,16952,12013,-42577,-13216
C00195=-30942,71098,16965,12010,-42582,-13213
C00196=-30948,71103,16979,12006,-42587,-13209
C00197=-30954,71108,16992,12003,-42592,-13206
C00198=-30961,71113,17007,11999,-42597,-13202
C00199=-30968,71118,17021,11995,-42602,-13198
C00200=-30974,71123,17034,11992,-42607,-13195
C00201=-30980,71128,17048,11988,-42612,-13191
C00202=-30987,71133,17062,11984,-42617,-13188
C00203=-30993,71138,17076,11980,-42622,-13184
C00204=-30999,71143,17088,11977,-42626,-13181
C00205=-31006,71148,17103,11973,-42631,-13177
C00206=-31013,71153,17117,11969,-42636,-13173
C00207=-31019,71158,17131,11966,-42641,-13170
C00208=-31026,71163,17145,11962,-42646,-13166
C00209=-31032,71168,17157,11959,-42651,-13163
C00210=-31038,71173,17171,11955,-42656,-13159
C00211=-31044,71177,17184,11952,-42660,-13156
C00212=-31050,71181,17196,11948,-42665,-13153
C00213=-31055,71186,17208,11945,-42669,-13150
C00214=-31061,71190,17220,11942,-42674,-13146
C00215=-31067,71194,17233,11939,-42679,-13143
C00216=-31073,71199,17246,11935,-42683,-13140
C00217=-31078,71203,17258,11932,-42688,-13137
C00218=-31084,71207,17270,11929,-42692,-13134
C00219=-31090,71212,17282,11926,-42697,-13130
C00220=-31095,71216,17295,11922,-42701,-13127
C00221=-31101,71220,17308,11919,-42706,-13124
C00222=-31107,71225,17320,11916,-42711,-13121
C00223=-31112,71229,17332,11913,-42715,-13118
C00224=-31118,71233,17344,11909,-42719,-13114
C00225=-31123,71237,17355,11906,-42723,-13111
C00226=-31129,71241,17368,11903,-42728,-13108
C00227=-31134,71245,17379,11900,-42732,-13105
C00228=-31140,71250,17392,11897,-42737,-13102
C00229=-31145,71254,17403,11894,-42741,-13099
C00230=-31151,71258,17415,11891,-42745,-13096
C00231=-31156,71262,17427,11888,-42750,-13093
C00232=-31162,71266,17439,11884,-42754,-13090
C00233=-31167,71270,17451,11881,-42758,-13087
C00234=-31173,71275,17463,11878,-42763,-13084
C00235=-31177,71278,17473,11875,-42767,-13081
C00236=-31182,71282,17484,11873,-42771,-13078
C00237=-31187,71285,17495,11870,-42775,-13076
C00238=-31192,71289,17505,11867,-42779,-13073
C00239=-31197,71293,17517,11864,-42783,-13070
C00240=-31202,71296,17527,11861,-42787,-13067
C00241=-31207,71300,17539,11858,-42791,-13065
C00242=-31211,71304,17549,11856,-42795,-13062
C00243=-31217,71307,17560,11853,-42799,-13059
C00244=-31221,71311,17571,11850,-42803,-13056
C00245=-31226,71315,17582,11847,-42807,-13053
C00246=-31232,71318,17593,11844,-42812,-13051
C00247=-31236,71322,17604,11841,-42815,-13048
C00248=-31241,71326,17615,11838,-42820,-13045
C00249=-31246,71329,17626,11835,-42824,-13042
C00250=-31251,71333,17637,11832,-42828,-13039
C00251=-31256,71337,17647,11830,-42832,-13037
C00252=-31261,71340,17659,11827,-42836,-13034
C00253=-31266,71344,17670,11824,-42840,-13031
C00254=-31271,71348,17681,11821,-42845,-13028
C00255=-31276,71351,17691,11818,-42848,-13026
C00256=-31281,71355,17703,11815,-42853,-13023
C00257=-31286,71359,17714,11812,-42857,-13020
C00258=-31291,71362,17724,11810,-42861,-13017
C00259=-31295,71365,17733,11807,-42864,-13015
C00260=-31299,71368,17743,11805,-42868,-13012
C00261=-31304,71372,17754,11802,-42872,-13010
C00262=-31308,71375,17764,11799,-42876,-13007
C00263=-31312,71378,17773,11797,-42880,-13005
C00264=-31317,71381,17784,11794,-42883,-13002
C00265=-31322,71384,17794,11792,-42887,-13000
C00266=-31326,71388,17804,11789,-42891,-12997
C00267=-31330,71391,17813,11787,-42895,-12995
C00268=-31335,71394,17824,11784,-42899,-12992
C00269=-31339,71397,17834,11781,-42903,-12990
C00270=-31344,71401,17844,11779,-42907,-12987
C00271=-31348,71403,17853,11776,-42910,-12985
C00272=-31352,71406,17863,11774,-42914,-12982
C00273=-31357,71410,17873,11771,-42918,-12980
C00274=-31361,71413,17882,11769,-42921,-12978
C00275=-31365,71416,17892,11766,-42925,-12975
C00276=-31369,71419,17901,11764,-42929,-12973
C00277=-31374,71422,17912,11761,-42933,-12970
C00278=-31378,71425,17921,11759,-42936,-12968
C00279=-31382,71428,17931,11756,-42940,-12965
C00280=-31386,71431,17940,11754,-42944,-12963
C00281=-31391,71434,17950,11751,-42948,-12960
C00282=-31395,71437,17960,11749,-42951,-12958
C00283=-31399,71440,17969,11746,-42955,-12956
C00284=-31403,71443,17977,11744,-42958,-12954
C00285=-31407,71446,17986,11742,-42962,-12951
C00286=-31410,71448,17995,11740,-42965,-12949
C00287=-31414,71451,18004,11737,-42969,-12947
C00288=-31418,71453,18013,11735,-42972,-12945
C00289=-31422,71456,18022,11733,-42976,-12943
C00290=-31426,71459,18031,11731,-42979,-12940
C00291=-31430,71462,18040,11728,-42983,-12938
C00292=-31434,71464,18049,11726,-42986,-12936
C00293=-31438,71467,18058,11724,-42990,-12934
C00294=-31441,71470,18066,11721,-42993,-12932
C00295=-31446,71472,18076,11719,-42997,-12929
C00296=-31449,71475,18084,11717,-43000,-12927
C00297=-31453,71478,18093,11714,-43004,-12925
C00298=-31457,71480,18102,11712,-43007,-12923
C00299=-31461,71483,18111,11710,-43011,-12920
C00300=-31465,71486,18121,11707,-43015,-12918
C00301=-31469,71488,18129,11705,-43018,-12916
C00302=-31473,71491,18138,11703,-43022,-12914
C00303=-31477,71494,18148,11701,-43025,-12911
C00304=-31480,71497,18156,11698,-43029,-12909
C00305=-31484,71499,18165,11696,-43032,-12907
C00306=-31488,71502,18175,11694,-43036,-12905
C00307=-31492,71505,18183,11691,-43039,-12903
C00308=-31496,71507,18191,11689,-43043,-12901
C00309=-31499,71509,18199,11687,-43046,-12899
C00310=-31503,71512,18207,11685,-43049,-12897
C00311=-31506,71514,18216,11683,-43053,-12895
C00312=-31509,71516,18224,11681,-43056,-12893
C00313=-31513,71519,18232,11679,-43059,-12890
C00314=-31517,71521,18241,11677,-43063,-12888
C00315=-31520,71523,18249,11675,-43066,-12886
C00316=-31524,71526,18257,11672,-43070,-12884
C00317=-31527,71528,18266,11670,-43073,-12882
C00318=-31531,71530,18274,11668,-43076,-12880
C00319=-31534,71533,18282,11666,-43080,-12878
C00320=-31538,71535,18291,11664,-43083,-12876
C00321=-31541,71537,18299,11662,-43086,-12874
C00322=-31545,71540,18307,11660,-43089,-12872
C00323=-31548,71542,18315,11658,-43093,-12870
C00324=-31552,71544,18323,11656,-43096,-12868
C00325=-31555,71546,18331,11654,-43099,-12866
C00326=-31558,71549,18339,11652,-43103,-12864
C00327=-31562,71551,18347,11650,-43106,-12862
C00328=-31565,71553,18355,11648,-43109,-12860
C00329=-31569,71556,18363,11646,-43112,-12858
C00330=-31572,71558,18371,11644,-43116,-12857
C00331=-31576,71560,18379,11641,-43119,-12854
C00332=-31579,71562,18387,11639,-43122,-12853
C00333=-31582,71565,18395,11637,-43125,-12851
C00334=-31585,71566,18402,11636,-43128,-12849
C00335=-31588,71568,18409,11634,-43131,-12847
C00336=-31592,71570,18417,11632,-43135,-12845
C00337=-31595,71572,18424,11630,-43138,-12844
C00338=-31598,71574,18432,11628,-43141,-12842
C00339=-31601,71576,18440,11626,-43144,-12840
C00340=-31604,71578,18447,11624,-43147,-12838
C00341=-31607,71580,18455,11622,-43150,-12836
C00342=-31610,71582,18462,11620,-43153,-12834
C00343=-31613,71584,18469,11619,-43156,-12833
C00344=-31616,71586,18477,11617,-43160,-12831
C00345=-31619,71588,18484,11615,-43163,-12829
C00346=-31623,71590,18492,11613,-43166,-12827
C00347=-31626,71592,18499,11611,-43169,-12825
C00348=-31629,71594,18507,11609,-43172,-12823
C00349=-31632,71596,18514,11607,-43175,-12822
C00350=-31635,71598,18522,11605,-43178,-12820
C00351=-31638,71600,18529,11603,-43181,-12818
C00352=-31641,71602,18537,11601,-43185,-12816
C00353=-31644,71604,18544,11600,-43188,-12814
C00354=-31648,71606,18552,11598,-43191,-12813
C00355=-31651,71608,18559,11596,-43194,-12811
C00356=-31654,71610,18567,11594,-43197,-12809
C00357=-31657,71612,18575,11592,-43200,-12807
C00358=-31660,71614,18582,11590,-43204,-12805
C00359=-31663,71616,18590,11588,-43207,-12804
C00360=-31666,71617,18596,11587,-43209,-12802
C00361=-31669,71619,18604,11585,-43213,-12800
C00362=-31672,71621,18610,11583,-43215,-12799
C00363=-31675,71622,18618,11581,-43219,-12797
C00364=-31677,71624,18624,11580,-43221,-12795
C00365=-31680,71626,18632,11578,-43225,-12793
C00366=-31683,71627,18638,11576,-43227,-12792
C00367=-31686,71629,18646,11574,-43231,-12790
C00368=-31689,71631,18652,11572,-43234,-12789
C00369=-31692,71633,18660,11571,-43237,-12787
C00370=-31694,71634,18666,11569,-43240,-12785
C00371=-31697,71636,18674,11567,-43243,-12783
C00372=-31700,71638,18681,11565,-43246,-12782
C00373=-31703,71639,18688,11564,-43249,-12780
C00374=-31706,71641,18695,11562,-43252,-12778
C00375=-31709,71643,18702,11560,-43255,-12777
C00376=-31712,71644,18709,11558,-43258,-12775
C00377=-31715,71646,18716,11556,-43261,-12773
C00378=-31718,71648,18724,11555,-43264,-12771
C00379=-31720,71650,18730,11553,-43267,-12770
C00380=-31723,71651,18738,11551,-43270,-12768
C00381=-31726,71653,18745,11549,-43273,-12766
C00382=-31729,71655,18751,11548,-43276,-12765
C00383=-31732,71656,18759,11546,-43279,-12763
C00384=-31735,71658,18766,11544,-43282,-12761
C00385=-31738,71660,18773,11542,-43285,-12760
C00386=-31740,71661,18779,11541,-43288,-12758
C00387=-31743,71663,18786,11539,-43291,-12757
C00388=-31746,71664,18793,11537,-43294,-12755
C00389=-31748,71666,18799,11536,-43297,-12754
C00390=-31751,71667,18806,11534,-43300,-12752
C00391=-31754,71669,18813,11532,-43303,-12750
C00392=-31756,71670,18819,11531,-43306,-12749
C00393=-31759,71672,18826,11529,-43309,-12747
C00394=-31762,71673,18833,11527,-43312,-12746
C00395=-31764,71674,18839,11526,-43314,-12744
C00396=-31767,71676,18846,11524,-43317,-12743
C00397=-31769,71677,18852,11522,-43320,-12741
C00398=-31772,71679,18859,11521,-43323,-12739
C00399=-31775,71680,18865,11519,-43326,-12738
C00400=-31777,71682,18872,11518,-43329,-12736
C00401=-31780,71683,18878,11516,-43332,-12735
C00402=-31782,71685,18885,11514,-43335,-12733
C00403=-31785,71686,18891,11513,-43338,-12732
C00404=-31787,71687,18898,11511,-43340,-12730
C00405=-31790,71689,18904,11510,-43343,-12729
C00406=-31793,71690,18911,11508,-43346,-12727
C00407=-31795,71692,18917,11506,-43349,-12726
C00408=-31798,71693,18924,11505,-43352,-12724
C00409=-31800,71694,18930,11503,-43354,-12723
C00410=-31803,71696,18936,11502,-43357,-12721
C00411=-31805,71697,18943,11500,-43360,-12720
C00412=-31808,71698,18948,11499,-43363,-12718
C00413=-31810,71700,18955,11497,-43366,-12717
C00414=-31812,71701,18961,11495,-43368,-12715
C00415=-31815,71702,18966,11494,-43371,-12714
C00416=-31817,71703,18973,11492,-43374,-12713
C00417=-31819,71705,18979,11491,-43376,-12711
C00418=-31822,71706,18985,11489,-43379,-12710
C00419=-31824,71707,18991,11488,-43382,-12708
C00420=-31827,71708,18997,11486,-43385,-12707
C00421=-31829,71709,19003,11485,-43388,-12705
C00422=-31831,71711,19009,11483,-43390,-12704
C00423=-31834,71712,19016,11482,-43393,-12703
C00424=-31836,71713,19022,11480,-43396,-12701
C00425=-31839,71714,19028,11479,-43399,-12700
C00426=-31841,71716,19034,11477,-43401,-12698
C00427=-31843,71717,19040,11476,-43404,-12697
C00428=-31846,71718,19046,11474,-43407,-12695
C00429=-31848,71719,19052,11473,-43410,-12694
C00430=-31850,71720,19058,11471,-43412,-12693
C00431=-31853,71722,19065,11470,-43415,-12691
C00432=-31855,71723,19070,11468,-43418,-12690
C00433=-31858,71724,19077,11467,-43421,-12688
C00434=-31860,71725,19083,11465,-43424,-12687
C00435=-31862,71726,19089,11464,-43426,-12685
C00436=-31865,71728,19095,11462,-43429,-12684
C00437=-31867,71729,19101,11461,-43432,-12683
C00438=-31869,71730,19107,11459,-43435,-12681
C00439=-31871,71731,19112,11458,-43437,-12680
C00440=-31874,71732,19119,11456,-43440,-12679
C00441=-31876,71733,19124,11455,-43443,-12677
C00442=-31878,71734,19130,11454,-43445,-12676
C00443=-31880,71735,19136,11452,-43448,-12675
C00444=-31883,71736,19142,11451,-43451,-12673
C00445=-31885,71737,19148,11449,-43454,-12672
C00446=-31887,71738,19153,11448,-43456,-12671
C00447=-31889,71739,19159,11446,-43459,-12669
C00448=-31891,71740,19165,11445,-43461,-12668
C00449=-31894,71742,19171,11444,-43464,-12667
C00450=-31896,71743,19176,11442,-43467,-12665
C00451=-31898,71744,19182,11441,-43470,-12664
C00452=-31900,71745,19189,11439,-43473,-12662
C00453=-31902,71746,19194,11438,-43475,-12661
C00454=-31905,71747,19200,11436,-43478,-12660
C00455=-31907,71748,19206,11435,-43481,-12658
C00456=-31909,71749,19212,11434,-43483,-12657
C00457=-31911,71750,19218,11432,-43486,-12656
C00458=-31914,71751,19224,11431,-43489,-12654
C00459=-31916,71752,19229,11429,-43491,-12653
C00460=-31918,71753,19235,11428,-43494,-12652
C00461=-31920,71754,19241,11426,-43497,-12650
C00462=-31922,71755,19247,11425,-43500,-12649
C00463=-31925,71756,19253,11423,-43502,-12648
C00464=-31927,71757,19259,11422,-43505,-12646
C00465=-31929,71758,19264,11421,-43508,-12645
C00466=-31931,71759,19269,11419,-43510,-12644
C00467=-31933,71760,19275,11418,-43513,-12642
C00468=-31935,71761,19280,11417,-43515,-12641
C00469=-31937,71762,19286,11415,-43518,-12640
C00470=-31939,71763,19292,11414,-43521,-12639
C00471=-31941,71763,19297,11413,-43523,-12638
C00472=-31943,71764,19303,11411,-43526,-12636
C00473=-31945,71765,19308,11410,-43529,-12635
C00474=-31947,71766,19314,11409,-43531,-12634
C00475=-31950,71767,19319,11407,-43534,-12632
C00476=-31952,71768,19325,11406,-43537,-12631
C00477=-31954,71769,19330,11404,-43539,-12630
C00478=-31956,71769,19336,11403,-43542,-12629
C00479=-31958,71770,19342,11402,-43545,-12627
C00480=-31960,71771,19347,11400,-43547,-12626
C00481=-31962,71772,19352,11399,-43550,-12625
C00482=-31964,71773,19358,11398,-43552,-12624
C00483=-31966,71774,19363,11397,-43555,-12623
C00484=-31968,71774,19368,11395,-43557,-12621
C00485=-31970,71775,19374,11394,-43560,-12620
C00486=-31972,71776,19379,11393,-43562,-12619
C00487=-31974,71777,19384,11391,-43565,-12618
C00488=-31976,71778,19390,11390,-43568,-12616
C00489=-31978,71779,19395,11389,-43570,-12615
C00490=-31980,71780,19400,11387,-43573,-12614
C00491=-31982,71780,19406,11386,-43575,-12613
C00492=-31984,71781,19411,11385,-43578,-12611
C00493=-31986,71782,19416,11383,-43580,-12610
C00494=-31987,71783,19421,11382,-43583,-12609
C00495=-31989,71783,19426,11381,-43585,-12608
C00496=-31991,71784,19431,11380,-43588,-12607
C00497=-31993,71785,19437,11379,-43590,-12606
C00498=-31995,71785,19442,11377,-43593,-12605
C00499=-31997,71786,19447,11376,-43595,-12604
C00500=-31998,71787,19452,11375,-43598,-12602
C00501=-32000,71787,19457,11374,-43600,-12601
C00502=-32002,71788,19462,11372,-43603,-12600
C00503=-32004,71789,19467,11371,-43605,-12599
C00504=-32006,71790,19472,11370,-43608,-12598
C00505=-32008,71790,19478,11369,-43610,-12597
C00506=-32010,71791,19483,11367,-43613,-12595
C00507=-32012,71792,19488,11366,-43615,-12594
C00508=-32013,71792,19493,11365,-43618,-12593
C00509=-32015,71793,19498,11364,-43621,-12592
C00510=-32017,71794,19503,11362,-43623,-12591
C00511=-32019,71794,19509,11361,-43626,-12590
C00512=-32021,71795,19513,11360,-43628,-12588
C00513=-32023,71796,19519,11359,-43631,-12587
C00514=-32024,71797,19524,11357,-43633,-12586
C00515=-32026,71797,19529,11356,-43636,-12585
C00516=-32028,71798,19534,11355,-43638,-12584
C00517=-32030,71799,19539,11354,-43641,-12583
C00518=-32032,71799,19544,11352,-43643,-12582
C00519=-32034,71800,19550,11351,-43646,-12580
C00520=-32036,71801,19554,11350,-43648,-12579
C00521=-32038,71801,19560,11349,-43651,-12578
C00522=-32039,71802,19564,11348,-43653,-12577
C00523=-32041,71802,19569,11346,-43655,-12576
C00524=-32043,71803,19574,11345,-43658,-12575
C00525=-32044,71804,19579,11344,-43660,-12574
C00526=-32046,71804,19584,11343,-43663,-12573
C00527=-32048,71805,19589,11342,-43665,-12572
C00528=-32050,71805,19594,11340,-43668,-12570
C00529=-32051,71806,19599,11339,-43670,-12569
C00530=-32053,71806,19604,11338,-43673,-12568
C00531=-32055,71807,19609,11337,-43675,-12567
C00532=-32057,71808,19614,11336,-43678,-12566
C00533=-32058,71808,19618,11335,-43680,-12565
C00534=-32060,71809,19624,11333,-43683,-12564
C00535=-32062,71809,19629,11332,-43685,-12563
C00536=-32064,71810,19633,11331,-43687,-12562
C00537=-32065,71810,19638,11330,-43690,-12561
C00538=-32067,71811,19643,11329,-43692,-12559
C00539=-32069,71812,19648,11327,-43695,-12558
C00540=-32071,71812,19653,11326,-43698,-12557
C00541=-32072,71813,19658,11325,-43700,-12556
C00542=-32074,71813,19663,11324,-43702,-12555
C00543=-32076,71814,19668,11323,-43705,-12554
C00544=-32078,71814,19673,11321,-43707,-12553
C00545=-32079,71815,19678,11320,-43710,-12552
C00546=-32081,71816,19683,11319,-43712,-12551
C00547=-32083,71816,19688,11318,-43715,-12550
C00548=-32085,71817,19693,11317,-43717,-12548
C00549=-32086,71817,19698,11315,-43720,-12547
C00550=-32088,71818,19702,11314,-43722,-12546
C00551=-32090,71818,19707,11313,-43724,-12545
C00552=-32091,71818,19711,11312,-43727,-12544
C00553=-32093,71819,19716,11311,-43729,-12543
C00554=-32095,71819,19721,11310,-43732,-12542
C00555=-32096,71820,19726,11309,-43734,-12541
C00556=-32098,71820,19731,11308,-43737,-12540
C00557=-32099,71821,19736,11306,-43739,-12539
C00558=-32101,71821,19740,11305,-43741,-12538
C00559=-32103,71822,19745,11304,-43744,-12537
C00560=-32104,71822,19750,11303,-43746,-12536
C00561=-32106,71822,19754,11302,-43749,-12535
C00562=-32108,71823,19759,11301,-43751,-12534
C00563=-32109,71823,19764,11300,-43754,-12533
C00564=-32111,71824,19768,11298,-43756,-12532
C00565=-32112,71824,19773,11297,-43758,-12531
C00566=-32114,71825,19778,11296,-43761,-12530
C00567=-32116,71825,19782,11295,-43763,-12529
C00568=-32117,71826,19787,11294,-43765,-12528
C00569=-32119,71826,19792,11293,-43768,-12527
C00570=-32120,71826,19796,11292,-43770,-12526
C00571=-32122,71827,19801,11291,-43773,-12525
C00572=-32124,71827,19805,11290,-43775,-12524
C00573=-32125,71828,19810,11289,-43777,-12523
C00574=-32127,71828,19815,11287,-43780,-12522
C00575=-32128,71829,19819,11286,-43782,-12521
C00576=-32130,71829,19823,11285,-43784,-12520
C00577=-32131,71829,19828,11284,-43787,-12519
C00578=-32133,71830,19832,11283,-43789,-12518
C00579=-32134,71830,19837,11282,-43791,-12517
C00580=-32136,71830,19841,11281,-43793,-12516
C00581=-32137,71831,19845,11280,-43796,-12515
C00582=-32139,71831,19850,11279,-43798,-12514
C00583=-32140,71831,19854,11278,-43800,-12513
C00584=-32142,71832,19859,11277,-43803,-12512
C00585=-32143,71832,19863,11276,-43805,-12511
C00586=-32145,71832,19868,11275,-43807,-12510
C00587=-32146,71833,19872,11274,-43810,-12509
C00588=-32148,71833,19877,11273,-43812,-12508
C00589=-32149,71833,19881,11272,-43814,-12507
C00590=-32151,71834,19886,11271,-43817,-12506
C00591=-32152,71834,19890,11269,-43819,-12505
C00592=-32154,71834,19895,11268,-43821,-12504
C00593=-32155,71835,19899,11267,-43824,-12503
C00594=-32157,71835,19903,11266,-43826,-12502
C00595=-32158,71835,19908,11265,-43828,-12501
C00596=-32160,71836,19912,11264,-43831,-12500
C00597=-32161,71836,19917,11263,-43833,-12499
C00598=-32163,71836,19921,11262,-43835,-12499
C00599=-32164,71837,19926,11261,-43838,-12498
C00600=-32166,71837,19930,11260,-43840,-12497
C00601=-32167,71837,19935,11259,-43842,-12496
C00602=-32169,71838,19939,11258,-43845,-12495
C00603=-32170,71838,19943,11257,-43847,-12494
C00604=-32172,71838,19948,11256,-43849,-12493
C00605=-32173,71839,19952,11255,-43852,-12492
C00606=-32175,71839,19957,11254,-43854,-12491
C00607=-32176,71839,19961,11253,-43856,-12490
C00608=-32178,71839,19965,11252,-43858,-12489
C00609=-32179,71840,19969,11251,-43861,-12488
C00610=-32180,71840,19974,11250,-43863,-12487
C00611=-32182,71840,19978,11249,-43865,-12486
C00612=-32183,71840,19982,11248,-43867,-12485
C00613=-32185,71841,19986,11247,-43870,-12484
C00614=-32186,71841,19991,11246,-43872,-12484
C00615=-32187,71841,19995,11245,-43875,-12483
C00616=-32189,71841,19999,11244,-43877,-12482
C00617=-32190,71842,20004,11243,-43879,-12481
C00618=-32192,71842,20008,11242,-43881,-12480
C00619=-32193,71842,20012,11240,-43884,-12479
C00620=-32195,71842,20016,11239,-43886,-12478
C00621=-32196,71842,20021,11238,-43888,-12477
C00622=-32197,71843,20025,11237,-43891,-12476
C00623=-32199,71843,20030,11236,-43893,-12475
C00624=-32200,71843,20034,11235,-43895,-12474
C00625=-32202,71843,20038,11234,-43898,-12473
C00626=-32203,71844,20042,11233,-43900,-12472
C00627=-32204,71844,20047,11232,-43902,-12471
C00628=-32206,71844,20051,11231,-43904,-12471
C00629=-32207,71844,20055,11230,-43907,-12470
C00630=-32209,71845,20059,11229,-43909,-12469
C00631=-32210,71845,20064,11228,-43911,-12468
C00632=-32212,71845,20068,11227,-43914,-12467
C00633=-32213,71845,20073,11226,-43916,-12466
C00634=-32214,71845,20077,11225,-43918,-12465
C00635=-32216,71846,20081,11224,-43921,-12464
C00636=-32217,71846,20085,11223,-43923,-12463
C00637=-32218,71846,20089,11222,-43925,-12462
C00638=-32220,71846,20093,11221,-43927,-12461
C00639=-32221,71846,20097,11220,-43929,-12461
C00640=-32222,71846,20102,11219,-43932,-12460
C00641=-32224,71847,20106,11218,-43934,-12459
C00642=-32225,71847,20110,11217,-43936,-12458
C00643=-32226,71847,20114,11216,-43939,-12457
C00644=-32228,71847,20118,11216,-43941,-12456
C00645=-32229,71847,20123,11214,-43943,-12455
C00646=-32230,71847,20126,11214,-43945,-12454
C00647=-32232,71847,20131,11213,-43948,-12454
C00648=-32233,71848,20135,11212,-43950,-12453
C00649=-32234,71848,20139,11211,-43952,-12452
C00650=-32236,71848,20143,11210,-43955,-12451
C00651=-32237,71848,20147,11209,-43957,-12450
C00652=-32238,71848,20151,11208,-43959,-12449
C00653=-32240,71848,20155,11207,-43961,-12448
C00654=-32241,71848,20159,11206,-43963,-12447
C00655=-32242,71849,20163,11205,-43966,-12447
C00656=-32244,71849,20167,11204,-43968,-12446
C00657=-32245,71849,20172,11203,-43970,-12445
C00658=-32246,71849,20176,11202,-43972,-12444
C00659=-32247,71849,20179,11201,-43974,-12443
C00660=-32249,71849,20184,11200,-43977,-12442
C00661=-32250,71849,20188,11199,-43979,-12441
C00662=-32251,71850,20192,11198,-43981,-12441
C00663=-32253,71850,20195,11197,-43983,-12440
C00664=-32254,71850,20200,11196,-43985,-12439
C00665=-32255,71850,20204,11195,-43988,-12438
C00666=-32256,71850,20207,11195,-43989,-12437
C00667=-32258,71850,20211,11194,-43992,-12436
C00668=-32259,71850,20215,11193,-43994,-12436
C00669=-32260,71850,20219,11192,-43996,-12435
C00670=-32261,71850,20223,11191,-43998,-12434
C00671=-32262,71850,20227,11190,-44000,-12433
C00672=-32264,71850,20231,11189,-44003,-12432
C00673=-32265,71850,20235,11188,-44005,-12432
C00674=-32266,71851,20239,11187,-44007,-12431
C00675=-32267,71851,20243,11186,-44009,-12430
C00676=-32269,71851,20246,11185,-44011,-12429
C00677=-32270,71851,20251,11185,-44014,-12428
C00678=-32271,71851,20254,11184,-44016,-12427
C00679=-32272,71851,20258,11183,-44018,-12427
C00680=-32274,71851,20262,11182,-44020,-12426
C00681=-32275,71851,20266,11181,-44022,-12425
C00682=-32276,71851,20270,11180,-44024,-12424
C00683=-32277,71851,20274,11179,-44027,-12423
C00684=-32278,71851,20278,11178,-44029,-12422
C00685=-32280,71851,20282,11177,-44031,-12422
C00686=-32281,71851,20286,11176,-44033,-12421
C00687=-32282,71851,20290,11175,-44035,-12420
C00688=-32283,71851,20293,11175,-44037,-12419
C00689=-32285,71851,20297,11174,-44040,-12418
C00690=-32286,71852,20301,11173,-44042,-12418
C00691=-32287,71852,20305,11172,-44044,-12417
C00692=-32288,71852,20309,11171,-44046,-12416
C00693=-32289,71852,20313,11170,-44048,-12415
C00694=-32291,71852,20317,11169,-44051,-12414
C00695=-32292,71852,20321,11168,-44053,-12413
C00696=-32293,71852,20324,11167,-44055,-12413
C00697=-32294,71852,20328,11166,-44057,-12412
C00698=-32295,71852,20332,11166,-44059,-12411
C00699=-32296,71852,20336,11165,-44061,-12410
C00700=-32298,71852,20340,11164,-44063,-12410
C00701=-32299,71852,20343,11163,-44066,-12409
C00702=-32300,71852,20347,11162,-44068,-12408
C00703=-32301,71852,20351,11161,-44070,-12407
C00704=-32302,71852,20355,11160,-44072,-12406
C00705=-32304,71852,20359,11159,-44074,-12406
C00706=-32305,71852,20363,11158,-44076,-12405
C00707=-32306,71852,20366,11158,-44078,-12404
C00708=-32307,71852,20370,11157,-44081,-12403
C00709=-32308,71852,20374,11156,-44083,-12402
C00710=-32309,71852,20378,11155,-44085,-12402
C00711=-32311,71852,20382,11154,-44087,-12401
C00712=-32312,71852,20385,11153,-44089,-12400
C00713=-32313,71852,20389,11152,-44092,-12399
C00714=-32314,71852,20393,11151,-44094,-12399
C00715=-32315,71852,20397,11150,-44096,-12398
C00716=-32316,71852,20401,11150,-44098,-12397
C00717=-32318,71852,20405,11149,-44100,-12396
C00718=-32319,71852,20408,11148,-44102,-12395
C00719=-32320,71852,20412,11147,-44105,-12394
C00720=-32321,71852,20416,11146,-44107,-12394
C00721=-32322,71852,20420,11145,-44109,-12393
C00722=-32323,71852,20424,11144,-44111,-12392
C00723=-32325,71852,20428,11143,-44113,-12391
C00724=-32326,71852,20431,11142,-44115,-12391
C00725=-32327,71852,20435,11142,-44118,-12390
C00726=-32328,71851,20439,11141,-44120,-12389
C00727=-32329,71851,20442,11140,-44122,-12388
C00728=-32330,71851,20446,11139,-44124,-12388
C00729=-32331,71851,20450,11138,-44126,-12387
C00730=-32332,71851,20454,11137,-44128,-12386
C00731=-32333,71851,20457,11137,-44130,-12385
C00732=-32335,71851,20461,11136,-44132,-12384
C00733=-32336,71851,20465,11135,-44135,-12384
C00734=-32337,71851,20468,11134,-44137,-12383
C00735=-32338,71851,20472,11133,-44139,-12382
C00736=-32339,71851,20476,11132,-44141,-12381
C00737=-32340,71851,20479,11131,-44143,-12381
C00738=-32341,71851,20483,11131,-44145,-12380
C00739=-32342,71851,20487,11130,-44147,-12379
C00740=-32344,71850,20491,11129,-44150,-12378
C00741=-32345,71850,20494,11128,-44152,-12378
C00742=-32346,71850,20498,11127,-44154,-12377
C00743=-32347,71850,20502,11126,-44156,-12376
C00744=-32348,71850,20506,11125,-44158,-12375
C00745=-32349,71850,20509,11125,-44160,-12375
C00746=-32350,71850,20513,11124,-44162,-12374
C00747=-32351,71850,20516,11123,-44165,-12373
C00748=-32352,71850,20520,11122,-44167,-12372
C00749=-32354,71850,20524,11121,-44169,-12372
C00750=-32355,71850,20528,11120,-44171,-12371
C00751=-32356,71850,20532,11119,-44173,-12370
C00752=-32357,71850,20535,11119,-44175,-12369
C00753=-32358,71849,20539,11118,-44178,-12368
C00754=-32359,71849,20543,11117,-44180,-12368
C00755=-32360,71849,20546,11116,-44182,-12367
C00756=-32361,71849,20550,11115,-44184,-12366
C00757=-32362,71849,20553,11114,-44186,-12366
C00758=-32363,71849,20557,11114,-44188,-12365
C00759=-32364,71849,20561,11113,-44190,-12364
C00760=-32365,71849,20564,11112,-44192,-12363
C00761=-32366,71849,20568,11111,-44194,-12363
C00762=-32367,71848,20572,11110,-44197,-12362
C00763=-32369,71848,20575,11109,-44199,-12361
C00764=-32370,71848,20579,11109,-44201,-12360
C00765=-32371,71848,20583,11108,-44203,-12360
C00766=-32372,71848,20586,11107,-44205,-12359
C00767=-32373,71848,20590,11106,-44207,-12358
C00768=-32374,71848,20593,11105,-44209,-12357
C00769=-32375,71847,20597,11104,-44211,-12357
C00770=-32376,71847,20601,11104,-44214,-12356
C00771=-32377,71847,20604,11103,-44216,-12355
C00772=-32378,71847,20608,11102,-44218,-12355
C00773=-32379,71847,20611,11101,-44220,-12354
C00774=-32380,71847,20615,11100,-44222,-12353
C00775=-32381,71847,20618,11100,-44224,-12352
C00776=-32382,71847,20622,11099,-44226,-12352
C00777=-32383,71846,20625,11098,-44228,-12351
C00778=-32384,71846,20629,11097,-44230,-12350
C00779=-32385,71846,20632,11096,-44232,-12350
C00780=-32386,71846,20636,11096,-44234,-12349
C00781=-32387,71846,20639,11095,-44236,-12348
C00782=-32388,71846,20643,11094,-44238,-12347
C00783=-32389,71846,20646,11093,-44240,-12347
C00784=-32390,71845,20650,11092,-44243,-12346
C00785=-32391,71845,20654,11091,-44245,-12345
C00786=-32392,71845,20657,11091,-44246,-12345
C00787=-32393,71845,20660,11090,-44248,-12344
C00788=-32394,71845,20664,11089,-44251,-12343
C00789=-32395,71845,20667,11088,-44253,-12343
C00790=-32396,71844,20670,11088,-44255,-12342
C00791=-32397,71844,20674,11087,-44257,-12341
C00792=-32398,71844,20677,11086,-44259,-12340
C00793=-32399,71844,20681,11085,-44261,-12340
C00794=-32400,71844,20684,11085,-44263,-12339
C00795=-32401,71844,20688,11084,-44265,-12338
C00796=-32402,71843,20691,11083,-44267,-12338
C00797=-32403,71843,20694,11082,-44269,-12337
C00798=-32404,71843,20698,11081,-44271,-12336
C00799=-32405,71843,20701,11081,-44273,-12336
C00800=-32406,71843,20705,11080,-44275,-12335
C00801=-32407,71842,20708,11079,-44277,-12334
C00802=-32408,71842,20712,11078,-44279,-12334
C00803=-32409,71842,20715,11077,-44281,-12333
C00804=-32410,71842,20719,11077,-44283,-12332
C00805=-32411,71842,20722,11076,-44285,-12332
C00806=-32412,71842,20725,11075,-44287,-12331
C00807=-32413,71841,20729,11074,-44290,-12330
C00808=-32414,71841,20732,11074,-44292,-12329
C00809=-32415,71841,20736,11073,-44294,-12329
C00810=-32416,71841,20739,11072,-44296,-12328
C00811=-32417,71841,20743,11071,-44298,-12327
C00812=-32418,71840,20746,11070,-44300,-12327
C00813=-32419,71840,20750,11070,-44302,-12326
C00814=-32420,71840,20753,11069,-44304,-12325
C00815=-32421,71840,20756,11068,-44306,-12325
C00816=-32422,71840,20760,11067,-44308,-12324
C00817=-32423,71840,20763,11067,-44310,-12323
C00818=-32424,71839,20767,11066,-44312,-12323
C00819=-32424,71839,20770,11065,-44314,-12322
C00820=-32425,71839,20773,11064,-44316,-12321
C00821=-32426,71839,20777,11064,-44318,-12321
C00822=-32427,71838,20780,11063,-44320,-12320
C00823=-32428,71838,20783,11062,-44322,-12319
C00824=-32429,71838,20787,11061,-44324,-12319
C00825=-32430,71838,20790,11061,-44326,-12318
C00826=-32431,71837,20793,11060,-44328,-12317
C00827=-32432,71837,20797,11059,-44330,-12317
C00828=-32433,71837,20800,11058,-44332,-12316
C00829=-32434,71837,20803,11057,-44334,-12315
C00830=-32435,71836,20807,11057,-44336,-12315
C00831=-32436,71836,20810,11056,-44338,-12314
C00832=-32437,71836,20814,11055,-44341,-12313
C00833=-32438,71836,20817,11054,-44343,-12313
C00834=-32438,71836,20820,11054,-44344,-12312
C00835=-32439,71835,20824,11053,-44347,-12311
C00836=-32440,71835,20827,11052,-44349,-12311
C00837=-32441,71835,20831,11051,-44351,-12310
C00838=-32442,71835,20834,11051,-44353,-12309
C00839=-32443,71834,20837,11050,-44355,-12309
C00840=-32444,71834,20841,11049,-44357,-12308
C00841=-32445,71834,20844,11048,-44359,-12307
C00842=-32446,71834,20847,11048,-44361,-12307
C00843=-32447,71833,20851,11047,-44363,-12306
C00844=-32448,71833,20854,11046,-44365,-12305
C00845=-32449,71833,20857,11045,-44367,-12305
C00846=-32450,71833,20861,11044,-44369,-12304
C00847=-32451,71832,20864,11044,-44371,-12303
C00848=-32452,71832,20867,11043,-44373,-12303
C00849=-32452,71832,20871,11042,-44375,-12302
C00850=-32453,71832,20874,11042,-44377,-12301
C00851=-32454,71831,20877,11041,-44379,-12301
C00852=-32455,71831,20881,11040,-44381,-12300
C00853=-32456,71831,20884,11039,-44383,-12299
C00854=-32457,71831,20887,11039,-44385,-12299
C00855=-32458,71830,20891,11038,-44387,-12298
C00856=-32459,71830,20894,11037,-44389,-12297
C00857=-32460,71830,20897,11036,-44391,-12297
C00858=-32460,71829,20900,11036,-44393,-12296
C00859=-32461,71829,20904,11035,-44395,-12295
C00860=-32462,71829,20907,11034,-44397,-12295
C00861=-32463,71829,20910,11033,-44399,-12294
C00862=-32464,71828,20914,11033,-44401,-12294
C00863=-32465,71828,20917,11032,-44403,-12293
C00864=-32466,71828,20920,11031,-44405,-12292
C00865=-32467,71827,20924,11030,-44408,-12292
C00866=-32468,71827,20927,11030,-44409,-12291
C00867=-32469,71827,20930,11029,-44412,-12290
C00868=-32469,71827,20933,11028,-44414,-12290
C00869=-32470,71826,20937,11027,-44416,-12289
C00870=-32471,71826,20940,11027,-44418,-12288
C00871=-32472,71826,20944,11026,-44420,-12288
C00872=-32473,71826,20947,11025,-44422,-12287
C00873=-32474,71825,20950,11024,-44424,-12286
C00874=-32475,71825,20953,11024,-44426,-12286
C00875=-32476,71825,20957,11023,-44428,-12285
C00876=-32477,71824,20960,11022,-44430,-12284
C00877=-32478,71824,20963,11021,-44432,-12284
C00878=-32478,71824,20967,11021,-44434,-12283
C00879=-32479,71824,20970,11020,-44436,-12283
C00880=-32480,71823,20973,11019,-44438,-12282
C00881=-32481,71823,20976,11019,-44440,-12281
C00882=-32482,71823,20979,11018,-44442,-12281
C00883=-32483,71822,20983,11017,-44444,-12280
C00884=-32484,71822,20986,11016,-44446,-12279
C00885=-32484,71822,20989,11016,-44448,-12279
C00886=-32485,71821,20992,11015,-44450,-12278
C00887=-32486,71821,20996,11014,-44452,-12278
C00888=-32487,71821,20999,11014,-44454,-12277
C00889=-32488,71820,21002,11013,-44456,-12276
C00890=-32489,71820,21005,11012,-44458,-12276
C00891=-32490,71820,21008,11011,-44460,-12275
C00892=-32490,71819,21012,11011,-44462,-12274
C00893=-32491,71819,21015,11010,-44464,-12274
C00894=-32492,71819,21018,11009,-44466,-12273
C00895=-32493,71818,21021,11009,-44468,-12273
C00896=-32494,71818,21025,11008,-44470,-12272
C00897=-32495,71818,21028,11007,-44472,-12271
C00898=-32496,71817,21031,11006,-44474,-12271
C00899=-32496,71817,21034,11006,-44476,-12270
C00900=-32497,71817,21038,11005,-44478,-12269
C00901=-32498,71816,21041,11004,-44480,-12269
C00902=-32499,71816,21044,11003,-44482,-12268
C00903=-32500,71816,21048,11003,-44484,-12267
C00904=-32501,71816,21051,11002,-44486,-12267
C00905=-32502,71815,21054,11001,-44488,-12266
C00906=-32502,71815,21057,11001,-44490,-12266
C00907=-32503,71815,21061,11000,-44492,-12265
C00908=-32504,71814,21064,10999,-44494,-12264
C00909=-32505,71814,21067,10998,-44496,-12264
C00910=-32506,71814,21070,10998,-44498,-12263
C00911=-32507,71813,21073,10997,-44500,-12263
C00912=-32507,71813,21076,10996,-44502,-12262
C00913=-32508,71812,21080,10996,-44504,-12261
C00914=-32509,71812,21083,10995,-44506,-12261
C00915=-32510,71812,21086,10994,-44508,-12260
C00916=-32511,71811,21089,10993,-44510,-12259
C00917=-32512,71811,21092,10993,-44512,-12259
C00918=-32512,71811,21095,10992,-44514,-12258
C00919=-32513,71810,21099,10991,-44516,-12258
C00920=-32514,71810,21102,10991,-44518,-12257
C00921=-32515,71810,21105,10990,-44520,-12256
C00922=-32516,71809,21108,10989,-44522,-12256
C00923=-32516,71809,21111,10989,-44524,-12255
C00924=-32517,71809,21115,10988,-44526,-12255
C00925=-32518,71808,21118,10987,-44528,-12254
C00926=-32519,71808,21121,10986,-44530,-12253
C00927=-32520,71807,21124,10986,-44532,-12253
C00928=-32521,71807,21127,10985,-44534,-12252
C00929=-32521,71807,21130,10984,-44536,-12252
C00930=-32522,71806,21133,10984,-44538,-12251
C00931=-32523,71806,21136,10983,-44540,-12250
C00932=-32524,71806,21139,10982,-44542,-12250
C00933=-32525,71805,21142,10982,-44544,-12249
C00934=-32525,71805,21146,10981,-44546,-12249
C00935=-32526,71805,21149,10980,-44548,-12248
C00936=-32527,71804,21152,10980,-44550,-12247
C00937=-32528,71804,21155,10979,-44552,-12247
C00938=-32529,71804,21158,10978,-44554,-12246
C00939=-32529,71803,21161,10978,-44555,-12246
C00940=-32530,71803,21164,10977,-44558,-12245
C00941=-32531,71803,21167,10976,-44559,-12244
C00942=-32532,71802,21170,10976,-44561,-12244
C00943=-32532,71802,21173,10975,-44563,-12243
C00944=-32533,71801,21176,10974,-44565,-12243
C00945=-32534,71801,21179,10974,-44567,-12242
C00946=-32535,71801,21182,10973,-44569,-12242
C00947=-32536,71800,21185,10972,-44571,-12241
C00948=-32536,71800,21188,10972,-44573,-12240
C00949=-32537,71799,21191,10971,-44575,-12240
C00950=-32538,71799,21194,10970,-44577,-12239
C00951=-32539,71799,21197,10970,-44579,-12239
C00952=-32539,71798,21201,10969,-44581,-12238
C00953=-32540,71798,21203,10968,-44583,-12238
C00954=-32541,71798,21206,10968,-44584,-12237
C00955=-32542,71797,21210,10967,-44586,-12236
C00956=-32542,71797,21213,10966,-44588,-12236
C00957=-32543,71796,21216,10965,-44590,-12235
C00958=-32544,71796,21219,10965,-44592,-12235
C00959=-32545,71796,21222,10964,-44594,-12234
C00960=-32546,71795,21225,10963,-44596,-12233
C00961=-32546,71795,21228,10963,-44598,-12233
C00962=-32547,71794,21231,10962,-44600,-12232
C00963=-32548,71794,21234,10961,-44602,-12232
C00964=-32549,71794,21237,10961,-44604,-12231
C00965=-32549,71793,21240,10960,-44606,-12231
C00966=-32550,71793,21243,10959,-44608,-12230
C00967=-32551,71792,21246,10959,-44610,-12229
C00968=-32552,71792,21249,10958,-44612,-12229
C00969=-32552,71792,21252,10957,-44614,-12228
C00970=-32553,71791,21255,10957,-44616,-12228
C00971=-32554,71791,21258,10956,-44617,-12227
C00972=-32555,71791,21261,10955,-44619,-12227
C00973=-32555,71790,21264,10955,-44621,-12226
C00974=-32556,71790,21267,10954,-44623,-12226
C00975=-32557,71789,21270,10954,-44625,-12225
C00976=-32558,71789,21273,10953,-44627,-12224
C00977=-32558,71789,21276,10952,-44629,-12224
C00978=-32559,71788,21279,10952,-44631,-12223
C00979=-32560,71788,21282,10951,-44633,-12223
C00980=-32561,71787,21285,10950,-44635,-12222
C00981=-32561,71787,21288,10950,-44637,-12222
C00982=-32562,71786,21291,10949,-44639,-12221
C00983=-32563,71786,21294,10948,-44641,-12220
C00984=-32564,71786,21297,10948,-44642,-12220
C00985=-32564,71785,21300,10947,-44644,-12219
C00986=-32565,71785,21303,10946,-44646,-12219
C00987=-32566,71784,21306,10946,-44648,-12218
C00988=-32567,71784,21309,10945,-44650,-12218
C00989=-32567,71783,21312,10944,-44652,-12217
C00990=-32568,71783,21315,10944,-44654,-12216
C00991=-32569,71783,21318,10943,-44656,-12216
C00992=-32569,71782,21321,10942,-44658,-12215
C00993=-32570,71782,21324,10942,-44660,-12215
C00994=-32571,71781,21327,10941,-44662,-12214
C00995=-32572,71781,21330,10940,-44664,-12214
C00996=-32572,71781,21333,10940,-44666,-12213
C00997=-32573,71780,21336,10939,-44668,-12213
C00998=-32574,71780,21339,10938,-44670,-12212
C00999=-32575,71779,21342,10938,-44671,-12211
C01000=-32575,71779,21345,10937,-44673,-12211
C01001=-32576,71778,21348,10936,-44675,-12210
C01002=-32577,71778,21351,10936,-44677,-12210
C01003=-32578,71778,21354,10935,-44679,-12209
C01004=-32578,71777,21357,10934,-44681,-12209
C01005=-32579,71777,21360,10934,-44683,-12208
C01006=-32580,71776,21363,10933,-44685,-12208
C01007=-32580,71776,21366,10933,-44687,-12207
C01008=-32581,71775,21369,10932,-44689,-12206
C01009=-32582,71775,21372,10931,-44691,-12206
C01010=-32583,71775,21375,10931,-44692,-12205
C01011=-32583,71774,21378,10930,-44694,-12205
C01012=-32584,71774,21380,10929,-44696,-12204
C01013=-32585,71773,21384,10929,-44698,-12204
C01014=-32585,71773,21386,10928,-44700,-12203
C01015=-32586,71772,21389,10927,-44702,-12203
C01016=-32587,71772,21392,10927,-44704,-12202
C01017=-32588,71771,21395,10926,-44706,-12201
C01018=-32588,71771,21398,10926,-44708,-12201
C01019=-32589,71770,21401,10925,-44710,-12200
C01020=-32590,71770,21404,10924,-44712,-12200
C01021=-32590,71770,21407,10924,-44714,-12199
C01022=-32591,71769,21410,10923,-44716,-12199
C01023=-32592,71769,21413,10922,-44718,-12198
C01024=-32593,71768,21416,10922,-44719,-12198
C01025=-32593,71768,21419,10921,-44722,-12197
C01026=-32594,71767,21422,10920,-44723,-12197
C01027=-32595,71767,21425,10920,-44725,-12196
C01028=-32595,71766,21428,10919,-44727,-12195
C01029=-32596,71766,21431,10918,-44729,-12195
C01030=-32597,71766,21434,10918,-44731,-12194
C01031=-32598,71765,21437,10917,-44733,-12194
C01032=-32598,71765,21440,10917,-44735,-12193
C01033=-32599,71764,21443,10916,-44737,-12193
C01034=-32600,71764,21445,10915,-44739,-12192
C01035=-32600,71763,21449,10915,-44741,-12192
C01036=-32601,71763,21451,10914,-44743,-12191
C01037=-32602,71762,21454,10913,-44745,-12190
C01038=-32602,71762,21454,10913,-44745,-12190
C01039=-32602,71762,21454,10913,-44745,-12190
C01040=-32602,71762,21454,10913,-44745,-12190
C01041=-32602,71762,21454,10913,-44745,-12190
C01042=-32602,71762,21454,10913,-44745,-12190
C01043=-32602,71762,21454,10913,-44745,-12190
C01044=-32602,71762,21454,10913,-44745,-12190
C01045=-32602,71762,21454,10913,-44745,-12190
C01046=-32602,71762,21454,10913,-44745,-12190
C01047=-32602,71762,21454,10913,-44745,-12190
C01048=-32602,71762,21454,10913,-44745,-12190
C01049=-32602,71762,21454,10913,-44745,-12190
C01050=-32602,71762,21454,10913,-44745,-12190
C01051=-32602,71762,21454,10913,-44745,-12190
C01052=-32602,71762,21454,10913,-44745,-12190
C01053=-32602,71762,21454,10913,-44745,-12190
EC00000=52852,-222759
EC00001=52852,-191958
EC00002=52852,-161157
EC00003=52852,-130356
EC00004=52852,-99555
EC00005=52852,-68754
EC00006=52852,-37953
EC00007=52852,-7152
EC00008=52852,23649
EC00009=52317,54446
EC00010=51728,85244
EC00011=51139,116043
EC00012=50551,146844
EC00013=49962,177645
EC00014=49374,208448
EC00015=48785,239252
EC00016=48143,272857
EC00017=47587,302007
EC00018=47030,331158
EC00019=46473,360310
EC00020=45916,389463
EC00021=45359,418617
EC00022=44802,447773
EC00023=44245,476929
EC00024=43689,506086
EC00025=43227,535208
EC00026=42768,564302
EC00027=42310,593413
EC00028=41851,622544
EC00029=41393,651692
EC00030=40934,680860
EC00031=40476,710046
EC00032=40017,739250
EC00033=39558,768473
EC00034=39159,793815
EC00035=38719,821677
EC00036=38279,849523
EC00037=37840,877354
EC00038=37400,905169
EC00039=36960,932969
EC00040=36521,960753
EC00041=36081,988522
EC00042=35681,1016281
EC00043=35356,1041623
EC00044=34997,1069485
EC00045=34639,1097331
EC00046=34280,1125162
EC00047=33922,1152978
EC00048=33564,1180779
EC00049=33205,1208564
EC00050=32847,1236334
EC00051=32489,1264089
EC00052=32176,1288207
EC00053=31831,1314752
EC00054=31487,1341312
EC00055=31143,1367887
EC00056=30830,1392059
EC00057=30485,1418664
EC00058=30141,1445284
EC00059=29797,1471919
EC00060=29453,1498569
EC00061=29192,1522754
EC00062=28907,1549295
EC00063=28622,1575850
EC00064=28336,1602419
EC00065=28051,1629002
EC00066=27792,1653181
EC00067=27506,1679791
EC00068=27221,1706415
EC00069=26936,1733053
EC00070=26650,1759705
EC00071=26398,1783132
EC00072=26121,1808890
EC00073=25869,1832295
EC00074=25592,1858029
EC00075=25315,1883750
EC00076=25063,1907123
EC00077=24786,1932821
EC00078=24534,1956172
EC00079=24256,1981846
EC00080=24004,2007513
EC00081=23796,2030891
EC00082=23566,2056607
EC00083=23357,2079985
EC00084=23128,2105701
EC00085=22898,2131417
EC00086=22689,2154795
EC00087=22459,2180511
EC00088=22251,2203889
EC00089=22021,2229605
EC00090=21791,2255321
EC00091=21588,2277846
EC00092=21385,2300371
EC00093=21162,2325149
EC00094=20959,2347676
EC00095=20736,2372456
EC00096=20532,2394984
EC00097=20309,2419766
EC00098=20106,2442296
EC00099=19883,2467079
EC00100=19680,2489611
EC00101=19493,2514393
EC00102=19323,2536921
EC00103=19136,2561702
EC00104=18966,2584230
EC00105=18779,2609011
EC00106=18609,2631539
EC00107=18422,2656320
EC00108=18252,2678848
EC00109=18065,2703628
EC00110=17895,2726156
EC00111=17708,2750937
EC00112=17541,2772865
EC00113=17357,2796986
EC00114=17173,2821107
EC00115=16990,2845229
EC00116=16823,2867158
EC00117=16639,2891281
EC00118=16455,2915405
EC00119=16271,2939529
EC00120=16104,2961461
EC00121=15921,2985586
EC00122=15766,3009710
EC00123=15611,3033833
EC00124=15470,3055763
EC00125=15314,3079886
EC00126=15159,3104009
EC00127=15003,3128132
EC00128=14862,3150062
EC00129=14706,3174185
EC00130=14551,3198308
EC00131=14395,3222430
EC00132=14240,3246553
EC00133=14101,3267914
EC00134=13948,3291411
EC00135=13809,3312772
EC00136=13656,3336270
EC00137=13518,3357633
EC00138=13365,3381132
EC00139=13226,3402495
EC00140=13073,3425995
EC00141=12934,3447359
EC00142=12781,3470860
EC00143=12642,3494361
EC00144=12524,3515724
EC00145=12393,3539223
EC00146=12274,3560586
EC00147=12144,3584085
EC00148=12025,3605448
EC00149=11894,3628947
EC00150=11776,3650309
EC00151=11645,3673809
EC00152=11526,3695171
EC00153=11396,3718670
EC00154=11265,3742169
EC00155=11148,3762991
EC00156=11020,3785896
EC00157=10891,3808801
EC00158=10763,3831707
EC00159=10635,3854613
EC00160=10518,3875438
EC00161=10389,3898345
EC00162=10261,3921252
EC00163=10133,3944160
EC00164=10004,3967069
EC00165=9887,3989977
EC00166=9787,4010841
EC00167=9676,4033782
EC00168=9565,4056715
EC00169=9454,4079639
EC00170=9343,4102554
EC00171=9243,4123379
EC00172=9132,4146278
EC00173=9021,4169168
EC00174=8910,4192049
EC00175=8799,4214922
EC00176=8688,4237785
EC00177=8589,4258141
EC00178=8480,4280540
EC00179=8381,4300911
EC00180=8272,4323327
EC00181=8173,4343713
EC00182=8064,4366146
EC00183=7965,4386547
EC00184=7856,4408997
EC00185=7747,4431455
EC00186=7648,4451880
EC00187=7539,4474355
EC00188=7455,4494755
EC00189=7359,4517151
EC00190=7272,4537519
EC00191=7176,4559931
EC00192=7081,4582352
EC00193=6994,4602742
EC00194=6898,4625179
EC00195=6811,4645583
EC00196=6716,4668036
EC00197=6629,4688455
EC00198=6533,4710924
EC00199=6437,4733401
EC00200=6352,4753423
EC00201=6258,4775438
EC00202=6163,4797446
EC00203=6069,4819446
EC00204=5984,4839439
EC00205=5890,4861424
EC00206=5796,4883402
EC00207=5702,4905371
EC00208=5607,4927333
EC00209=5522,4947291
EC00210=5428,4969238
EC00211=5347,4991221
EC00212=5265,5013240
EC00213=5190,5033250
EC00214=5107,5055255
EC00215=5025,5077251
EC00216=4942,5099240
EC00217=4860,5121221
EC00218=4785,5141198
EC00219=4702,5163164
EC00220=4619,5185123
EC00221=4537,5207074
EC00222=4454,5229017
EC00223=4380,5248570
EC00224=4299,5270085
EC00225=4225,5289651
EC00226=4144,5311180
EC00227=4070,5330760
EC00228=3989,5352304
EC00229=3915,5371897
EC00230=3834,5393457
EC00231=3760,5413063
EC00232=3679,5434637
EC00233=3605,5454257
EC00234=3524,5475846
EC00235=3458,5497359
EC00236=3392,5516919
EC00237=3320,5538442
EC00238=3254,5558015
EC00239=3182,5579552
EC00240=3116,5599138
EC00241=3043,5620689
EC00242=2978,5640288
EC00243=2905,5661854
EC00244=2840,5681466
EC00245=2767,5703046
EC00246=2695,5724634
EC00247=2630,5743877
EC00248=2559,5765039
EC00249=2488,5786194
EC00250=2416,5807341
EC00251=2352,5826560
EC00252=2280,5847695
EC00253=2209,5868822
EC00254=2138,5889943
EC00255=2073,5909137
EC00256=2002,5930244
EC00257=1931,5951345
EC00258=1866,5972442
EC00259=1808,5991651
EC00260=1745,6012782
EC00261=1682,6033913
EC00262=1618,6055044
EC00263=1561,6074254
EC00264=1497,6095385
EC00265=1434,6116516
EC00266=1371,6137647
EC00267=1313,6156857
EC00268=1250,6177988
EC00269=1186,6199119
EC00270=1123,6220250
EC00271=1066,6239165
EC00272=1009,6258081
EC00273=946,6278888
EC00274=889,6297805
EC00275=826,6318613
EC00276=769,6337529
EC00277=706,6358337
EC00278=649,6377254
EC00279=586,6398063
EC00280=529,6416980
EC00281=466,6437789
EC00282=409,6456707
EC00283=355,6477516
EC00284=304,6496433
EC00285=247,6517241
EC00286=196,6536157
EC00287=140,6556966
EC00288=89,6575882
EC00289=33,6596691
EC00290=-18,6615607
EC00291=-75,6636416
EC00292=-126,6655332
EC00293=-182,6676141
EC00294=-233,6695057
EC00295=-289,6715866
EC00296=-340,6734497
EC00297=-396,6754991
EC00298=-447,6773623
EC00299=-502,6794118
EC00300=-558,6814613
EC00301=-609,6833245
EC00302=-665,6853740
EC00303=-721,6874236
EC00304=-771,6892868
EC00305=-827,6913364
EC00306=-883,6933861
EC00307=-934,6952494
EC00308=-982,6972990
EC00309=-1027,6991622
EC00310=-1078,7012117
EC00311=-1128,7032613
EC00312=-1173,7051245
EC00313=-1224,7071740
EC00314=-1274,7092236
EC00315=-1319,7110868
EC00316=-1370,7131363
EC00317=-1420,7151859
EC00318=-1465,7170491
EC00319=-1516,7190986
EC00320=-1566,7211482
EC00321=-1611,7229837
EC00322=-1656,7248192
EC00323=-1706,7268383
EC00324=-1751,7286739
EC00325=-1797,7305095
EC00326=-1847,7325286
EC00327=-1892,7343642
EC00328=-1942,7363834
EC00329=-1987,7382191
EC00330=-2032,7400548
EC00331=-2082,7420740
EC00332=-2127,7439097
EC00333=-2173,7459290
EC00334=-2213,7477646
EC00335=-2254,7496002
EC00336=-2299,7516194
EC00337=-2340,7534550
EC00338=-2381,7552906
EC00339=-2426,7573098
EC00340=-2467,7591454
EC00341=-2512,7611646
EC00342=-2553,7630002
EC00343=-2594,7648358
EC00344=-2639,7668550
EC00345=-2680,7686906
EC00346=-2725,7707098
EC00347=-2766,7725185
EC00348=-2810,7745081
EC00349=-2851,7763169
EC00350=-2896,7783065
EC00351=-2936,7801153
EC00352=-2981,7821050
EC00353=-3022,7839138
EC00354=-3066,7859035
EC00355=-3107,7877124
EC00356=-3152,7897021
EC00357=-3192,7915110
EC00358=-3237,7935008
EC00359=-3278,7954906
EC00360=-3314,7972994
EC00361=-3355,7992891
EC00362=-3392,8010979
EC00363=-3432,8030876
EC00364=-3469,8048964
EC00365=-3510,8068861
EC00366=-3547,8086949
EC00367=-3587,8106846
EC00368=-3624,8124935
EC00369=-3665,8144832
EC00370=-3702,8162920
EC00371=-3742,8182817
EC00372=-3783,8202714
EC00373=-3819,8220541
EC00374=-3860,8240151
EC00375=-3900,8259761
EC00376=-3937,8277588
EC00377=-3977,8297199
EC00378=-4017,8316809
EC00379=-4054,8334637
EC00380=-4094,8354248
EC00381=-4134,8373859
EC00382=-4171,8391687
EC00383=-4211,8411299
EC00384=-4251,8430910
EC00385=-4288,8450522
EC00386=-4321,8468379
EC00387=-4358,8488017
EC00388=-4395,8507649
EC00389=-4428,8525492
EC00390=-4465,8545114
EC00391=-4502,8564730
EC00392=-4535,8582558
EC00393=-4572,8602164
EC00394=-4608,8621764
EC00395=-4642,8639577
EC00396=-4678,8659167
EC00397=-4715,8678751
EC00398=-4752,8698330
EC00399=-4785,8715937
EC00400=-4818,8733550
EC00401=-4855,8752929
EC00402=-4888,8770551
EC00403=-4924,8789940
EC00404=-4957,8807572
EC00405=-4991,8825208
EC00406=-5027,8844613
EC00407=-5060,8862259
EC00408=-5097,8881675
EC00409=-5130,8899330
EC00410=-5163,8916990
EC00411=-5199,8936422
EC00412=-5228,8954074
EC00413=-5262,8973475
EC00414=-5292,8991113
EC00415=-5323,9008750
EC00416=-5356,9028151
EC00417=-5387,9045789
EC00418=-5420,9065190
EC00419=-5451,9082827
EC00420=-5482,9100465
EC00421=-5515,9119867
EC00422=-5546,9137504
EC00423=-5579,9156906
EC00424=-5610,9174544
EC00425=-5643,9193946
EC00426=-5673,9211335
EC00427=-5707,9230464
EC00428=-5737,9247854
EC00429=-5770,9266983
EC00430=-5800,9284373
EC00431=-5833,9303501
EC00432=-5863,9320891
EC00433=-5896,9340021
EC00434=-5929,9359150
EC00435=-5959,9376540
EC00436=-5993,9395669
EC00437=-6023,9413060
EC00438=-6056,9432189
EC00439=-6082,9449567
EC00440=-6113,9468667
EC00441=-6141,9486035
EC00442=-6171,9505145
EC00443=-6202,9524260
EC00444=-6230,9541642
EC00445=-6260,9560767
EC00446=-6288,9578158
EC00447=-6319,9597293
EC00448=-6347,9614693
EC00449=-6377,9633838
EC00450=-6405,9651247
EC00451=-6436,9670402
EC00452=-6466,9689562
EC00453=-6494,9706798
EC00454=-6524,9725754
EC00455=-6555,9744704
EC00456=-6582,9761927
EC00457=-6613,9780868
EC00458=-6643,9799804
EC00459=-6671,9817014
EC00460=-6701,9835940
EC00461=-6732,9854861
EC00462=-6759,9872058
EC00463=-6790,9890969
EC00464=-6820,9909876
EC00465=-6848,9927059
EC00466=-6874,9945989
EC00467=-6902,9964946
EC00468=-6928,9982176
EC00469=-6956,10001124
EC00470=-6984,10020067
EC00471=-7009,10037284
EC00472=-7037,10056217
EC00473=-7065,10075146
EC00474=-7091,10092350
EC00475=-7119,10111269
EC00476=-7147,10130183
EC00477=-7172,10147373
EC00478=-7200,10166278
EC00479=-7228,10185178
EC00480=-7254,10202181
EC00481=-7279,10219189
EC00482=-7307,10237902
EC00483=-7332,10254919
EC00484=-7357,10271939
EC00485=-7385,10290667
EC00486=-7410,10307696
EC00487=-7438,10326433
EC00488=-7464,10343471
EC00489=-7489,10360513
EC00490=-7517,10379264
EC00491=-7542,10396314
EC00492=-7570,10415075
EC00493=-7595,10432134
EC00494=-7616,10449165
EC00495=-7642,10467900
EC00496=-7666,10484931
EC00497=-7692,10503665
EC00498=-7715,10520697
EC00499=-7739,10537728
EC00500=-7765,10556463
EC00501=-7788,10573494
EC00502=-7814,10592229
EC00503=-7837,10609260
EC00504=-7861,10626292
EC00505=-7887,10645027
EC00506=-7910,10662059
EC00507=-7936,10680794
EC00508=-7960,10697594
EC00509=-7985,10716074
EC00510=-8008,10732875
EC00511=-8034,10751355
EC00512=-8057,10768155
EC00513=-8083,10786636
EC00514=-8106,10803436
EC00515=-8131,10821917
EC00516=-8154,10838718
EC00517=-8180,10857198
EC00518=-8203,10873999
EC00519=-8229,10892480
EC00520=-8252,10909281
EC00521=-8278,10927762
EC00522=-8299,10946216
EC00523=-8321,10962994
EC00524=-8345,10981454
EC00525=-8366,10998240
EC00526=-8390,11016709
EC00527=-8412,11033503
EC00528=-8436,11051981
EC00529=-8457,11068783
EC00530=-8481,11087270
EC00531=-8503,11104081
EC00532=-8527,11122577
EC00533=-8548,11139395
EC00534=-8572,11157900
EC00535=-8596,11176410
EC00536=-8617,11193067
EC00537=-8641,11211386
EC00538=-8663,11228035
EC00539=-8686,11246345
EC00540=-8710,11264651
EC00541=-8731,11281288
EC00542=-8755,11299585
EC00543=-8779,11317878
EC00544=-8800,11334503
EC00545=-8824,11352787
EC00546=-8847,11371066
EC00547=-8869,11387679
EC00548=-8893,11405949
EC00549=-8914,11424218
EC00550=-8934,11440875
EC00551=-8956,11459194
EC00552=-8976,11475843
EC00553=-8998,11494153
EC00554=-9020,11512459
EC00555=-9040,11529096
EC00556=-9062,11547393
EC00557=-9084,11565686
EC00558=-9104,11582311
EC00559=-9126,11600595
EC00560=-9148,11618875
EC00561=-9168,11635489
EC00562=-9190,11653760
EC00563=-9212,11672026
EC00564=-9232,11688465
EC00565=-9252,11704909
EC00566=-9273,11723001
EC00567=-9293,11739452
EC00568=-9313,11755907
EC00569=-9335,11774011
EC00570=-9355,11790474
EC00571=-9377,11808587
EC00572=-9396,11825058
EC00573=-9416,11841532
EC00574=-9438,11859658
EC00575=-9458,11876140
EC00576=-9478,11892626
EC00577=-9500,11910764
EC00578=-9517,11927243
EC00579=-9537,11945355
EC00580=-9556,11961821
EC00581=-9575,11978287
EC00582=-9595,11996399
EC00583=-9614,12012864
EC00584=-9632,12029330
EC00585=-9653,12047442
EC00586=-9671,12063908
EC00587=-9692,12082020
EC00588=-9710,12098486
EC00589=-9729,12114951
EC00590=-9750,12133064
EC00591=-9768,12149530
EC00592=-9789,12167642
EC00593=-9807,12183999
EC00594=-9826,12200356
EC00595=-9846,12218348
EC00596=-9864,12234705
EC00597=-9885,12252698
EC00598=-9903,12269055
EC00599=-9924,12287047
EC00600=-9942,12303404
EC00601=-9962,12321397
EC00602=-9981,12337754
EC00603=-9999,12354111
EC00604=-10020,12372104
EC00605=-10038,12388461
EC00606=-10058,12406454
EC00607=-10075,12422800
EC00608=-10094,12440767
EC00609=-10111,12457104
EC00610=-10130,12475079
EC00611=-10148,12491423
EC00612=-10165,12507771
EC00613=-10184,12525759
EC00614=-10201,12542114
EC00615=-10220,12560110
EC00616=-10238,12576473
EC00617=-10257,12594477
EC00618=-10274,12610847
EC00619=-10293,12628859
EC00620=-10311,12645238
EC00621=-10330,12663258
EC00622=-10347,12679479
EC00623=-10366,12697319
EC00624=-10383,12713533
EC00625=-10402,12731364
EC00626=-10420,12747571
EC00627=-10439,12765394
EC00628=-10456,12781593
EC00629=-10475,12799409
EC00630=-10492,12815601
EC00631=-10511,12833408
EC00632=-10530,12851211
EC00633=-10547,12867392
EC00634=-10566,12885187
EC00635=-10583,12901361
EC00636=-10600,12919177
EC00637=-10616,12935396
EC00638=-10634,12953234
EC00639=-10650,12969446
EC00640=-10668,12987275
EC00641=-10686,13005101
EC00642=-10702,13021302
EC00643=-10720,13039119
EC00644=-10736,13055313
EC00645=-10753,13073123
EC00646=-10770,13089310
EC00647=-10787,13107111
EC00648=-10803,13123291
EC00649=-10821,13141085
EC00650=-10839,13158874
EC00651=-10855,13174889
EC00652=-10871,13190907
EC00653=-10887,13206928
EC00654=-10905,13224556
EC00655=-10921,13240584
EC00656=-10937,13256616
EC00657=-10954,13274256
EC00658=-10970,13290295
EC00659=-10986,13306338
EC00660=-11004,13323989
EC00661=-11020,13340039
EC00662=-11036,13356092
EC00663=-11052,13372149
EC00664=-11070,13389816
EC00665=-11086,13405880
EC00666=-11099,13421919
EC00667=-11116,13439562
EC00668=-11131,13455602
EC00669=-11146,13471641
EC00670=-11163,13489284
EC00671=-11178,13505323
EC00672=-11193,13521363
EC00673=-11208,13537402
EC00674=-11225,13555045
EC00675=-11240,13571085
EC00676=-11255,13587124
EC00677=-11272,13604768
EC00678=-11287,13620807
EC00679=-11302,13636847
EC00680=-11319,13654490
EC00681=-11334,13670426
EC00682=-11349,13686362
EC00683=-11365,13703892
EC00684=-11380,13719828
EC00685=-11395,13735764
EC00686=-11412,13753294
EC00687=-11427,13769230
EC00688=-11442,13785166
EC00689=-11458,13802696
EC00690=-11473,13818632
EC00691=-11490,13836162
EC00692=-11505,13852099
EC00693=-11520,13868035
EC00694=-11536,13885565
EC00695=-11551,13901501
EC00696=-11564,13917416
EC00697=-11580,13934923
EC00698=-11594,13950841
EC00699=-11608,13966763
EC00700=-11624,13984282
EC00701=-11638,14000211
EC00702=-11654,14017737
EC00703=-11668,14033673
EC00704=-11682,14049612
EC00705=-11698,14067149
EC00706=-11712,14083095
EC00707=-11726,14099045
EC00708=-11742,14116593
EC00709=-11756,14132550
EC00710=-11771,14150106
EC00711=-11786,14165914
EC00712=-11800,14181718
EC00713=-11815,14199099
EC00714=-11829,14214896
EC00715=-11845,14232270
EC00716=-11859,14248060
EC00717=-11874,14265426
EC00718=-11889,14281210
EC00719=-11904,14298569
EC00720=-11918,14314346
EC00721=-11934,14331697
EC00722=-11948,14347468
EC00723=-11963,14364812
EC00724=-11977,14380575
EC00725=-11991,14397914
EC00726=-12005,14413721
EC00727=-12018,14429526
EC00728=-12033,14446906
EC00729=-12046,14462704
EC00730=-12060,14480077
EC00731=-12074,14495868
EC00732=-12088,14513234
EC00733=-12102,14529018
EC00734=-12116,14546377
EC00735=-12129,14562155
EC00736=-12144,14579506
EC00737=-12157,14595277
EC00738=-12172,14612621
EC00739=-12185,14628385
EC00740=-12200,14645722
EC00741=-12213,14661333
EC00742=-12227,14678509
EC00743=-12241,14694127
EC00744=-12255,14711310
EC00745=-12268,14726934
EC00746=-12283,14744125
EC00747=-12296,14759756
EC00748=-12310,14776953
EC00749=-12325,14794155
EC00750=-12338,14809796
EC00751=-12353,14827006
EC00752=-12366,14842653
EC00753=-12380,14859870
EC00754=-12394,14875525
EC00755=-12408,14892748
EC00756=-12421,14909946
EC00757=-12433,14925581
EC00758=-12447,14942779
EC00759=-12459,14958413
EC00760=-12473,14975611
EC00761=-12486,14991246
EC00762=-12499,15008444
EC00763=-12513,15025642
EC00764=-12526,15041276
EC00765=-12539,15058474
EC00766=-12552,15074109
EC00767=-12565,15091307
EC00768=-12578,15106942
EC00769=-12592,15124140
EC00770=-12605,15141338
EC00771=-12618,15156875
EC00772=-12630,15172411
EC00773=-12643,15187947
EC00774=-12656,15205038
EC00775=-12669,15220574
EC00776=-12681,15236111
EC00777=-12695,15253201
EC00778=-12707,15268737
EC00779=-12720,15284274
EC00780=-12732,15299810
EC00781=-12746,15316901
EC00782=-12758,15332437
EC00783=-12771,15347974
EC00784=-12784,15365064
EC00785=-12797,15380601
EC00786=-12808,15396138
EC00787=-12819,15411674
EC00788=-12832,15428764
EC00789=-12844,15444301
EC00790=-12856,15459837
EC00791=-12869,15476927
EC00792=-12881,15492464
EC00793=-12893,15508000
EC00794=-12904,15523537
EC00795=-12917,15540627
EC00796=-12929,15556164
EC00797=-12941,15571700
EC00798=-12954,15588791
EC00799=-12966,15604327
EC00800=-12978,15619864
EC00801=-12990,15636954
EC00802=-13002,15652394
EC00803=-13014,15667833
EC00804=-13027,15684817
EC00805=-13039,15700257
EC00806=-13050,15715696
EC00807=-13063,15732680
EC00808=-13075,15748120
EC00809=-13087,15763560
EC00810=-13099,15780543
EC00811=-13111,15795983
EC00812=-13123,15811423
EC00813=-13136,15828407
EC00814=-13148,15843847
EC00815=-13159,15859286
EC00816=-13172,15876270
EC00817=-13182,15891701
EC00818=-13195,15908661
EC00819=-13206,15924083
EC00820=-13217,15939507
EC00821=-13229,15956478
EC00822=-13240,15971909
EC00823=-13252,15987343
EC00824=-13264,16004324
EC00825=-13275,16019764
EC00826=-13286,16035208
EC00827=-13298,16052199
EC00828=-13310,16067649
EC00829=-13321,16083101
EC00830=-13333,16100103
EC00831=-13344,16115562
EC00832=-13356,16132570
EC00833=-13367,16147889
EC00834=-13378,16163205
EC00835=-13391,16180049
EC00836=-13402,16195359
EC00837=-13414,16212196
EC00838=-13425,16227500
EC00839=-13437,16244331
EC00840=-13448,16259628
EC00841=-13460,16276452
EC00842=-13472,16291744
EC00843=-13483,16307032
EC00844=-13495,16323846
EC00845=-13506,16339128
EC00846=-13518,16355935
EC00847=-13529,16371212
EC00848=-13540,16388027
EC00849=-13550,16403323
EC00850=-13562,16420150
EC00851=-13572,16435447
EC00852=-13584,16452273
EC00853=-13594,16467570
EC00854=-13605,16482867
EC00855=-13616,16499693
EC00856=-13627,16514990
EC00857=-13638,16531817
EC00858=-13649,16547113
EC00859=-13660,16563940
EC00860=-13671,16579237
EC00861=-13682,16596063
EC00862=-13693,16611360
EC00863=-13704,16628186
EC00864=-13715,16643389
EC00865=-13726,16660112
EC00866=-13737,16675315
EC00867=-13748,16692038
EC00868=-13759,16707241
EC00869=-13770,16723964
EC00870=-13781,16739167
EC00871=-13792,16755890
EC00872=-13803,16771093
EC00873=-13814,16787816
EC00874=-13825,16803019
EC00875=-13837,16819743
EC00876=-13847,16834946
EC00877=-13859,16851669
EC00878=-13869,16866872
EC00879=-13879,16883596
EC00880=-13889,16898799
EC00881=-13900,16915522
EC00882=-13910,16930725
EC00883=-13921,16947448
EC00884=-13931,16962651
EC00885=-13942,16979374
EC00886=-13952,16994577
EC00887=-13963,17011301
EC00888=-13973,17026504
EC00889=-13983,17043227
EC00890=-13993,17058430
EC00891=-14004,17075153
EC00892=-14014,17090356
EC00893=-14025,17107079
EC00894=-14036,17123802
EC00895=-14046,17138912
EC00896=-14057,17155533
EC00897=-14067,17170643
EC00898=-14078,17187265
EC00899=-14088,17202375
EC00900=-14099,17218996
EC00901=-14110,17235617
EC00902=-14120,17250727
EC00903=-14130,17267349
EC00904=-14140,17282459
EC00905=-14151,17299080
EC00906=-14161,17314191
EC00907=-14172,17330812
EC00908=-14183,17347434
EC00909=-14193,17362544
EC00910=-14203,17379177
EC00911=-14212,17394307
EC00912=-14223,17410947
EC00913=-14233,17427584
EC00914=-14242,17442705
EC00915=-14253,17459335
EC00916=-14262,17474451
EC00917=-14272,17491075
EC00918=-14282,17506184
EC00919=-14292,17522802
EC00920=-14303,17539416
EC00921=-14312,17554517
EC00922=-14322,17571124
EC00923=-14332,17586219
EC00924=-14342,17602821
EC00925=-14353,17619418
EC00926=-14362,17634370
EC00927=-14371,17649324
EC00928=-14382,17665777
EC00929=-14391,17680738
EC00930=-14400,17695701
EC00931=-14411,17712163
EC00932=-14420,17727132
EC00933=-14429,17742104
EC00934=-14440,17758576
EC00935=-14449,17773554
EC00936=-14458,17788534
EC00937=-14469,17805016
EC00938=-14478,17820002
EC00939=-14487,17834991
EC00940=-14498,17851483
EC00941=-14507,17866478
EC00942=-14515,17881451
EC00943=-14525,17897921
EC00944=-14534,17912895
EC00945=-14543,17927868
EC00946=-14553,17944338
EC00947=-14562,17959312
EC00948=-14571,17974285
EC00949=-14581,17990756
EC00950=-14590,18005729
EC00951=-14598,18020702
EC00952=-14608,18037173
EC00953=-14617,18052146
EC00954=-14626,18067120
EC00955=-14636,18083590
EC00956=-14645,18098564
EC00957=-14655,18115034
EC00958=-14664,18129918
EC00959=-14673,18144801
EC00960=-14682,18161173
EC00961=-14691,18176056
EC00962=-14701,18192427
EC00963=-14710,18207311
EC00964=-14719,18222194
EC00965=-14729,18238566
EC00966=-14738,18253449
EC00967=-14747,18269821
EC00968=-14756,18284704
EC00969=-14765,18299588
EC00970=-14775,18315960
EC00971=-14784,18330843
EC00972=-14794,18347215
EC00973=-14803,18362098
EC00974=-14810,18376982
EC00975=-14820,18393353
EC00976=-14828,18408236
EC00977=-14838,18424608
EC00978=-14846,18439491
EC00979=-14855,18454375
EC00980=-14864,18470746
EC00981=-14872,18485630
EC00982=-14882,18502001
EC00983=-14890,18516885
EC00984=-14899,18531768
EC00985=-14908,18548140
EC00986=-14917,18563023
EC00987=-14926,18579395
EC00988=-14935,18594279
EC00989=-14944,18610650
EC00990=-14952,18625445
EC00991=-14961,18640239
EC00992=-14970,18656513
EC00993=-14979,18671308
EC00994=-14988,18687581
EC00995=-14996,18702376
EC00996=-15006,18718650
EC00997=-15014,18733444
EC00998=-15023,18749718
EC00999=-15032,18764513
EC01000=-15041,18780787
EC01001=-15050,18795581
EC01002=-15059,18811855
EC01003=-15068,18826650
EC01004=-15077,18842924
EC01005=-15085,18857719
EC01006=-15093,18872513
EC01007=-15101,18888787
EC01008=-15110,18903581
EC01009=-15119,18919855
EC01010=-15127,18934650
EC01011=-15136,18950924
EC01012=-15144,18965718
EC01013=-15153,18981992
EC01014=-15161,18996787
EC01015=-15170,19013061
EC01016=-15178,19027855
EC01017=-15187,19044129
EC01018=-15195,19058924
EC01019=-15204,19075198
EC01020=-15212,19089992
EC01021=-15221,19106267
EC01022=-15229,19120973
EC01023=-15238,19137150
EC01024=-15246,19151857
EC01025=-15255,19168034
EC01026=-15263,19182741
EC01027=-15271,19198918
EC01028=-15279,19213625
EC01029=-15288,19229802
EC01030=-15296,19244509
EC01031=-15305,19260686
EC01032=-15313,19275393
EC01033=-15322,19291571
EC01034=-15330,19306277
EC01035=-15339,19322455
EC01036=-15347,19337162
EC01037=-15356,19353339
EC01038=-15356,19369517
EC01039=-15356,19384223
EC01040=-15356,19400401
EC01041=-15356,19415107
EC01042=-15356,19431285
EC01043=-15356,19445991
EC01044=-15356,19462169
EC01045=-15356,19476876
EC01046=-15356,19493053
EC01047=-15356,19507760
EC01048=-15356,19523937
EC01049=-15356,19538644
EC01050=-15356,19554821
EC01051=-15356,19569528
EC01052=-15356,19585705
EC01053=-15356,19601883
//INST
///DATE 2023/10/04 13:09
///ATTR SC,RW
///GROUP1 RB1
///GROUP2 ST1
NOP
MOVJ C00000 VJ=20.0 +MOVJ EC00000 VJ=5.0
MOVL C00001 V=0.1 +MOVJ EC00001
MOVL C00002 V=0.1 +MOVJ EC00002
MOVL C00003 V=0.1 +MOVJ EC00003
MOVL C00004 V=0.1 +MOVJ EC00004
MOVL C00005 V=0.1 +MOVJ EC00005
MOVL C00006 V=0.1 +MOVJ EC00006
MOVL C00007 V=0.1 +MOVJ EC00007
MOVL C00008 V=0.1 +MOVJ EC00008
MOVL C00009 V=1.9 +MOVJ EC00009
MOVL C00010 V=2.1 +MOVJ EC00010
MOVL C00011 V=2.1 +MOVJ EC00011
MOVL C00012 V=2.1 +MOVJ EC00012
MOVL C00013 V=2.1 +MOVJ EC00013
MOVL C00014 V=2.1 +MOVJ EC00014
MOVL C00015 V=2.1 +MOVJ EC00015
MOVL C00016 V=2.1 +MOVJ EC00016
MOVL C00017 V=2.0 +MOVJ EC00017
MOVL C00018 V=2.0 +MOVJ EC00018
MOVL C00019 V=2.0 +MOVJ EC00019
MOVL C00020 V=2.0 +MOVJ EC00020
MOVL C00021 V=2.0 +MOVJ EC00021
MOVL C00022 V=2.0 +MOVJ EC00022
MOVL C00023 V=2.0 +MOVJ EC00023
MOVL C00024 V=2.0 +MOVJ EC00024
MOVL C00025 V=1.7 +MOVJ EC00025
MOVL C00026 V=1.7 +MOVJ EC00026
MOVL C00027 V=1.7 +MOVJ EC00027
MOVL C00028 V=1.7 +MOVJ EC00028
MOVL C00029 V=1.7 +MOVJ EC00029
MOVL C00030 V=1.7 +MOVJ EC00030
MOVL C00031 V=1.7 +MOVJ EC00031
MOVL C00032 V=1.7 +MOVJ EC00032
MOVL C00033 V=1.7 +MOVJ EC00033
MOVL C00034 V=1.6 +MOVJ EC00034 VJ=27.2
MOVL C00035 V=1.6 +MOVJ EC00035 VJ=27.2
MOVL C00036 V=1.6 +MOVJ EC00036 VJ=27.2
MOVL C00037 V=1.6 +MOVJ EC00037 VJ=27.2
MOVL C00038 V=1.6 +MOVJ EC00038 VJ=27.2
MOVL C00039 V=1.6 +MOVJ EC00039 VJ=27.2
MOVL C00040 V=1.6 +MOVJ EC00040 VJ=27.2
MOVL C00041 V=1.6 +MOVJ EC00041 VJ=27.2
MOVL C00042 V=1.5 +MOVJ EC00042 VJ=27.2
MOVL C00043 V=1.3 +MOVJ EC00043 VJ=27.2
MOVL C00044 V=1.3 +MOVJ EC00044 VJ=27.2
MOVL C00045 V=1.3 +MOVJ EC00045 VJ=27.2
MOVL C00046 V=1.3 +MOVJ EC00046 VJ=27.2
MOVL C00047 V=1.3 +MOVJ EC00047 VJ=27.2
MOVL C00048 V=1.3 +MOVJ EC00048 VJ=27.2
MOVL C00049 V=1.3 +MOVJ EC00049 VJ=27.2
MOVL C00050 V=1.3 +MOVJ EC00050 VJ=27.2
MOVL C00051 V=1.3 +MOVJ EC00051 VJ=27.2
MOVL C00052 V=1.3 +MOVJ EC00052 VJ=26.1
MOVL C00053 V=1.3 +MOVJ EC00053 VJ=26.1
MOVL C00054 V=1.3 +MOVJ EC00054 VJ=26.1
MOVL C00055 V=1.3 +MOVJ EC00055 VJ=26.1
MOVL C00056 V=1.3 +MOVJ EC00056 VJ=26.1
MOVL C00057 V=1.3 +MOVJ EC00057 VJ=26.1
MOVL C00058 V=1.3 +MOVJ EC00058 VJ=26.1
MOVL C00059 V=1.3 +MOVJ EC00059 VJ=26.1
MOVL C00060 V=1.3 +MOVJ EC00060 VJ=26.1
MOVL C00061 V=1.1 +MOVJ EC00061 VJ=26.1
MOVL C00062 V=1.1 +MOVJ EC00062 VJ=26.1
MOVL C00063 V=1.1 +MOVJ EC00063 VJ=26.1
MOVL C00064 V=1.1 +MOVJ EC00064 VJ=26.1
MOVL C00065 V=1.1 +MOVJ EC00065 VJ=26.1
MOVL C00066 V=1.1 +MOVJ EC00066 VJ=26.1
MOVL C00067 V=1.1 +MOVJ EC00067 VJ=26.1
MOVL C00068 V=1.1 +MOVJ EC00068 VJ=26.1
MOVL C00069 V=1.1 +MOVJ EC00069 VJ=26.1
MOVL C00070 V=1.1 +MOVJ EC00070 VJ=26.1
MOVL C00071 V=1.0 +MOVJ EC00071 VJ=25.2
MOVL C00072 V=1.0 +MOVJ EC00072 VJ=25.2
MOVL C00073 V=1.0 +MOVJ EC00073 VJ=25.2
MOVL C00074 V=1.0 +MOVJ EC00074 VJ=25.2
MOVL C00075 V=1.0 +MOVJ EC00075 VJ=25.2
MOVL C00076 V=1.0 +MOVJ EC00076 VJ=25.2
MOVL C00077 V=1.0 +MOVJ EC00077 VJ=25.2
MOVL C00078 V=1.0 +MOVJ EC00078 VJ=25.2
MOVL C00079 V=1.0 +MOVJ EC00079 VJ=25.2
MOVL C00080 V=0.9 +MOVJ EC00080 VJ=25.2
MOVL C00081 V=0.9 +MOVJ EC00081 VJ=25.2
MOVL C00082 V=0.9 +MOVJ EC00082 VJ=25.2
MOVL C00083 V=0.9 +MOVJ EC00083 VJ=25.2
MOVL C00084 V=0.9 +MOVJ EC00084 VJ=25.2
MOVL C00085 V=0.9 +MOVJ EC00085 VJ=25.2
MOVL C00086 V=0.9 +MOVJ EC00086 VJ=25.2
MOVL C00087 V=0.9 +MOVJ EC00087 VJ=25.2
MOVL C00088 V=0.9 +MOVJ EC00088 VJ=25.2
MOVL C00089 V=0.9 +MOVJ EC00089 VJ=25.2
MOVL C00090 V=0.9 +MOVJ EC00090 VJ=25.2
MOVL C00091 V=0.9 +MOVJ EC00091 VJ=24.4
MOVL C00092 V=0.9 +MOVJ EC00092 VJ=24.4
MOVL C00093 V=0.9 +MOVJ EC00093 VJ=24.4
MOVL C00094 V=0.9 +MOVJ EC00094 VJ=24.4
MOVL C00095 V=0.9 +MOVJ EC00095 VJ=24.4
MOVL C00096 V=0.9 +MOVJ EC00096 VJ=24.4
MOVL C00097 V=0.9 +MOVJ EC00097 VJ=24.4
MOVL C00098 V=0.9 +MOVJ EC00098 VJ=24.4
MOVL C00099 V=0.9 +MOVJ EC00099 VJ=24.4
MOVL C00100 V=0.9 +MOVJ EC00100 VJ=24.4
MOVL C00101 V=0.7 +MOVJ EC00101 VJ=24.4
MOVL C00102 V=0.7 +MOVJ EC00102 VJ=24.4
MOVL C00103 V=0.7 +MOVJ EC00103 VJ=24.4
MOVL C00104 V=0.7 +MOVJ EC00104 VJ=24.4
MOVL C00105 V=0.7 +MOVJ EC00105 VJ=24.4
MOVL C00106 V=0.7 +MOVJ EC00106 VJ=24.4
MOVL C00107 V=0.7 +MOVJ EC00107 VJ=24.4
MOVL C00108 V=0.7 +MOVJ EC00108 VJ=24.4
MOVL C00109 V=0.7 +MOVJ EC00109 VJ=24.4
MOVL C00110 V=0.7 +MOVJ EC00110 VJ=24.4
MOVL C00111 V=0.7 +MOVJ EC00111 VJ=24.4
MOVL C00112 V=0.7 +MOVJ EC00112 VJ=23.7
MOVL C00113 V=0.7 +MOVJ EC00113 VJ=23.7
MOVL C00114 V=0.7 +MOVJ EC00114 VJ=23.7
MOVL C00115 V=0.7 +MOVJ EC00115 VJ=23.7
MOVL C00116 V=0.7 +MOVJ EC00116 VJ=23.7
MOVL C00117 V=0.7 +MOVJ EC00117 VJ=23.7
MOVL C00118 V=0.7 +MOVJ EC00118 VJ=23.7
MOVL C00119 V=0.7 +MOVJ EC00119 VJ=23.7
MOVL C00120 V=0.7 +MOVJ EC00120 VJ=23.7
MOVL C00121 V=0.7 +MOVJ EC00121 VJ=23.7
MOVL C00122 V=0.6 +MOVJ EC00122 VJ=23.7
MOVL C00123 V=0.6 +MOVJ EC00123 VJ=23.7
MOVL C00124 V=0.6 +MOVJ EC00124 VJ=23.7
MOVL C00125 V=0.6 +MOVJ EC00125 VJ=23.7
MOVL C00126 V=0.6 +MOVJ EC00126 VJ=23.7
MOVL C00127 V=0.6 +MOVJ EC00127 VJ=23.7
MOVL C00128 V=0.6 +MOVJ EC00128 VJ=23.7
MOVL C00129 V=0.6 +MOVJ EC00129 VJ=23.7
MOVL C00130 V=0.6 +MOVJ EC00130 VJ=23.7
MOVL C00131 V=0.6 +MOVJ EC00131 VJ=23.7
MOVL C00132 V=0.6 +MOVJ EC00132 VJ=23.7
MOVL C00133 V=0.6 +MOVJ EC00133 VJ=23.0
MOVL C00134 V=0.6 +MOVJ EC00134 VJ=23.0
MOVL C00135 V=0.6 +MOVJ EC00135 VJ=23.0
MOVL C00136 V=0.6 +MOVJ EC00136 VJ=23.0
MOVL C00137 V=0.6 +MOVJ EC00137 VJ=23.0
MOVL C00138 V=0.6 +MOVJ EC00138 VJ=23.0
MOVL C00139 V=0.6 +MOVJ EC00139 VJ=23.0
MOVL C00140 V=0.6 +MOVJ EC00140 VJ=23.0
MOVL C00141 V=0.6 +MOVJ EC00141 VJ=23.0
MOVL C00142 V=0.6 +MOVJ EC00142 VJ=23.0
MOVL C00143 V=0.5 +MOVJ EC00143 VJ=23.0
MOVL C00144 V=0.5 +MOVJ EC00144 VJ=23.0
MOVL C00145 V=0.5 +MOVJ EC00145 VJ=23.0
MOVL C00146 V=0.5 +MOVJ EC00146 VJ=23.0
MOVL C00147 V=0.5 +MOVJ EC00147 VJ=23.0
MOVL C00148 V=0.5 +MOVJ EC00148 VJ=23.0
MOVL C00149 V=0.5 +MOVJ EC00149 VJ=23.0
MOVL C00150 V=0.5 +MOVJ EC00150 VJ=23.0
MOVL C00151 V=0.5 +MOVJ EC00151 VJ=23.0
MOVL C00152 V=0.5 +MOVJ EC00152 VJ=23.0
MOVL C00153 V=0.5 +MOVJ EC00153 VJ=23.0
MOVL C00154 V=0.5 +MOVJ EC00154 VJ=23.0
MOVL C00155 V=0.5 +MOVJ EC00155 VJ=22.5
MOVL C00156 V=0.5 +MOVJ EC00156 VJ=22.5
MOVL C00157 V=0.5 +MOVJ EC00157 VJ=22.5
MOVL C00158 V=0.5 +MOVJ EC00158 VJ=22.5
MOVL C00159 V=0.5 +MOVJ EC00159 VJ=22.5
MOVL C00160 V=0.5 +MOVJ EC00160 VJ=22.5
MOVL C00161 V=0.5 +MOVJ EC00161 VJ=22.5
MOVL C00162 V=0.5 +MOVJ EC00162 VJ=22.5
MOVL C00163 V=0.5 +MOVJ EC00163 VJ=22.5
MOVL C00164 V=0.5 +MOVJ EC00164 VJ=22.5
MOVL C00165 V=0.5 +MOVJ EC00165 VJ=22.5
MOVL C00166 V=0.5 +MOVJ EC00166 VJ=22.5
MOVL C00167 V=0.5 +MOVJ EC00167 VJ=22.5
MOVL C00168 V=0.5 +MOVJ EC00168 VJ=22.5
MOVL C00169 V=0.5 +MOVJ EC00169 VJ=22.5
MOVL C00170 V=0.5 +MOVJ EC00170 VJ=22.5
MOVL C00171 V=0.5 +MOVJ EC00171 VJ=22.5
MOVL C00172 V=0.5 +MOVJ EC00172 VJ=22.5
MOVL C00173 V=0.5 +MOVJ EC00173 VJ=22.5
MOVL C00174 V=0.5 +MOVJ EC00174 VJ=22.5
MOVL C00175 V=0.5 +MOVJ EC00175 VJ=22.5
MOVL C00176 V=0.5 +MOVJ EC00176 VJ=22.5
MOVL C00177 V=0.4 +MOVJ EC00177 VJ=22.0
MOVL C00178 V=0.4 +MOVJ EC00178 VJ=22.0
MOVL C00179 V=0.4 +MOVJ EC00179 VJ=22.0
MOVL C00180 V=0.4 +MOVJ EC00180 VJ=22.0
MOVL C00181 V=0.4 +MOVJ EC00181 VJ=22.0
MOVL C00182 V=0.4 +MOVJ EC00182 VJ=22.0
MOVL C00183 V=0.4 +MOVJ EC00183 VJ=22.0
MOVL C00184 V=0.4 +MOVJ EC00184 VJ=22.0
MOVL C00185 V=0.4 +MOVJ EC00185 VJ=22.0
MOVL C00186 V=0.4 +MOVJ EC00186 VJ=22.0
MOVL C00187 V=0.4 +MOVJ EC00187 VJ=22.0
MOVL C00188 V=0.4 +MOVJ EC00188 VJ=22.0
MOVL C00189 V=0.4 +MOVJ EC00189 VJ=22.0
MOVL C00190 V=0.4 +MOVJ EC00190 VJ=22.0
MOVL C00191 V=0.4 +MOVJ EC00191 VJ=22.0
MOVL C00192 V=0.4 +MOVJ EC00192 VJ=22.0
MOVL C00193 V=0.4 +MOVJ EC00193 VJ=22.0
MOVL C00194 V=0.4 +MOVJ EC00194 VJ=22.0
MOVL C00195 V=0.4 +MOVJ EC00195 VJ=22.0
MOVL C00196 V=0.4 +MOVJ EC00196 VJ=22.0
MOVL C00197 V=0.4 +MOVJ EC00197 VJ=22.0
MOVL C00198 V=0.4 +MOVJ EC00198 VJ=22.0
MOVL C00199 V=0.4 +MOVJ EC00199 VJ=22.0
MOVL C00200 V=0.4 +MOVJ EC00200 VJ=21.5
MOVL C00201 V=0.4 +MOVJ EC00201 VJ=21.5
MOVL C00202 V=0.4 +MOVJ EC00202 VJ=21.5
MOVL C00203 V=0.4 +MOVJ EC00203 VJ=21.5
MOVL C00204 V=0.4 +MOVJ EC00204 VJ=21.5
MOVL C00205 V=0.4 +MOVJ EC00205 VJ=21.5
MOVL C00206 V=0.4 +MOVJ EC00206 VJ=21.5
MOVL C00207 V=0.4 +MOVJ EC00207 VJ=21.5
MOVL C00208 V=0.4 +MOVJ EC00208 VJ=21.5
MOVL C00209 V=0.4 +MOVJ EC00209 VJ=21.5
MOVL C00210 V=0.4 +MOVJ EC00210 VJ=21.5
MOVL C00211 V=0.3 +MOVJ EC00211 VJ=21.5
MOVL C00212 V=0.4 +MOVJ EC00212 VJ=21.5
MOVL C00213 V=0.4 +MOVJ EC00213 VJ=21.5
MOVL C00214 V=0.4 +MOVJ EC00214 VJ=21.5
MOVL C00215 V=0.4 +MOVJ EC00215 VJ=21.5
MOVL C00216 V=0.4 +MOVJ EC00216 VJ=21.5
MOVL C00217 V=0.4 +MOVJ EC00217 VJ=21.5
MOVL C00218 V=0.4 +MOVJ EC00218 VJ=21.5
MOVL C00219 V=0.4 +MOVJ EC00219 VJ=21.5
MOVL C00220 V=0.4 +MOVJ EC00220 VJ=21.5
MOVL C00221 V=0.4 +MOVJ EC00221 VJ=21.5
MOVL C00222 V=0.4 +MOVJ EC00222 VJ=21.5
MOVL C00223 V=0.3 +MOVJ EC00223 VJ=21.1
MOVL C00224 V=0.3 +MOVJ EC00224 VJ=21.1
MOVL C00225 V=0.3 +MOVJ EC00225 VJ=21.1
MOVL C00226 V=0.3 +MOVJ EC00226 VJ=21.1
MOVL C00227 V=0.3 +MOVJ EC00227 VJ=21.1
MOVL C00228 V=0.3 +MOVJ EC00228 VJ=21.1
MOVL C00229 V=0.3 +MOVJ EC00229 VJ=21.1
MOVL C00230 V=0.3 +MOVJ EC00230 VJ=21.1
MOVL C00231 V=0.3 +MOVJ EC00231 VJ=21.1
MOVL C00232 V=0.3 +MOVJ EC00232 VJ=21.1
MOVL C00233 V=0.3 +MOVJ EC00233 VJ=21.1
MOVL C00234 V=0.3 +MOVJ EC00234 VJ=21.1
MOVL C00235 V=0.3 +MOVJ EC00235 VJ=21.1
MOVL C00236 V=0.3 +MOVJ EC00236 VJ=21.1
MOVL C00237 V=0.3 +MOVJ EC00237 VJ=21.1
MOVL C00238 V=0.3 +MOVJ EC00238 VJ=21.1
MOVL C00239 V=0.3 +MOVJ EC00239 VJ=21.1
MOVL C00240 V=0.3 +MOVJ EC00240 VJ=21.1
MOVL C00241 V=0.3 +MOVJ EC00241 VJ=21.1
MOVL C00242 V=0.3 +MOVJ EC00242 VJ=21.1
MOVL C00243 V=0.3 +MOVJ EC00243 VJ=21.1
MOVL C00244 V=0.3 +MOVJ EC00244 VJ=21.1
MOVL C00245 V=0.3 +MOVJ EC00245 VJ=21.1
MOVL C00246 V=0.3 +MOVJ EC00246 VJ=21.1
MOVL C00247 V=0.3 +MOVJ EC00247 VJ=20.8
MOVL C00248 V=0.3 +MOVJ EC00248 VJ=20.8
MOVL C00249 V=0.3 +MOVJ EC00249 VJ=20.8
MOVL C00250 V=0.3 +MOVJ EC00250 VJ=20.8
MOVL C00251 V=0.3 +MOVJ EC00251 VJ=20.8
MOVL C00252 V=0.3 +MOVJ EC00252 VJ=20.8
MOVL C00253 V=0.3 +MOVJ EC00253 VJ=20.8
MOVL C00254 V=0.3 +MOVJ EC00254 VJ=20.8
MOVL C00255 V=0.3 +MOVJ EC00255 VJ=20.8
MOVL C00256 V=0.3 +MOVJ EC00256 VJ=20.8
MOVL C00257 V=0.3 +MOVJ EC00257 VJ=20.8
MOVL C00258 V=0.3 +MOVJ EC00258 VJ=20.8
MOVL C00259 V=0.3 +MOVJ EC00259 VJ=20.8
MOVL C00260 V=0.3 +MOVJ EC00260 VJ=20.8
MOVL C00261 V=0.3 +MOVJ EC00261 VJ=20.8
MOVL C00262 V=0.3 +MOVJ EC00262 VJ=20.8
MOVL C00263 V=0.3 +MOVJ EC00263 VJ=20.8
MOVL C00264 V=0.3 +MOVJ EC00264 VJ=20.8
MOVL C00265 V=0.3 +MOVJ EC00265 VJ=20.8
MOVL C00266 V=0.3 +MOVJ EC00266 VJ=20.8
MOVL C00267 V=0.3 +MOVJ EC00267 VJ=20.8
MOVL C00268 V=0.3 +MOVJ EC00268 VJ=20.8
MOVL C00269 V=0.3 +MOVJ EC00269 VJ=20.8
MOVL C00270 V=0.3 +MOVJ EC00270 VJ=20.8
MOVL C00271 V=0.3 +MOVJ EC00271 VJ=20.4
MOVL C00272 V=0.3 +MOVJ EC00272 VJ=20.4
MOVL C00273 V=0.3 +MOVJ EC00273 VJ=20.4
MOVL C00274 V=0.3 +MOVJ EC00274 VJ=20.4
MOVL C00275 V=0.3 +MOVJ EC00275 VJ=20.4
MOVL C00276 V=0.3 +MOVJ EC00276 VJ=20.4
MOVL C00277 V=0.3 +MOVJ EC00277 VJ=20.4
MOVL C00278 V=0.3 +MOVJ EC00278 VJ=20.4
MOVL C00279 V=0.3 +MOVJ EC00279 VJ=20.4
MOVL C00280 V=0.3 +MOVJ EC00280 VJ=20.4
MOVL C00281 V=0.3 +MOVJ EC00281 VJ=20.4
MOVL C00282 V=0.3 +MOVJ EC00282 VJ=20.4
MOVL C00283 V=0.2 +MOVJ EC00283 VJ=20.4
MOVL C00284 V=0.3 +MOVJ EC00284 VJ=20.4
MOVL C00285 V=0.3 +MOVJ EC00285 VJ=20.4
MOVL C00286 V=0.3 +MOVJ EC00286 VJ=20.4
MOVL C00287 V=0.3 +MOVJ EC00287 VJ=20.4
MOVL C00288 V=0.3 +MOVJ EC00288 VJ=20.4
MOVL C00289 V=0.3 +MOVJ EC00289 VJ=20.4
MOVL C00290 V=0.3 +MOVJ EC00290 VJ=20.4
MOVL C00291 V=0.3 +MOVJ EC00291 VJ=20.4
MOVL C00292 V=0.3 +MOVJ EC00292 VJ=20.4
MOVL C00293 V=0.3 +MOVJ EC00293 VJ=20.4
MOVL C00294 V=0.3 +MOVJ EC00294 VJ=20.4
MOVL C00295 V=0.3 +MOVJ EC00295 VJ=20.4
MOVL C00296 V=0.3 +MOVJ EC00296 VJ=20.1
MOVL C00297 V=0.3 +MOVJ EC00297 VJ=20.1
MOVL C00298 V=0.3 +MOVJ EC00298 VJ=20.1
MOVL C00299 V=0.3 +MOVJ EC00299 VJ=20.1
MOVL C00300 V=0.3 +MOVJ EC00300 VJ=20.1
MOVL C00301 V=0.3 +MOVJ EC00301 VJ=20.1
MOVL C00302 V=0.3 +MOVJ EC00302 VJ=20.1
MOVL C00303 V=0.3 +MOVJ EC00303 VJ=20.1
MOVL C00304 V=0.3 +MOVJ EC00304 VJ=20.1
MOVL C00305 V=0.3 +MOVJ EC00305 VJ=20.1
MOVL C00306 V=0.3 +MOVJ EC00306 VJ=20.1
MOVL C00307 V=0.3 +MOVJ EC00307 VJ=20.1
MOVL C00308 V=0.2 +MOVJ EC00308 VJ=20.1
MOVL C00309 V=0.2 +MOVJ EC00309 VJ=20.1
MOVL C00310 V=0.2 +MOVJ EC00310 VJ=20.1
MOVL C00311 V=0.2 +MOVJ EC00311 VJ=20.1
MOVL C00312 V=0.2 +MOVJ EC00312 VJ=20.1
MOVL C00313 V=0.2 +MOVJ EC00313 VJ=20.1
MOVL C00314 V=0.2 +MOVJ EC00314 VJ=20.1
MOVL C00315 V=0.2 +MOVJ EC00315 VJ=20.1
MOVL C00316 V=0.2 +MOVJ EC00316 VJ=20.1
MOVL C00317 V=0.2 +MOVJ EC00317 VJ=20.1
MOVL C00318 V=0.2 +MOVJ EC00318 VJ=20.1
MOVL C00319 V=0.2 +MOVJ EC00319 VJ=20.1
MOVL C00320 V=0.2 +MOVJ EC00320 VJ=20.1
MOVL C00321 V=0.2 +MOVJ EC00321 VJ=19.8
MOVL C00322 V=0.2 +MOVJ EC00322 VJ=19.8
MOVL C00323 V=0.2 +MOVJ EC00323 VJ=19.8
MOVL C00324 V=0.2 +MOVJ EC00324 VJ=19.8
MOVL C00325 V=0.2 +MOVJ EC00325 VJ=19.8
MOVL C00326 V=0.2 +MOVJ EC00326 VJ=19.8
MOVL C00327 V=0.2 +MOVJ EC00327 VJ=19.8
MOVL C00328 V=0.2 +MOVJ EC00328 VJ=19.8
MOVL C00329 V=0.2 +MOVJ EC00329 VJ=19.8
MOVL C00330 V=0.2 +MOVJ EC00330 VJ=19.8
MOVL C00331 V=0.2 +MOVJ EC00331 VJ=19.8
MOVL C00332 V=0.2 +MOVJ EC00332 VJ=19.8
MOVL C00333 V=0.2 +MOVJ EC00333 VJ=19.8
MOVL C00334 V=0.2 +MOVJ EC00334 VJ=19.8
MOVL C00335 V=0.2 +MOVJ EC00335 VJ=19.8
MOVL C00336 V=0.2 +MOVJ EC00336 VJ=19.8
MOVL C00337 V=0.2 +MOVJ EC00337 VJ=19.8
MOVL C00338 V=0.2 +MOVJ EC00338 VJ=19.8
MOVL C00339 V=0.2 +MOVJ EC00339 VJ=19.8
MOVL C00340 V=0.2 +MOVJ EC00340 VJ=19.8
MOVL C00341 V=0.2 +MOVJ EC00341 VJ=19.8
MOVL C00342 V=0.2 +MOVJ EC00342 VJ=19.8
MOVL C00343 V=0.2 +MOVJ EC00343 VJ=19.8
MOVL C00344 V=0.2 +MOVJ EC00344 VJ=19.8
MOVL C00345 V=0.2 +MOVJ EC00345 VJ=19.8
MOVL C00346 V=0.2 +MOVJ EC00346 VJ=19.8
MOVL C00347 V=0.2 +MOVJ EC00347 VJ=19.5
MOVL C00348 V=0.2 +MOVJ EC00348 VJ=19.5
MOVL C00349 V=0.2 +MOVJ EC00349 VJ=19.5
MOVL C00350 V=0.2 +MOVJ EC00350 VJ=19.5
MOVL C00351 V=0.2 +MOVJ EC00351 VJ=19.5
MOVL C00352 V=0.2 +MOVJ EC00352 VJ=19.5
MOVL C00353 V=0.2 +MOVJ EC00353 VJ=19.5
MOVL C00354 V=0.2 +MOVJ EC00354 VJ=19.5
MOVL C00355 V=0.2 +MOVJ EC00355 VJ=19.5
MOVL C00356 V=0.2 +MOVJ EC00356 VJ=19.5
MOVL C00357 V=0.2 +MOVJ EC00357 VJ=19.5
MOVL C00358 V=0.2 +MOVJ EC00358 VJ=19.5
MOVL C00359 V=0.2 +MOVJ EC00359 VJ=19.5
MOVL C00360 V=0.2 +MOVJ EC00360 VJ=19.5
MOVL C00361 V=0.2 +MOVJ EC00361 VJ=19.5
MOVL C00362 V=0.2 +MOVJ EC00362 VJ=19.5
MOVL C00363 V=0.2 +MOVJ EC00363 VJ=19.5
MOVL C00364 V=0.2 +MOVJ EC00364 VJ=19.5
MOVL C00365 V=0.2 +MOVJ EC00365 VJ=19.5
MOVL C00366 V=0.2 +MOVJ EC00366 VJ=19.5
MOVL C00367 V=0.2 +MOVJ EC00367 VJ=19.5
MOVL C00368 V=0.2 +MOVJ EC00368 VJ=19.5
MOVL C00369 V=0.2 +MOVJ EC00369 VJ=19.5
MOVL C00370 V=0.2 +MOVJ EC00370 VJ=19.5
MOVL C00371 V=0.2 +MOVJ EC00371 VJ=19.5
MOVL C00372 V=0.2 +MOVJ EC00372 VJ=19.5
MOVL C00373 V=0.2 +MOVJ EC00373 VJ=19.3
MOVL C00374 V=0.2 +MOVJ EC00374 VJ=19.3
MOVL C00375 V=0.2 +MOVJ EC00375 VJ=19.3
MOVL C00376 V=0.2 +MOVJ EC00376 VJ=19.3
MOVL C00377 V=0.2 +MOVJ EC00377 VJ=19.3
MOVL C00378 V=0.2 +MOVJ EC00378 VJ=19.3
MOVL C00379 V=0.2 +MOVJ EC00379 VJ=19.3
MOVL C00380 V=0.2 +MOVJ EC00380 VJ=19.3
MOVL C00381 V=0.2 +MOVJ EC00381 VJ=19.3
MOVL C00382 V=0.2 +MOVJ EC00382 VJ=19.3
MOVL C00383 V=0.2 +MOVJ EC00383 VJ=19.3
MOVL C00384 V=0.2 +MOVJ EC00384 VJ=19.3
MOVL C00385 V=0.2 +MOVJ EC00385 VJ=19.3
MOVL C00386 V=0.2 +MOVJ EC00386 VJ=19.3
MOVL C00387 V=0.2 +MOVJ EC00387 VJ=19.3
MOVL C00388 V=0.2 +MOVJ EC00388 VJ=19.3
MOVL C00389 V=0.2 +MOVJ EC00389 VJ=19.3
MOVL C00390 V=0.2 +MOVJ EC00390 VJ=19.3
MOVL C00391 V=0.2 +MOVJ EC00391 VJ=19.3
MOVL C00392 V=0.2 +MOVJ EC00392 VJ=19.3
MOVL C00393 V=0.2 +MOVJ EC00393 VJ=19.3
MOVL C00394 V=0.2 +MOVJ EC00394 VJ=19.3
MOVL C00395 V=0.2 +MOVJ EC00395 VJ=19.3
MOVL C00396 V=0.2 +MOVJ EC00396 VJ=19.3
MOVL C00397 V=0.2 +MOVJ EC00397 VJ=19.3
MOVL C00398 V=0.2 +MOVJ EC00398 VJ=19.3
MOVL C00399 V=0.2 +MOVJ EC00399 VJ=19.0
MOVL C00400 V=0.2 +MOVJ EC00400 VJ=19.0
MOVL C00401 V=0.2 +MOVJ EC00401 VJ=19.0
MOVL C00402 V=0.2 +MOVJ EC00402 VJ=19.0
MOVL C00403 V=0.2 +MOVJ EC00403 VJ=19.0
MOVL C00404 V=0.2 +MOVJ EC00404 VJ=19.0
MOVL C00405 V=0.2 +MOVJ EC00405 VJ=19.0
MOVL C00406 V=0.2 +MOVJ EC00406 VJ=19.0
MOVL C00407 V=0.2 +MOVJ EC00407 VJ=19.0
MOVL C00408 V=0.2 +MOVJ EC00408 VJ=19.0
MOVL C00409 V=0.2 +MOVJ EC00409 VJ=19.0
MOVL C00410 V=0.2 +MOVJ EC00410 VJ=19.0
MOVL C00411 V=0.2 +MOVJ EC00411 VJ=19.0
MOVL C00412 V=0.2 +MOVJ EC00412 VJ=19.0
MOVL C00413 V=0.2 +MOVJ EC00413 VJ=19.0
MOVL C00414 V=0.2 +MOVJ EC00414 VJ=19.0
MOVL C00415 V=0.2 +MOVJ EC00415 VJ=19.0
MOVL C00416 V=0.2 +MOVJ EC00416 VJ=19.0
MOVL C00417 V=0.2 +MOVJ EC00417 VJ=19.0
MOVL C00418 V=0.2 +MOVJ EC00418 VJ=19.0
MOVL C00419 V=0.2 +MOVJ EC00419 VJ=19.0
MOVL C00420 V=0.2 +MOVJ EC00420 VJ=19.0
MOVL C00421 V=0.2 +MOVJ EC00421 VJ=19.0
MOVL C00422 V=0.2 +MOVJ EC00422 VJ=19.0
MOVL C00423 V=0.2 +MOVJ EC00423 VJ=19.0
MOVL C00424 V=0.2 +MOVJ EC00424 VJ=19.0
MOVL C00425 V=0.2 +MOVJ EC00425 VJ=19.0
MOVL C00426 V=0.2 +MOVJ EC00426 VJ=18.8
MOVL C00427 V=0.2 +MOVJ EC00427 VJ=18.8
MOVL C00428 V=0.2 +MOVJ EC00428 VJ=18.8
MOVL C00429 V=0.2 +MOVJ EC00429 VJ=18.8
MOVL C00430 V=0.2 +MOVJ EC00430 VJ=18.8
MOVL C00431 V=0.2 +MOVJ EC00431 VJ=18.8
MOVL C00432 V=0.2 +MOVJ EC00432 VJ=18.8
MOVL C00433 V=0.2 +MOVJ EC00433 VJ=18.8
MOVL C00434 V=0.2 +MOVJ EC00434 VJ=18.8
MOVL C00435 V=0.2 +MOVJ EC00435 VJ=18.8
MOVL C00436 V=0.2 +MOVJ EC00436 VJ=18.8
MOVL C00437 V=0.2 +MOVJ EC00437 VJ=18.8
MOVL C00438 V=0.2 +MOVJ EC00438 VJ=18.8
MOVL C00439 V=0.2 +MOVJ EC00439 VJ=18.8
MOVL C00440 V=0.2 +MOVJ EC00440 VJ=18.8
MOVL C00441 V=0.2 +MOVJ EC00441 VJ=18.8
MOVL C00442 V=0.2 +MOVJ EC00442 VJ=18.8
MOVL C00443 V=0.2 +MOVJ EC00443 VJ=18.8
MOVL C00444 V=0.2 +MOVJ EC00444 VJ=18.8
MOVL C00445 V=0.2 +MOVJ EC00445 VJ=18.8
MOVL C00446 V=0.2 +MOVJ EC00446 VJ=18.8
MOVL C00447 V=0.2 +MOVJ EC00447 VJ=18.8
MOVL C00448 V=0.2 +MOVJ EC00448 VJ=18.8
MOVL C00449 V=0.2 +MOVJ EC00449 VJ=18.8
MOVL C00450 V=0.2 +MOVJ EC00450 VJ=18.8
MOVL C00451 V=0.2 +MOVJ EC00451 VJ=18.8
MOVL C00452 V=0.2 +MOVJ EC00452 VJ=18.8
MOVL C00453 V=0.2 +MOVJ EC00453 VJ=18.6
MOVL C00454 V=0.2 +MOVJ EC00454 VJ=18.6
MOVL C00455 V=0.2 +MOVJ EC00455 VJ=18.6
MOVL C00456 V=0.2 +MOVJ EC00456 VJ=18.6
MOVL C00457 V=0.2 +MOVJ EC00457 VJ=18.6
MOVL C00458 V=0.2 +MOVJ EC00458 VJ=18.6
MOVL C00459 V=0.2 +MOVJ EC00459 VJ=18.6
MOVL C00460 V=0.2 +MOVJ EC00460 VJ=18.6
MOVL C00461 V=0.2 +MOVJ EC00461 VJ=18.6
MOVL C00462 V=0.2 +MOVJ EC00462 VJ=18.6
MOVL C00463 V=0.2 +MOVJ EC00463 VJ=18.6
MOVL C00464 V=0.2 +MOVJ EC00464 VJ=18.6
MOVL C00465 V=0.2 +MOVJ EC00465 VJ=18.6
MOVL C00466 V=0.1 +MOVJ EC00466 VJ=18.6
MOVL C00467 V=0.2 +MOVJ EC00467 VJ=18.6
MOVL C00468 V=0.2 +MOVJ EC00468 VJ=18.6
MOVL C00469 V=0.2 +MOVJ EC00469 VJ=18.6
MOVL C00470 V=0.2 +MOVJ EC00470 VJ=18.6
MOVL C00471 V=0.2 +MOVJ EC00471 VJ=18.6
MOVL C00472 V=0.2 +MOVJ EC00472 VJ=18.6
MOVL C00473 V=0.2 +MOVJ EC00473 VJ=18.6
MOVL C00474 V=0.2 +MOVJ EC00474 VJ=18.6
MOVL C00475 V=0.2 +MOVJ EC00475 VJ=18.6
MOVL C00476 V=0.2 +MOVJ EC00476 VJ=18.6
MOVL C00477 V=0.2 +MOVJ EC00477 VJ=18.6
MOVL C00478 V=0.2 +MOVJ EC00478 VJ=18.6
MOVL C00479 V=0.2 +MOVJ EC00479 VJ=18.6
MOVL C00480 V=0.2 +MOVJ EC00480 VJ=18.4
MOVL C00481 V=0.2 +MOVJ EC00481 VJ=18.4
MOVL C00482 V=0.2 +MOVJ EC00482 VJ=18.4
MOVL C00483 V=0.2 +MOVJ EC00483 VJ=18.4
MOVL C00484 V=0.2 +MOVJ EC00484 VJ=18.4
MOVL C00485 V=0.2 +MOVJ EC00485 VJ=18.4
MOVL C00486 V=0.2 +MOVJ EC00486 VJ=18.4
MOVL C00487 V=0.2 +MOVJ EC00487 VJ=18.4
MOVL C00488 V=0.2 +MOVJ EC00488 VJ=18.4
MOVL C00489 V=0.2 +MOVJ EC00489 VJ=18.4
MOVL C00490 V=0.2 +MOVJ EC00490 VJ=18.4
MOVL C00491 V=0.2 +MOVJ EC00491 VJ=18.4
MOVL C00492 V=0.2 +MOVJ EC00492 VJ=18.4
MOVL C00493 V=0.2 +MOVJ EC00493 VJ=18.4
MOVL C00494 V=0.1 +MOVJ EC00494 VJ=18.4
MOVL C00495 V=0.2 +MOVJ EC00495 VJ=18.4
MOVL C00496 V=0.2 +MOVJ EC00496 VJ=18.4
MOVL C00497 V=0.2 +MOVJ EC00497 VJ=18.4
MOVL C00498 V=0.2 +MOVJ EC00498 VJ=18.4
MOVL C00499 V=0.2 +MOVJ EC00499 VJ=18.4
MOVL C00500 V=0.2 +MOVJ EC00500 VJ=18.4
MOVL C00501 V=0.2 +MOVJ EC00501 VJ=18.4
MOVL C00502 V=0.2 +MOVJ EC00502 VJ=18.4
MOVL C00503 V=0.2 +MOVJ EC00503 VJ=18.4
MOVL C00504 V=0.2 +MOVJ EC00504 VJ=18.4
MOVL C00505 V=0.2 +MOVJ EC00505 VJ=18.4
MOVL C00506 V=0.2 +MOVJ EC00506 VJ=18.4
MOVL C00507 V=0.2 +MOVJ EC00507 VJ=18.4
MOVL C00508 V=0.2 +MOVJ EC00508 VJ=18.2
MOVL C00509 V=0.2 +MOVJ EC00509 VJ=18.2
MOVL C00510 V=0.2 +MOVJ EC00510 VJ=18.2
MOVL C00511 V=0.2 +MOVJ EC00511 VJ=18.2
MOVL C00512 V=0.2 +MOVJ EC00512 VJ=18.2
MOVL C00513 V=0.2 +MOVJ EC00513 VJ=18.2
MOVL C00514 V=0.2 +MOVJ EC00514 VJ=18.2
MOVL C00515 V=0.2 +MOVJ EC00515 VJ=18.2
MOVL C00516 V=0.2 +MOVJ EC00516 VJ=18.2
MOVL C00517 V=0.2 +MOVJ EC00517 VJ=18.2
MOVL C00518 V=0.2 +MOVJ EC00518 VJ=18.2
MOVL C00519 V=0.2 +MOVJ EC00519 VJ=18.2
MOVL C00520 V=0.2 +MOVJ EC00520 VJ=18.2
MOVL C00521 V=0.2 +MOVJ EC00521 VJ=18.2
MOVL C00522 V=0.1 +MOVJ EC00522 VJ=18.2
MOVL C00523 V=0.1 +MOVJ EC00523 VJ=18.2
MOVL C00524 V=0.1 +MOVJ EC00524 VJ=18.2
MOVL C00525 V=0.1 +MOVJ EC00525 VJ=18.2
MOVL C00526 V=0.1 +MOVJ EC00526 VJ=18.2
MOVL C00527 V=0.1 +MOVJ EC00527 VJ=18.2
MOVL C00528 V=0.1 +MOVJ EC00528 VJ=18.2
MOVL C00529 V=0.1 +MOVJ EC00529 VJ=18.2
MOVL C00530 V=0.1 +MOVJ EC00530 VJ=18.2
MOVL C00531 V=0.1 +MOVJ EC00531 VJ=18.2
MOVL C00532 V=0.1 +MOVJ EC00532 VJ=18.2
MOVL C00533 V=0.1 +MOVJ EC00533 VJ=18.2
MOVL C00534 V=0.1 +MOVJ EC00534 VJ=18.2
MOVL C00535 V=0.1 +MOVJ EC00535 VJ=18.2
MOVL C00536 V=0.1 +MOVJ EC00536 VJ=18.0
MOVL C00537 V=0.1 +MOVJ EC00537 VJ=18.0
MOVL C00538 V=0.1 +MOVJ EC00538 VJ=18.0
MOVL C00539 V=0.1 +MOVJ EC00539 VJ=18.0
MOVL C00540 V=0.1 +MOVJ EC00540 VJ=18.0
MOVL C00541 V=0.1 +MOVJ EC00541 VJ=18.0
MOVL C00542 V=0.1 +MOVJ EC00542 VJ=18.0
MOVL C00543 V=0.1 +MOVJ EC00543 VJ=18.0
MOVL C00544 V=0.1 +MOVJ EC00544 VJ=18.0
MOVL C00545 V=0.1 +MOVJ EC00545 VJ=18.0
MOVL C00546 V=0.1 +MOVJ EC00546 VJ=18.0
MOVL C00547 V=0.1 +MOVJ EC00547 VJ=18.0
MOVL C00548 V=0.1 +MOVJ EC00548 VJ=18.0
MOVL C00549 V=0.1 +MOVJ EC00549 VJ=18.0
MOVL C00550 V=0.1 +MOVJ EC00550 VJ=18.0
MOVL C00551 V=0.1 +MOVJ EC00551 VJ=18.0
MOVL C00552 V=0.1 +MOVJ EC00552 VJ=18.0
MOVL C00553 V=0.1 +MOVJ EC00553 VJ=18.0
MOVL C00554 V=0.1 +MOVJ EC00554 VJ=18.0
MOVL C00555 V=0.1 +MOVJ EC00555 VJ=18.0
MOVL C00556 V=0.1 +MOVJ EC00556 VJ=18.0
MOVL C00557 V=0.1 +MOVJ EC00557 VJ=18.0
MOVL C00558 V=0.1 +MOVJ EC00558 VJ=18.0
MOVL C00559 V=0.1 +MOVJ EC00559 VJ=18.0
MOVL C00560 V=0.1 +MOVJ EC00560 VJ=18.0
MOVL C00561 V=0.1 +MOVJ EC00561 VJ=18.0
MOVL C00562 V=0.1 +MOVJ EC00562 VJ=18.0
MOVL C00563 V=0.1 +MOVJ EC00563 VJ=18.0
MOVL C00564 V=0.1 +MOVJ EC00564 VJ=17.8
MOVL C00565 V=0.1 +MOVJ EC00565 VJ=17.8
MOVL C00566 V=0.1 +MOVJ EC00566 VJ=17.8
MOVL C00567 V=0.1 +MOVJ EC00567 VJ=17.8
MOVL C00568 V=0.1 +MOVJ EC00568 VJ=17.8
MOVL C00569 V=0.1 +MOVJ EC00569 VJ=17.8
MOVL C00570 V=0.1 +MOVJ EC00570 VJ=17.8
MOVL C00571 V=0.1 +MOVJ EC00571 VJ=17.8
MOVL C00572 V=0.1 +MOVJ EC00572 VJ=17.8
MOVL C00573 V=0.1 +MOVJ EC00573 VJ=17.8
MOVL C00574 V=0.1 +MOVJ EC00574 VJ=17.8
MOVL C00575 V=0.1 +MOVJ EC00575 VJ=17.8
MOVL C00576 V=0.1 +MOVJ EC00576 VJ=17.8
MOVL C00577 V=0.1 +MOVJ EC00577 VJ=17.8
MOVL C00578 V=0.1 +MOVJ EC00578 VJ=17.8
MOVL C00579 V=0.1 +MOVJ EC00579 VJ=17.8
MOVL C00580 V=0.1 +MOVJ EC00580 VJ=17.8
MOVL C00581 V=0.1 +MOVJ EC00581 VJ=17.8
MOVL C00582 V=0.1 +MOVJ EC00582 VJ=17.8
MOVL C00583 V=0.1 +MOVJ EC00583 VJ=17.8
MOVL C00584 V=0.1 +MOVJ EC00584 VJ=17.8
MOVL C00585 V=0.1 +MOVJ EC00585 VJ=17.8
MOVL C00586 V=0.1 +MOVJ EC00586 VJ=17.8
MOVL C00587 V=0.1 +MOVJ EC00587 VJ=17.8
MOVL C00588 V=0.1 +MOVJ EC00588 VJ=17.8
MOVL C00589 V=0.1 +MOVJ EC00589 VJ=17.8
MOVL C00590 V=0.1 +MOVJ EC00590 VJ=17.8
MOVL C00591 V=0.1 +MOVJ EC00591 VJ=17.8
MOVL C00592 V=0.1 +MOVJ EC00592 VJ=17.8
MOVL C00593 V=0.1 +MOVJ EC00593 VJ=17.7
MOVL C00594 V=0.1 +MOVJ EC00594 VJ=17.7
MOVL C00595 V=0.1 +MOVJ EC00595 VJ=17.7
MOVL C00596 V=0.1 +MOVJ EC00596 VJ=17.7
MOVL C00597 V=0.1 +MOVJ EC00597 VJ=17.7
MOVL C00598 V=0.1 +MOVJ EC00598 VJ=17.7
MOVL C00599 V=0.1 +MOVJ EC00599 VJ=17.7
MOVL C00600 V=0.1 +MOVJ EC00600 VJ=17.7
MOVL C00601 V=0.1 +MOVJ EC00601 VJ=17.7
MOVL C00602 V=0.1 +MOVJ EC00602 VJ=17.7
MOVL C00603 V=0.1 +MOVJ EC00603 VJ=17.7
MOVL C00604 V=0.1 +MOVJ EC00604 VJ=17.7
MOVL C00605 V=0.1 +MOVJ EC00605 VJ=17.7
MOVL C00606 V=0.1 +MOVJ EC00606 VJ=17.7
MOVL C00607 V=0.1 +MOVJ EC00607 VJ=17.7
MOVL C00608 V=0.1 +MOVJ EC00608 VJ=17.7
MOVL C00609 V=0.1 +MOVJ EC00609 VJ=17.7
MOVL C00610 V=0.1 +MOVJ EC00610 VJ=17.7
MOVL C00611 V=0.1 +MOVJ EC00611 VJ=17.7
MOVL C00612 V=0.1 +MOVJ EC00612 VJ=17.7
MOVL C00613 V=0.1 +MOVJ EC00613 VJ=17.7
MOVL C00614 V=0.1 +MOVJ EC00614 VJ=17.7
MOVL C00615 V=0.1 +MOVJ EC00615 VJ=17.7
MOVL C00616 V=0.1 +MOVJ EC00616 VJ=17.7
MOVL C00617 V=0.1 +MOVJ EC00617 VJ=17.7
MOVL C00618 V=0.1 +MOVJ EC00618 VJ=17.7
MOVL C00619 V=0.1 +MOVJ EC00619 VJ=17.7
MOVL C00620 V=0.1 +MOVJ EC00620 VJ=17.7
MOVL C00621 V=0.1 +MOVJ EC00621 VJ=17.7
MOVL C00622 V=0.1 +MOVJ EC00622 VJ=17.5
MOVL C00623 V=0.1 +MOVJ EC00623 VJ=17.5
MOVL C00624 V=0.1 +MOVJ EC00624 VJ=17.5
MOVL C00625 V=0.1 +MOVJ EC00625 VJ=17.5
MOVL C00626 V=0.1 +MOVJ EC00626 VJ=17.5
MOVL C00627 V=0.1 +MOVJ EC00627 VJ=17.5
MOVL C00628 V=0.1 +MOVJ EC00628 VJ=17.5
MOVL C00629 V=0.1 +MOVJ EC00629 VJ=17.5
MOVL C00630 V=0.1 +MOVJ EC00630 VJ=17.5
MOVL C00631 V=0.1 +MOVJ EC00631 VJ=17.5
MOVL C00632 V=0.1 +MOVJ EC00632 VJ=17.5
MOVL C00633 V=0.1 +MOVJ EC00633 VJ=17.5
MOVL C00634 V=0.1 +MOVJ EC00634 VJ=17.5
MOVL C00635 V=0.1 +MOVJ EC00635 VJ=17.5
MOVL C00636 V=0.1 +MOVJ EC00636 VJ=17.5
MOVL C00637 V=0.1 +MOVJ EC00637 VJ=17.5
MOVL C00638 V=0.1 +MOVJ EC00638 VJ=17.5
MOVL C00639 V=0.1 +MOVJ EC00639 VJ=17.5
MOVL C00640 V=0.1 +MOVJ EC00640 VJ=17.5
MOVL C00641 V=0.1 +MOVJ EC00641 VJ=17.5
MOVL C00642 V=0.1 +MOVJ EC00642 VJ=17.5
MOVL C00643 V=0.1 +MOVJ EC00643 VJ=17.5
MOVL C00644 V=0.1 +MOVJ EC00644 VJ=17.5
MOVL C00645 V=0.1 +MOVJ EC00645 VJ=17.5
MOVL C00646 V=0.1 +MOVJ EC00646 VJ=17.5
MOVL C00647 V=0.1 +MOVJ EC00647 VJ=17.5
MOVL C00648 V=0.1 +MOVJ EC00648 VJ=17.5
MOVL C00649 V=0.1 +MOVJ EC00649 VJ=17.5
MOVL C00650 V=0.1 +MOVJ EC00650 VJ=17.5
MOVL C00651 V=0.1 +MOVJ EC00651 VJ=17.4
MOVL C00652 V=0.1 +MOVJ EC00652 VJ=17.4
MOVL C00653 V=0.1 +MOVJ EC00653 VJ=17.4
MOVL C00654 V=0.1 +MOVJ EC00654 VJ=17.4
MOVL C00655 V=0.1 +MOVJ EC00655 VJ=17.4
MOVL C00656 V=0.1 +MOVJ EC00656 VJ=17.4
MOVL C00657 V=0.1 +MOVJ EC00657 VJ=17.4
MOVL C00658 V=0.1 +MOVJ EC00658 VJ=17.4
MOVL C00659 V=0.1 +MOVJ EC00659 VJ=17.4
MOVL C00660 V=0.1 +MOVJ EC00660 VJ=17.4
MOVL C00661 V=0.1 +MOVJ EC00661 VJ=17.4
MOVL C00662 V=0.1 +MOVJ EC00662 VJ=17.4
MOVL C00663 V=0.1 +MOVJ EC00663 VJ=17.4
MOVL C00664 V=0.1 +MOVJ EC00664 VJ=17.4
MOVL C00665 V=0.1 +MOVJ EC00665 VJ=17.4
MOVL C00666 V=0.1 +MOVJ EC00666 VJ=17.4
MOVL C00667 V=0.1 +MOVJ EC00667 VJ=17.4
MOVL C00668 V=0.1 +MOVJ EC00668 VJ=17.4
MOVL C00669 V=0.1 +MOVJ EC00669 VJ=17.4
MOVL C00670 V=0.1 +MOVJ EC00670 VJ=17.4
MOVL C00671 V=0.1 +MOVJ EC00671 VJ=17.4
MOVL C00672 V=0.1 +MOVJ EC00672 VJ=17.4
MOVL C00673 V=0.1 +MOVJ EC00673 VJ=17.4
MOVL C00674 V=0.1 +MOVJ EC00674 VJ=17.4
MOVL C00675 V=0.1 +MOVJ EC00675 VJ=17.4
MOVL C00676 V=0.1 +MOVJ EC00676 VJ=17.4
MOVL C00677 V=0.1 +MOVJ EC00677 VJ=17.4
MOVL C00678 V=0.1 +MOVJ EC00678 VJ=17.4
MOVL C00679 V=0.1 +MOVJ EC00679 VJ=17.4
MOVL C00680 V=0.1 +MOVJ EC00680 VJ=17.4
MOVL C00681 V=0.1 +MOVJ EC00681 VJ=17.2
MOVL C00682 V=0.1 +MOVJ EC00682 VJ=17.2
MOVL C00683 V=0.1 +MOVJ EC00683 VJ=17.2
MOVL C00684 V=0.1 +MOVJ EC00684 VJ=17.2
MOVL C00685 V=0.1 +MOVJ EC00685 VJ=17.2
MOVL C00686 V=0.1 +MOVJ EC00686 VJ=17.2
MOVL C00687 V=0.1 +MOVJ EC00687 VJ=17.2
MOVL C00688 V=0.1 +MOVJ EC00688 VJ=17.2
MOVL C00689 V=0.1 +MOVJ EC00689 VJ=17.2
