/JOB
//NAME AAA
//POS
///NPOS 139,0,0,0,0,0
///TOOL 12
///POSTYPE PULSE
///PULSE
C00000=-36065,73867,19500,10069,-42089,-10965
C00001=-30588,65876,9954,12523,-41034,-13598
C00002=-30497,66537,10733,12523,-41183,-13618
C00003=-35962,74538,20311,10079,-42253,-10992
C00004=-35860,75211,21129,10088,-42420,-11019
C00005=-35860,75211,21129,10088,-42420,-11019
C00006=-30407,67200,11517,12521,-41334,-13636
C00007=-30316,67865,12305,12520,-41487,-13655
C00008=-35758,75888,21953,10096,-42588,-11045
C00009=-35657,76569,22784,10104,-42758,-11070
C00010=-35657,76569,22784,10104,-42758,-11070
C00011=-30227,68533,13099,12517,-41641,-13672
C00012=-30138,69205,13898,12515,-41797,-13690
C00013=-35556,77254,23621,10112,-42930,-11095
C00014=-35456,77943,24464,10119,-43104,-11120
C00015=-35456,77943,24464,10119,-43104,-11120
C00016=-30049,69879,14703,12511,-41954,-13707
C00017=-29961,70556,15513,12508,-42113,-13723
C00018=-35356,78636,25314,10125,-43280,-11144
C00019=-35257,79334,26171,10131,-43458,-11168
C00020=-35257,79334,26171,10131,-43458,-11168
C00021=-29873,71236,16328,12503,-42274,-13739
C00022=-29786,71919,17149,12498,-42437,-13754
C00023=-35158,80035,27036,10136,-43638,-11191
C00024=-35060,80741,27907,10141,-43820,-11214
C00025=-35060,80741,27907,10141,-43820,-11214
C00026=-29699,72606,17976,12493,-42601,-13770
C00027=-29613,73296,18809,12487,-42767,-13784
C00028=-34962,81452,28787,10145,-44005,-11236
C00029=-34865,82167,29673,10149,-44191,-11257
C00030=-34865,82167,29673,10149,-44191,-11257
C00031=-29527,73989,19647,12481,-42935,-13798
C00032=-29442,74687,20492,12474,-43105,-13812
C00033=-34768,82888,30568,10152,-44380,-11278
C00034=-34672,83613,31471,10154,-44571,-11299
C00035=-29357,75345,21378,12457,-43319,-13819
C00036=-36065,73824,19534,10061,-42131,-10960
C00037=-35962,74495,20346,10071,-42296,-10987
C00038=-29273,76050,22236,12450,-43493,-13832
C00039=-29189,76759,23101,12442,-43669,-13844
C00040=-30407,67154,11550,12511,-41377,-13630
C00041=-35860,75169,21164,10080,-42462,-11014
C00042=-35758,75846,21988,10088,-42630,-11040
C00043=-30316,67820,12339,12509,-41529,-13648
C00044=-30227,68489,13133,12507,-41683,-13666
C00045=-30227,68489,13133,12507,-41683,-13666
C00046=-35657,76528,22819,10096,-42800,-11065
C00047=-35556,77213,23656,10104,-42972,-11090
C00048=-30138,69160,13932,12504,-41839,-13683
C00049=-30049,69834,14736,12501,-41997,-13700
C00050=-30049,69834,14736,12501,-41997,-13700
C00051=-35456,77902,24499,10111,-43146,-11115
C00052=-35356,78595,25350,10117,-43322,-11139
C00053=-29961,70512,15546,12497,-42156,-13717
C00054=-29873,71192,16362,12493,-42316,-13733
C00055=-29873,71192,16362,12493,-42316,-13733
C00056=-35257,79293,26207,10123,-43500,-11163
C00057=-35158,79995,27071,10128,-43680,-11186
C00058=-29786,71876,17183,12488,-42479,-13748
C00059=-29699,72563,18010,12483,-42643,-13763
C00060=-29699,72563,18010,12483,-42643,-13763
C00061=-35060,80701,27943,10133,-43862,-11209
C00062=-34962,81412,28823,10137,-44047,-11231
C00063=-29613,73253,18843,12477,-42809,-13778
C00064=-29527,73947,19682,12471,-42977,-13792
C00065=-29527,73947,19682,12471,-42977,-13792
C00066=-34865,82128,29710,10141,-44233,-11253
C00067=-34768,82848,30605,10144,-44422,-11274
C00068=-29442,74644,20527,12465,-43147,-13806
C00069=-29357,75345,21378,12457,-43319,-13819
C00070=-36065,73782,19568,10053,-42174,-10955
C00071=-29357,75303,21413,12448,-43361,-13813
C00072=-29273,76008,22271,12440,-43535,-13826
C00073=-35962,74452,20380,10062,-42338,-10982
C00074=-35860,75126,21199,10072,-42505,-11009
C00075=-35860,75126,21199,10072,-42505,-11009
C00076=-30407,67109,11583,12500,-41420,-13623
C00077=-30316,67775,12372,12499,-41572,-13642
C00078=-35758,75804,22023,10080,-42673,-11035
C00079=-35657,76486,22854,10088,-42843,-11060
C00080=-35657,76486,22854,10088,-42843,-11060
C00081=-30227,68444,13166,12496,-41726,-13660
C00082=-30138,69115,13966,12494,-41882,-13677
C00083=-35556,77171,23691,10096,-43015,-11086
C00084=-35456,77861,24534,10103,-43188,-11110
C00085=-35456,77861,24534,10103,-43188,-11110
C00086=-30049,69790,14770,12491,-42039,-13694
C00087=-29961,70468,15580,12487,-42198,-13711
C00088=-35356,78554,25385,10109,-43364,-11134
C00089=-35257,79252,26243,10115,-43542,-11158
C00090=-35257,79252,26243,10115,-43542,-11158
C00091=-29873,71148,16396,12483,-42359,-13727
C00092=-29786,71832,17217,12478,-42521,-13742
C00093=-35158,79954,27107,10120,-43722,-11181
C00094=-35060,80661,27979,10125,-43904,-11204
C00095=-35060,80661,27979,10125,-43904,-11204
C00096=-29699,72519,18044,12473,-42686,-13757
C00097=-29613,73210,18877,12467,-42852,-13772
C00098=-34962,81372,28859,10130,-44089,-11226
C00099=-34865,82088,29746,10133,-44275,-11248
C00100=-34865,82088,29746,10133,-44275,-11248
C00101=-29527,73904,19716,12461,-43020,-13786
C00102=-29442,74601,20561,12455,-43190,-13800
C00103=-34768,82809,30641,10137,-44464,-11269
C00104=-34672,83535,31544,10139,-44655,-11290
C00105=-29357,75261,21448,12438,-43403,-13807
C00106=-36065,73739,19603,10044,-42216,-10950
C00107=-35962,74410,20415,10054,-42381,-10977
C00108=-29273,75966,22306,12430,-43577,-13820
C00109=-29189,76675,23171,12422,-43753,-13832
C00110=-30407,67064,11617,12490,-41463,-13617
C00111=-35860,75084,21233,10063,-42547,-11004
C00112=-35758,75762,22058,10072,-42715,-11030
C00113=-30316,67730,12406,12488,-41615,-13635
C00114=-30227,68399,13200,12486,-41769,-13653
C00115=-30227,68399,13200,12486,-41769,-13653
C00116=-35657,76444,22889,10080,-42885,-11055
C00117=-35556,77130,23726,10088,-43057,-11081
C00118=-30138,69071,13999,12483,-41924,-13671
C00119=-30049,69746,14804,12480,-42082,-13688
C00120=-30049,69746,14804,12480,-42082,-13688
C00121=-35456,77820,24570,10095,-43231,-11105
C00122=-35356,78513,25421,10101,-43407,-11129
C00123=-29961,70424,15614,12477,-42241,-13704
C00124=-29873,71105,16430,12473,-42401,-13720
C00125=-29873,71105,16430,12473,-42401,-13720
C00126=-35257,79211,26278,10107,-43585,-11153
C00127=-35158,79914,27143,10113,-43765,-11176
C00128=-29786,71789,17251,12468,-42564,-13736
C00129=-29699,72476,18078,12463,-42728,-13751
C00130=-29699,72476,18078,12463,-42728,-13751
C00131=-35060,80621,28015,10118,-43947,-11199
C00132=-34962,81332,28895,10122,-44131,-11221
C00133=-29613,73167,18912,12457,-42894,-13766
C00134=-29527,73861,19751,12451,-43062,-13780
C00135=-29527,73861,19751,12451,-43062,-13780
C00136=-34865,82049,29782,10126,-44317,-11243
C00137=-34768,82770,30678,10129,-44506,-11264
C00138=-29442,74559,20596,12445,-43232,-13794
//INST
///DATE 2023/11/01 12:34
///ATTR SC,RW
///GROUP1 RB1
NOP
MOVJ C00000 VJ=1.0
MOVL C00001 V=30.0
MOVL C00002 V=30.0
MOVL C00003 V=30.0
MOVL C00004 V=30.0
MOVJ C00005 VJ=1.0
MOVL C00006 V=30.0
MOVL C00007 V=30.0
MOVL C00008 V=30.0
MOVL C00009 V=30.0
MOVJ C00010 VJ=1.0
MOVL C00011 V=30.0
MOVL C00012 V=30.0
MOVL C00013 V=30.0
MOVL C00014 V=30.0
MOVJ C00015 VJ=1.0
MOVL C00016 V=30.0
MOVL C00017 V=30.0
MOVL C00018 V=30.0
MOVL C00019 V=30.0
MOVJ C00020 VJ=1.0
MOVL C00021 V=30.0
MOVL C00022 V=30.0
MOVL C00023 V=30.0
MOVL C00024 V=30.0
MOVJ C00025 VJ=1.0
MOVL C00026 V=30.0
MOVL C00027 V=30.0
MOVL C00028 V=30.0
MOVL C00029 V=30.0
MOVJ C00030 VJ=1.0
MOVL C00031 V=30.0
MOVL C00032 V=30.0
MOVL C00033 V=30.0
MOVL C00034 V=30.0
MOVJ C00035 VJ=1.0
MOVL C00036 V=30.0
MOVL C00037 V=30.0
MOVL C00038 V=30.0
MOVL C00039 V=30.0
MOVJ C00040 VJ=1.0
MOVL C00041 V=30.0
MOVL C00042 V=30.0
MOVL C00043 V=30.0
MOVL C00044 V=30.0
MOVJ C00045 VJ=1.0
MOVL C00046 V=30.0
MOVL C00047 V=30.0
MOVL C00048 V=30.0
MOVL C00049 V=30.0
MOVJ C00050 VJ=1.0
MOVL C00051 V=30.0
MOVL C00052 V=30.0
MOVL C00053 V=30.0
MOVL C00054 V=30.0
MOVJ C00055 VJ=1.0
MOVL C00056 V=30.0
MOVL C00057 V=30.0
MOVL C00058 V=30.0
MOVL C00059 V=30.0
MOVJ C00060 VJ=1.0
MOVL C00061 V=30.0
MOVL C00062 V=30.0
MOVL C00063 V=30.0
MOVL C00064 V=30.0
MOVJ C00065 VJ=1.0
MOVL C00066 V=30.0
MOVL C00067 V=30.0
MOVL C00068 V=30.0
MOVL C00069 V=30.0
MOVJ C00070 VJ=1.0
MOVL C00071 V=30.0
MOVL C00072 V=30.0
MOVL C00073 V=30.0
MOVL C00074 V=30.0
MOVJ C00075 VJ=1.0
MOVL C00076 V=30.0
MOVL C00077 V=30.0
MOVL C00078 V=30.0
MOVL C00079 V=30.0
MOVJ C00080 VJ=1.0
MOVL C00081 V=30.0
MOVL C00082 V=30.0
MOVL C00083 V=30.0
MOVL C00084 V=30.0
MOVJ C00085 VJ=1.0
MOVL C00086 V=30.0
MOVL C00087 V=30.0
MOVL C00088 V=30.0
MOVL C00089 V=30.0
MOVJ C00090 VJ=1.0
MOVL C00091 V=30.0
MOVL C00092 V=30.0
MOVL C00093 V=30.0
MOVL C00094 V=30.0
MOVJ C00095 VJ=1.0
MOVL C00096 V=30.0
MOVL C00097 V=30.0
MOVL C00098 V=30.0
MOVL C00099 V=30.0
MOVJ C00100 VJ=1.0
MOVL C00101 V=30.0
MOVL C00102 V=30.0
MOVL C00103 V=30.0
MOVL C00104 V=30.0
MOVJ C00105 VJ=1.0
MOVL C00106 V=30.0
MOVL C00107 V=30.0
MOVL C00108 V=30.0
MOVL C00109 V=30.0
MOVJ C00110 VJ=1.0
MOVL C00111 V=30.0
MOVL C00112 V=30.0
MOVL C00113 V=30.0
MOVL C00114 V=30.0
MOVJ C00115 VJ=1.0
MOVL C00116 V=30.0
MOVL C00117 V=30.0
MOVL C00118 V=30.0
MOVL C00119 V=30.0
MOVJ C00120 VJ=1.0
MOVL C00121 V=30.0
MOVL C00122 V=30.0
MOVL C00123 V=30.0
MOVL C00124 V=30.0
MOVJ C00125 VJ=1.0
MOVL C00126 V=30.0
MOVL C00127 V=30.0
MOVL C00128 V=30.0
MOVL C00129 V=30.0
MOVJ C00130 VJ=1.0
MOVL C00131 V=30.0
MOVL C00132 V=30.0
MOVL C00133 V=30.0
MOVL C00134 V=30.0
MOVJ C00135 VJ=1.0
MOVL C00136 V=30.0
MOVL C00137 V=30.0
MOVL C00138 V=30.0
END
