/JOB
//NAME AAA
//POS
///NPOS 996,0,996,0,0,0
///TOOL 10
///POSTYPE PULSE
///PULSE
C00000=-31024,85289,34168,11303,-45802,-12752
C00001=-31097,84444,33112,11319,-45581,-12748
C00002=-31178,83648,32120,11329,-45373,-12738
C00003=-31265,82900,31189,11335,-45177,-12725
C00004=-31365,82146,30253,11336,-44979,-12706
C00005=-31470,81447,29388,11334,-44795,-12683
C00006=-31582,80758,28535,11327,-44613,-12656
C00007=-31699,80106,27731,11317,-44441,-12627
C00008=-31829,79420,26886,11304,-44261,-12593
C00009=-31958,78777,26096,11289,-44091,-12557
C00010=-32090,78147,25323,11272,-43925,-12520
C00011=-32216,77560,24604,11255,-43771,-12484
C00012=-32354,76934,23839,11236,-43607,-12443
C00013=-32487,76335,23108,11216,-43451,-12404
C00014=-32622,75727,22368,11196,-43294,-12364
C00015=-32755,75130,21642,11176,-43140,-12324
C00016=-32888,74514,20894,11157,-42982,-12285
C00017=-33024,73863,20106,11138,-42818,-12245
C00018=-33147,73239,19353,11122,-42662,-12210
C00019=-33271,72574,18550,11107,-42497,-12176
C00020=-33390,71865,17698,11097,-42325,-12144
C00021=-33497,71158,16849,11090,-42156,-12118
C00022=-33589,70444,15993,11089,-41988,-12099
C00023=-33669,69682,15083,11095,-41812,-12085
C00024=-33732,68890,14140,11108,-41634,-12080
C00025=-33773,68113,13216,11129,-41463,-12084
C00026=-33793,67401,12371,11155,-41310,-12095
C00027=-33793,66651,11485,11190,-41152,-12116
C00028=-33775,65874,10569,11233,-40993,-12146
C00029=-33737,65123,9685,11283,-40843,-12184
C00030=-33680,64370,8803,11341,-40696,-12230
C00031=-33605,63621,7926,11405,-40554,-12284
C00032=-33512,62883,7065,11475,-40418,-12346
C00033=-33413,62203,6274,11545,-40295,-12409
C00034=-33126,61813,5822,11674,-40256,-12547
C00035=-33227,62483,6613,11602,-40382,-12482
C00036=-33320,63214,7476,11530,-40523,-12420
C00037=-33395,63951,8348,11464,-40669,-12364
C00038=-33453,64695,9230,11405,-40819,-12317
C00039=-33493,65441,10115,11354,-40972,-12278
C00040=-33513,66207,11025,11309,-41133,-12247
C00041=-33512,66956,11916,11273,-41294,-12225
C00042=-33494,67660,12755,11246,-41447,-12213
C00043=-33454,68434,13678,11224,-41619,-12208
C00044=-33392,69224,14620,11210,-41798,-12213
C00045=-33313,69984,15529,11203,-41973,-12225
C00046=-33189,70637,16311,11219,-42132,-12261
C00047=-32954,71109,16873,11284,-42262,-12350
C00048=-32689,71551,17392,11363,-42387,-12453
C00049=-32421,71967,17875,11444,-42502,-12558
C00050=-32175,72399,18373,11516,-42616,-12653
C00051=-31799,72711,18694,11646,-42701,-12811
C00052=-31479,73084,19082,11752,-42789,-12943
C00053=-31120,73403,19378,11879,-42854,-13095
C00054=-30775,73771,19720,11999,-42920,-13241
C00055=-30407,74126,20015,12131,-42969,-13399
C00056=-29996,74488,20272,12285,-42997,-13579
C00057=-29624,74852,20521,12425,-43016,-13744
C00058=-29078,75133,20508,12654,-42942,-13999
C00059=-28536,75464,20488,12889,-42841,-14258
C00060=-27928,75842,20377,13167,-42672,-14557
C00061=-27363,76271,20269,13436,-42475,-14842
C00062=-26780,76778,20120,13731,-42219,-15146
C00063=-26201,77373,19946,14041,-41905,-15460
C00064=-25684,78093,19900,14330,-41599,-15747
C00065=-25188,78874,19810,14631,-41234,-16037
C00066=-24742,79771,19823,14918,-40866,-16307
C00067=-24389,80732,20049,15147,-40580,-16522
C00068=-24301,80758,19812,15226,-40440,-16588
C00069=-24683,79773,19696,14962,-40799,-16346
C00070=-25119,78860,19669,14678,-41167,-16080
C00071=-25561,78062,19641,14412,-41479,-15823
C00072=-26132,77314,19804,14081,-41861,-15499
C00073=-26687,76695,19929,13783,-42160,-15198
C00074=-27232,76148,20000,13508,-42394,-14914
C00075=-27789,75695,20094,13240,-42596,-14631
C00076=-28384,75289,20186,12966,-42769,-14337
C00077=-28922,74936,20201,12730,-42878,-14079
C00078=-29423,74599,20137,12521,-42939,-13845
C00079=-29878,74303,20041,12338,-42967,-13637
C00080=-30343,74002,19899,12156,-42970,-13428
C00081=-30745,73692,19679,12006,-42939,-13252
C00082=-31100,73330,19351,11881,-42877,-13101
C00083=-31416,72948,18968,11775,-42797,-12970
C00084=-31729,72558,18560,11672,-42707,-12842
C00085=-32054,72182,18159,11565,-42612,-12709
C00086=-32355,71836,17778,11467,-42518,-12586
C00087=-32649,71456,17345,11373,-42410,-12467
C00088=-32932,71036,16853,11287,-42290,-12356
C00089=-33185,70604,16341,11213,-42167,-12258
C00090=-33344,70026,15650,11181,-42021,-12205
C00091=-33433,69279,14758,11183,-41848,-12188
C00092=-33502,68495,13822,11194,-41670,-12180
C00093=-33549,67728,12908,11212,-41499,-12181
C00094=-33575,67021,12067,11236,-41344,-12190
C00095=-33583,66276,11180,11269,-41183,-12208
C00096=-33571,65506,10266,11311,-41021,-12236
C00097=-33540,64757,9377,11359,-40866,-12271
C00098=-33490,64007,8489,11415,-40714,-12315
C00099=-33422,63265,7612,11477,-40566,-12366
C00100=-33338,62525,6738,11546,-40423,-12425
C00101=-33245,61845,5936,11616,-40293,-12486
C00102=-33395,61912,6095,11543,-40336,-12411
C00103=-33478,62601,6906,11477,-40469,-12354
C00104=-33552,63351,7792,11412,-40616,-12300
C00105=-33609,64105,8683,11353,-40767,-12253
C00106=-33649,64859,9575,11302,-40921,-12214
C00107=-33669,65612,10469,11258,-41077,-12183
C00108=-33671,66384,11384,11220,-41241,-12160
C00109=-33653,67129,12270,11191,-41403,-12147
C00110=-33619,67830,13104,11171,-41557,-12142
C00111=-33561,68595,14016,11157,-41729,-12145
C00112=-33483,69367,14937,11150,-41906,-12158
C00113=-33364,70058,15762,11162,-42070,-12189
C00114=-33163,70546,16343,11214,-42200,-12263
C00115=-32896,70940,16807,11296,-42315,-12369
C00116=-32608,71350,17283,11385,-42432,-12483
C00117=-32314,71736,17722,11478,-42539,-12601
C00118=-32024,72099,18122,11572,-42635,-12719
C00119=-31710,72491,18544,11674,-42733,-12847
C00120=-31391,72867,18930,11780,-42818,-12979
C00121=-31044,73207,19250,11902,-42885,-13125
C00122=-30650,73522,19498,12046,-42928,-13296
C00123=-30226,73819,19681,12207,-42946,-13484
C00124=-29770,74141,19841,12385,-42943,-13688
C00125=-29334,74458,19964,12561,-42918,-13888
C00126=-28842,74811,20043,12766,-42858,-14117
C00127=-28314,75182,20049,12998,-42750,-14371
C00128=-27741,75614,20003,13260,-42589,-14653
C00129=-27179,76069,19891,13533,-42377,-14940
C00130=-26584,76611,19716,13841,-42091,-15256
C00131=-26038,77253,19604,14138,-41786,-15554
C00132=-25545,78014,19609,14417,-41486,-15830
C00133=-25093,78824,19619,14690,-41159,-16093
C00134=-24673,79733,19682,14962,-40812,-16348
C00135=-24330,80687,19903,15187,-40525,-16559
C00136=-24323,80668,19916,15184,-40543,-16559
C00137=-24652,79705,19646,14971,-40808,-16359
C00138=-25055,78793,19540,14713,-41134,-16115
C00139=-25500,77972,19518,14442,-41459,-15854
C00140=-26020,77200,19570,14143,-41795,-15561
C00141=-26559,76548,19661,13851,-42093,-15267
C00142=-27074,75969,19680,13590,-42316,-14997
C00143=-27607,75480,19735,13331,-42515,-14725
C00144=-28199,75040,19819,13055,-42700,-14430
C00145=-28739,74667,19841,12815,-42822,-14169
C00146=-29257,74330,19815,12594,-42903,-13925
C00147=-29733,74045,19766,12398,-42952,-13704
C00148=-30199,73734,19630,12214,-42962,-13493
C00149=-30587,73398,19386,12069,-42932,-13323
C00150=-30944,73036,19072,11942,-42877,-13171
C00151=-31294,72700,18766,11819,-42816,-13023
C00152=-31644,72362,18440,11698,-42744,-12875
C00153=-31978,71982,18040,11587,-42651,-12738
C00154=-32260,71596,17613,11497,-42552,-12624
C00155=-32546,71196,17161,11407,-42443,-12510
C00156=-32854,70829,16740,11308,-42336,-12385
C00157=-33152,70501,16358,11211,-42233,-12264
C00158=-33379,70069,15845,11147,-42113,-12177
C00159=-33513,69408,15056,11127,-41953,-12137
C00160=-33598,68641,14142,11131,-41778,-12122
C00161=-33661,67880,13235,11143,-41606,-12116
C00162=-33700,67181,12404,11161,-41451,-12119
C00163=-33724,66440,11523,11188,-41290,-12129
C00164=-33728,65669,10608,11223,-41126,-12149
C00165=-33714,64912,9711,11264,-40968,-12177
C00166=-33681,64155,8815,11313,-40812,-12214
C00167=-33630,63400,7923,11369,-40661,-12258
C00168=-33562,62643,7030,11432,-40511,-12309
C00169=-33486,61948,6211,11496,-40377,-12364
C00170=-33607,62020,6374,11434,-40424,-12301
C00171=-33676,62723,7202,11374,-40561,-12251
C00172=-33734,63484,8099,11314,-40712,-12203
C00173=-33776,64245,8998,11262,-40866,-12163
C00174=-33801,65009,9902,11216,-41023,-12130
C00175=-33807,65764,10796,11178,-41182,-12106
C00176=-33794,66533,11708,11146,-41347,-12090
C00177=-33762,67275,12590,11124,-41509,-12083
C00178=-33715,67971,13417,11109,-41664,-12084
C00179=-33645,68723,14312,11100,-41834,-12093
C00180=-33540,69454,15185,11105,-42005,-12118
C00181=-33343,69983,15815,11155,-42143,-12190
C00182=-33088,70358,16258,11233,-42253,-12290
C00183=-32830,70766,16735,11311,-42367,-12392
C00184=-32545,71166,17194,11400,-42479,-12505
C00185=-32239,71525,17593,11499,-42578,-12630
C00186=-31930,71869,17963,11602,-42668,-12757
C00187=-31604,72256,18370,11710,-42760,-12891
C00188=-31278,72625,18739,11820,-42839,-13026
C00189=-30913,72946,19018,11951,-42894,-13183
C00190=-30496,73237,19214,12107,-42922,-13366
C00191=-30064,73535,19379,12274,-42929,-13559
C00192=-29614,73874,19544,12452,-42920,-13762
C00193=-29163,74188,19634,12637,-42879,-13970
C00194=-28628,74522,19625,12868,-42781,-14225
C00195=-28083,74903,19588,13113,-42647,-14491
C00196=-27537,75381,19588,13366,-42487,-14762
C00197=-26994,75880,19515,13632,-42274,-15040
C00198=-26425,76465,19389,13930,-41992,-15344
C00199=-25929,77145,19380,14199,-41723,-15614
C00200=-25467,77927,19448,14459,-41445,-15872
C00201=-25049,78746,19533,14709,-41154,-16114
C00202=-24648,79662,19648,14966,-40831,-16356
C00203=-24308,80620,19871,15190,-40543,-16566
C00204=-24332,80562,19955,15158,-40617,-16541
C00205=-24633,79616,19606,14972,-40831,-16363
C00206=-25004,78731,19456,14736,-41123,-16140
C00207=-25429,77866,19344,14482,-41420,-15894
C00208=-25911,77077,19322,14205,-41725,-15622
C00209=-26401,76366,19284,13942,-41982,-15356
C00210=-26969,75713,19324,13650,-42247,-15056
C00211=-27536,75175,19386,13371,-42468,-14765
C00212=-28106,74708,19428,13105,-42645,-14481
C00213=-28667,74310,19456,12853,-42781,-14208
C00214=-29230,73952,19451,12611,-42878,-13941
C00215=-29756,73606,19362,12395,-42926,-13697
C00216=-30234,73262,19191,12208,-42931,-13482
C00217=-30687,72909,18955,12037,-42905,-13283
C00218=-31108,72560,18675,11883,-42856,-13101
C00219=-31479,72213,18355,11752,-42789,-12943
C00220=-31811,71851,17987,11640,-42706,-12805
C00221=-32129,71465,17574,11536,-42611,-12675
C00222=-32444,71055,17118,11435,-42502,-12548
C00223=-32733,70662,16671,11344,-42393,-12432
C00224=-33022,70294,16247,11252,-42286,-12316
C00225=-33311,69954,15849,11159,-42182,-12199
C00226=-33556,69528,15344,11086,-42062,-12104
C00227=-33686,68928,14630,11066,-41917,-12064
C00228=-33768,68182,13742,11069,-41747,-12049
C00229=-33833,67400,12811,11081,-41571,-12042
C00230=-33876,66624,11890,11101,-41401,-12046
C00231=-33897,65870,10996,11128,-41238,-12057
C00232=-33901,65091,10074,11164,-41073,-12078
C00233=-33885,64303,9142,11207,-40910,-12107
C00234=-33852,63543,8244,11256,-40755,-12143
C00235=-33805,62817,7388,11309,-40610,-12184
C00236=-33748,62128,6578,11364,-40475,-12229
C00237=-33790,62138,6663,11336,-40516,-12204
C00238=-33845,62827,7474,11283,-40652,-12160
C00239=-33888,63554,8331,11231,-40797,-12121
C00240=-33918,64320,9234,11184,-40953,-12086
C00241=-33931,65105,10163,11142,-41117,-12058
C00242=-33924,65885,11086,11108,-41282,-12039
C00243=-33900,66638,11979,11082,-41444,-12029
C00244=-33855,67409,12895,11063,-41614,-12027
C00245=-33787,68193,13827,11052,-41790,-12035
C00246=-33700,68930,14704,11051,-41959,-12052
C00247=-33548,69481,15360,11083,-42096,-12103
C00248=-33287,69879,15831,11162,-42212,-12206
C00249=-32993,70231,16241,11257,-42319,-12325
C00250=-32694,70584,16645,11353,-42422,-12446
C00251=-32403,70959,17067,11446,-42525,-12563
C00252=-32090,71365,17516,11547,-42631,-12690
C00253=-31765,71736,17906,11655,-42721,-12824
C00254=-31415,72081,18245,11776,-42797,-12971
C00255=-31030,72418,18541,11913,-42857,-13135
C00256=-30604,72762,18805,12070,-42900,-13320
C00257=-30144,73111,19025,12246,-42918,-13524
C00258=-29656,73454,19176,12439,-42904,-13745
C00259=-29133,73810,19266,12655,-42852,-13988
C00260=-28582,74187,19291,12892,-42755,-14250
C00261=-28011,74586,19238,13151,-42606,-14530
C00262=-27422,75060,19158,13431,-42407,-14826
C00263=-26878,75624,19139,13699,-42194,-15106
C00264=-26346,76301,19169,13971,-41955,-15386
C00265=-25850,77024,19195,14240,-41685,-15657
C00266=-25400,77821,19282,14496,-41410,-15909
C00267=-24981,78693,19410,14747,-41118,-16152
C00268=-24644,79563,19641,14953,-40877,-16350
C00269=-24341,80521,20007,15138,-40667,-16527
C00270=-24305,80490,19904,15165,-40628,-16551
C00271=-24615,79537,19583,14970,-40860,-16366
C00272=-24962,78652,19374,14754,-41120,-16160
C00273=-25364,77778,19207,14515,-41392,-15929
C00274=-25796,76968,19077,14271,-41650,-15687
C00275=-26257,76229,18982,14024,-41892,-15437
C00276=-26803,75539,18982,13739,-42154,-15146
C00277=-27361,74970,19031,13461,-42384,-14857
C00278=-27916,74472,19054,13198,-42566,-14578
C00279=-28455,74037,19048,12954,-42703,-14315
C00280=-29014,73650,19039,12710,-42812,-14047
C00281=-29564,73310,19005,12479,-42886,-13789
C00282=-30072,72984,18897,12274,-42915,-13557
C00283=-30544,72643,18700,12093,-42904,-13347
C00284=-30975,72299,18444,11933,-42866,-13159
C00285=-31355,71958,18145,11797,-42807,-12996
C00286=-31699,71608,17804,11678,-42733,-12852
C00287=-32033,71243,17426,11566,-42646,-12714
C00288=-32369,70861,17013,11455,-42546,-12576
C00289=-32675,70493,16602,11356,-42444,-12451
C00290=-32963,70116,16170,11264,-42337,-12336
C00291=-33237,69748,15743,11178,-42231,-12226
C00292=-33509,69410,15348,11091,-42129,-12116
C00293=-33744,69074,14951,11018,-42030,-12023
C00294=-33901,68497,14266,10985,-41888,-11970
C00295=-33988,67735,13360,10987,-41715,-11953
C00296=-34053,66971,12453,10998,-41544,-11946
C00297=-34097,66227,11570,11015,-41381,-11947
C00298=-34123,65449,10650,11041,-41214,-11957
C00299=-34131,64660,9717,11075,-41047,-11976
C00300=-34122,63891,8809,11114,-40888,-12001
C00301=-34098,63154,7941,11158,-40738,-12032
C00302=-34063,62452,7115,11205,-40598,-12067
C00303=-34109,62482,7224,11176,-40643,-12040
C00304=-34141,63185,8052,11130,-40784,-12006
C00305=-34161,63922,8920,11088,-40934,-11977
C00306=-34167,64691,9826,11050,-41094,-11953
C00307=-34156,65481,10760,11018,-41261,-11936
C00308=-34126,66258,11680,10993,-41428,-11928
C00309=-34079,67001,12561,10977,-41591,-11928
C00310=-34011,67763,13465,10968,-41761,-11937
C00311=-33916,68504,14345,10970,-41931,-11958
C00312=-33751,69045,14987,11007,-42066,-12015
C00313=-33522,69386,15389,11078,-42165,-12106
C00314=-33238,69726,15788,11169,-42269,-12220
C00315=-32921,70036,16144,11275,-42367,-12351
C00316=-32613,70376,16526,11376,-42465,-12476
C00317=-32319,70750,16942,11471,-42565,-12596
C00318=-31994,71144,17368,11577,-42665,-12728
C00319=-31650,71498,17727,11694,-42748,-12872
C00320=-31289,71826,18032,11821,-42814,-13025
C00321=-30899,72160,18313,11962,-42867,-13193
C00322=-30464,72500,18555,12125,-42900,-13383
C00323=-29980,72834,18726,12314,-42900,-13600
C00324=-29468,73163,18823,12522,-42864,-13836
C00325=-28935,73527,18887,12746,-42794,-14085
C00326=-28381,73924,18900,12989,-42682,-14351
C00327=-27812,74350,18846,13251,-42518,-14633
C00328=-27244,74861,18799,13524,-42318,-14920
C00329=-26722,75458,18817,13783,-42108,-15191
C00330=-26204,76163,18868,14052,-41864,-15465
C00331=-25742,76917,18963,14302,-41616,-15717
C00332=-25321,77738,19116,14540,-41365,-15953
C00333=-24952,78607,19356,14754,-41133,-16162
C00334=-24589,79511,19531,14985,-40846,-16381
C00335=-24315,80442,19946,15147,-40675,-16538
C00336=-24341,80377,20028,15112,-40752,-16512
C00337=-24621,79435,19609,14948,-40925,-16352
C00338=-24912,78578,19272,14778,-41104,-16186
C00339=-25285,77690,19036,14560,-41346,-15972
C00340=-25691,76862,18850,14331,-41584,-15746
C00341=-26149,76102,18753,14081,-41835,-15495
C00342=-26637,75375,18641,13830,-42056,-15237
C00343=-27152,74760,18610,13572,-42268,-14970
C00344=-27700,74228,18626,13308,-42463,-14692
C00345=-28240,73770,18630,13059,-42617,-14425
C00346=-28818,73376,18666,12801,-42753,-14144
C00347=-29401,73046,18697,12549,-42856,-13867
C00348=-29915,72712,18604,12340,-42897,-13630
C00349=-30365,72341,18379,12166,-42886,-13429
C00350=-30792,71985,18123,12007,-42855,-13243
C00351=-31203,71672,17885,11855,-42814,-13063
C00352=-31589,71371,17626,11716,-42759,-12898
C00353=-31952,71045,17309,11589,-42685,-12744
C00354=-32295,70673,16915,11474,-42591,-12603
C00355=-32594,70295,16495,11378,-42490,-12482
C00356=-32871,69894,16038,11291,-42381,-12371
C00357=-33140,69508,15593,11207,-42274,-12264
C00358=-33425,69190,15227,11114,-42178,-12148
C00359=-33701,68964,14966,11020,-42100,-12033
C00360=-33961,68677,14629,10935,-42009,-11927
C00361=-34138,68145,13998,10892,-41875,-11864
C00362=-34230,67416,13133,10890,-41709,-11844
C00363=-34297,66686,12268,10898,-41546,-11835
C00364=-34349,65917,11357,10913,-41378,-11833
C00365=-34382,65130,10427,10936,-41209,-11840
C00366=-34398,64362,9521,10965,-41047,-11854
C00367=-34399,63620,8646,10999,-40893,-11874
C00368=-34387,62908,7809,11037,-40747,-11898
C00369=-34672,63455,8539,10890,-40878,-11751
C00370=-34662,64167,9377,10861,-41027,-11736
C00371=-34638,64909,10251,10837,-41184,-11726
C00372=-34598,65676,11157,10818,-41349,-11723
C00373=-34541,66449,12071,10805,-41518,-11727
C00374=-34467,67205,12966,10799,-41686,-11739
C00375=-34374,67894,13782,10804,-41843,-11762
C00376=-34196,68361,14334,10850,-41962,-11827
C00377=-33946,68614,14627,10934,-42042,-11930
C00378=-33703,68915,14977,11013,-42131,-12028
C00379=-33464,69223,15337,11089,-42223,-12124
C00380=-33175,69551,15717,11183,-42323,-12242
C00381=-32862,69859,16066,11287,-42417,-12371
C00382=-32541,70184,16425,11395,-42510,-12503
C00383=-32221,70525,16793,11501,-42602,-12635
C00384=-31882,70904,17192,11615,-42695,-12775
C00385=-31546,71269,17559,11729,-42775,-12915
C00386=-31195,71611,17877,11852,-42841,-13063
C00387=-30788,71928,18121,12002,-42882,-13240
C00388=-30302,72219,18265,12191,-42888,-13458
C00389=-29766,72514,18334,12408,-42855,-13703
C00390=-29233,72843,18387,12629,-42795,-13951
C00391=-28704,73230,18448,12855,-42712,-14202
C00392=-28158,73654,18466,13098,-42588,-14466
C00393=-27602,74114,18427,13359,-42416,-14743
C00394=-27051,74662,18408,13627,-42211,-15025
C00395=-26536,75291,18432,13887,-41989,-15294
C00396=-26031,76034,18504,14154,-41738,-15565
C00397=-25626,76814,18711,14371,-41535,-15784
C00398=-25246,77650,18952,14582,-41322,-15995
C00399=-24890,78534,19222,14788,-41099,-16197
C00400=-24595,79407,19560,14961,-40914,-16365
C00401=-24330,80335,20005,15114,-40761,-16515
C00402=-24290,80327,19919,15142,-40720,-16541
C00403=-24585,79366,19541,14962,-40925,-16368
C00404=-24891,78483,19229,14779,-41129,-16191
C00405=-25205,77605,18858,14606,-41295,-16018
C00406=-25594,76760,18638,14387,-41524,-15801
C00407=-26008,75972,18448,14163,-41739,-15576
C00408=-26458,75214,18267,13931,-41941,-15337
C00409=-26963,74570,18226,13674,-42162,-15073
C00410=-27501,74002,18227,13411,-42366,-14797
C00411=-28037,73519,18232,13159,-42533,-14529
C00412=-28615,73104,18277,12897,-42685,-14245
C00413=-29198,72753,18316,12641,-42803,-13966
C00414=-29727,72419,18261,12421,-42863,-13719
C00415=-30215,72078,18113,12227,-42879,-13498
C00416=-30676,71752,17925,12049,-42868,-13293
C00417=-31099,71445,17709,11891,-42836,-13107
C00418=-31473,71127,17435,11756,-42781,-12947
C00419=-31817,70775,17090,11638,-42706,-12802
C00420=-32149,70392,16691,11527,-42615,-12665
C00421=-32458,70027,16296,11425,-42522,-12539
C00422=-32763,69663,15892,11325,-42423,-12414
C00423=-33061,69306,15488,11229,-42322,-12293
C00424=-33356,68992,15131,11131,-42228,-12172
C00425=-33628,68758,14865,11038,-42151,-12060
C00426=-33903,68534,14607,10944,-42076,-11945
C00427=-34168,68297,14333,10854,-41997,-11835
C00428=-34413,68085,14089,10770,-41928,-11733
C00429=-34647,67930,13913,10687,-41872,-11634
C00430=-34822,67502,13409,10639,-41763,-11568
C00431=-34924,66781,12557,10632,-41599,-11543
C00432=-35002,66041,11681,10634,-41434,-11528
C00433=-35064,65314,10824,10643,-41275,-11520
C00434=-35112,64608,9992,10655,-41123,-11517
C00435=-35138,64659,10125,10634,-41174,-11499
C00436=-35088,65363,10955,10622,-41327,-11502
C00437=-35024,66086,11807,10615,-41485,-11511
C00438=-34943,66826,12682,10613,-41650,-11528
C00439=-34834,67520,13503,10625,-41809,-11557
C00440=-34648,67912,13964,10678,-41912,-11628
C00441=-34405,68055,14127,10765,-41967,-11732
C00442=-34146,68221,14316,10857,-42028,-11841
C00443=-33881,68444,14572,10947,-42102,-11952
C00444=-33627,68727,14899,11031,-42188,-12055
C00445=-33370,69007,15221,11116,-42273,-12160
C00446=-33063,69299,15552,11219,-42364,-12287
C00447=-32752,69612,15900,11323,-42455,-12415
C00448=-32447,69963,16287,11423,-42550,-12540
C00449=-32135,70318,16668,11527,-42641,-12668
C00450=-31775,70674,17027,11650,-42725,-12819
C00451=-31401,70993,17319,11783,-42788,-12978
C00452=-31022,71309,17582,11920,-42838,-13141
C00453=-30613,71631,17817,12073,-42872,-13320
C00454=-30134,71941,17968,12260,-42872,-13535
C00455=-29592,72239,18015,12483,-42825,-13786
C00456=-29045,72570,18034,12715,-42746,-14043
C00457=-28511,72970,18079,12946,-42648,-14298
C00458=-27958,73415,18081,13197,-42506,-14569
C00459=-27387,73889,18002,13471,-42305,-14858
C00460=-26848,74470,17993,13738,-42089,-15136
C00461=-26384,75139,18109,13973,-41895,-15379
C00462=-25922,75914,18269,14215,-41674,-15626
C00463=-25533,76713,18509,14423,-41479,-15836
C00464=-25194,77554,18834,14607,-41308,-16021
C00465=-24869,78441,19179,14790,-41123,-16202
C00466=-24565,79329,19498,14971,-40921,-16378
C00467=-24316,80255,19992,15109,-40795,-16515
C00468=-24305,80221,19976,15110,-40804,-16519
C00469=-24565,79280,19508,14962,-40951,-16372
C00470=-24822,78412,19073,14820,-41083,-16231
C00471=-25147,77514,18730,14635,-41273,-16048
C00472=-25490,76660,18410,14448,-41454,-15860
C00473=-25872,75853,18159,14243,-41646,-15653
C00474=-26314,75068,17962,14012,-41853,-15417
C00475=-26781,74390,17854,13774,-42056,-15172
C00476=-27284,73784,17798,13526,-42250,-14913
C00477=-27806,73263,17782,13277,-42424,-14650
C00478=-28380,72822,17831,13011,-42593,-14365
C00479=-28971,72452,17894,12746,-42732,-14078
C00480=-29516,72114,17877,12515,-42814,-13821
C00481=-30019,71772,17761,12310,-42848,-13590
C00482=-30498,71455,17615,12122,-42854,-13374
C00483=-30945,71171,17452,11950,-42840,-13176
C00484=-31349,70878,17231,11801,-42800,-13000
C00485=-31722,70557,16941,11668,-42738,-12841
C00486=-32084,70211,16598,11543,-42659,-12689
C00487=-32417,69887,16262,11429,-42577,-12550
C00488=-32733,69543,15886,11324,-42484,-12420
C00489=-33017,69163,15455,11234,-42379,-12306
C00490=-33283,68784,15020,11150,-42275,-12199
C00491=-33539,68516,14717,11065,-42195,-12094
C00492=-33832,68335,14516,10961,-42130,-11970
C00493=-34118,68168,14329,10860,-42066,-11849
C00494=-34367,67950,14078,10775,-41995,-11746
C00495=-34603,67786,13892,10691,-41937,-11646
C00496=-34860,67713,13815,10596,-41897,-11534
C00497=-35103,67586,13669,10508,-41845,-11431
C00498=-35257,67093,13087,10470,-41723,-11376
C00499=-35352,66396,12263,10464,-41566,-11352
C00500=-35429,65713,11457,10464,-41414,-11336
C00501=-35213,64847,10491,10578,-41292,-11450
C00502=-35155,65574,11347,10569,-41450,-11456
C00503=-35087,66267,12165,10565,-41603,-11468
C00504=-35003,66967,12993,10566,-41760,-11487
C00505=-34884,67550,13681,10586,-41896,-11524
C00506=-34675,67795,13971,10655,-41972,-11609
C00507=-34395,67873,14061,10758,-42020,-11730
C00508=-34121,67972,14171,10858,-42070,-11847
C00509=-33878,68203,14434,10940,-42142,-11948
C00510=-33635,68451,14717,11022,-42217,-12048
C00511=-33356,68711,15013,11116,-42299,-12164
C00512=-33046,68961,15289,11223,-42378,-12293
C00513=-32730,69248,15603,11330,-42462,-12424
C00514=-32414,69597,15981,11435,-42554,-12554
C00515=-32092,69963,16369,11543,-42645,-12687
C00516=-31757,70300,16706,11658,-42721,-12827
C00517=-31402,70617,16996,11784,-42783,-12978
C00518=-31012,70934,17255,11926,-42831,-13147
C00519=-30569,71262,17478,12093,-42859,-13342
C00520=-30106,71560,17615,12275,-42854,-13550
C00521=-29580,71857,17665,12491,-42808,-13794
C00522=-29013,72188,17663,12733,-42719,-14061
C00523=-28433,72582,17647,12990,-42594,-14341
C00524=-27901,73006,17631,13234,-42449,-14603
C00525=-27340,73524,17606,13502,-42257,-14887
C00526=-26787,74161,17635,13776,-42038,-15172
C00527=-26302,74874,17756,14023,-41828,-15427
C00528=-25874,75641,17950,14247,-41627,-15656
C00529=-25472,76509,18234,14463,-41427,-15873
C00530=-25115,77431,18604,14657,-41244,-16068
C00531=-24819,78361,19070,14815,-41106,-16228
C00532=-24538,79275,19486,14975,-40945,-16386
C00533=-24325,80158,20035,15083,-40867,-16498
C00534=-24319,80115,20031,15079,-40887,-16497
C00535=-24541,79224,19503,14962,-40980,-16378
C00536=-24808,78313,19046,14815,-41118,-16231
C00537=-25102,77381,18577,14658,-41255,-16072
C00538=-25435,76455,18147,14483,-41408,-15893
C00539=-25820,75585,17835,14278,-41595,-15686
C00540=-26222,74804,17589,14069,-41776,-15472
C00541=-26692,74070,17436,13829,-41979,-15225
C00542=-27233,73420,17397,13559,-42200,-14944
C00543=-27782,72880,17400,13295,-42391,-14666
C00544=-28317,72447,17431,13046,-42549,-14400
C00545=-28921,72059,17495,12775,-42695,-14106
C00546=-29502,71735,17529,12524,-42798,-13830
C00547=-30029,71430,17479,12306,-42849,-13586
C00548=-30496,71130,17349,12122,-42858,-13375
C00549=-30959,70821,17165,11945,-42841,-13170
C00550=-31376,70536,16959,11789,-42805,-12987
C00551=-31752,70245,16707,11653,-42751,-12825
C00552=-32100,69923,16392,11533,-42678,-12679
C00553=-32426,69566,16015,11423,-42589,-12544
C00554=-32730,69201,15616,11323,-42493,-12420
C00555=-33011,68851,15224,11232,-42398,-12306
C00556=-33277,68530,14864,11145,-42309,-12198
C00557=-33548,68271,14576,11053,-42233,-12085
C00558=-33830,68103,14390,10953,-42171,-11966
C00559=-34119,67958,14227,10850,-42110,-11843
C00560=-34361,67788,14036,10765,-42052,-11741
C00561=-34588,67612,13842,10685,-41996,-11645
C00562=-34832,67534,13758,10595,-41956,-11540
C00563=-35083,67409,13602,10506,-41896,-11433
C00564=-35234,66906,13003,10471,-41769,-11381
C00565=-35319,66229,12203,10467,-41618,-11361
C00566=-35395,65513,11358,10469,-41459,-11346
C00567=-35465,65782,11751,10421,-41553,-11302
C00568=-35382,66492,12589,10422,-41711,-11321
C00569=-35278,67114,13325,10435,-41855,-11350
C00570=-35078,67419,13692,10498,-41946,-11430
C00571=-34807,67455,13740,10598,-41988,-11547
C00572=-34548,67526,13821,10694,-42032,-11659
C00573=-34289,67635,13938,10789,-42078,-11770
C00574=-34055,67806,14124,10871,-42133,-11869
C00575=-33822,68042,14388,10950,-42202,-11966
C00576=-33570,68280,14657,11036,-42275,-12070
C00577=-33280,68524,14929,11135,-42352,-12191
C00578=-32978,68784,15213,11238,-42430,-12317
C00579=-32671,69082,15537,11342,-42513,-12444
C00580=-32342,69409,15883,11454,-42599,-12581
C00581=-31985,69729,16202,11578,-42676,-12731
C00582=-31621,70036,16488,11708,-42740,-12886
C00583=-31259,70350,16762,11837,-42795,-13041
C00584=-30869,70672,17015,11981,-42837,-13210
C00585=-30404,70982,17190,12160,-42849,-13417
C00586=-29903,71254,17253,12363,-42819,-13647
C00587=-29357,71555,17268,12591,-42751,-13902
C00588=-28808,71919,17288,12828,-42658,-14163
C00589=-28236,72335,17275,13084,-42523,-14441
C00590=-27691,72768,17218,13341,-42351,-14713
C00591=-27127,73317,17185,13616,-42140,-15002
C00592=-26605,73991,17261,13877,-41927,-15273
C00593=-26136,74735,17407,14120,-41715,-15522
C00594=-25720,75531,17623,14341,-41511,-15745
C00595=-25380,76407,18026,14516,-41368,-15925
C00596=-25064,77336,18488,14681,-41230,-16094
C00597=-24776,78276,18972,14834,-41098,-16249
C00598=-24514,79194,19444,14978,-40964,-16394
C00599=-24319,80069,20038,15071,-40914,-16492
C00600=-24292,80045,19984,15086,-40898,-16507
C00601=-24518,79109,19414,14970,-40987,-16388
C00602=-24743,78239,18897,14854,-41076,-16268
C00603=-25012,77336,18421,14711,-41199,-16123
C00604=-25300,76464,17981,14560,-41325,-15970
C00605=-25648,75623,17662,14373,-41499,-15780
C00606=-26028,74798,17355,14175,-41669,-15578
C00607=-26427,74061,17123,13972,-41836,-15369
C00608=-26889,73393,17004,13738,-42029,-15127
C00609=-27389,72822,16974,13492,-42222,-14870
C00610=-27945,72318,17006,13226,-42412,-14589
C00611=-28534,71897,17080,12953,-42583,-14297
C00612=-29110,71542,17133,12698,-42711,-14019
C00613=-29659,71212,17117,12464,-42791,-13760
C00614=-30170,70908,17045,12256,-42831,-13525
C00615=-30636,70624,16926,12072,-42838,-13315
C00616=-31061,70347,16758,11909,-42821,-13126
C00617=-31463,70049,16528,11761,-42779,-12952
C00618=-31846,69722,16232,11624,-42715,-12788
C00619=-32192,69406,15923,11504,-42644,-12642
C00620=-32525,69087,15594,11389,-42563,-12503
C00621=-32844,68766,15249,11282,-42477,-12371
C00622=-33136,68431,14877,11185,-42385,-12251
C00623=-33384,68123,14531,11105,-42300,-12151
C00624=-33648,67861,14239,11015,-42224,-12041
C00625=-33950,67738,14115,10904,-42174,-11911
C00626=-34268,67761,14161,10782,-42153,-11770
C00627=-34550,67727,14131,10675,-42118,-11647
C00628=-34760,67339,13669,10613,-42009,-11566
C00629=-34995,67080,13359,10535,-41925,-11470
C00630=-35267,67071,13347,10432,-41891,-11351
C00631=-35434,66681,12885,10385,-41790,-11287
C00632=-35519,66004,12087,10382,-41638,-11268
C00633=-35523,65990,12140,10372,-41677,-11261
C00634=-35435,66697,12974,10376,-41835,-11281
C00635=-35296,67195,13568,10407,-41958,-11329
C00636=-35054,67339,13747,10492,-42023,-11431
C00637=-34772,67341,13754,10598,-42059,-11554
C00638=-34499,67368,13780,10701,-42093,-11673
C00639=-34230,67465,13882,10800,-42137,-11789
C00640=-33990,67641,14073,10885,-42193,-11891
C00641=-33746,67864,14322,10968,-42260,-11992
C00642=-33484,68072,14550,11059,-42326,-12102
C00643=-33190,68302,14800,11161,-42397,-12225
C00644=-32887,68563,15081,11266,-42473,-12352
C00645=-32575,68863,15401,11372,-42554,-12482
C00646=-32243,69194,15746,11485,-42637,-12620
C00647=-31889,69522,16070,11608,-42712,-12769
C00648=-31526,69826,16343,11738,-42772,-12924
C00649=-31148,70121,16582,11876,-42817,-13088
C00650=-30721,70407,16765,12038,-42839,-13277
C00651=-30218,70689,16869,12238,-42828,-13504
C00652=-29703,70961,16901,12449,-42781,-13742
C00653=-29157,71269,16895,12682,-42699,-14000
C00654=-28585,71635,16866,12935,-42578,-14275
C00655=-27987,72069,16805,13210,-42410,-14570
C00656=-27452,72540,16763,13466,-42228,-14841
C00657=-26922,73125,16774,13728,-42021,-15114
C00658=-26409,73827,16855,13990,-41796,-15384
C00659=-25961,74608,17042,14225,-41587,-15623
C00660=-25605,75420,17369,14408,-41433,-15811
C00661=-25285,76310,17809,14573,-41302,-15980
C00662=-24980,77256,18297,14732,-41170,-16143
C00663=-24719,78195,18839,14866,-41067,-16281
C00664=-24493,79102,19399,14980,-40986,-16399
C00665=-24295,79993,19998,15075,-40932,-16500
C00666=-24311,79926,20037,15052,-40986,-16483
C00667=-24505,79013,19389,14964,-41023,-16387
C00668=-24713,78144,18826,14862,-41086,-16280
C00669=-24963,77240,18304,14734,-41185,-16148
C00670=-25210,76369,17775,14613,-41264,-16021
C00671=-25514,75522,17371,14455,-41397,-15859
C00672=-25898,74672,17074,14250,-41584,-15652
C00673=-26267,73914,16787,14063,-41734,-15459
C00674=-26683,73217,16592,13854,-41902,-15242
C00675=-27172,72615,16551,13608,-42105,-14987
C00676=-27724,72078,16581,13338,-42310,-14705
C00677=-28305,71626,16650,13065,-42493,-14414
C00678=-28897,71260,16740,12796,-42647,-14124
C00679=-29476,70937,16787,12544,-42756,-13848
C00680=-30001,70632,16745,12326,-42812,-13604
C00681=-30473,70349,16647,12137,-42831,-13389
C00682=-30918,70084,16519,11964,-42827,-13190
C00683=-31345,69814,16343,11802,-42801,-13002
C00684=-31734,69493,16065,11662,-42745,-12835
C00685=-32059,69146,15721,11550,-42670,-12699
C00686=-32377,68802,15368,11442,-42589,-12566
C00687=-32714,68515,15075,11325,-42515,-12425
C00688=-33050,68266,14818,11207,-42443,-12282
C00689=-33331,68027,14560,11110,-42373,-12165
C00690=-33605,67771,14279,11017,-42299,-12051
C00691=-33897,67583,14075,10913,-42235,-11927
C00692=-34191,67482,13973,10805,-42189,-11800
C00693=-34438,67306,13775,10718,-42129,-11697
C00694=-34637,66920,13322,10659,-42026,-11619
C00695=-34947,66934,13339,10541,-41993,-11483
C00696=-35299,67235,13689,10395,-42012,-11321
C00697=-35505,66999,13407,10327,-41936,-11238
C00698=-35596,66331,12618,10320,-41786,-11214
C00699=-35578,66219,12556,10323,-41807,-11220
C00700=-35470,66869,13326,10337,-41957,-11251
C00701=-35265,67156,13680,10401,-42050,-11332
C00702=-34990,67201,13745,10502,-42098,-11451
C00703=-34712,67175,13711,10609,-42123,-11573
C00704=-34422,67163,13690,10720,-42151,-11701
C00705=-34146,67282,13818,10820,-42201,-11819
C00706=-33906,67461,14010,10905,-42256,-11920
C00707=-33650,67638,14197,10996,-42311,-12029
C00708=-33365,67793,14355,11099,-42363,-12151
C00709=-33061,68018,14594,11205,-42432,-12279
C00710=-32764,68312,14910,11306,-42511,-12402
C00711=-32467,68642,15261,11406,-42594,-12525
C00712=-32139,68975,15602,11518,-42674,-12662
C00713=-31776,69289,15898,11646,-42741,-12816
C00714=-31401,69582,16148,11782,-42793,-12978
C00715=-31014,69874,16369,11925,-42830,-13146
C00716=-30579,70158,16533,12093,-42844,-13340
C00717=-30060,70424,16591,12302,-42815,-13577
C00718=-29521,70686,16575,12528,-42748,-13829
C00719=-28952,70994,16524,12776,-42643,-14100
C00720=-28373,71369,16466,13036,-42502,-14382
C00721=-27784,71833,16415,13311,-42324,-14675
C00722=-27260,72331,16384,13566,-42134,-14943
C00723=-26731,72947,16395,13832,-41912,-15218
C00724=-26226,73682,16484,14096,-41675,-15487
C00725=-25807,74485,16717,14316,-41477,-15711
C00726=-25494,75315,17125,14474,-41357,-15875
C00727=-25207,76208,17627,14617,-41256,-16024
C00728=-24891,77175,18089,14788,-41100,-16196
C00729=-24684,78100,18753,14879,-41069,-16297
C00730=-24471,79011,19348,14983,-41005,-16406
C00731=-24272,79915,19955,15079,-40949,-16507
C00732=-24274,79860,19965,15068,-40981,-16500
C00733=-24459,78967,19323,14985,-41014,-16410
C00734=-24706,78030,18797,14853,-41127,-16276
C00735=-24935,77087,18170,14745,-41185,-16161
C00736=-25170,76151,17531,14638,-41233,-16045
C00737=-25426,75253,16961,14517,-41300,-15916
C00738=-25778,74418,16642,14329,-41471,-15726
C00739=-26199,73613,16417,14107,-41674,-15500
C00740=-26641,72863,16214,13882,-41859,-15268
C00741=-27131,72225,16138,13636,-42059,-15013
C00742=-27656,71713,16178,13378,-42261,-14743
C00743=-28255,71247,16263,13093,-42458,-14442
C00744=-28844,70864,16338,12825,-42611,-14153
C00745=-29414,70544,16391,12576,-42723,-13880
C00746=-29938,70259,16383,12356,-42790,-13635
C00747=-30447,69968,16304,12150,-42819,-13402
C00748=-30899,69699,16178,11974,-42818,-13200
C00749=-31320,69440,16017,11813,-42796,-13013
C00750=-31722,69177,15818,11664,-42756,-12838
C00751=-32094,68870,15535,11532,-42693,-12680
C00752=-32425,68539,15201,11418,-42615,-12541
C00753=-32729,68232,14881,11314,-42538,-12414
C00754=-33031,67975,14614,11209,-42469,-12288
C00755=-33335,67759,14390,11102,-42405,-12159
C00756=-33619,67566,14185,11001,-42344,-12039
C00757=-33890,67374,13977,10906,-42282,-11924
C00758=-34159,67255,13854,10808,-42235,-11809
C00759=-34448,67233,13846,10698,-42207,-11682
C00760=-34705,67142,13746,10604,-42162,-11572
C00761=-34902,66751,13274,10547,-42051,-11496
C00762=-35175,66652,13143,10449,-41990,-11380
C00763=-35430,66607,13080,10355,-41945,-11270
C00764=-35552,66043,12413,10333,-41813,-11231
C00765=-35576,66145,12608,10310,-41876,-11212
C00766=-35476,66819,13404,10320,-42029,-11239
C00767=-35258,67108,13767,10388,-42127,-11326
C00768=-34926,67034,13704,10514,-42166,-11471
C00769=-34643,67001,13660,10624,-42189,-11596
C00770=-34368,67031,13685,10727,-42221,-11716
C00771=-34079,67126,13783,10833,-42267,-11841
C00772=-33817,67253,13910,10929,-42311,-11954
C00773=-33560,67421,14081,11021,-42361,-12063
C00774=-33294,67613,14281,11115,-42418,-12176
C00775=-32998,67856,14536,11218,-42487,-12300
C00776=-32686,68133,14827,11326,-42561,-12431
C00777=-32363,68426,15125,11438,-42634,-12567
C00778=-32017,68734,15425,11559,-42704,-12713
C00779=-31647,69040,15701,11692,-42764,-12871
C00780=-31257,69321,15920,11836,-42806,-13041
C00781=-30835,69578,16072,11997,-42824,-13228
C00782=-30359,69829,16156,12186,-42812,-13443
C00783=-29827,70101,16188,12405,-42767,-13689
C00784=-29309,70402,16204,12623,-42698,-13932
C00785=-28755,70742,16176,12866,-42588,-14197
C00786=-28156,71129,16079,13141,-42421,-14493
C00787=-27543,71601,15966,13436,-42206,-14803
C00788=-27038,72131,15956,13685,-42011,-15063
C00789=-26553,72782,16036,13931,-41806,-15317
C00790=-26075,73542,16165,14182,-41577,-15572
C00791=-25685,74360,16439,14388,-41393,-15782
C00792=-25392,75196,16879,14535,-41285,-15934
C00793=-25105,76113,17386,14681,-41176,-16085
C00794=-24862,77061,18004,14796,-41111,-16208
C00795=-24627,78017,18614,14912,-41037,-16329
C00796=-24433,78932,19264,14999,-41000,-16424
C00797=-24269,79814,19956,15064,-41000,-16499
C00798=-24253,79780,19927,15070,-41003,-16506
C00799=-24449,78832,19253,14981,-41041,-16410
C00800=-24621,77966,18602,14908,-41056,-16328
C00801=-24817,77055,17942,14822,-41084,-16233
C00802=-25047,76167,17381,14710,-41155,-16115
C00803=-25299,75302,16871,14585,-41242,-15984
C00804=-25595,74434,16413,14435,-41355,-15830
C00805=-25898,73645,16023,14283,-41468,-15672
C00806=-26289,72895,15797,14079,-41647,-15463
C00807=-26761,72233,15739,13831,-41871,-15211
C00808=-27279,71637,15735,13570,-42089,-14941
C00809=-27834,71124,15784,13300,-42294,-14658
C00810=-28436,70715,15912,13015,-42489,-14356
C00811=-29062,70380,16054,12730,-42653,-14049
C00812=-29645,70094,16132,12477,-42762,-13771
C00813=-30160,69832,16123,12263,-42818,-13532
C00814=-30623,69570,16038,12077,-42835,-13321
C00815=-31057,69292,15881,11911,-42823,-13128
C00816=-31463,68982,15644,11760,-42783,-12951
C00817=-31830,68684,15388,11627,-42731,-12793
C00818=-32197,68397,15127,11496,-42671,-12636
C00819=-32553,68123,14864,11369,-42605,-12485
C00820=-32868,67828,14559,11261,-42530,-12353
C00821=-33123,67565,14281,11173,-42463,-12247
C00822=-33404,67349,14060,11074,-42404,-12128
C00823=-33726,67199,13913,10957,-42351,-11990
C00824=-34028,67061,13770,10847,-42298,-11860
C00825=-34289,66974,13691,10750,-42263,-11747
C00826=-34569,66960,13695,10643,-42240,-11623
C00827=-34885,66848,13551,10530,-42171,-11489
C00828=-35155,66548,13166,10444,-42059,-11381
C00829=-35426,66500,13095,10344,-42009,-11264
C00830=-35574,66093,12612,10305,-41905,-11210
C00831=-35648,66476,13144,10251,-42025,-11162
C00832=-35529,67062,13840,10271,-42164,-11199
C00833=-35258,67134,13948,10369,-42224,-11314
C00834=-34879,66866,13648,10522,-42222,-11486
C00835=-34559,66903,13698,10640,-42271,-11624
C00836=-34256,66921,13705,10755,-42302,-11757
C00837=-33960,66904,13657,10871,-42318,-11888
C00838=-33662,66996,13736,10982,-42355,-12018
C00839=-33371,67212,13963,11085,-42418,-12141
C00840=-33086,67471,14237,11183,-42489,-12260
C00841=-32798,67705,14476,11284,-42551,-12382
C00842=-32464,67971,14738,11402,-42617,-12523
C00843=-32119,68259,15015,11524,-42683,-12670
C00844=-31765,68561,15293,11650,-42744,-12821
C00845=-31393,68856,15539,11786,-42792,-12981
C00846=-30966,69149,15739,11946,-42822,-13169
C00847=-30516,69409,15858,12122,-42822,-13371
C00848=-30035,69658,15906,12318,-42791,-13592
C00849=-29502,69918,15883,12542,-42720,-13841
C00850=-28924,70221,15811,12796,-42606,-14118
C00851=-28336,70590,15727,13063,-42454,-14406
C00852=-27762,71024,15644,13334,-42270,-14694
C00853=-27195,71545,15574,13613,-42051,-14985
C00854=-26678,72154,15576,13876,-41826,-15257
C00855=-26244,72826,15698,14101,-41629,-15487
C00856=-25854,73581,15926,14306,-41449,-15695
C00857=-25518,74381,16245,14483,-41293,-15876
C00858=-25231,75254,16714,14629,-41183,-16026
C00859=-24988,76125,17243,14748,-41104,-16151
C00860=-24786,77010,17868,14839,-41068,-16250
C00861=-24586,77925,18513,14930,-41028,-16349
C00862=-24426,78792,19200,14992,-41033,-16421
C00863=-24246,79737,19918,15067,-41019,-16506
C00864=-24233,79696,19889,15071,-41025,-16511
C00865=-24390,78768,19122,15015,-41004,-16443
C00866=-24608,77846,18547,14905,-41085,-16329
C00867=-24785,76942,17848,14833,-41090,-16247
C00868=-24957,76073,17163,14766,-41087,-16168
C00869=-25176,75209,16590,14663,-41141,-16058
C00870=-25469,74321,16129,14512,-41261,-15903
C00871=-25783,73520,15772,14348,-41398,-15736
C00872=-26146,72759,15503,14159,-41561,-15543
C00873=-26582,72070,15383,13930,-41767,-15310
C00874=-27102,71449,15390,13662,-42003,-15035
C00875=-27663,70918,15459,13384,-42227,-14746
C00876=-28235,70475,15548,13111,-42419,-14457
C00877=-28832,70099,15649,12837,-42582,-14163
C00878=-29419,69793,15736,12578,-42707,-13881
C00879=-29943,69522,15752,12356,-42779,-13634
C00880=-30408,69253,15680,12168,-42808,-13422
C00881=-30858,68980,15557,11991,-42811,-13219
C00882=-31318,68720,15417,11814,-42797,-13014
C00883=-31735,68478,15254,11657,-42766,-12831
C00884=-32107,68204,15017,11522,-42713,-12671
C00885=-32432,67892,14708,11409,-42643,-12534
C00886=-32744,67579,14388,11302,-42568,-12404
C00887=-33036,67342,14148,11199,-42506,-12280
C00888=-33339,67143,13951,11090,-42450,-12151
C00889=-33635,66985,13800,10983,-42402,-12024
C00890=-33929,66878,13705,10873,-42363,-11896
C00891=-34240,66859,13704,10755,-42335,-11760
C00892=-34547,66831,13685,10639,-42301,-11626
C00893=-34788,66593,13409,10558,-42226,-11526
C00894=-35061,66363,13118,10466,-42134,-11414
C00895=-35468,66761,13557,10299,-42152,-11228
C00896=-35639,66411,13136,10249,-42054,-11162
C00897=-35654,66446,13247,10234,-42102,-11150
C00898=-35506,66905,13796,10270,-42220,-11203
C00899=-35191,66873,13791,10387,-42269,-11339
C00900=-34849,66914,13870,10511,-42336,-11485
C00901=-34452,66601,13492,10675,-42312,-11667
C00902=-34124,66499,13344,10806,-42313,-11815
C00903=-33880,66691,13549,10892,-42369,-11918
C00904=-33618,66933,13811,10982,-42437,-12027
C00905=-33296,67078,13946,11100,-42485,-12166
C00906=-32970,67227,14077,11220,-42529,-12307
C00907=-32679,67449,14294,11324,-42585,-12431
C00908=-32366,67758,14607,11432,-42657,-12562
C00909=-32028,68062,14897,11551,-42723,-12705
C00910=-31655,68336,15129,11687,-42772,-12866
C00911=-31262,68606,15328,11833,-42808,-13038
C00912=-30821,68891,15501,12002,-42827,-13233
C00913=-30349,69143,15583,12190,-42813,-13447
C00914=-29830,69372,15564,12405,-42758,-13688
C00915=-29262,69610,15460,12652,-42654,-13959
C00916=-28666,69922,15346,12919,-42513,-14249
C00917=-28075,70317,15246,13193,-42340,-14541
C00918=-27510,70789,15174,13465,-42143,-14828
C00919=-26975,71353,15152,13732,-41928,-15105
C00920=-26489,71997,15205,13982,-41711,-15361
C00921=-26062,72694,15330,14208,-41504,-15591
C00922=-25693,73462,15578,14405,-41325,-15790
C00923=-25396,74272,15969,14558,-41202,-15947
C00924=-25131,75158,16480,14691,-41108,-16085
C00925=-24922,76020,17073,14786,-41065,-16188
C00926=-24725,76915,17711,14874,-41031,-16285
C00927=-24517,77849,18343,14973,-40977,-16390
C00928=-24403,78699,19143,14996,-41049,-16429
C00929=-24230,79647,19885,15065,-41048,-16509
C00930=-24196,79624,19813,15086,-41021,-16529
C00931=-24391,78651,19115,14998,-41058,-16433
C00932=-24549,77762,18398,14939,-41048,-16363
C00933=-24692,76867,17625,14894,-41009,-16304
C00934=-24883,75975,16976,14811,-41036,-16212
C00935=-25088,75106,16375,14717,-41078,-16110
C00936=-25328,74224,15815,14602,-41145,-15988
C00937=-25632,73406,15446,14441,-41284,-15825
C00938=-26001,72630,15204,14242,-41469,-15624
C00939=-26406,71925,15040,14029,-41661,-15408
C00940=-26882,71266,14973,13782,-41878,-15155
C00941=-27444,70699,15045,13497,-42120,-14861
C00942=-28055,70247,15207,13197,-42355,-14548
C00943=-28677,69874,15367,12906,-42548,-14238
C00944=-29257,69551,15453,12647,-42680,-13957
C00945=-29775,69265,15466,12426,-42760,-13713
C00946=-30249,68994,15415,12232,-42801,-13494
C00947=-30711,68729,15323,12047,-42816,-13284
C00948=-31166,68452,15175,11872,-42806,-13081
C00949=-31566,68183,14986,11721,-42775,-12906
C00950=-31939,67902,14753,11585,-42728,-12744
C00951=-32296,67630,14510,11456,-42672,-12592
C00952=-32646,67383,14282,11330,-42615,-12442
C00953=-32950,67171,14080,11221,-42562,-12312
C00954=-33239,66923,13826,11120,-42498,-12190
C00955=-33512,66686,13582,11025,-42437,-12075
C00956=-33793,66555,13465,10921,-42398,-11954
C00957=-34107,66597,13550,10797,-42390,-11813
C00958=-34450,66664,13648,10663,-42375,-11660
C00959=-34755,66475,13417,10557,-42294,-11533
C00960=-35064,66337,13230,10449,-42215,-11403
C00961=-35515,67014,14003,10253,-42289,-11190
C00962=-35723,66841,13787,10182,-42222,-11104
C00963=-35671,66509,13463,10208,-42200,-11131
C00964=-35540,67088,14159,10232,-42343,-11172
C00965=-35208,67075,14188,10353,-42405,-11315
C00966=-34714,66367,13365,10568,-42322,-11548
C00967=-34394,66350,13334,10690,-42350,-11688
C00968=-34130,66574,13588,10781,-42422,-11798
C00969=-33820,66639,13641,10897,-42459,-11933
C00970=-33483,66656,13622,11027,-42479,-12083
C00971=-33171,66789,13732,11143,-42517,-12218
C00972=-32885,67025,13967,11244,-42575,-12339
C00973=-32594,67267,14205,11347,-42634,-12463
C00974=-32245,67526,14444,11472,-42692,-12612
C00975=-31884,67795,14679,11603,-42744,-12767
C00976=-31515,68078,14912,11738,-42790,-12927
C00977=-31121,68356,15110,11886,-42821,-13100
C00978=-30657,68620,15234,12067,-42825,-13307
C00979=-30165,68860,15273,12266,-42794,-13533
C00980=-29651,69105,15254,12482,-42730,-13773
C00981=-29097,69372,15173,12724,-42624,-14038
C00982=-28500,69696,15045,12995,-42469,-14330
C00983=-27899,70103,14919,13279,-42277,-14631
C00984=-27329,70593,14828,13558,-42061,-14923
C00985=-26789,71179,14791,13833,-41826,-15206
C00986=-26308,71850,14844,14085,-41596,-15463
C00987=-25910,72570,15020,14297,-41403,-15677
C00988=-25568,73351,15308,14479,-41239,-15862
C00989=-25279,74172,15704,14631,-41112,-16016
C00990=-25035,75060,16250,14751,-41034,-16142
C00991=-24828,75935,16846,14847,-40987,-16245
C00992=-24657,76824,17538,14915,-40984,-16324
C00993=-24504,77731,18291,14969,-41007,-16390
C00994=-24329,78641,18968,15045,-40985,-16475
C00995=-24171,79596,19754,15102,-41004,-16543
EC00000=-29915,-124451
EC00001=-29915,-124451
EC00002=-29915,-124451
EC00003=-29915,-124451
EC00004=-29915,-124451
EC00005=-29915,-124451
EC00006=-29915,-124451
EC00007=-29915,-124451
EC00008=-29915,-124451
EC00009=-29915,-124451
EC00010=-29915,-124451
EC00011=-29915,-124451
EC00012=-29915,-124451
EC00013=-29915,-124451
EC00014=-29915,-124451
EC00015=-29915,-124451
EC00016=-29915,-124451
EC00017=-29915,-124451
EC00018=-29915,-124451
EC00019=-29915,-124451
EC00020=-29915,-124451
EC00021=-29915,-124451
EC00022=-29915,-124451
EC00023=-29915,-124451
EC00024=-29915,-124451
EC00025=-29915,-124451
EC00026=-29915,-124451
EC00027=-29915,-124451
EC00028=-29915,-124451
EC00029=-29915,-124451
EC00030=-29915,-124451
EC00031=-29915,-124451
EC00032=-29915,-124451
EC00033=-29915,-124451
EC00034=-25877,-124451
EC00035=-25877,-124451
EC00036=-25877,-124451
EC00037=-25877,-124451
EC00038=-25877,-124451
EC00039=-25877,-124451
EC00040=-25877,-124451
EC00041=-25877,-124451
EC00042=-25877,-124451
EC00043=-25877,-124451
EC00044=-25877,-124451
EC00045=-25877,-124451
EC00046=-25465,-123904
EC00047=-23830,-121208
EC00048=-21817,-117485
EC00049=-19526,-114039
EC00050=-17323,-111933
EC00051=-13191,-109672
EC00052=-9743,-108174
EC00053=-5637,-107137
EC00054=-1710,-106296
EC00055=2523,-106256
EC00056=7310,-106660
EC00057=11660,-107116
EC00058=18435,-108471
EC00059=25323,-109761
EC00060=33237,-111632
EC00061=40700,-113811
EC00062=48741,-116260
EC00063=57061,-119100
EC00064=64469,-122503
EC00065=72077,-126198
EC00066=79473,-129651
EC00067=85723,-132359
EC00068=87528,-133768
EC00069=81099,-129659
EC00070=73916,-125911
EC00071=67168,-122516
EC00072=58527,-118975
EC00073=50555,-116139
EC00074=43143,-113539
EC00075=35718,-111339
EC00076=27840,-109693
EC00077=20963,-108364
EC00078=14785,-107102
EC00079=9197,-106420
EC00080=3474,-106508
EC00081=-1342,-106987
EC00082=-5341,-107367
EC00083=-8766,-107844
EC00084=-12108,-109107
EC00085=-15522,-111617
EC00086=-18513,-114754
EC00087=-21174,-118083
EC00088=-23472,-121458
EC00089=-25198,-125164
EC00090=-25863,-126853
EC00091=-25889,-126933
EC00092=-25889,-126933
EC00093=-25889,-126933
EC00094=-25889,-126933
EC00095=-25889,-126933
EC00096=-25889,-126933
EC00097=-25889,-126933
EC00098=-25889,-126933
EC00099=-25889,-126933
EC00100=-25889,-126933
EC00101=-25889,-126933
EC00102=-25901,-130108
EC00103=-25901,-130108
EC00104=-25901,-130108
EC00105=-25901,-130108
EC00106=-25901,-130108
EC00107=-25901,-130108
EC00108=-25901,-130108
EC00109=-25901,-130108
EC00110=-25901,-130108
EC00111=-25901,-130108
EC00112=-25901,-130108
EC00113=-25700,-129333
EC00114=-24718,-126213
EC00115=-22890,-121716
EC00116=-20538,-118186
EC00117=-17881,-115078
EC00118=-15058,-112248
EC00119=-11828,-109747
EC00120=-8387,-108121
EC00121=-4468,-107250
EC00122=139,-106787
EC00123=5249,-106531
EC00124=10822,-106599
EC00125=16174,-107175
EC00126=22270,-108295
EC00127=29011,-109681
EC00128=36535,-111359
EC00129=44156,-113434
EC00130=52527,-116092
EC00131=60419,-119071
EC00132=67617,-122408
EC00133=74634,-125792
EC00134=81333,-129740
EC00135=86849,-133464
EC00136=87545,-132772
EC00137=81999,-129601
EC00138=75548,-125855
EC00139=68691,-122269
EC00140=60829,-119016
EC00141=53041,-116085
EC00142=46016,-113493
EC00143=38794,-111463
EC00144=30907,-109663
EC00145=23947,-108229
EC00146=17387,-107231
EC00147=11407,-106711
EC00148=5684,-106525
EC00149=1101,-106722
EC00150=-2994,-107401
EC00151=-6972,-108562
EC00152=-10861,-110078
EC00153=-14363,-111862
EC00154=-17118,-113928
EC00155=-19710,-116971
EC00156=-22294,-121469
EC00157=-24425,-127046
EC00158=-25626,-130905
EC00159=-25923,-132015
EC00160=-25923,-132015
EC00161=-25923,-132015
EC00162=-25923,-132015
EC00163=-25923,-132015
EC00164=-25923,-132015
EC00165=-25923,-132015
EC00166=-25923,-132015
EC00167=-25923,-132015
EC00168=-25923,-132015
EC00169=-25923,-132015
EC00170=-25935,-134621
EC00171=-25935,-134621
EC00172=-25935,-134621
EC00173=-25935,-134621
EC00174=-25935,-134621
EC00175=-25935,-134621
EC00176=-25935,-134621
EC00177=-25935,-134621
EC00178=-25935,-134621
EC00179=-25935,-134621
EC00180=-25833,-134263
EC00181=-24984,-131524
EC00182=-23486,-126991
EC00183=-21803,-122609
EC00184=-19583,-118255
EC00185=-16758,-114600
EC00186=-13644,-111919
EC00187=-10249,-109923
EC00188=-6710,-108546
EC00189=-2516,-107522
EC00190=2471,-106832
EC00191=7714,-106587
EC00192=13213,-106797
EC00193=18835,-107359
EC00194=25700,-108335
EC00195=32819,-109714
EC00196=40022,-111476
EC00197=47486,-113454
EC00198=55595,-116064
EC00199=62659,-119104
EC00200=69458,-122265
EC00201=75732,-125812
EC00202=82142,-129565
EC00203=87395,-133727
EC00204=87079,-133127
EC00205=82593,-129560
EC00206=76821,-125812
EC00207=70377,-122211
EC00208=63189,-118880
EC00209=56176,-116006
EC00210=48222,-113239
EC00211=40410,-111146
EC00212=32790,-109482
EC00213=25464,-108109
EC00214=18257,-107136
EC00215=11648,-106762
EC00216=5802,-106865
EC00217=402,-107314
EC00218=-4497,-108258
EC00219=-8676,-109851
EC00220=-12211,-111864
EC00221=-15400,-114126
EC00222=-18362,-116902
EC00223=-20818,-120471
EC00224=-22879,-125687
EC00225=-24539,-131879
EC00226=-25650,-136533
EC00227=-25921,-137740
EC00228=-25921,-137740
EC00229=-25921,-137740
EC00230=-25921,-137740
EC00231=-25921,-137740
EC00232=-25921,-137740
EC00233=-25921,-137740
EC00234=-25921,-137740
EC00235=-25921,-137740
EC00236=-25921,-137740
EC00237=-25916,-138705
EC00238=-25916,-138705
EC00239=-25916,-138705
EC00240=-25916,-138705
EC00241=-25916,-138705
EC00242=-25916,-138705
EC00243=-25916,-138705
EC00244=-25916,-138705
EC00245=-25916,-138705
EC00246=-25905,-138650
EC00247=-25474,-136772
EC00248=-24148,-132117
EC00249=-22282,-126874
EC00250=-20091,-121929
EC00251=-17698,-117656
EC00252=-14821,-114158
EC00253=-11517,-111690
EC00254=-7732,-109913
EC00255=-3361,-108534
EC00256=1616,-107497
EC00257=7153,-106901
EC00258=13159,-106849
EC00259=19718,-107340
EC00260=26785,-108264
EC00261=34347,-109523
EC00262=42345,-111230
EC00263=49830,-113346
EC00264=57278,-115941
EC00265=64440,-118909
EC00266=71056,-122216
EC00267=77426,-125783
EC00268=82412,-129418
EC00269=87364,-132264
EC00270=87464,-133807
EC00271=83142,-129520
EC00272=77945,-125705
EC00273=71893,-122194
EC00274=65556,-118948
EC00275=58970,-116039
EC00276=51214,-113314
EC00277=43394,-111288
EC00278=35852,-109723
EC00279=28766,-108405
EC00280=21550,-107391
EC00281=14533,-106971
EC00282=8206,-107103
EC00283=2505,-107611
EC00284=-2542,-108548
EC00285=-6852,-110066
EC00286=-10559,-112108
EC00287=-13971,-114552
EC00288=-17219,-117387
EC00289=-19917,-120782
EC00290=-22031,-125484
EC00291=-23514,-131537
EC00292=-24670,-137977
EC00293=-25571,-142875
EC00294=-25935,-144773
EC00295=-25940,-144798
EC00296=-25940,-144798
EC00297=-25940,-144798
EC00298=-25940,-144798
EC00299=-25940,-144798
EC00300=-25940,-144798
EC00301=-25940,-144798
EC00302=-25940,-144798
EC00303=-25942,-145873
EC00304=-25942,-145873
EC00305=-25942,-145873
EC00306=-25942,-145873
EC00307=-25942,-145873
EC00308=-25942,-145873
EC00309=-25942,-145873
EC00310=-25942,-145873
EC00311=-25924,-145619
EC00312=-25651,-142908
EC00313=-24840,-138005
EC00314=-23343,-132552
EC00315=-21225,-126915
EC00316=-18924,-121776
EC00317=-16468,-117684
EC00318=-13407,-114503
EC00319=-9844,-112140
EC00320=-5888,-110260
EC00321=-1449,-108773
EC00322=3675,-107756
EC00323=9566,-107233
EC00324=15967,-107161
EC00325=22751,-107575
EC00326=29943,-108496
EC00327=37557,-109791
EC00328=45360,-111429
EC00329=52651,-113430
EC00330=60015,-116017
EC00331=66695,-118943
EC00332=72863,-122203
EC00333=78228,-125676
EC00334=83854,-129532
EC00335=87562,-133248
EC00336=87091,-132825
EC00337=83088,-129431
EC00338=79200,-125710
EC00339=73675,-122215
EC00340=67760,-118961
EC00341=61093,-116039
EC00342=54181,-113508
EC00343=46928,-111530
EC00344=39361,-109954
EC00345=32126,-108723
EC00346=24515,-107752
EC00347=16981,-107252
EC00348=10538,-107367
EC00349=5107,-107997
EC00350=105,-108989
EC00351=-4645,-110379
EC00352=-8955,-112308
EC00353=-12775,-114894
EC00354=-16085,-118037
EC00355=-18665,-121437
EC00356=-20682,-125628
EC00357=-22195,-131120
EC00358=-23501,-137758
EC00359=-24673,-144121
EC00360=-25579,-149693
EC00361=-25927,-152330
EC00362=-25941,-152479
EC00363=-25941,-152479
EC00364=-25941,-152479
EC00365=-25941,-152479
EC00366=-25941,-152479
EC00367=-25941,-152479
EC00368=-25941,-152479
EC00369=-25936,-159660
EC00370=-25936,-159660
EC00371=-25936,-159660
EC00372=-25936,-159660
EC00373=-25936,-159660
EC00374=-25936,-159660
EC00375=-25920,-159434
EC00376=-25728,-156271
EC00377=-25323,-149814
EC00378=-24758,-143822
EC00379=-23905,-138446
EC00380=-22401,-132690
EC00381=-20365,-126880
EC00382=-17866,-121819
EC00383=-15028,-117942
EC00384=-11758,-114909
EC00385=-8319,-112540
EC00386=-4509,-110583
EC00387=184,-109036
EC00388=6044,-108058
EC00389=12699,-107658
EC00390=19425,-107668
EC00391=26237,-108017
EC00392=33428,-108804
EC00393=40975,-110062
EC00394=48624,-111719
EC00395=55985,-113635
EC00396=63356,-116132
EC00397=69104,-119053
EC00398=74587,-122209
EC00399=79829,-125577
EC00400=83705,-129546
EC00401=87254,-133098
EC00402=88056,-133657
EC00403=84177,-129248
EC00404=79745,-125734
EC00405=75558,-122151
EC00406=69822,-118982
EC00407=63829,-116182
EC00408=57404,-113752
EC00409=50146,-111843
EC00410=42597,-110259
EC00411=35310,-109039
EC00412=27595,-108140
EC00413=19988,-107679
EC00414=13274,-107774
EC00415=7281,-108396
EC00416=1773,-109389
EC00417=-3127,-110730
EC00418=-7272,-112597
EC00419=-10818,-115238
EC00420=-13962,-118610
EC00421=-16646,-122199
EC00422=-19064,-126200
EC00423=-21071,-131082
EC00424=-22611,-137308
EC00425=-23692,-143842
EC00426=-24562,-150481
EC00427=-25204,-156770
EC00428=-25560,-162834
EC00429=-25798,-168761
EC00430=-25929,-171754
EC00431=-25941,-171968
EC00432=-25941,-171968
EC00433=-25941,-171968
EC00434=-25941,-171968
EC00435=-25941,-172797
EC00436=-25941,-172797
EC00437=-25941,-172797
EC00438=-25941,-172797
EC00439=-25911,-172358
EC00440=-25710,-169128
EC00441=-25340,-163238
EC00442=-24888,-156743
EC00443=-24322,-150141
EC00444=-23611,-144147
EC00445=-22519,-138725
EC00446=-20829,-132643
EC00447=-18793,-126860
EC00448=-16489,-122042
EC00449=-13753,-118365
EC00450=-10202,-115373
EC00451=-6230,-112955
EC00452=-2035,-110988
EC00453=2688,-109494
EC00454=8456,-108560
EC00455=15225,-108109
EC00456=22228,-108029
EC00457=29170,-108371
EC00458=36537,-109241
EC00459=44434,-110502
EC00460=52105,-112003
EC00461=58780,-113794
EC00462=65486,-116281
EC00463=71078,-119065
EC00464=75846,-122114
EC00465=80371,-125621
EC00466=84683,-129323
EC00467=87521,-133351
EC00468=87897,-133285
EC00469=84654,-129367
EC00470=81537,-125597
EC00471=76899,-122159
EC00472=71992,-119094
EC00473=66486,-116288
EC00474=60051,-113907
EC00475=53263,-112138
EC00476=46121,-110674
EC00477=38909,-109523
EC00478=31137,-108672
EC00479=23314,-108214
EC00480=16340,-108262
EC00481=10094,-108855
EC00482=4316,-109900
EC00483=-936,-111263
EC00484=-5482,-113004
EC00485=-9444,-115441
EC00486=-12993,-118827
EC00487=-15979,-122761
EC00488=-18497,-127043
EC00489=-20353,-131549
EC00490=-21651,-136855
EC00491=-22623,-143001
EC00492=-23579,-150365
EC00493=-24335,-157436
EC00494=-24813,-163194
EC00495=-25143,-168880
EC00496=-25467,-175248
EC00497=-25790,-180607
EC00498=-25935,-182403
EC00499=-25940,-182445
EC00500=-25940,-182445
EC00501=-25934,-175220
EC00502=-25934,-175220
EC00503=-25934,-175220
EC00504=-25934,-175220
EC00505=-25864,-174335
EC00506=-25451,-170405
EC00507=-24692,-164241
EC00508=-23946,-157897
EC00509=-23422,-152104
EC00510=-22763,-146340
EC00511=-21591,-140345
EC00512=-19872,-134209
EC00513=-17784,-128594
EC00514=-15402,-123876
EC00515=-12660,-119942
EC00516=-9459,-116717
EC00517=-5774,-114181
EC00518=-1489,-112123
EC00519=3611,-110433
EC00520=9176,-109265
EC00521=15729,-108633
EC00522=22981,-108489
EC00523=30595,-108819
EC00524=37754,-109448
EC00525=45551,-110479
EC00526=53451,-111956
EC00527=60531,-113706
EC00528=66835,-115895
EC00529=72681,-118777
EC00530=77788,-121997
EC00531=81625,-125606
EC00532=85395,-129287
EC00533=87737,-132683
EC00534=87901,-132678
EC00535=85212,-129455
EC00536=81912,-125595
EC00537=78095,-121977
EC00538=73482,-118783
EC00539=67880,-115981
EC00540=61971,-113890
EC00541=55087,-112109
EC00542=47301,-110616
EC00543=39614,-109670
EC00544=32313,-109158
EC00545=24301,-108873
EC00546=16829,-108950
EC00547=10267,-109533
EC00548=4659,-110595
EC00549=-723,-112186
EC00550=-5393,-114180
EC00551=-9371,-116740
EC00552=-12731,-120030
EC00553=-15530,-123978
EC00554=-17798,-128435
EC00555=-19493,-133552
EC00556=-20653,-139566
EC00557=-21596,-146159
EC00558=-22664,-152494
EC00559=-23763,-158494
EC00560=-24201,-164352
EC00561=-24290,-170313
EC00562=-24703,-175954
EC00563=-25570,-180172
EC00564=-25924,-181387
EC00565=-25924,-181387
EC00566=-25924,-181387
EC00567=-25933,-183937
EC00568=-25933,-183937
EC00569=-25860,-183619
EC00570=-25288,-180919
EC00571=-24378,-175914
EC00572=-23656,-170603
EC00573=-23194,-164414
EC00574=-22944,-158256
EC00575=-22564,-152364
EC00576=-21756,-146728
EC00577=-20457,-140715
EC00578=-18844,-134606
EC00579=-16908,-128893
EC00580=-14366,-124035
EC00581=-11130,-120179
EC00582=-7521,-117156
EC00583=-3745,-114661
EC00584=538,-112519
EC00585=5950,-110833
EC00586=12058,-109874
EC00587=18889,-109395
EC00588=25950,-109217
EC00589=33541,-109327
EC00590=41041,-109858
EC00591=49005,-110907
EC00592=56564,-112317
EC00593=63550,-114006
EC00594=69791,-116176
EC00595=74610,-118867
EC00596=79005,-121924
EC00597=82711,-125602
EC00598=85941,-129472
EC00599=88156,-132325
EC00600=88918,-132292
EC00601=85973,-129347
EC00602=83545,-125575
EC00603=80026,-122195
EC00604=76096,-119161
EC00605=70903,-116647
EC00606=65295,-114436
EC00607=59425,-112701
EC00608=52626,-111447
EC00609=45425,-110594
EC00610=37691,-109860
EC00611=29749,-109323
EC00612=22207,-109302
EC00613=15231,-109879
EC00614=8964,-110948
EC00615=3439,-112340
EC00616=-1410,-114021
EC00617=-5749,-116336
EC00618=-9607,-119469
EC00619=-12768,-123281
EC00620=-15502,-127652
EC00621=-17716,-132778
EC00622=-19352,-138118
EC00623=-20403,-143237
EC00624=-21244,-149461
EC00625=-22058,-157229
EC00626=-22879,-165475
EC00627=-23647,-171828
EC00628=-24324,-174337
EC00629=-25017,-178102
EC00630=-25669,-183762
EC00631=-25908,-186073
EC00632=-25908,-186073
EC00633=-25931,-186235
EC00634=-25931,-186235
EC00635=-25671,-185128
EC00636=-24848,-181348
EC00637=-23826,-176176
EC00638=-22998,-170554
EC00639=-22387,-164405
EC00640=-21971,-158556
EC00641=-21430,-152776
EC00642=-20556,-146785
EC00643=-19268,-140448
EC00644=-17621,-134363
EC00645=-15555,-129020
EC00646=-12921,-124595
EC00647=-9738,-120801
EC00648=-6166,-117585
EC00649=-2169,-115031
EC00650=2626,-113061
EC00651=8564,-111530
EC00652=14878,-110436
EC00653=21795,-109761
EC00654=29248,-109556
EC00655=37283,-109963
EC00656=44704,-110621
EC00657=52344,-111439
EC00658=59976,-112656
EC00659=66724,-114424
EC00660=71987,-116519
EC00661=76633,-118984
EC00662=80872,-122093
EC00663=84202,-125485
EC00664=86569,-129362
EC00665=88439,-132978
EC00666=88456,-132280
EC00667=86561,-128952
EC00668=84321,-125552
EC00669=81168,-122230
EC00670=77990,-119327
EC00671=73494,-117019
EC00672=67684,-114766
EC00673=62230,-113068
EC00674=56034,-111989
EC00675=48849,-111189
EC00676=41053,-110395
EC00677=33136,-109831
EC00678=25283,-109838
EC00679=17837,-110402
EC00680=11348,-111422
EC00681=5728,-112782
EC00682=612,-114538
EC00683=-4081,-116935
EC00684=-8007,-120001
EC00685=-10903,-123607
EC00686=-13428,-127953
EC00687=-15825,-133486
EC00688=-17903,-139600
EC00689=-19282,-145160
EC00690=-20313,-150932
EC00691=-21290,-157360
EC00692=-22193,-163983
EC00693=-22810,-169095
EC00694=-23295,-172051
EC00695=-24335,-178201
EC00696=-25469,-185988
EC00697=-25919,-189246
EC00698=-25919,-189246
EC00699=-25877,-188697
EC00700=-25757,-188415
EC00701=-24950,-186191
EC00702=-23830,-181901
EC00703=-23001,-176227
EC00704=-21991,-170424
EC00705=-21153,-164816
EC00706=-20698,-159136
EC00707=-20137,-152724
EC00708=-19084,-146108
EC00709=-17572,-140079
EC00710=-15892,-134697
EC00711=-13966,-129761
EC00712=-11421,-125208
EC00713=-8144,-121186
EC00714=-4413,-117977
EC00715=-302,-115569
EC00716=4610,-113653
EC00717=10788,-112055
EC00718=17457,-110905
EC00719=24735,-110280
EC00720=32367,-110105
EC00721=40365,-110435
EC00722=47741,-111072
EC00723=55455,-112007
EC00724=63100,-113267
EC00725=69532,-114857
EC00726=74178,-116764
EC00727=78296,-119063
EC00728=82887,-122188
EC00729=85093,-125459
EC00730=87238,-129281
EC00731=89213,-132808
EC00732=89132,-132852
EC00733=87615,-129179
EC00734=84649,-125357
EC00735=82083,-121849
EC00736=79214,-118859
EC00737=75647,-116583
EC00738=70148,-114756
EC00739=63631,-113227
EC00740=56964,-112151
EC00741=49753,-111490
EC00742=42250,-111091
EC00743=34010,-110880
EC00744=26218,-111014
EC00745=18933,-111569
EC00746=12469,-112543
EC00747=6433,-114053
EC00748=1294,-115978
EC00749=-3277,-118395
EC00750=-7375,-121447
EC00751=-10796,-125214
EC00752=-13392,-129759
EC00753=-15330,-135207
EC00754=-16927,-141372
EC00755=-18371,-147594
EC00756=-19614,-153152
EC00757=-20602,-158621
EC00758=-21333,-164723
EC00759=-22058,-171525
EC00760=-22839,-176466
EC00761=-23655,-178244
EC00762=-24885,-182185
EC00763=-25768,-186565
EC00764=-25918,-187541
EC00765=-25881,-188679
EC00766=-25801,-188537
EC00767=-24771,-186542
EC00768=-22955,-182013
EC00769=-22039,-176379
EC00770=-21157,-170878
EC00771=-20155,-165257
EC00772=-19469,-159265
EC00773=-18933,-152662
EC00774=-18082,-146288
EC00775=-16641,-140456
EC00776=-14736,-135279
EC00777=-12467,-130358
EC00778=-9710,-125666
EC00779=-6345,-121644
EC00780=-2398,-118600
EC00781=2190,-116322
EC00782=7653,-114457
EC00783=14018,-112891
EC00784=20415,-111884
EC00785=27493,-111370
EC00786=35461,-111271
EC00787=43954,-111431
EC00788=51217,-111748
EC00789=58419,-112441
EC00790=65774,-113580
EC00791=71911,-114934
EC00792=76359,-116602
EC00793=80560,-119030
EC00794=83715,-121941
EC00795=86568,-125365
EC00796=88236,-129275
EC00797=89246,-132931
EC00798=89661,-132988
EC00799=88185,-128772
EC00800=86635,-125522
EC00801=84723,-121962
EC00802=81617,-119316
EC00803=78008,-116957
EC00804=73461,-115235
EC00805=68733,-114146
EC00806=62653,-113075
EC00807=55459,-112251
EC00808=47835,-111896
EC00809=39999,-111783
EC00810=31838,-111761
EC00811=23654,-112000
EC00812=16301,-112840
EC00813=10073,-114142
EC00814=4706,-115814
EC00815=-62,-118075
EC00816=-4215,-121081
EC00817=-7655,-124712
EC00818=-10853,-128799
EC00819=-13600,-133662
EC00820=-15470,-139343
EC00821=-16448,-145306
EC00822=-17417,-151854
EC00823=-18844,-158029
EC00824=-20088,-163644
EC00825=-20611,-169944
EC00826=-21190,-176556
EC00827=-22885,-180422
EC00828=-24617,-182177
EC00829=-25671,-186586
EC00830=-25930,-188489
EC00831=-25893,-191799
EC00832=-25681,-191375
EC00833=-24467,-187699
EC00834=-22590,-181242
EC00835=-21069,-176485
EC00836=-20014,-170566
EC00837=-19234,-163418
EC00838=-18355,-156491
EC00839=-17242,-150607
EC00840=-15947,-145290
EC00841=-14428,-139956
EC00842=-12328,-134196
EC00843=-9765,-129149
EC00844=-6754,-124980
EC00845=-3233,-121519
EC00846=1177,-118527
EC00847=6181,-116248
EC00848=11794,-114586
EC00849=18277,-113359
EC00850=25586,-112512
EC00851=33285,-112061
EC00852=41089,-111967
EC00853=49132,-112177
EC00854=56783,-112610
EC00855=63414,-113311
EC00856=69538,-114232
EC00857=74948,-115364
EC00858=79391,-117078
EC00859=82880,-119380
EC00860=85422,-122011
EC00861=87595,-125357
EC00862=88750,-128802
EC00863=89636,-133364
EC00864=90114,-133191
EC00865=89619,-128911
EC00866=87212,-125154
EC00867=85538,-121879
EC00868=83615,-119332
EC00869=80501,-117213
EC00870=75901,-115439
EC00871=70828,-114407
EC00872=65052,-113693
EC00873=58335,-112967
EC00874=50587,-112422
EC00875=42570,-112284
EC00876=34719,-112487
EC00877=26869,-112892
EC00878=19441,-113674
EC00879=13051,-114983
EC00880=7655,-116732
EC00881=2661,-118907
EC00882=-2212,-121700
EC00883=-6321,-125190
EC00884=-9535,-129545
EC00885=-11865,-134414
EC00886=-13778,-139575
EC00887=-15379,-144817
EC00888=-16714,-151081
EC00889=-17637,-158019
EC00890=-18559,-164539
EC00891=-19803,-170553
EC00892=-20979,-176225
EC00893=-21709,-180067
EC00894=-23238,-182717
EC00895=-25360,-189591
EC00896=-25841,-191622
EC00897=-25901,-192105
EC00898=-25518,-190852
EC00899=-23811,-186790
EC00900=-21655,-183390
EC00901=-19883,-175634
EC00902=-18881,-168181
EC00903=-18256,-163120
EC00904=-17345,-158313
EC00905=-15939,-152035
EC00906=-14389,-145411
EC00907=-12884,-139713
EC00908=-10975,-134467
EC00909=-8455,-129751
EC00910=-5227,-125429
EC00911=-1435,-121825
EC00912=3181,-119013
EC00913=8476,-117025
EC00914=14593,-115482
EC00915=21604,-114194
EC00916=29227,-113251
EC00917=37061,-112783
EC00918=44842,-112750
EC00919=52519,-113019
EC00920=59801,-113428
EC00921=66501,-113955
EC00922=72484,-114636
EC00923=77283,-115671
EC00924=81439,-117319
EC00925=84392,-119338
EC00926=86846,-122066
EC00927=89305,-125337
EC00928=89424,-128737
EC00929=90257,-133110
EC00930=91162,-133069
EC00931=89721,-128751
EC00932=88682,-125139
EC00933=87643,-122019
EC00934=85242,-119451
EC00935=82332,-117402
EC00936=78605,-115878
EC00937=73573,-114888
EC00938=67531,-114218
EC00939=61165,-113736
EC00940=53975,-113296
EC00941=45854,-112915
EC00942=37369,-112863
EC00943=29089,-113333
EC00944=21686,-114320
EC00945=15363,-115659
EC00946=9826,-117312
EC00947=4667,-119448
EC00948=-118,-122257
EC00949=-4020,-125621
EC00950=-7285,-129757
EC00951=-10012,-134720
EC00952=-12331,-140369
EC00953=-14055,-145749
EC00954=-15356,-151260
EC00955=-16225,-157150
EC00956=-16967,-163758
EC00957=-18001,-170836
EC00958=-19514,-177063
EC00959=-21235,-180194
EC00960=-23124,-183231
EC00961=-25263,-192253
EC00962=-25914,-195343
EC00963=-25842,-193188
EC00964=-25415,-192958
EC00965=-23325,-189591
EC00966=-20732,-180087
EC00967=-19456,-174353
EC00968=-18375,-170505
EC00969=-16986,-165190
EC00970=-15598,-158261
EC00971=-14473,-151252
EC00972=-13289,-145341
EC00973=-11665,-140279
EC00974=-9289,-135027
EC00975=-6499,-130101
EC00976=-3316,-125812
EC00977=497,-122366
EC00978=5415,-119618
EC00979=10977,-117604
EC00980=17058,-116068
EC00981=23897,-114822
EC00982=31575,-113881
EC00983=39633,-113351
EC00984=47581,-113284
EC00985=55435,-113636
EC00986=62765,-114111
EC00987=69086,-114564
EC00988=74731,-115117
EC00989=79543,-116038
EC00990=83418,-117540
EC00991=86430,-119546
EC00992=88445,-122081
EC00993=89750,-125185
EC00994=91256,-128846
EC00995=91781,-133235
//INST
///DATE 2023/03/20 15:38
///ATTR SC,RW
///GROUP1 RB1
///GROUP2 ST1
NOP
MOVL C00000 V=10.0 +MOVJ EC00000
MOVL C00001 V=20.0 +MOVJ EC00001
MOVL C00002 V=20.0 +MOVJ EC00002
MOVL C00003 V=20.0 +MOVJ EC00003
MOVL C00004 V=20.0 +MOVJ EC00004
MOVL C00005 V=20.0 +MOVJ EC00005
MOVL C00006 V=20.0 +MOVJ EC00006
MOVL C00007 V=20.0 +MOVJ EC00007
MOVL C00008 V=20.0 +MOVJ EC00008
MOVL C00009 V=20.0 +MOVJ EC00009
MOVL C00010 V=20.0 +MOVJ EC00010
MOVL C00011 V=20.0 +MOVJ EC00011
MOVL C00012 V=20.0 +MOVJ EC00012
MOVL C00013 V=20.0 +MOVJ EC00013
MOVL C00014 V=20.0 +MOVJ EC00014
MOVL C00015 V=20.0 +MOVJ EC00015
MOVL C00016 V=20.0 +MOVJ EC00016
MOVL C00017 V=20.0 +MOVJ EC00017
MOVL C00018 V=20.0 +MOVJ EC00018
MOVL C00019 V=20.0 +MOVJ EC00019
MOVL C00020 V=20.0 +MOVJ EC00020
MOVL C00021 V=20.0 +MOVJ EC00021
MOVL C00022 V=20.0 +MOVJ EC00022
MOVL C00023 V=20.0 +MOVJ EC00023
MOVL C00024 V=20.0 +MOVJ EC00024
MOVL C00025 V=20.0 +MOVJ EC00025
MOVL C00026 V=20.0 +MOVJ EC00026
MOVL C00027 V=20.0 +MOVJ EC00027
MOVL C00028 V=20.0 +MOVJ EC00028
MOVL C00029 V=20.0 +MOVJ EC00029
MOVL C00030 V=20.0 +MOVJ EC00030
MOVL C00031 V=20.0 +MOVJ EC00031
MOVL C00032 V=20.0 +MOVJ EC00032
MOVL C00033 V=20.0 +MOVJ EC00033
MOVL C00034 V=10.0 +MOVJ EC00034
MOVL C00035 V=20.0 +MOVJ EC00035
MOVL C00036 V=20.0 +MOVJ EC00036
MOVL C00037 V=20.0 +MOVJ EC00037
MOVL C00038 V=20.0 +MOVJ EC00038
MOVL C00039 V=20.0 +MOVJ EC00039
MOVL C00040 V=20.0 +MOVJ EC00040
MOVL C00041 V=20.0 +MOVJ EC00041
MOVL C00042 V=20.0 +MOVJ EC00042
MOVL C00043 V=20.0 +MOVJ EC00043
MOVL C00044 V=20.0 +MOVJ EC00044
MOVL C00045 V=20.0 +MOVJ EC00045
MOVL C00046 V=20.1 +MOVJ EC00046
MOVL C00047 V=23.2 +MOVJ EC00047
MOVL C00048 V=24.2 +MOVJ EC00048
MOVL C00049 V=25.1 +MOVJ EC00049
MOVL C00050 V=24.8 +MOVJ EC00050
MOVL C00051 V=32.7 +MOVJ EC00051
MOVL C00052 V=29.9 +MOVJ EC00052
MOVL C00053 V=33.8 +MOVJ EC00053
MOVL C00054 V=33.9 +MOVJ EC00054
MOVL C00055 V=36.3 +MOVJ EC00055
MOVL C00056 V=37.2 +MOVJ EC00056
MOVL C00057 V=36.9 +MOVJ EC00057
MOVL C00058 V=50.9 +MOVJ EC00058
MOVL C00059 V=51.7 +MOVJ EC00059
MOVL C00060 V=57.3 +MOVJ EC00060
MOVL C00061 V=59.0 +MOVJ EC00061
MOVL C00062 V=62.6 +MOVJ EC00062
MOVL C00063 V=66.1 +MOVJ EC00063
MOVL C00064 V=60.5 +MOVJ EC00064
MOVL C00065 V=65.3 +MOVJ EC00065
MOVL C00066 V=61.5 +MOVJ EC00066
MOVL C00067 V=52.2 +MOVJ EC00067
MOVL C00068 V=10.0 +MOVJ EC00068
MOVL C00069 V=57.4 +MOVJ EC00069
MOVL C00070 V=61.3 +MOVJ EC00070
MOVL C00071 V=59.1 +MOVJ EC00071
MOVL C00072 V=68.4 +MOVJ EC00072
MOVL C00073 V=64.0 +MOVJ EC00073
MOVL C00074 V=59.0 +MOVJ EC00074
MOVL C00075 V=58.7 +MOVJ EC00075
MOVL C00076 V=56.6 +MOVJ EC00076
MOVL C00077 V=51.7 +MOVJ EC00077
MOVL C00078 V=47.2 +MOVJ EC00078
MOVL C00079 V=44.5 +MOVJ EC00079
MOVL C00080 V=41.8 +MOVJ EC00080
MOVL C00081 V=37.4 +MOVJ EC00081
MOVL C00082 V=32.8 +MOVJ EC00082
MOVL C00083 V=30.1 +MOVJ EC00083
MOVL C00084 V=28.9 +MOVJ EC00084
MOVL C00085 V=28.7 +MOVJ EC00085
MOVL C00086 V=28.0 +MOVJ EC00086
MOVL C00087 V=26.5 +MOVJ EC00087
MOVL C00088 V=25.0 +MOVJ EC00088
MOVL C00089 V=23.4 +MOVJ EC00089
MOVL C00090 V=20.2 +MOVJ EC00090
MOVL C00091 V=20.0 +MOVJ EC00091
MOVL C00092 V=20.0 +MOVJ EC00092
MOVL C00093 V=20.0 +MOVJ EC00093
MOVL C00094 V=20.0 +MOVJ EC00094
MOVL C00095 V=20.0 +MOVJ EC00095
MOVL C00096 V=20.0 +MOVJ EC00096
MOVL C00097 V=20.0 +MOVJ EC00097
MOVL C00098 V=20.0 +MOVJ EC00098
MOVL C00099 V=20.0 +MOVJ EC00099
MOVL C00100 V=20.0 +MOVJ EC00100
MOVL C00101 V=20.0 +MOVJ EC00101
MOVL C00102 V=10.0 +MOVJ EC00102
MOVL C00103 V=20.0 +MOVJ EC00103
MOVL C00104 V=20.0 +MOVJ EC00104
MOVL C00105 V=20.0 +MOVJ EC00105
MOVL C00106 V=20.0 +MOVJ EC00106
MOVL C00107 V=20.0 +MOVJ EC00107
MOVL C00108 V=20.0 +MOVJ EC00108
MOVL C00109 V=20.0 +MOVJ EC00109
MOVL C00110 V=20.0 +MOVJ EC00110
MOVL C00111 V=20.0 +MOVJ EC00111
MOVL C00112 V=20.0 +MOVJ EC00112
MOVL C00113 V=19.8 +MOVJ EC00113
MOVL C00114 V=21.1 +MOVJ EC00114
MOVL C00115 V=24.1 +MOVJ EC00115
MOVL C00116 V=25.3 +MOVJ EC00116
MOVL C00117 V=26.5 +MOVJ EC00117
MOVL C00118 V=27.4 +MOVJ EC00118
MOVL C00119 V=27.9 +MOVJ EC00119
MOVL C00120 V=29.4 +MOVJ EC00120
MOVL C00121 V=32.4 +MOVJ EC00121
MOVL C00122 V=36.1 +MOVJ EC00122
MOVL C00123 V=39.3 +MOVJ EC00123
MOVL C00124 V=41.1 +MOVJ EC00124
MOVL C00125 V=43.1 +MOVJ EC00125
MOVL C00126 V=46.5 +MOVJ EC00126
MOVL C00127 V=50.9 +MOVJ EC00127
MOVL C00128 V=54.5 +MOVJ EC00128
MOVL C00129 V=59.9 +MOVJ EC00129
MOVL C00130 V=65.3 +MOVJ EC00130
MOVL C00131 V=64.0 +MOVJ EC00131
MOVL C00132 V=59.2 +MOVJ EC00132
MOVL C00133 V=60.8 +MOVJ EC00133
MOVL C00134 V=59.1 +MOVJ EC00134
MOVL C00135 V=50.9 +MOVJ EC00135
MOVL C00136 V=10.0 +MOVJ EC00136
MOVL C00137 V=49.3 +MOVJ EC00137
MOVL C00138 V=57.2 +MOVJ EC00138
MOVL C00139 V=60.6 +MOVJ EC00139
MOVL C00140 V=63.0 +MOVJ EC00140
MOVL C00141 V=63.1 +MOVJ EC00141
MOVL C00142 V=57.0 +MOVJ EC00142
MOVL C00143 V=57.2 +MOVJ EC00143
MOVL C00144 V=56.8 +MOVJ EC00144
MOVL C00145 V=52.6 +MOVJ EC00145
MOVL C00146 V=49.1 +MOVJ EC00146
MOVL C00147 V=46.9 +MOVJ EC00147
MOVL C00148 V=42.3 +MOVJ EC00148
MOVL C00149 V=36.4 +MOVJ EC00149
MOVL C00150 V=33.0 +MOVJ EC00150
MOVL C00151 V=32.6 +MOVJ EC00151
MOVL C00152 V=31.8 +MOVJ EC00152
MOVL C00153 V=29.3 +MOVJ EC00153
MOVL C00154 V=26.9 +MOVJ EC00154
MOVL C00155 V=26.0 +MOVJ EC00155
MOVL C00156 V=26.4 +MOVJ EC00156
MOVL C00157 V=25.8 +MOVJ EC00157
MOVL C00158 V=22.1 +MOVJ EC00158
MOVL C00159 V=19.8 +MOVJ EC00159
MOVL C00160 V=20.0 +MOVJ EC00160
MOVL C00161 V=20.0 +MOVJ EC00161
MOVL C00162 V=20.0 +MOVJ EC00162
MOVL C00163 V=20.0 +MOVJ EC00163
MOVL C00164 V=20.0 +MOVJ EC00164
MOVL C00165 V=20.0 +MOVJ EC00165
MOVL C00166 V=20.0 +MOVJ EC00166
MOVL C00167 V=20.0 +MOVJ EC00167
MOVL C00168 V=20.0 +MOVJ EC00168
MOVL C00169 V=20.0 +MOVJ EC00169
MOVL C00170 V=10.0 +MOVJ EC00170
MOVL C00171 V=20.0 +MOVJ EC00171
MOVL C00172 V=20.0 +MOVJ EC00172
MOVL C00173 V=20.0 +MOVJ EC00173
MOVL C00174 V=20.0 +MOVJ EC00174
MOVL C00175 V=20.0 +MOVJ EC00175
MOVL C00176 V=20.0 +MOVJ EC00176
MOVL C00177 V=20.0 +MOVJ EC00177
MOVL C00178 V=20.0 +MOVJ EC00178
MOVL C00179 V=20.0 +MOVJ EC00179
MOVL C00180 V=19.8 +MOVJ EC00180
MOVL C00181 V=20.6 +MOVJ EC00181
MOVL C00182 V=23.5 +MOVJ EC00182
MOVL C00183 V=23.5 +MOVJ EC00183
MOVL C00184 V=25.0 +MOVJ EC00184
MOVL C00185 V=27.3 +MOVJ EC00185
MOVL C00186 V=28.7 +MOVJ EC00186
MOVL C00187 V=28.8 +MOVJ EC00187
MOVL C00188 V=30.1 +MOVJ EC00188
MOVL C00189 V=33.9 +MOVJ EC00189
MOVL C00190 V=38.1 +MOVJ EC00190
MOVL C00191 V=40.1 +MOVJ EC00191
MOVL C00192 V=41.0 +MOVJ EC00192
MOVL C00193 V=44.9 +MOVJ EC00193
MOVL C00194 V=50.9 +MOVJ EC00194
MOVL C00195 V=53.5 +MOVJ EC00195
MOVL C00196 V=53.0 +MOVJ EC00196
MOVL C00197 V=58.5 +MOVJ EC00197
MOVL C00198 V=63.7 +MOVJ EC00198
MOVL C00199 V=59.2 +MOVJ EC00199
MOVL C00200 V=56.5 +MOVJ EC00200
MOVL C00201 V=56.9 +MOVJ EC00201
MOVL C00202 V=57.0 +MOVJ EC00202
MOVL C00203 V=50.9 +MOVJ EC00203
MOVL C00204 V=10.0 +MOVJ EC00204
MOVL C00205 V=44.7 +MOVJ EC00205
MOVL C00206 V=54.8 +MOVJ EC00206
MOVL C00207 V=56.1 +MOVJ EC00207
MOVL C00208 V=59.7 +MOVJ EC00208
MOVL C00209 V=56.7 +MOVJ EC00209
MOVL C00210 V=58.9 +MOVJ EC00210
MOVL C00211 V=57.8 +MOVJ EC00211
MOVL C00212 V=55.0 +MOVJ EC00212
MOVL C00213 V=52.9 +MOVJ EC00213
MOVL C00214 V=50.1 +MOVJ EC00214
MOVL C00215 V=45.2 +MOVJ EC00215
MOVL C00216 V=40.8 +MOVJ EC00216
MOVL C00217 V=37.6 +MOVJ EC00217
MOVL C00218 V=35.2 +MOVJ EC00218
MOVL C00219 V=32.4 +MOVJ EC00219
MOVL C00220 V=29.8 +MOVJ EC00220
MOVL C00221 V=28.2 +MOVJ EC00221
MOVL C00222 V=26.9 +MOVJ EC00222
MOVL C00223 V=25.8 +MOVJ EC00223
MOVL C00224 V=25.0 +MOVJ EC00224
MOVL C00225 V=24.3 +MOVJ EC00225
MOVL C00226 V=21.9 +MOVJ EC00226
MOVL C00227 V=19.7 +MOVJ EC00227
MOVL C00228 V=20.0 +MOVJ EC00228
MOVL C00229 V=20.0 +MOVJ EC00229
MOVL C00230 V=20.0 +MOVJ EC00230
MOVL C00231 V=20.0 +MOVJ EC00231
MOVL C00232 V=20.0 +MOVJ EC00232
MOVL C00233 V=20.0 +MOVJ EC00233
MOVL C00234 V=20.0 +MOVJ EC00234
MOVL C00235 V=20.0 +MOVJ EC00235
MOVL C00236 V=20.0 +MOVJ EC00236
MOVL C00237 V=10.0 +MOVJ EC00237
MOVL C00238 V=20.0 +MOVJ EC00238
MOVL C00239 V=20.0 +MOVJ EC00239
MOVL C00240 V=20.0 +MOVJ EC00240
MOVL C00241 V=20.0 +MOVJ EC00241
MOVL C00242 V=20.0 +MOVJ EC00242
MOVL C00243 V=20.0 +MOVJ EC00243
MOVL C00244 V=20.0 +MOVJ EC00244
MOVL C00245 V=20.0 +MOVJ EC00245
MOVL C00246 V=20.0 +MOVJ EC00246
MOVL C00247 V=19.8 +MOVJ EC00247
MOVL C00248 V=22.7 +MOVJ EC00248
MOVL C00249 V=24.8 +MOVJ EC00249
MOVL C00250 V=25.7 +MOVJ EC00250
MOVL C00251 V=25.9 +MOVJ EC00251
MOVL C00252 V=26.6 +MOVJ EC00252
MOVL C00253 V=28.8 +MOVJ EC00253
MOVL C00254 V=31.1 +MOVJ EC00254
MOVL C00255 V=33.5 +MOVJ EC00255
MOVL C00256 V=35.7 +MOVJ EC00256
MOVL C00257 V=38.2 +MOVJ EC00257
MOVL C00258 V=41.7 +MOVJ EC00258
MOVL C00259 V=45.2 +MOVJ EC00259
MOVL C00260 V=49.2 +MOVJ EC00260
MOVL C00261 V=54.2 +MOVJ EC00261
MOVL C00262 V=57.2 +MOVJ EC00262
MOVL C00263 V=56.1 +MOVJ EC00263
MOVL C00264 V=55.5 +MOVJ EC00264
MOVL C00265 V=58.0 +MOVJ EC00265
MOVL C00266 V=56.3 +MOVJ EC00266
MOVL C00267 V=55.7 +MOVJ EC00267
MOVL C00268 V=49.6 +MOVJ EC00268
MOVL C00269 V=45.5 +MOVJ EC00269
MOVL C00270 V=10.0 +MOVJ EC00270
MOVL C00271 V=45.9 +MOVJ EC00271
MOVL C00272 V=51.6 +MOVJ EC00272
MOVL C00273 V=53.7 +MOVJ EC00273
MOVL C00274 V=54.3 +MOVJ EC00274
MOVL C00275 V=54.5 +MOVJ EC00275
MOVL C00276 V=57.7 +MOVJ EC00276
MOVL C00277 V=57.9 +MOVJ EC00277
MOVL C00278 V=54.5 +MOVJ EC00278
MOVL C00279 V=51.6 +MOVJ EC00279
MOVL C00280 V=50.2 +MOVJ EC00280
MOVL C00281 V=47.7 +MOVJ EC00281
MOVL C00282 V=43.5 +MOVJ EC00282
MOVL C00283 V=39.2 +MOVJ EC00283
MOVL C00284 V=36.1 +MOVJ EC00284
MOVL C00285 V=33.2 +MOVJ EC00285
MOVL C00286 V=30.7 +MOVJ EC00286
MOVL C00287 V=29.3 +MOVJ EC00287
MOVL C00288 V=28.3 +MOVJ EC00288
MOVL C00289 V=27.0 +MOVJ EC00289
MOVL C00290 V=25.1 +MOVJ EC00290
MOVL C00291 V=23.4 +MOVJ EC00291
MOVL C00292 V=22.8 +MOVJ EC00292
MOVL C00293 V=21.9 +MOVJ EC00293
MOVL C00294 V=19.5 +MOVJ EC00294
MOVL C00295 V=20.0 +MOVJ EC00295
MOVL C00296 V=20.0 +MOVJ EC00296
MOVL C00297 V=20.0 +MOVJ EC00297
MOVL C00298 V=20.0 +MOVJ EC00298
MOVL C00299 V=20.0 +MOVJ EC00299
MOVL C00300 V=20.0 +MOVJ EC00300
MOVL C00301 V=20.0 +MOVJ EC00301
MOVL C00302 V=20.0 +MOVJ EC00302
MOVL C00303 V=10.0 +MOVJ EC00303
MOVL C00304 V=20.0 +MOVJ EC00304
MOVL C00305 V=20.0 +MOVJ EC00305
MOVL C00306 V=20.0 +MOVJ EC00306
MOVL C00307 V=20.0 +MOVJ EC00307
MOVL C00308 V=20.0 +MOVJ EC00308
MOVL C00309 V=20.0 +MOVJ EC00309
MOVL C00310 V=20.0 +MOVJ EC00310
MOVL C00311 V=19.8 +MOVJ EC00311
MOVL C00312 V=19.1 +MOVJ EC00312
MOVL C00313 V=21.5 +MOVJ EC00313
MOVL C00314 V=23.9 +MOVJ EC00314
MOVL C00315 V=26.1 +MOVJ EC00315
MOVL C00316 V=26.2 +MOVJ EC00316
MOVL C00317 V=26.1 +MOVJ EC00317
MOVL C00318 V=27.5 +MOVJ EC00318
MOVL C00319 V=30.0 +MOVJ EC00319
MOVL C00320 V=32.2 +MOVJ EC00320
MOVL C00321 V=33.9 +MOVJ EC00321
MOVL C00322 V=36.5 +MOVJ EC00322
MOVL C00323 V=40.2 +MOVJ EC00323
MOVL C00324 V=44.0 +MOVJ EC00324
MOVL C00325 V=46.5 +MOVJ EC00325
MOVL C00326 V=50.0 +MOVJ EC00326
MOVL C00327 V=54.8 +MOVJ EC00327
MOVL C00328 V=56.1 +MOVJ EC00328
MOVL C00329 V=54.8 +MOVJ EC00329
MOVL C00330 V=55.3 +MOVJ EC00330
MOVL C00331 V=55.0 +MOVJ EC00331
MOVL C00332 V=53.4 +MOVJ EC00332
MOVL C00333 V=49.6 +MOVJ EC00333
MOVL C00334 V=54.4 +MOVJ EC00334
MOVL C00335 V=40.7 +MOVJ EC00335
MOVL C00336 V=10.0 +MOVJ EC00336
MOVL C00337 V=41.6 +MOVJ EC00337
MOVL C00338 V=43.8 +MOVJ EC00338
MOVL C00339 V=50.4 +MOVJ EC00339
MOVL C00340 V=52.0 +MOVJ EC00340
MOVL C00341 V=55.3 +MOVJ EC00341
MOVL C00342 V=52.5 +MOVJ EC00342
MOVL C00343 V=54.4 +MOVJ EC00343
MOVL C00344 V=54.8 +MOVJ EC00344
MOVL C00345 V=52.5 +MOVJ EC00345
MOVL C00346 V=52.6 +MOVJ EC00346
MOVL C00347 V=50.9 +MOVJ EC00347
MOVL C00348 V=44.2 +MOVJ EC00348
MOVL C00349 V=37.8 +MOVJ EC00349
MOVL C00350 V=35.9 +MOVJ EC00350
MOVL C00351 V=35.7 +MOVJ EC00351
MOVL C00352 V=34.1 +MOVJ EC00352
MOVL C00353 V=31.4 +MOVJ EC00353
MOVL C00354 V=28.7 +MOVJ EC00354
MOVL C00355 V=26.5 +MOVJ EC00355
MOVL C00356 V=24.5 +MOVJ EC00356
MOVL C00357 V=23.3 +MOVJ EC00357
MOVL C00358 V=23.5 +MOVJ EC00358
MOVL C00359 V=24.2 +MOVJ EC00359
MOVL C00360 V=22.1 +MOVJ EC00360
MOVL C00361 V=19.2 +MOVJ EC00361
MOVL C00362 V=19.9 +MOVJ EC00362
MOVL C00363 V=20.0 +MOVJ EC00363
MOVL C00364 V=20.0 +MOVJ EC00364
MOVL C00365 V=20.0 +MOVJ EC00365
MOVL C00366 V=20.0 +MOVJ EC00366
MOVL C00367 V=20.0 +MOVJ EC00367
MOVL C00368 V=20.0 +MOVJ EC00368
MOVL C00369 V=10.0 +MOVJ EC00369
MOVL C00370 V=20.0 +MOVJ EC00370
MOVL C00371 V=20.0 +MOVJ EC00371
MOVL C00372 V=20.0 +MOVJ EC00372
MOVL C00373 V=20.0 +MOVJ EC00373
MOVL C00374 V=20.0 +MOVJ EC00374
MOVL C00375 V=19.7 +MOVJ EC00375
MOVL C00376 V=18.4 +MOVJ EC00376
MOVL C00377 V=20.4 +MOVJ EC00377
MOVL C00378 V=20.8 +MOVJ EC00378
MOVL C00379 V=21.9 +MOVJ EC00379
MOVL C00380 V=23.9 +MOVJ EC00380
MOVL C00381 V=25.9 +MOVJ EC00381
MOVL C00382 V=27.1 +MOVJ EC00382
MOVL C00383 V=27.9 +MOVJ EC00383
MOVL C00384 V=28.5 +MOVJ EC00384
MOVL C00385 V=29.5 +MOVJ EC00385
MOVL C00386 V=31.5 +MOVJ EC00386
MOVL C00387 V=35.3 +MOVJ EC00387
MOVL C00388 V=40.6 +MOVJ EC00388
MOVL C00389 V=44.6 +MOVJ EC00389
MOVL C00390 V=46.2 +MOVJ EC00390
MOVL C00391 V=46.7 +MOVJ EC00391
MOVL C00392 V=50.0 +MOVJ EC00392
MOVL C00393 V=54.5 +MOVJ EC00393
MOVL C00394 V=55.4 +MOVJ EC00394
MOVL C00395 V=55.2 +MOVJ EC00395
MOVL C00396 V=55.2 +MOVJ EC00396
MOVL C00397 V=49.6 +MOVJ EC00397
MOVL C00398 V=49.1 +MOVJ EC00398
MOVL C00399 V=48.7 +MOVJ EC00399
MOVL C00400 V=44.3 +MOVJ EC00400
MOVL C00401 V=40.3 +MOVJ EC00401
MOVL C00402 V=10.0 +MOVJ EC00402
MOVL C00403 V=43.8 +MOVJ EC00403
MOVL C00404 V=46.3 +MOVJ EC00404
MOVL C00405 V=43.1 +MOVJ EC00405
MOVL C00406 V=50.8 +MOVJ EC00406
MOVL C00407 V=50.7 +MOVJ EC00407
MOVL C00408 V=49.7 +MOVJ EC00408
MOVL C00409 V=54.6 +MOVJ EC00409
MOVL C00410 V=54.7 +MOVJ EC00410
MOVL C00411 V=53.0 +MOVJ EC00411
MOVL C00412 V=53.2 +MOVJ EC00412
MOVL C00413 V=51.5 +MOVJ EC00413
MOVL C00414 V=45.9 +MOVJ EC00414
MOVL C00415 V=41.0 +MOVJ EC00415
MOVL C00416 V=38.7 +MOVJ EC00416
MOVL C00417 V=36.7 +MOVJ EC00417
MOVL C00418 V=33.3 +MOVJ EC00418
MOVL C00419 V=30.1 +MOVJ EC00419
MOVL C00420 V=28.0 +MOVJ EC00420
MOVL C00421 V=27.1 +MOVJ EC00421
MOVL C00422 V=26.3 +MOVJ EC00422
MOVL C00423 V=25.2 +MOVJ EC00423
MOVL C00424 V=24.3 +MOVJ EC00424
MOVL C00425 V=23.8 +MOVJ EC00425
MOVL C00426 V=22.8 +MOVJ EC00426
MOVL C00427 V=21.3 +MOVJ EC00427
MOVL C00428 V=20.0 +MOVJ EC00428
MOVL C00429 V=19.7 +MOVJ EC00429
MOVL C00430 V=17.8 +MOVJ EC00430
MOVL C00431 V=19.7 +MOVJ EC00431
MOVL C00432 V=20.0 +MOVJ EC00432
MOVL C00433 V=20.0 +MOVJ EC00433
MOVL C00434 V=20.0 +MOVJ EC00434
MOVL C00435 V=10.0 +MOVJ EC00435
MOVL C00436 V=20.0 +MOVJ EC00436
MOVL C00437 V=20.0 +MOVJ EC00437
MOVL C00438 V=20.0 +MOVJ EC00438
MOVL C00439 V=19.4 +MOVJ EC00439
MOVL C00440 V=17.9 +MOVJ EC00440
MOVL C00441 V=20.3 +MOVJ EC00441
MOVL C00442 V=20.9 +MOVJ EC00442
MOVL C00443 V=21.2 +MOVJ EC00443
MOVL C00444 V=21.5 +MOVJ EC00444
MOVL C00445 V=23.1 +MOVJ EC00445
MOVL C00446 V=25.0 +MOVJ EC00446
MOVL C00447 V=25.9 +MOVJ EC00447
MOVL C00448 V=26.1 +MOVJ EC00448
MOVL C00449 V=27.4 +MOVJ EC00449
MOVL C00450 V=29.8 +MOVJ EC00450
MOVL C00451 V=32.3 +MOVJ EC00451
MOVL C00452 V=33.6 +MOVJ EC00452
MOVL C00453 V=35.7 +MOVJ EC00453
MOVL C00454 V=40.3 +MOVJ EC00454
MOVL C00455 V=45.6 +MOVJ EC00455
MOVL C00456 V=47.7 +MOVJ EC00456
MOVL C00457 V=47.6 +MOVJ EC00457
MOVL C00458 V=51.1 +MOVJ EC00458
MOVL C00459 V=57.1 +MOVJ EC00459
MOVL C00460 V=55.4 +MOVJ EC00460
MOVL C00461 V=50.8 +MOVJ EC00461
MOVL C00462 V=51.3 +MOVJ EC00462
MOVL C00463 V=48.4 +MOVJ EC00463
MOVL C00464 V=44.8 +MOVJ EC00464
MOVL C00465 V=45.0 +MOVJ EC00465
MOVL C00466 V=46.3 +MOVJ EC00466
MOVL C00467 V=37.1 +MOVJ EC00467
MOVL C00468 V=10.0 +MOVJ EC00468
MOVL C00469 V=39.3 +MOVJ EC00469
MOVL C00470 V=39.4 +MOVJ EC00470
MOVL C00471 V=45.5 +MOVJ EC00471
MOVL C00472 V=45.6 +MOVJ EC00472
MOVL C00473 V=48.1 +MOVJ EC00473
MOVL C00474 V=49.6 +MOVJ EC00474
MOVL C00475 V=51.6 +MOVJ EC00475
MOVL C00476 V=52.2 +MOVJ EC00476
MOVL C00477 V=52.4 +MOVJ EC00477
MOVL C00478 V=53.9 +MOVJ EC00478
MOVL C00479 V=52.9 +MOVJ EC00479
MOVL C00480 V=47.8 +MOVJ EC00480
MOVL C00481 V=42.5 +MOVJ EC00481
MOVL C00482 V=40.3 +MOVJ EC00482
MOVL C00483 V=38.9 +MOVJ EC00483
MOVL C00484 V=35.6 +MOVJ EC00484
MOVL C00485 V=32.3 +MOVJ EC00485
MOVL C00486 V=30.0 +MOVJ EC00486
MOVL C00487 V=28.8 +MOVJ EC00487
MOVL C00488 V=26.9 +MOVJ EC00488
MOVL C00489 V=24.4 +MOVJ EC00489
MOVL C00490 V=22.7 +MOVJ EC00490
MOVL C00491 V=22.9 +MOVJ EC00491
MOVL C00492 V=23.8 +MOVJ EC00492
MOVL C00493 V=22.6 +MOVJ EC00493
MOVL C00494 V=20.4 +MOVJ EC00494
MOVL C00495 V=19.9 +MOVJ EC00495
MOVL C00496 V=20.4 +MOVJ EC00496
MOVL C00497 V=19.3 +MOVJ EC00497
MOVL C00498 V=17.9 +MOVJ EC00498
MOVL C00499 V=19.9 +MOVJ EC00499
MOVL C00500 V=20.0 +MOVJ EC00500
MOVL C00501 V=10.0 +MOVJ EC00501
MOVL C00502 V=20.0 +MOVJ EC00502
MOVL C00503 V=20.0 +MOVJ EC00503
MOVL C00504 V=20.0 +MOVJ EC00504
MOVL C00505 V=18.8 +MOVJ EC00505
MOVL C00506 V=19.2 +MOVJ EC00506
MOVL C00507 V=22.5 +MOVJ EC00507
MOVL C00508 V=23.1 +MOVJ EC00508
MOVL C00509 V=20.8 +MOVJ EC00509
MOVL C00510 V=21.5 +MOVJ EC00510
MOVL C00511 V=23.5 +MOVJ EC00511
MOVL C00512 V=25.8 +MOVJ EC00512
MOVL C00513 V=26.5 +MOVJ EC00513
MOVL C00514 V=26.4 +MOVJ EC00514
MOVL C00515 V=27.2 +MOVJ EC00515
MOVL C00516 V=29.4 +MOVJ EC00516
MOVL C00517 V=31.7 +MOVJ EC00517
MOVL C00518 V=33.9 +MOVJ EC00518
MOVL C00519 V=36.5 +MOVJ EC00519
MOVL C00520 V=40.3 +MOVJ EC00520
MOVL C00521 V=45.1 +MOVJ EC00521
MOVL C00522 V=48.5 +MOVJ EC00522
MOVL C00523 V=50.4 +MOVJ EC00523
MOVL C00524 V=51.8 +MOVJ EC00524
MOVL C00525 V=54.0 +MOVJ EC00525
MOVL C00526 V=53.6 +MOVJ EC00526
MOVL C00527 V=51.1 +MOVJ EC00527
MOVL C00528 V=49.4 +MOVJ EC00528
MOVL C00529 V=47.5 +MOVJ EC00529
MOVL C00530 V=44.5 +MOVJ EC00530
MOVL C00531 V=39.9 +MOVJ EC00531
MOVL C00532 V=41.8 +MOVJ EC00532
MOVL C00533 V=33.5 +MOVJ EC00533
MOVL C00534 V=10.0 +MOVJ EC00534
MOVL C00535 V=36.1 +MOVJ EC00535
MOVL C00536 V=39.7 +MOVJ EC00536
MOVL C00537 V=40.0 +MOVJ EC00537
MOVL C00538 V=41.7 +MOVJ EC00538
MOVL C00539 V=46.1 +MOVJ EC00539
MOVL C00540 V=46.8 +MOVJ EC00540
MOVL C00541 V=49.9 +MOVJ EC00541
MOVL C00542 V=53.4 +MOVJ EC00542
MOVL C00543 V=53.1 +MOVJ EC00543
MOVL C00544 V=52.6 +MOVJ EC00544
MOVL C00545 V=52.6 +MOVJ EC00545
MOVL C00546 V=50.1 +MOVJ EC00546
MOVL C00547 V=45.2 +MOVJ EC00547
MOVL C00548 V=40.6 +MOVJ EC00548
MOVL C00549 V=38.1 +MOVJ EC00549
MOVL C00550 V=36.1 +MOVJ EC00550
MOVL C00551 V=33.3 +MOVJ EC00551
MOVL C00552 V=30.2 +MOVJ EC00552
MOVL C00553 V=27.5 +MOVJ EC00553
MOVL C00554 V=25.8 +MOVJ EC00554
MOVL C00555 V=24.3 +MOVJ EC00555
MOVL C00556 V=22.9 +MOVJ EC00556
MOVL C00557 V=22.8 +MOVJ EC00557
MOVL C00558 V=24.2 +MOVJ EC00558
MOVL C00559 V=24.1 +MOVJ EC00559
MOVL C00560 V=20.7 +MOVJ EC00560
MOVL C00561 V=18.7 +MOVJ EC00561
MOVL C00562 V=20.6 +MOVJ EC00562
MOVL C00563 V=21.6 +MOVJ EC00563
MOVL C00564 V=18.8 +MOVJ EC00564
MOVL C00565 V=20.0 +MOVJ EC00565
MOVL C00566 V=20.0 +MOVJ EC00566
MOVL C00567 V=10.0 +MOVJ EC00567
MOVL C00568 V=20.0 +MOVJ EC00568
MOVL C00569 V=19.5 +MOVJ EC00569
MOVL C00570 V=18.9 +MOVJ EC00570
MOVL C00571 V=22.8 +MOVJ EC00571
MOVL C00572 V=22.1 +MOVJ EC00572
MOVL C00573 V=21.0 +MOVJ EC00573
MOVL C00574 V=20.0 +MOVJ EC00574
MOVL C00575 V=20.2 +MOVJ EC00575
MOVL C00576 V=22.2 +MOVJ EC00576
MOVL C00577 V=24.2 +MOVJ EC00577
MOVL C00578 V=25.3 +MOVJ EC00578
MOVL C00579 V=25.8 +MOVJ EC00579
MOVL C00580 V=27.3 +MOVJ EC00580
MOVL C00581 V=29.7 +MOVJ EC00581
MOVL C00582 V=31.5 +MOVJ EC00582
MOVL C00583 V=32.3 +MOVJ EC00583
MOVL C00584 V=33.9 +MOVJ EC00584
MOVL C00585 V=38.3 +MOVJ EC00585
MOVL C00586 V=43.8 +MOVJ EC00586
MOVL C00587 V=46.9 +MOVJ EC00587
MOVL C00588 V=47.6 +MOVJ EC00588
MOVL C00589 V=50.2 +MOVJ EC00589
MOVL C00590 V=54.1 +MOVJ EC00590
MOVL C00591 V=54.9 +MOVJ EC00591
MOVL C00592 V=51.8 +MOVJ EC00592
MOVL C00593 V=50.4 +MOVJ EC00593
MOVL C00594 V=49.1 +MOVJ EC00594
MOVL C00595 V=41.6 +MOVJ EC00595
MOVL C00596 V=40.2 +MOVJ EC00596
MOVL C00597 V=39.6 +MOVJ EC00597
MOVL C00598 V=39.4 +MOVJ EC00598
MOVL C00599 V=31.8 +MOVJ EC00599
MOVL C00600 V=10.0 +MOVJ EC00600
MOVL C00601 V=35.0 +MOVJ EC00601
MOVL C00602 V=35.8 +MOVJ EC00602
MOVL C00603 V=39.1 +MOVJ EC00603
MOVL C00604 V=40.2 +MOVJ EC00604
MOVL C00605 V=45.4 +MOVJ EC00605
MOVL C00606 V=44.8 +MOVJ EC00606
MOVL C00607 V=46.2 +MOVJ EC00607
MOVL C00608 V=50.0 +MOVJ EC00608
MOVL C00609 V=52.3 +MOVJ EC00609
MOVL C00610 V=53.8 +MOVJ EC00610
MOVL C00611 V=54.1 +MOVJ EC00611
MOVL C00612 V=51.5 +MOVJ EC00612
MOVL C00613 V=46.9 +MOVJ EC00613
MOVL C00614 V=43.4 +MOVJ EC00614
MOVL C00615 V=40.6 +MOVJ EC00615
MOVL C00616 V=37.8 +MOVJ EC00616
MOVL C00617 V=34.6 +MOVJ EC00617
MOVL C00618 V=31.7 +MOVJ EC00618
MOVL C00619 V=29.7 +MOVJ EC00619
MOVL C00620 V=28.2 +MOVJ EC00620
MOVL C00621 V=26.4 +MOVJ EC00621
MOVL C00622 V=24.3 +MOVJ EC00622
MOVL C00623 V=22.6 +MOVJ EC00623
MOVL C00624 V=22.2 +MOVJ EC00624
MOVL C00625 V=23.6 +MOVJ EC00625
MOVL C00626 V=25.2 +MOVJ EC00626
MOVL C00627 V=23.3 +MOVJ EC00627
MOVL C00628 V=20.3 +MOVJ EC00628
MOVL C00629 V=19.9 +MOVJ EC00629
MOVL C00630 V=21.7 +MOVJ EC00630
MOVL C00631 V=18.3 +MOVJ EC00631
MOVL C00632 V=20.0 +MOVJ EC00632
MOVL C00633 V=10.0 +MOVJ EC00633
MOVL C00634 V=20.0 +MOVJ EC00634
MOVL C00635 V=18.7 +MOVJ EC00635
MOVL C00636 V=20.8 +MOVJ EC00636
MOVL C00637 V=23.8 +MOVJ EC00637
MOVL C00638 V=23.2 +MOVJ EC00638
MOVL C00639 V=21.7 +MOVJ EC00639
MOVL C00640 V=20.5 +MOVJ EC00640
MOVL C00641 V=20.9 +MOVJ EC00641
MOVL C00642 V=22.8 +MOVJ EC00642
MOVL C00643 V=24.4 +MOVJ EC00643
MOVL C00644 V=25.4 +MOVJ EC00644
MOVL C00645 V=26.3 +MOVJ EC00645
MOVL C00646 V=27.6 +MOVJ EC00646
MOVL C00647 V=29.4 +MOVJ EC00647
MOVL C00648 V=31.5 +MOVJ EC00648
MOVL C00649 V=33.6 +MOVJ EC00649
MOVL C00650 V=37.0 +MOVJ EC00650
MOVL C00651 V=41.4 +MOVJ EC00651
MOVL C00652 V=45.0 +MOVJ EC00652
MOVL C00653 V=47.7 +MOVJ EC00653
MOVL C00654 V=49.9 +MOVJ EC00654
MOVL C00655 V=53.1 +MOVJ EC00655
MOVL C00656 V=54.1 +MOVJ EC00656
MOVL C00657 V=53.0 +MOVJ EC00657
MOVL C00658 V=52.0 +MOVJ EC00658
MOVL C00659 V=49.3 +MOVJ EC00659
MOVL C00660 V=43.5 +MOVJ EC00660
MOVL C00661 V=40.0 +MOVJ EC00661
MOVL C00662 V=39.6 +MOVJ EC00662
MOVL C00663 V=36.9 +MOVJ EC00663
MOVL C00664 V=35.0 +MOVJ EC00664
MOVL C00665 V=32.2 +MOVJ EC00665
MOVL C00666 V=10.0 +MOVJ EC00666
MOVL C00667 V=31.8 +MOVJ EC00667
MOVL C00668 V=33.7 +MOVJ EC00668
MOVL C00669 V=37.1 +MOVJ EC00669
MOVL C00670 V=35.7 +MOVJ EC00670
MOVL C00671 V=41.0 +MOVJ EC00671
MOVL C00672 V=46.1 +MOVJ EC00672
MOVL C00673 V=43.8 +MOVJ EC00673
MOVL C00674 V=46.2 +MOVJ EC00674
MOVL C00675 V=52.3 +MOVJ EC00675
MOVL C00676 V=54.3 +MOVJ EC00676
MOVL C00677 V=54.3 +MOVJ EC00677
MOVL C00678 V=53.4 +MOVJ EC00678
MOVL C00679 V=49.8 +MOVJ EC00679
MOVL C00680 V=44.8 +MOVJ EC00680
MOVL C00681 V=41.5 +MOVJ EC00681
MOVL C00682 V=39.4 +MOVJ EC00682
MOVL C00683 V=36.7 +MOVJ EC00683
MOVL C00684 V=32.2 +MOVJ EC00684
MOVL C00685 V=28.3 +MOVJ EC00685
MOVL C00686 V=27.1 +MOVJ EC00686
MOVL C00687 V=27.6 +MOVJ EC00687
MOVL C00688 V=27.1 +MOVJ EC00688
MOVL C00689 V=24.7 +MOVJ EC00689
MOVL C00690 V=22.8 +MOVJ EC00690
MOVL C00691 V=23.1 +MOVJ EC00691
MOVL C00692 V=23.5 +MOVJ EC00692
MOVL C00693 V=20.9 +MOVJ EC00693
MOVL C00694 V=18.6 +MOVJ EC00694
MOVL C00695 V=26.2 +MOVJ EC00695
MOVL C00696 V=29.1 +MOVJ EC00696
MOVL C00697 V=19.6 +MOVJ EC00697
MOVL C00698 V=20.0 +MOVJ EC00698
MOVL C00699 V=10.0 +MOVJ EC00699
MOVL C00700 V=19.5 +MOVJ EC00700
MOVL C00701 V=19.8 +MOVJ EC00701
MOVL C00702 V=23.1 +MOVJ EC00702
MOVL C00703 V=23.3 +MOVJ EC00703
MOVL C00704 V=24.6 +MOVJ EC00704
MOVL C00705 V=22.3 +MOVJ EC00705
MOVL C00706 V=20.6 +MOVJ EC00706
MOVL C00707 V=21.6 +MOVJ EC00707
MOVL C00708 V=24.4 +MOVJ EC00708
MOVL C00709 V=25.3 +MOVJ EC00709
MOVL C00710 V=25.0 +MOVJ EC00710
MOVL C00711 V=25.4 +MOVJ EC00711
MOVL C00712 V=27.3 +MOVJ EC00712
MOVL C00713 V=30.1 +MOVJ EC00713
MOVL C00714 V=32.4 +MOVJ EC00714
MOVL C00715 V=34.3 +MOVJ EC00715
MOVL C00716 V=37.8 +MOVJ EC00716
MOVL C00717 V=43.1 +MOVJ EC00717
MOVL C00718 V=47.2 +MOVJ EC00718
MOVL C00719 V=49.9 +MOVJ EC00719
MOVL C00720 V=51.5 +MOVJ EC00720
MOVL C00721 V=52.8 +MOVJ EC00721
MOVL C00722 V=53.9 +MOVJ EC00722
MOVL C00723 V=53.8 +MOVJ EC00723
MOVL C00724 V=52.3 +MOVJ EC00724
MOVL C00725 V=47.3 +MOVJ EC00725
MOVL C00726 V=39.5 +MOVJ EC00726
MOVL C00727 V=37.0 +MOVJ EC00727
MOVL C00728 V=41.8 +MOVJ EC00728
MOVL C00729 V=31.4 +MOVJ EC00729
MOVL C00730 V=34.0 +MOVJ EC00730
MOVL C00731 V=32.4 +MOVJ EC00731
MOVL C00732 V=10.0 +MOVJ EC00732
MOVL C00733 V=30.9 +MOVJ EC00733
MOVL C00734 V=38.2 +MOVJ EC00734
MOVL C00735 V=33.5 +MOVJ EC00735
MOVL C00736 V=32.6 +MOVJ EC00736
MOVL C00737 V=34.1 +MOVJ EC00737
MOVL C00738 V=44.4 +MOVJ EC00738
MOVL C00739 V=47.7 +MOVJ EC00739
MOVL C00740 V=46.4 +MOVJ EC00740
MOVL C00741 V=50.3 +MOVJ EC00741
MOVL C00742 V=54.3 +MOVJ EC00742
MOVL C00743 V=54.5 +MOVJ EC00743
MOVL C00744 V=52.5 +MOVJ EC00744
MOVL C00745 V=50.1 +MOVJ EC00745
MOVL C00746 V=46.3 +MOVJ EC00746
MOVL C00747 V=42.3 +MOVJ EC00747
MOVL C00748 V=39.3 +MOVJ EC00748
MOVL C00749 V=37.0 +MOVJ EC00749
MOVL C00750 V=34.6 +MOVJ EC00750
MOVL C00751 V=30.8 +MOVJ EC00751
MOVL C00752 V=27.5 +MOVJ EC00752
MOVL C00753 V=25.7 +MOVJ EC00753
MOVL C00754 V=25.3 +MOVJ EC00754
MOVL C00755 V=25.1 +MOVJ EC00755
MOVL C00756 V=24.4 +MOVJ EC00756
MOVL C00757 V=23.0 +MOVJ EC00757
MOVL C00758 V=22.5 +MOVJ EC00758
MOVL C00759 V=23.3 +MOVJ EC00759
MOVL C00760 V=22.1 +MOVJ EC00760
MOVL C00761 V=19.9 +MOVJ EC00761
MOVL C00762 V=24.8 +MOVJ EC00762
MOVL C00763 V=22.0 +MOVJ EC00763
MOVL C00764 V=18.9 +MOVJ EC00764
MOVL C00765 V=10.0 +MOVJ EC00765
MOVL C00766 V=19.8 +MOVJ EC00766
MOVL C00767 V=20.9 +MOVJ EC00767
MOVL C00768 V=28.0 +MOVJ EC00768
MOVL C00769 V=23.9 +MOVJ EC00769
MOVL C00770 V=23.3 +MOVJ EC00770
MOVL C00771 V=23.3 +MOVJ EC00771
MOVL C00772 V=22.2 +MOVJ EC00772
MOVL C00773 V=21.6 +MOVJ EC00773
MOVL C00774 V=23.0 +MOVJ EC00774
MOVL C00775 V=24.7 +MOVJ EC00775
MOVL C00776 V=26.0 +MOVJ EC00776
MOVL C00777 V=27.2 +MOVJ EC00777
MOVL C00778 V=28.5 +MOVJ EC00778
MOVL C00779 V=30.6 +MOVJ EC00779
MOVL C00780 V=33.7 +MOVJ EC00780
MOVL C00781 V=37.4 +MOVJ EC00781
MOVL C00782 V=41.3 +MOVJ EC00782
MOVL C00783 V=44.3 +MOVJ EC00783
MOVL C00784 V=45.9 +MOVJ EC00784
MOVL C00785 V=49.1 +MOVJ EC00785
MOVL C00786 V=53.7 +MOVJ EC00786
MOVL C00787 V=56.0 +MOVJ EC00787
MOVL C00788 V=52.8 +MOVJ EC00788
MOVL C00789 V=50.4 +MOVJ EC00789
MOVL C00790 V=50.7 +MOVJ EC00790
MOVL C00791 V=45.2 +MOVJ EC00791
MOVL C00792 V=37.9 +MOVJ EC00792
MOVL C00793 V=37.7 +MOVJ EC00793
MOVL C00794 V=34.0 +MOVJ EC00794
MOVL C00795 V=34.9 +MOVJ EC00795
MOVL C00796 V=31.8 +MOVJ EC00796
MOVL C00797 V=28.3 +MOVJ EC00797
MOVL C00798 V=10.0 +MOVJ EC00798
MOVL C00799 V=31.8 +MOVJ EC00799
MOVL C00800 V=30.2 +MOVJ EC00800
MOVL C00801 V=31.6 +MOVJ EC00801
MOVL C00802 V=34.8 +MOVJ EC00802
MOVL C00803 V=36.3 +MOVJ EC00803
MOVL C00804 V=37.9 +MOVJ EC00804
MOVL C00805 V=38.3 +MOVJ EC00805
MOVL C00806 V=45.8 +MOVJ EC00806
MOVL C00807 V=52.7 +MOVJ EC00807
MOVL C00808 V=52.9 +MOVJ EC00808
MOVL C00809 V=53.6 +MOVJ EC00809
MOVL C00810 V=56.1 +MOVJ EC00810
MOVL C00811 V=55.1 +MOVJ EC00811
MOVL C00812 V=50.6 +MOVJ EC00812
MOVL C00813 V=45.6 +MOVJ EC00813
MOVL C00814 V=41.3 +MOVJ EC00814
MOVL C00815 V=37.4 +MOVJ EC00815
MOVL C00816 V=33.6 +MOVJ EC00816
MOVL C00817 V=31.3 +MOVJ EC00817
MOVL C00818 V=30.6 +MOVJ EC00818
MOVL C00819 V=29.1 +MOVJ EC00819
MOVL C00820 V=25.6 +MOVJ EC00820
MOVL C00821 V=22.8 +MOVJ EC00821
MOVL C00822 V=23.1 +MOVJ EC00822
MOVL C00823 V=25.3 +MOVJ EC00823
MOVL C00824 V=24.3 +MOVJ EC00824
MOVL C00825 V=21.6 +MOVJ EC00825
MOVL C00826 V=22.2 +MOVJ EC00826
MOVL C00827 V=25.1 +MOVJ EC00827
MOVL C00828 V=24.0 +MOVJ EC00828
MOVL C00829 V=22.4 +MOVJ EC00829
MOVL C00830 V=18.4 +MOVJ EC00830
MOVL C00831 V=10.0 +MOVJ EC00831
MOVL C00832 V=19.4 +MOVJ EC00832
MOVL C00833 V=23.0 +MOVJ EC00833
MOVL C00834 V=31.3 +MOVJ EC00834
MOVL C00835 V=25.1 +MOVJ EC00835
MOVL C00836 V=24.1 +MOVJ EC00836
MOVL C00837 V=24.4 +MOVJ EC00837
MOVL C00838 V=23.7 +MOVJ EC00838
MOVL C00839 V=23.2 +MOVJ EC00839
MOVL C00840 V=23.7 +MOVJ EC00840
MOVL C00841 V=25.3 +MOVJ EC00841
MOVL C00842 V=26.9 +MOVJ EC00842
MOVL C00843 V=28.2 +MOVJ EC00843
MOVL C00844 V=29.7 +MOVJ EC00844
MOVL C00845 V=31.8 +MOVJ EC00845
MOVL C00846 V=35.0 +MOVJ EC00846
MOVL C00847 V=39.0 +MOVJ EC00847
MOVL C00848 V=43.0 +MOVJ EC00848
MOVL C00849 V=47.2 +MOVJ EC00849
MOVL C00850 V=50.4 +MOVJ EC00850
MOVL C00851 V=52.2 +MOVJ EC00851
MOVL C00852 V=53.7 +MOVJ EC00852
MOVL C00853 V=55.0 +MOVJ EC00853
MOVL C00854 V=53.3 +MOVJ EC00854
MOVL C00855 V=49.1 +MOVJ EC00855
MOVL C00856 V=45.6 +MOVJ EC00856
MOVL C00857 V=42.5 +MOVJ EC00857
MOVL C00858 V=37.6 +MOVJ EC00858
MOVL C00859 V=35.6 +MOVJ EC00859
MOVL C00860 V=31.9 +MOVJ EC00860
MOVL C00861 V=32.4 +MOVJ EC00861
MOVL C00862 V=29.0 +MOVJ EC00862
MOVL C00863 V=30.0 +MOVJ EC00863
MOVL C00864 V=10.0 +MOVJ EC00864
MOVL C00865 V=27.6 +MOVJ EC00865
MOVL C00866 V=36.1 +MOVJ EC00866
MOVL C00867 V=29.8 +MOVJ EC00867
MOVL C00868 V=28.8 +MOVJ EC00868
MOVL C00869 V=33.1 +MOVJ EC00869
MOVL C00870 V=38.4 +MOVJ EC00870
MOVL C00871 V=40.3 +MOVJ EC00871
MOVL C00872 V=43.2 +MOVJ EC00872
MOVL C00873 V=49.6 +MOVJ EC00873
MOVL C00874 V=54.3 +MOVJ EC00874
MOVL C00875 V=54.9 +MOVJ EC00875
MOVL C00876 V=54.0 +MOVJ EC00876
MOVL C00877 V=53.1 +MOVJ EC00877
MOVL C00878 V=51.2 +MOVJ EC00878
MOVL C00879 V=46.7 +MOVJ EC00879
MOVL C00880 V=41.7 +MOVJ EC00880
MOVL C00881 V=38.9 +MOVJ EC00881
MOVL C00882 V=37.7 +MOVJ EC00882
MOVL C00883 V=35.3 +MOVJ EC00883
MOVL C00884 V=30.9 +MOVJ EC00884
MOVL C00885 V=27.0 +MOVJ EC00885
MOVL C00886 V=25.5 +MOVJ EC00886
MOVL C00887 V=25.6 +MOVJ EC00887
MOVL C00888 V=24.8 +MOVJ EC00888
MOVL C00889 V=23.3 +MOVJ EC00889
MOVL C00890 V=23.5 +MOVJ EC00890
MOVL C00891 V=25.7 +MOVJ EC00891
MOVL C00892 V=24.4 +MOVJ EC00892
MOVL C00893 V=19.8 +MOVJ EC00893
MOVL C00894 V=23.1 +MOVJ EC00894
MOVL C00895 V=36.3 +MOVJ EC00895
MOVL C00896 V=19.6 +MOVJ EC00896
MOVL C00897 V=10.0 +MOVJ EC00897
MOVL C00898 V=18.8 +MOVJ EC00898
MOVL C00899 V=27.4 +MOVJ EC00899
MOVL C00900 V=27.6 +MOVJ EC00900
MOVL C00901 V=32.1 +MOVJ EC00901
MOVL C00902 V=26.3 +MOVJ EC00902
MOVL C00903 V=20.7 +MOVJ EC00903
MOVL C00904 V=21.7 +MOVJ EC00904
MOVL C00905 V=25.3 +MOVJ EC00905
MOVL C00906 V=26.4 +MOVJ EC00906
MOVL C00907 V=25.5 +MOVJ EC00907
MOVL C00908 V=25.5 +MOVJ EC00908
MOVL C00909 V=27.9 +MOVJ EC00909
MOVL C00910 V=31.1 +MOVJ EC00910
MOVL C00911 V=33.4 +MOVJ EC00911
MOVL C00912 V=36.2 +MOVJ EC00912
MOVL C00913 V=40.9 +MOVJ EC00913
MOVL C00914 V=46.3 +MOVJ EC00914
MOVL C00915 V=51.0 +MOVJ EC00915
MOVL C00916 V=52.4 +MOVJ EC00916
MOVL C00917 V=53.2 +MOVJ EC00917
MOVL C00918 V=53.8 +MOVJ EC00918
MOVL C00919 V=53.2 +MOVJ EC00919
MOVL C00920 V=51.2 +MOVJ EC00920
MOVL C00921 V=49.2 +MOVJ EC00921
MOVL C00922 V=44.6 +MOVJ EC00922
MOVL C00923 V=38.7 +MOVJ EC00923
MOVL C00924 V=35.8 +MOVJ EC00924
MOVL C00925 V=32.1 +MOVJ EC00925
MOVL C00926 V=31.9 +MOVJ EC00926
MOVL C00927 V=33.8 +MOVJ EC00927
MOVL C00928 V=24.7 +MOVJ EC00928
MOVL C00929 V=29.6 +MOVJ EC00929
MOVL C00930 V=10.0 +MOVJ EC00930
MOVL C00931 V=32.6 +MOVJ EC00931
MOVL C00932 V=28.9 +MOVJ EC00932
MOVL C00933 V=26.9 +MOVJ EC00933
MOVL C00934 V=31.2 +MOVJ EC00934
MOVL C00935 V=31.9 +MOVJ EC00935
MOVL C00936 V=33.3 +MOVJ EC00936
MOVL C00937 V=40.1 +MOVJ EC00937
MOVL C00938 V=45.0 +MOVJ EC00938
MOVL C00939 V=47.2 +MOVJ EC00939
MOVL C00940 V=50.8 +MOVJ EC00940
MOVL C00941 V=56.1 +MOVJ EC00941
MOVL C00942 V=58.5 +MOVJ EC00942
MOVL C00943 V=55.9 +MOVJ EC00943
MOVL C00944 V=50.9 +MOVJ EC00944
MOVL C00945 V=46.5 +MOVJ EC00945
MOVL C00946 V=42.7 +MOVJ EC00946
MOVL C00947 V=40.2 +MOVJ EC00947
MOVL C00948 V=37.2 +MOVJ EC00948
MOVL C00949 V=34.1 +MOVJ EC00949
MOVL C00950 V=31.1 +MOVJ EC00950
MOVL C00951 V=29.2 +MOVJ EC00951
MOVL C00952 V=28.0 +MOVJ EC00952
MOVL C00953 V=26.5 +MOVJ EC00953
MOVL C00954 V=23.9 +MOVJ EC00954
MOVL C00955 V=22.0 +MOVJ EC00955
MOVL C00956 V=22.5 +MOVJ EC00956
MOVL C00957 V=26.0 +MOVJ EC00957
MOVL C00958 V=27.4 +MOVJ EC00958
MOVL C00959 V=24.3 +MOVJ EC00959
MOVL C00960 V=25.5 +MOVJ EC00960
MOVL C00961 V=41.9 +MOVJ EC00961
