/JOB
//NAME AAA
//POS
///NPOS 606,0,606,0,0,0
///TOOL 12
///POSTYPE PULSE
///PULSE
C00000=-35671,66466,14985,10026,-43143,-11019
C00001=-35220,66055,14591,10201,-43163,-11219
C00002=-34448,65182,13662,10512,-43132,-11568
C00003=-33764,64489,12825,10796,-43056,-11883
C00004=-33275,64205,12413,10998,-43011,-12108
C00005=-32877,64084,12172,11162,-42975,-12290
C00006=-32480,63992,11941,11327,-42931,-12474
C00007=-32072,63973,11776,11496,-42894,-12662
C00008=-31689,64057,11728,11651,-42872,-12837
C00009=-31336,64202,11752,11792,-42859,-12997
C00010=-30964,64376,11787,11942,-42841,-13166
C00011=-30531,64575,11800,12119,-42807,-13366
C00012=-30085,64780,11783,12306,-42754,-13574
C00013=-29597,65015,11739,12515,-42676,-13805
C00014=-29075,65289,11665,12745,-42567,-14056
C00015=-28525,65623,11577,12996,-42425,-14325
C00016=-27983,66016,11499,13250,-42259,-14595
C00017=-27444,66477,11427,13511,-42064,-14870
C00018=-26895,67020,11347,13790,-41827,-15158
C00019=-26381,67612,11275,14065,-41566,-15435
C00020=-25916,68299,11297,14321,-41308,-15690
C00021=-25516,69041,11407,14550,-41067,-15916
C00022=-25145,69870,11596,14769,-40825,-16129
C00023=-24853,70668,11853,14946,-40628,-16298
C00024=-24600,71558,12257,15097,-40467,-16445
C00025=-24392,72445,12736,15219,-40345,-16563
C00026=-24207,73331,13244,15327,-40237,-16669
C00027=-24061,74187,13821,15405,-40179,-16748
C00028=-23931,75131,14558,15460,-40170,-16810
C00029=-23827,76021,15322,15492,-40199,-16852
C00030=-23739,76955,16216,15500,-40282,-16877
C00031=-23697,77827,17232,15460,-40459,-16862
C00032=-23674,78764,18430,15389,-40711,-16826
C00033=-23638,78756,18349,15416,-40672,-16849
C00034=-23680,77758,17140,15472,-40442,-16874
C00035=-23745,76756,16051,15498,-40281,-16874
C00036=-23825,75799,15099,15500,-40177,-16857
C00037=-23929,74830,14240,15473,-40131,-16818
C00038=-24068,73900,13560,15407,-40165,-16747
C00039=-24205,73015,12925,15339,-40204,-16676
C00040=-24371,72189,12438,15242,-40298,-16582
C00041=-24624,71260,12036,15084,-40479,-16431
C00042=-24914,70341,11682,14906,-40679,-16261
C00043=-25206,69523,11390,14733,-40865,-16093
C00044=-25533,68785,11205,14542,-41071,-15907
C00045=-25949,68047,11123,14303,-41325,-15673
C00046=-26386,67430,11134,14061,-41572,-15431
C00047=-26860,66858,11169,13810,-41807,-15177
C00048=-27336,66360,11215,13567,-42012,-14927
C00049=-27841,65891,11256,13321,-42197,-14669
C00050=-28352,65504,11331,13079,-42362,-14413
C00051=-28870,65176,11420,12841,-42506,-14157
C00052=-29396,64898,11516,12605,-42629,-13902
C00053=-29890,64663,11586,12390,-42721,-13666
C00054=-30340,64439,11598,12201,-42780,-13456
C00055=-30770,64235,11593,12023,-42821,-13256
C00056=-31196,64060,11593,11849,-42853,-13061
C00057=-31600,63934,11620,11684,-42880,-12876
C00058=-31954,63849,11664,11540,-42903,-12714
C00059=-32287,63799,11731,11404,-42927,-12561
C00060=-32641,63819,11880,11258,-42962,-12398
C00061=-33048,63955,12158,11088,-43010,-12209
C00062=-33558,64259,12613,10874,-43070,-11973
C00063=-34234,64859,13363,10594,-43139,-11662
C00064=-35191,66172,14815,10197,-43243,-11222
C00065=-35550,65558,13959,10102,-42994,-11091
C00066=-35648,66244,14857,10028,-43180,-11025
C00067=-35154,65949,14619,10212,-43241,-11239
C00068=-34240,64879,13461,10582,-43187,-11654
C00069=-33529,64180,12588,10880,-43098,-11983
C00070=-32984,63830,12072,11109,-43029,-12236
C00071=-32557,63688,11780,11287,-42978,-12434
C00072=-32172,63638,11583,11448,-42933,-12612
C00073=-31810,63654,11457,11598,-42895,-12779
C00074=-31457,63734,11400,11744,-42866,-12942
C00075=-31082,63900,11422,11895,-42845,-13113
C00076=-30677,64099,11452,12060,-42817,-13299
C00077=-30239,64299,11441,12242,-42769,-13502
C00078=-29768,64510,11388,12444,-42695,-13725
C00079=-29268,64751,11308,12663,-42595,-13964
C00080=-28744,65036,11208,12900,-42466,-14220
C00081=-28224,65377,11116,13141,-42315,-14478
C00082=-27708,65774,11028,13389,-42138,-14739
C00083=-27202,66256,10982,13638,-41944,-14999
C00084=-26733,66774,10951,13879,-41737,-15246
C00085=-26273,67362,10935,14124,-41504,-15494
C00086=-25852,67991,10947,14359,-41263,-15728
C00087=-25449,68741,11051,14592,-41014,-15956
C00088=-25114,69494,11219,14791,-40792,-16149
C00089=-24804,70337,11478,14981,-40577,-16331
C00090=-24533,71257,11856,15149,-40389,-16490
C00091=-24339,72144,12358,15261,-40278,-16600
C00092=-24195,72947,12881,15340,-40214,-16679
C00093=-24044,73846,13485,15421,-40151,-16761
C00094=-23911,74775,14177,15483,-40124,-16828
C00095=-23785,75770,14981,15532,-40128,-16885
C00096=-23701,76734,15920,15535,-40222,-16906
C00097=-23614,77777,16971,15531,-40343,-16923
C00098=-23593,78738,18220,15453,-40611,-16881
C00099=-23482,78848,17966,15557,-40425,-16968
C00100=-23585,77770,16915,15550,-40318,-16941
C00101=-23666,76788,15922,15556,-40202,-16926
C00102=-23750,75851,15024,15549,-40119,-16903
C00103=-23843,74976,14257,15524,-40082,-16867
C00104=-23954,74110,13574,15477,-40088,-16815
C00105=-24077,73242,12931,15419,-40117,-16752
C00106=-24223,72402,12388,15337,-40187,-16671
C00107=-24405,71573,11943,15227,-40304,-16565
C00108=-24635,70697,11538,15085,-40461,-16430
C00109=-24898,69847,11200,14924,-40640,-16276
C00110=-25203,69056,10967,14740,-40846,-16098
C00111=-25553,68328,10842,14532,-41079,-15896
C00112=-25968,67617,10782,14293,-41333,-15662
C00113=-26413,66970,10762,14049,-41575,-15418
C00114=-26902,66369,10774,13793,-41808,-15157
C00115=-27404,65848,10818,13539,-42020,-14895
C00116=-27952,65371,10886,13272,-42219,-14616
C00117=-28522,64965,10983,13003,-42398,-14330
C00118=-29070,64636,11077,12753,-42542,-14061
C00119=-29565,64358,11130,12535,-42644,-13823
C00120=-30025,64116,11157,12338,-42719,-13606
C00121=-30492,63895,11177,12141,-42779,-13388
C00122=-30924,63734,11218,11961,-42827,-13187
C00123=-31293,63609,11252,11809,-42861,-13016
C00124=-31658,63496,11287,11659,-42892,-12848
C00125=-32036,63436,11378,11503,-42928,-12674
C00126=-32465,63509,11623,11322,-42985,-12474
C00127=-32938,63689,11972,11123,-43046,-12254
C00128=-33512,64066,12529,10882,-43122,-11988
C00129=-34303,64890,13545,10550,-43225,-11621
C00130=-35261,66213,14990,10155,-43320,-11182
C00131=-35605,65872,14475,10052,-43142,-11049
C00132=-35667,66470,15274,9995,-43317,-11001
C00133=-35171,66051,14890,10184,-43352,-11218
C00134=-34201,64776,13488,10583,-43261,-11662
C00135=-33387,63899,12394,10928,-43140,-12041
C00136=-32782,63467,11753,11185,-43045,-12324
C00137=-32344,63334,11457,11369,-42988,-12528
C00138=-31946,63292,11252,11536,-42936,-12713
C00139=-31563,63297,11091,11697,-42886,-12892
C00140=-31209,63362,10998,11846,-42844,-13056
C00141=-30839,63521,10995,11998,-42811,-13227
C00142=-30446,63734,11028,12160,-42777,-13408
C00143=-30008,63950,11017,12344,-42720,-13613
C00144=-29542,64165,10951,12546,-42637,-13835
C00145=-29036,64407,10841,12772,-42520,-14080
C00146=-28512,64715,10739,13012,-42379,-14338
C00147=-28010,65080,10665,13248,-42224,-14589
C00148=-27537,65486,10612,13476,-42058,-14829
C00149=-27050,65992,10595,13718,-41867,-15080
C00150=-26593,66537,10590,13954,-41661,-15322
C00151=-26155,67110,10571,14192,-41430,-15560
C00152=-25739,67755,10591,14427,-41185,-15793
C00153=-25373,68440,10674,14641,-40951,-16002
C00154=-25049,69202,10865,14834,-40737,-16188
C00155=-24790,69940,11113,14992,-40559,-16340
C00156=-24547,70753,11442,15142,-40390,-16483
C00157=-24341,71578,11834,15270,-40247,-16605
C00158=-24162,72441,12318,15378,-40135,-16709
C00159=-24018,73262,12834,15461,-40058,-16791
C00160=-23902,74096,13446,15518,-40027,-16850
C00161=-23814,74923,14154,15545,-40052,-16886
C00162=-23712,75843,14937,15578,-40078,-16929
C00163=-23618,76788,15799,15596,-40137,-16961
C00164=-23535,77777,16788,15593,-40248,-16978
C00165=-23500,78744,17975,15532,-40479,-16950
C00166=-23471,78697,17867,15555,-40443,-16970
C00167=-23543,77683,16766,15580,-40280,-16968
C00168=-23613,76738,15788,15592,-40156,-16959
C00169=-23702,75799,14916,15578,-40089,-16931
C00170=-23772,74952,14106,15574,-40017,-16913
C00171=-23878,74034,13357,15534,-40009,-16865
C00172=-23998,73195,12755,15473,-40048,-16802
C00173=-24134,72339,12179,15398,-40108,-16727
C00174=-24305,71460,11664,15296,-40210,-16629
C00175=-24539,70522,11219,15151,-40373,-16490
C00176=-24786,69710,10903,14997,-40549,-16344
C00177=-25091,68878,10649,14810,-40762,-16165
C00178=-25453,68086,10491,14593,-41005,-15955
C00179=-25880,67334,10422,14345,-41273,-15713
C00180=-26347,66666,10427,14086,-41536,-15455
C00181=-26843,66040,10430,13825,-41776,-15189
C00182=-27336,65501,10448,13575,-41982,-14932
C00183=-27866,65009,10488,13317,-42174,-14662
C00184=-28400,64609,10570,13064,-42346,-14393
C00185=-28915,64285,10658,12827,-42489,-14140
C00186=-29392,64001,10709,12615,-42594,-13909
C00187=-29838,63752,10735,12422,-42674,-13697
C00188=-30273,63534,10758,12236,-42737,-13492
C00189=-30680,63367,10798,12065,-42791,-13301
C00190=-31044,63242,10848,11912,-42835,-13131
C00191=-31424,63138,10917,11753,-42880,-12955
C00192=-31796,63083,11027,11597,-42925,-12782
C00193=-32223,63136,11262,11417,-42986,-12582
C00194=-32748,63384,11723,11192,-43073,-12336
C00195=-33374,63844,12399,10926,-43172,-12043
C00196=-34151,64642,13402,10599,-43282,-11682
C00197=-35119,65934,14828,10200,-43379,-11238
C00198=-35600,66209,15037,10023,-43312,-11031
C00199=-35589,66628,15615,10001,-43452,-11020
C00200=-34761,65441,14378,10337,-43398,-11396
C00201=-33890,64350,13122,10700,-43291,-11798
C00202=-33063,63492,12005,11053,-43150,-12185
C00203=-32479,63126,11418,11302,-43053,-12459
C00204=-32023,63004,11108,11496,-42985,-12672
C00205=-31590,62939,10843,11681,-42913,-12876
C00206=-31170,62960,10661,11860,-42848,-13073
C00207=-30785,63059,10568,12023,-42793,-13254
C00208=-30434,63229,10565,12170,-42753,-13417
C00209=-30046,63431,10561,12334,-42702,-13599
C00210=-29595,63652,10511,12529,-42623,-13813
C00211=-29122,63888,10425,12739,-42518,-14042
C00212=-28636,64188,10357,12959,-42396,-14279
C00213=-28146,64553,10312,13186,-42256,-14522
C00214=-27641,64985,10266,13428,-42087,-14777
C00215=-27111,65498,10216,13692,-41878,-15051
C00216=-26603,66059,10167,13955,-41645,-15320
C00217=-26119,66708,10165,14216,-41394,-15583
C00218=-25694,67397,10219,14455,-41149,-15820
C00219=-25303,68164,10340,14684,-40901,-16042
C00220=-24957,68968,10516,14895,-40660,-16245
C00221=-24668,69801,10784,15075,-40452,-16416
C00222=-24449,70601,11137,15210,-40300,-16546
C00223=-24248,71493,11604,15333,-40168,-16663
C00224=-24075,72375,12104,15439,-40055,-16765
C00225=-23937,73232,12664,15518,-39986,-16842
C00226=-23842,74037,13303,15557,-39982,-16887
C00227=-23749,74930,14062,15587,-40005,-16926
C00228=-23648,75816,14797,15623,-40019,-16970
C00229=-23564,76755,15678,15633,-40091,-16995
C00230=-23487,77696,16619,15630,-40195,-17010
C00231=-23410,78709,17688,15613,-40340,-17018
C00232=-23405,78671,17684,15609,-40358,-17017
C00233=-23459,77637,16491,15655,-40153,-17031
C00234=-23563,76546,15475,15639,-40074,-16998
C00235=-23659,75556,14579,15619,-40016,-16965
C00236=-23732,74643,13715,15614,-39944,-16945
C00237=-23831,73754,12991,15576,-39939,-16901
C00238=-23946,72880,12350,15518,-39972,-16841
C00239=-24077,72015,11760,15447,-40029,-16769
C00240=-24257,71140,11289,15334,-40155,-16662
C00241=-24489,70256,10914,15184,-40332,-16521
C00242=-24730,69426,10572,15034,-40502,-16378
C00243=-25007,68599,10268,14866,-40688,-16217
C00244=-25351,67807,10089,14659,-40921,-16017
C00245=-25767,67069,10035,14414,-41191,-15779
C00246=-26199,66421,10025,14171,-41441,-15539
C00247=-26647,65800,9989,13933,-41661,-15298
C00248=-27086,65264,9968,13709,-41850,-15067
C00249=-27542,64798,9989,13482,-42028,-14831
C00250=-28037,64387,10062,13242,-42205,-14579
C00251=-28555,64040,10172,12997,-42370,-14320
C00252=-29050,63750,10268,12771,-42503,-14076
C00253=-29507,63483,10313,12568,-42600,-13856
C00254=-29908,63255,10329,12395,-42669,-13665
C00255=-30307,63041,10336,12226,-42727,-13478
C00256=-30697,62910,10417,12059,-42788,-13294
C00257=-31096,62852,10569,11887,-42856,-13105
C00258=-31492,62847,10764,11717,-42925,-12918
C00259=-31878,62852,10949,11552,-42984,-12737
C00260=-32297,62947,11227,11374,-43050,-12540
C00261=-32846,63275,11776,11138,-43148,-12282
C00262=-33572,63960,12715,10826,-43280,-11941
C00263=-34385,64958,13923,10482,-43410,-11562
C00264=-35266,66153,15214,10122,-43486,-11160
C00265=-34979,65657,14748,10234,-43487,-11288
C00266=-34064,64477,13431,10611,-43393,-11707
C00267=-33279,63604,12329,10945,-43262,-12074
C00268=-32605,63060,11536,11234,-43141,-12391
C00269=-32084,62765,11011,11460,-43038,-12637
C00270=-31636,62642,10675,11653,-42956,-12849
C00271=-31218,62626,10450,11833,-42883,-13047
C00272=-30843,62682,10310,11994,-42819,-13224
C00273=-30477,62782,10208,12152,-42757,-13397
C00274=-30091,62924,10128,12319,-42690,-13580
C00275=-29671,63132,10084,12501,-42616,-13780
C00276=-29262,63376,10064,12679,-42538,-13976
C00277=-28827,63667,10043,12873,-42441,-14186
C00278=-28365,63989,9993,13086,-42316,-14414
C00279=-27876,64364,9925,13318,-42158,-14660
C00280=-27393,64790,9865,13553,-41980,-14906
C00281=-26931,65267,9827,13787,-41788,-15147
C00282=-26477,65815,9816,14024,-41576,-15389
C00283=-26030,66450,9841,14266,-41343,-15633
C00284=-25631,67105,9889,14493,-41107,-15856
C00285=-25252,67850,10001,14715,-40863,-16073
C00286=-24905,68655,10168,14929,-40617,-16277
C00287=-24601,69509,10412,15122,-40387,-16459
C00288=-24371,70342,10763,15267,-40219,-16597
C00289=-24191,71190,11222,15378,-40101,-16702
C00290=-24040,72031,11732,15468,-40011,-16790
C00291=-23902,72896,12289,15548,-39936,-16868
C00292=-23792,73767,12938,15602,-39907,-16925
C00293=-23708,74628,13676,15627,-39932,-16959
C00294=-23625,75548,14508,15644,-39984,-16987
C00295=-23550,76506,15442,15643,-40076,-17004
C00296=-23462,77562,16476,15644,-40181,-17024
C00297=-23372,78623,17548,15639,-40306,-17042
C00298=-23320,78647,17412,15687,-40223,-17082
C00299=-23430,77501,16327,15675,-40128,-17050
C00300=-23528,76413,15300,15664,-40042,-17021
C00301=-23608,75417,14347,15660,-39956,-17000
C00302=-23688,74497,13511,15645,-39903,-16974
C00303=-23767,73623,12749,15624,-39870,-16943
C00304=-23863,72759,12068,15582,-39879,-16897
C00305=-24012,71860,11515,15492,-39971,-16810
C00306=-24181,71001,11046,15385,-40091,-16709
C00307=-24372,70134,10593,15266,-40221,-16596
C00308=-24610,69274,10232,15116,-40395,-16454
C00309=-24916,68412,9980,14922,-40624,-16270
C00310=-25255,67607,9792,14716,-40859,-16072
C00311=-25630,66854,9661,14496,-41096,-15858
C00312=-26051,66175,9617,14258,-41343,-15623
C00313=-26540,65527,9635,13992,-41602,-15356
C00314=-26993,65001,9661,13756,-41812,-15115
C00315=-27423,64526,9653,13541,-41981,-14893
C00316=-27888,64059,9640,13318,-42138,-14657
C00317=-28384,63682,9709,13083,-42297,-14408
C00318=-28897,63388,9839,12844,-42449,-14153
C00319=-29369,63129,9922,12632,-42562,-13924
C00320=-29783,62882,9937,12452,-42638,-13726
C00321=-30166,62673,9953,12287,-42700,-13545
C00322=-30540,62557,10057,12124,-42771,-13367
C00323=-30942,62497,10224,11949,-42848,-13175
C00324=-31369,62497,10454,11764,-42930,-12973
C00325=-31817,62583,10764,11569,-43016,-12760
C00326=-32347,62846,11277,11338,-43125,-12508
C00327=-33000,63309,12001,11057,-43248,-12200
C00328=-33764,64045,12976,10733,-43373,-11844
C00329=-34669,65254,14391,10351,-43511,-11424
C00330=-34273,64656,13789,10510,-43495,-11602
C00331=-33425,63642,12543,10869,-43355,-11997
C00332=-32662,62980,11610,11195,-43220,-12355
C00333=-32062,62618,10985,11455,-43100,-12639
C00334=-31531,62395,10495,11688,-42985,-12892
C00335=-31078,62317,10169,11887,-42887,-13109
C00336=-30678,62361,9986,12062,-42808,-13300
C00337=-30303,62474,9881,12224,-42739,-13478
C00338=-29893,62628,9785,12403,-42659,-13674
C00339=-29475,62822,9707,12588,-42572,-13875
C00340=-29049,63073,9660,12777,-42478,-14081
C00341=-28613,63388,9649,12973,-42375,-14293
C00342=-28173,63719,9609,13178,-42248,-14511
C00343=-27676,64118,9538,13416,-42078,-14762
C00344=-27179,64563,9452,13665,-41878,-15020
C00345=-26717,65073,9422,13902,-41675,-15264
C00346=-26268,65685,9463,14138,-41462,-15504
C00347=-25845,66336,9514,14371,-41233,-15736
C00348=-25437,67037,9566,14607,-40979,-15967
C00349=-25050,67818,9662,14843,-40709,-16194
C00350=-24744,68606,9864,15033,-40486,-16375
C00351=-24483,69461,10189,15197,-40297,-16530
C00352=-24264,70312,10565,15338,-40134,-16662
C00353=-24080,71167,11001,15456,-39999,-16774
C00354=-23933,72030,11528,15545,-39907,-16859
C00355=-23823,72855,12113,15603,-39864,-16918
C00356=-23725,73720,12781,15648,-39848,-16967
C00357=-23645,74565,13501,15674,-39870,-17000
C00358=-23570,75451,14308,15686,-39923,-17025
C00359=-23509,76405,15284,15672,-40039,-17030
C00360=-23409,77467,16260,15689,-40109,-17063
C00361=-23305,78610,17363,15696,-40214,-17091
C00362=-23287,78561,17287,15709,-40197,-17102
C00363=-23406,77397,16228,15685,-40125,-17061
C00364=-23484,76379,15216,15690,-40016,-17046
C00365=-23548,75425,14259,15699,-39910,-17037
C00366=-23620,74554,13462,15688,-39857,-17014
C00367=-23697,73719,12748,15664,-39834,-16983
C00368=-23773,72885,12043,15640,-39816,-16951
C00369=-23882,72063,11468,15580,-39864,-16891
C00370=-24024,71213,10951,15492,-39956,-16808
C00371=-24173,70392,10463,15402,-40048,-16721
C00372=-24365,69554,10049,15280,-40187,-16606
C00373=-24632,68683,9749,15106,-40397,-16443
C00374=-24931,67887,9544,14916,-40623,-16264
C00375=-25270,67108,9376,14710,-40857,-16066
C00376=-25634,66389,9254,14498,-41084,-15858
C00377=-26057,65716,9215,14259,-41331,-15622
C00378=-26527,65088,9226,14003,-41579,-15366
C00379=-26986,64562,9260,13764,-41793,-15122
C00380=-27451,64086,9295,13530,-41982,-14880
C00381=-27926,63659,9338,13300,-42152,-14638
C00382=-28379,63320,9408,13084,-42298,-14410
C00383=-28838,63004,9464,12873,-42424,-14184
C00384=-29263,62743,9515,12682,-42526,-13977
C00385=-29657,62514,9548,12508,-42607,-13788
C00386=-30051,62331,9618,12335,-42686,-13599
C00387=-30446,62219,9750,12161,-42769,-13409
C00388=-30872,62186,9975,11973,-42863,-13205
C00389=-31302,62230,10265,11783,-42959,-12998
C00390=-31784,62390,10685,11571,-43069,-12768
C00391=-32401,62740,11327,11301,-43202,-12474
C00392=-33117,63292,12156,10994,-43335,-12137
C00393=-33878,64108,13218,10668,-43473,-11781
C00394=-33601,63714,12796,10781,-43450,-11907
C00395=-32805,62958,11767,11121,-43307,-12280
C00396=-32035,62431,10909,11455,-43152,-12644
C00397=-31420,62172,10339,11724,-43017,-12938
C00398=-30935,62073,9956,11940,-42901,-13171
C00399=-30515,62098,9726,12126,-42806,-13373
C00400=-30093,62178,9538,12314,-42709,-13577
C00401=-29644,62344,9409,12513,-42610,-13793
C00402=-29210,62584,9352,12705,-42515,-14003
C00403=-28783,62851,9300,12898,-42410,-14211
C00404=-28313,63175,9237,13116,-42277,-14444
C00405=-27842,63533,9162,13340,-42122,-14680
C00406=-27380,63939,9098,13567,-41948,-14918
C00407=-26913,64419,9055,13804,-41752,-15162
C00408=-26406,65017,9022,14070,-41510,-15432
C00409=-25939,65688,9046,14325,-41262,-15688
C00410=-25551,66363,9132,14545,-41038,-15905
C00411=-25173,67135,9273,14766,-40797,-16121
C00412=-24834,67925,9432,14977,-40553,-16321
C00413=-24536,68756,9658,15168,-40323,-16501
C00414=-24304,69578,9978,15319,-40142,-16642
C00415=-24109,70469,10431,15443,-40002,-16759
C00416=-23946,71332,10912,15547,-39886,-16857
C00417=-23820,72173,11454,15622,-39812,-16930
C00418=-23726,72961,12035,15670,-39782,-16979
C00419=-23629,73827,12695,15717,-39760,-17029
C00420=-23567,74648,13444,15726,-39808,-17048
C00421=-23536,75440,14300,15698,-39929,-17039
C00422=-23457,76394,15193,15706,-40000,-17062
C00423=-23405,77339,16225,15677,-40152,-17057
C00424=-23286,78459,17221,15706,-40208,-17101
C00425=-23305,78354,17241,15678,-40269,-17080
C00426=-23354,77361,16102,15722,-40077,-17095
C00427=-23450,76329,15155,15706,-40010,-17063
C00428=-23490,75463,14216,15734,-39876,-17071
C00429=-23553,74601,13400,15732,-39808,-17055
C00430=-23608,73821,12680,15726,-39758,-17039
C00431=-23680,73005,11992,15702,-39742,-17009
C00432=-23780,72194,11415,15647,-39784,-16954
C00433=-23894,71377,10866,15581,-39845,-16889
C00434=-24030,70544,10350,15498,-39929,-16810
C00435=-24216,69659,9894,15379,-40067,-16697
C00436=-24434,68840,9558,15236,-40238,-16564
C00437=-24698,68020,9287,15066,-40442,-16404
C00438=-25015,67219,9097,14866,-40676,-16215
C00439=-25393,66432,8972,14639,-40933,-15996
C00440=-25767,65744,8873,14424,-41158,-15785
C00441=-26189,65052,8782,14192,-41383,-15553
C00442=-26665,64422,8772,13938,-41619,-15296
C00443=-27148,63925,8851,13687,-41841,-15040
C00444=-27636,63508,8961,13441,-42044,-14786
C00445=-28104,63137,9043,13215,-42210,-14548
C00446=-28559,62789,9085,13002,-42345,-14322
C00447=-28985,62507,9139,12807,-42457,-14112
C00448=-29424,62254,9203,12610,-42562,-13899
C00449=-29854,62062,9305,12418,-42660,-13691
C00450=-30264,61949,9463,12236,-42756,-13493
C00451=-30714,61937,9742,12034,-42870,-13275
C00452=-31229,62048,10169,11803,-43002,-13026
C00453=-31801,62254,10683,11550,-43134,-12751
C00454=-32474,62630,11369,11258,-43274,-12432
C00455=-33274,63324,12368,10913,-43428,-12056
C00456=-33007,63002,12007,11022,-43405,-12177
C00457=-32164,62360,11029,11385,-43244,-12575
C00458=-31529,62042,10390,11664,-43100,-12878
C00459=-30958,61851,9867,11919,-42956,-13154
C00460=-30466,61782,9482,12141,-42824,-13393
C00461=-30038,61828,9238,12334,-42712,-13601
C00462=-29643,61971,9110,12511,-42618,-13792
C00463=-29222,62192,9036,12699,-42521,-13996
C00464=-28785,62460,8973,12898,-42410,-14210
C00465=-28346,62742,8887,13102,-42280,-14428
C00466=-27876,63092,8808,13326,-42125,-14665
C00467=-27416,63491,8742,13552,-41954,-14900
C00468=-26966,63937,8689,13779,-41766,-15135
C00469=-26526,64460,8679,14008,-41565,-15369
C00470=-26060,65100,8691,14259,-41325,-15622
C00471=-25598,65802,8696,14522,-41049,-15881
C00472=-25178,66528,8710,14775,-40763,-16125
C00473=-24791,67357,8815,15018,-40475,-16355
C00474=-24519,68157,9073,15190,-40275,-16518
C00475=-24323,68936,9442,15312,-40140,-16634
C00476=-24141,69727,9824,15429,-40004,-16744
C00477=-23954,70619,10270,15553,-39857,-16859
C00478=-23824,71450,10790,15633,-39775,-16935
C00479=-23732,72235,11365,15681,-39742,-16985
C00480=-23642,73025,11948,15727,-39712,-17032
C00481=-23572,73834,12630,15751,-39727,-17062
C00482=-23520,74604,13348,15754,-39781,-17075
C00483=-23470,75425,14158,15746,-39863,-17082
C00484=-23427,76311,15109,15720,-39995,-17077
C00485=-23375,77231,16097,15694,-40135,-17074
C00486=-23274,78322,17127,15706,-40222,-17103
C00487=-23238,78330,17042,15736,-40173,-17129
C00488=-23343,77199,15982,15723,-40088,-17098
C00489=-23409,76197,14957,15737,-39965,-17091
C00490=-23455,75306,14018,15760,-39841,-17094
C00491=-23507,74475,13208,15765,-39764,-17085
C00492=-23565,73678,12489,15755,-39723,-17066
C00493=-23617,72884,11765,15749,-39677,-17051
C00494=-23693,72101,11147,15716,-39686,-17014
C00495=-23806,71289,10619,15646,-39757,-16947
C00496=-23936,70424,10065,15567,-39835,-16872
C00497=-24089,69574,9572,15472,-39938,-16781
C00498=-24301,68733,9222,15330,-40113,-16649
C00499=-24586,67874,8984,15139,-40352,-16473
C00500=-24915,67031,8792,14929,-40603,-16275
C00501=-25264,66238,8619,14718,-40839,-16072
C00502=-25649,65489,8490,14495,-41075,-15853
C00503=-26097,64776,8436,14244,-41328,-15604
C00504=-26564,64156,8439,13992,-41568,-15351
C00505=-27027,63651,8498,13749,-41786,-15104
C00506=-27506,63202,8577,13508,-41986,-14854
C00507=-27979,62813,8657,13277,-42159,-14613
C00508=-28433,62468,8718,13062,-42303,-14385
C00509=-28867,62180,8784,12862,-42425,-14171
C00510=-29322,61934,8884,12654,-42545,-13947
C00511=-29757,61755,9017,12458,-42654,-13735
C00512=-30188,61674,9240,12262,-42770,-13525
C00513=-30672,61705,9602,12041,-42907,-13289
C00514=-31200,61824,10049,11804,-43047,-13032
C00515=-31824,62056,10617,11529,-43191,-12734
C00516=-32597,62591,11510,11191,-43363,-12366
C00517=-32311,62301,11151,11310,-43328,-12498
C00518=-31584,61898,10400,11627,-43171,-12843
C00519=-30921,61618,9730,11924,-42995,-13164
C00520=-30425,61559,9349,12148,-42861,-13406
C00521=-29931,61541,8977,12376,-42713,-13649
C00522=-29481,61632,8732,12583,-42582,-13870
C00523=-29088,61857,8666,12760,-42485,-14062
C00524=-28675,62147,8637,12948,-42381,-14264
C00525=-28229,62439,8545,13157,-42243,-14487
C00526=-27756,62794,8452,13385,-42079,-14727
C00527=-27299,63204,8389,13611,-41903,-14962
C00528=-26843,63676,8344,13843,-41708,-15200
C00529=-26374,64201,8271,14093,-41474,-15453
C00530=-25885,64840,8218,14365,-41199,-15723
C00531=-25435,65579,8255,14625,-40923,-15978
C00532=-25066,66344,8395,14844,-40684,-16190
C00533=-24738,67150,8591,15046,-40453,-16384
C00534=-24446,67996,8841,15234,-40229,-16560
C00535=-24211,68827,9153,15389,-40039,-16705
C00536=-24024,69647,9534,15514,-39890,-16820
C00537=-23866,70500,10000,15617,-39770,-16917
C00538=-23746,71356,10567,15689,-39702,-16986
C00539=-23659,72129,11130,15736,-39668,-17033
C00540=-23578,72910,11721,15776,-39645,-17075
C00541=-23518,73714,12419,15792,-39671,-17098
C00542=-23474,74487,13162,15788,-39736,-17106
C00543=-23432,75279,13962,15774,-39825,-17108
C00544=-23403,76149,14940,15734,-39980,-17091
C00545=-23338,77119,15930,15722,-40097,-17098
C00546=-23273,78143,17030,15696,-40254,-17098
C00547=-23258,78083,16953,15707,-40240,-17107
C00548=-23333,77026,15856,15723,-40101,-17100
C00549=-23356,76130,14788,15778,-39907,-17127
C00550=-23425,75204,13908,15775,-39832,-17110
C00551=-23450,74449,13093,15803,-39718,-17120
C00552=-23487,73692,12346,15814,-39643,-17118
C00553=-23545,72935,11697,15797,-39624,-17095
C00554=-23613,72179,11094,15767,-39629,-17062
C00555=-23701,71377,10506,15720,-39663,-17014
C00556=-23806,70551,9934,15660,-39716,-16956
C00557=-23934,69733,9429,15580,-39800,-16879
C00558=-24107,68919,9030,15465,-39938,-16773
C00559=-24322,68115,8720,15320,-40118,-16639
C00560=-24586,67280,8443,15147,-40325,-16478
C00561=-24895,66463,8226,14953,-40552,-16293
C00562=-25284,65646,8100,14715,-40822,-16065
C00563=-25726,64891,8061,14455,-41105,-15813
C00564=-26166,64232,8041,14210,-41353,-15569
C00565=-26581,63699,8058,13986,-41565,-15343
C00566=-27047,63210,8135,13742,-41786,-15095
C00567=-27525,62784,8238,13499,-41989,-14845
C00568=-27979,62405,8307,13278,-42154,-14614
C00569=-28421,62068,8367,13069,-42295,-14392
C00570=-28884,61795,8483,12852,-42435,-14161
C00571=-29315,61603,8632,12653,-42560,-13949
C00572=-29733,61476,8823,12461,-42681,-13743
C00573=-30187,61441,9124,12251,-42818,-13519
C00574=-30696,61490,9519,12020,-42962,-13270
C00575=-31280,61688,10087,11755,-43128,-12986
C00576=-31827,61874,10562,11515,-43250,-12725
C00577=-31533,61690,10297,11636,-43220,-12860
C00578=-31010,61498,9791,11871,-43081,-13113
C00579=-30407,61309,9198,12147,-42899,-13409
C00580=-29947,61316,8876,12358,-42764,-13634
C00581=-29470,61381,8576,12579,-42616,-13870
C00582=-29013,61545,8376,12791,-42478,-14097
C00583=-28594,61800,8288,12986,-42357,-14304
C00584=-28135,62120,8204,13202,-42212,-14534
C00585=-27649,62492,8104,13438,-42037,-14782
C00586=-27165,62911,8004,13681,-41839,-15033
C00587=-26692,63392,7924,13926,-41622,-15283
C00588=-26196,63976,7856,14194,-41365,-15553
C00589=-25758,64575,7814,14441,-41109,-15797
C00590=-25320,65319,7859,14697,-40835,-16046
C00591=-24926,66150,8000,14935,-40568,-16276
C00592=-24582,67011,8194,15153,-40311,-16482
C00593=-24285,67909,8459,15349,-40071,-16665
C00594=-24068,68755,8807,15495,-39893,-16799
C00595=-23900,69627,9276,15604,-39768,-16902
C00596=-23770,70397,9720,15689,-39671,-16981
C00597=-23653,71281,10305,15761,-39600,-17049
C00598=-23575,72112,10955,15797,-39586,-17088
C00599=-23513,72890,11597,15820,-39592,-17116
C00600=-23463,73644,12268,15829,-39625,-17133
C00601=-23415,74448,13020,15830,-39681,-17144
C00602=-23377,75237,13821,15815,-39772,-17144
C00603=-23376,76028,14815,15749,-39970,-17105
C00604=-23309,76984,15773,15740,-40076,-17116
C00605=-23241,78011,16858,15719,-40222,-17119
EC00000=-24572,-199858
EC00001=-20827,-195666
EC00002=-13656,-190927
EC00003=-7941,-185077
EC00004=-4441,-179701
EC00005=-2131,-173852
EC00006=84,-167388
EC00007=2478,-160991
EC00008=4860,-155367
EC00009=7163,-150398
EC00010=9835,-145548
EC00011=13331,-140630
EC00012=17339,-136382
EC00013=22127,-132644
EC00014=27670,-129595
EC00015=33914,-127276
EC00016=40418,-125750
EC00017=47223,-124780
EC00018=54576,-124000
EC00019=61906,-123175
EC00020=68988,-122300
EC00021=75523,-121690
EC00022=81973,-121412
EC00023=87390,-121279
EC00024=92452,-121018
EC00025=96847,-120840
EC00026=100926,-120858
EC00027=104154,-121106
EC00028=106808,-121889
EC00029=108489,-123368
EC00030=109254,-125606
EC00031=108345,-128281
EC00032=106266,-131620
EC00033=107079,-131964
EC00034=108934,-128170
EC00035=109408,-125144
EC00036=108737,-123135
EC00037=106995,-121747
EC00038=103989,-121218
EC00039=100873,-121172
EC00040=97146,-121298
EC00041=91846,-121442
EC00042=86183,-121549
EC00043=80811,-121840
EC00044=75168,-122326
EC00045=68437,-123035
EC00046=61825,-123748
EC00047=55111,-124493
EC00048=48735,-125275
EC00049=42332,-126274
EC00050=36160,-127707
EC00051=30212,-129701
EC00052=24523,-132494
EC00053=19591,-136180
EC00054=15484,-140294
EC00055=11926,-144990
EC00056=8684,-150011
EC00057=5880,-155307
EC00058=3725,-160727
EC00059=2003,-166591
EC00060=234,-172872
EC00061=-2193,-178831
EC00062=-5871,-184436
EC00063=-11541,-189867
EC00064=-20337,-196808
EC00065=-24745,-193190
EC00066=-24587,-198720
EC00067=-20151,-195565
EC00068=-11502,-190375
EC00069=-5526,-184424
EC00070=-1446,-178830
EC00071=1267,-173117
EC00072=3429,-166970
EC00073=5482,-161039
EC00074=7625,-155548
EC00075=10098,-150263
EC00076=13095,-145236
EC00077=16764,-140602
EC00078=21132,-136457
EC00079=26172,-132929
EC00080=31851,-130107
EC00081=37847,-128131
EC00082=44133,-126767
EC00083=50597,-125834
EC00084=56917,-125075
EC00085=63492,-124318
EC00086=69917,-123532
EC00087=76508,-122798
EC00088=82340,-122362
EC00089=88104,-122191
EC00090=93538,-121959
EC00091=97770,-121534
EC00092=101066,-121275
EC00093=104509,-121357
EC00094=107427,-121846
EC00095=109767,-123207
EC00096=110616,-125154
EC00097=110745,-128249
EC00098=108455,-131749
EC00099=111404,-132208
EC00100=111452,-128458
EC00101=111409,-125452
EC00102=110538,-123467
EC00103=108944,-122189
EC00104=106506,-121716
EC00105=103617,-121687
EC00106=100216,-121821
EC00107=96155,-122097
EC00108=91353,-122378
EC00109=86221,-122609
EC00110=80682,-122964
EC00111=74689,-123569
EC00112=68075,-124346
EC00113=61468,-125137
EC00114=54675,-125935
EC00115=48078,-126820
EC00116=41280,-128099
EC00117=34590,-130148
EC00118=28575,-133024
EC00119=23573,-136611
EC00120=19303,-140682
EC00121=15307,-145304
EC00122=11879,-150063
EC00123=9284,-154926
EC00124=7136,-160843
EC00125=5108,-167291
EC00126=2523,-173649
EC00127=-718,-179289
EC00128=-5118,-184889
EC00129=-11971,-191023
EC00130=-20929,-197520
EC00131=-24707,-196097
EC00132=-24341,-201107
EC00133=-19977,-197224
EC00134=-10884,-190966
EC00135=-3778,-184742
EC00136=967,-178989
EC00137=3872,-173538
EC00138=6256,-167689
EC00139=8598,-161928
EC00140=10821,-156583
EC00141=13227,-151137
EC00142=16104,-146090
EC00143=19788,-141543
EC00144=24164,-137776
EC00145=29296,-134253
EC00146=34988,-131381
EC00147=40782,-129247
EC00148=46538,-127831
EC00149=52773,-126853
EC00150=58955,-126108
EC00151=65251,-125361
EC00152=71632,-124613
EC00153=77636,-123941
EC00154=83300,-123416
EC00155=88156,-123058
EC00156=92995,-122753
EC00157=97404,-122438
EC00158=101464,-122133
EC00159=104879,-121971
EC00160=107664,-122025
EC00161=109623,-122383
EC00162=111547,-123499
EC00163=112668,-125630
EC00164=112879,-128453
EC00165=111062,-131971
EC00166=112093,-131610
EC00167=112755,-128375
EC00168=112841,-125534
EC00169=111740,-123652
EC00170=110601,-122581
EC00171=108207,-122137
EC00172=105293,-122160
EC00173=101977,-122450
EC00174=98004,-122874
EC00175=92998,-123278
EC00176=88103,-123566
EC00177=82451,-123983
EC00178=76216,-124645
EC00179=69388,-125465
EC00180=62470,-126256
EC00181=55601,-127053
EC00182=49171,-128019
EC00183=42651,-129451
EC00184=36441,-131671
EC00185=30855,-134662
EC00186=26063,-138160
EC00187=21937,-142054
EC00188=18208,-146333
EC00189=15006,-150935
EC00190=12456,-155839
EC00191=10171,-161908
EC00192=8067,-167976
EC00193=5332,-173711
EC00194=1468,-179356
EC00195=-3587,-184858
EC00196=-10374,-190669
EC00197=-19566,-196577
EC00198=-24120,-198871
EC00199=-23800,-200780
EC00200=-15995,-194991
EC00201=-7983,-189116
EC00202=-712,-183037
EC00203=3910,-177711
EC00204=7057,-172332
EC00205=9884,-166472
EC00206=12608,-160558
EC00207=15096,-154799
EC00208=17547,-150002
EC00209=20607,-145567
EC00210=24604,-141438
EC00211=29177,-137709
EC00212=34193,-134443
EC00213=39584,-131668
EC00214=45538,-129611
EC00215=52188,-128328
EC00216=58941,-127513
EC00217=65805,-126710
EC00218=72262,-125864
EC00219=78657,-125055
EC00220=84758,-124429
EC00221=90238,-124004
EC00222=94710,-123642
EC00223=99141,-123157
EC00224=103216,-122767
EC00225=106622,-122482
EC00226=109022,-122330
EC00227=111159,-122701
EC00228=113131,-123775
EC00229=114114,-125780
EC00230=114380,-128344
EC00231=114042,-131398
EC00232=114003,-131787
EC00233=115251,-128319
EC00234=114449,-125295
EC00235=113019,-123550
EC00236=111614,-122714
EC00237=109181,-122615
EC00238=106215,-122869
EC00239=102916,-123327
EC00240=98710,-123771
EC00241=93752,-124091
EC00242=88932,-124465
EC00243=83733,-125122
EC00244=77765,-125906
EC00245=71097,-126678
EC00246=64664,-127386
EC00247=58421,-128184
EC00248=52648,-129110
EC00249=46958,-130410
EC00250=41097,-132300
EC00251=35319,-135004
EC00252=30186,-138290
EC00253=25829,-142024
EC00254=22345,-145986
EC00255=19183,-150491
EC00256=16275,-155321
EC00257=13470,-160582
EC00258=10873,-166217
EC00259=8505,-171840
EC00260=5654,-176918
EC00261=1286,-181841
EC00262=-4943,-187545
EC00263=-12208,-193636
EC00264=-20516,-199373
EC00265=-17870,-197021
EC00266=-9210,-191482
EC00267=-2211,-185840
EC00268=3517,-180643
EC00269=7541,-175501
EC00270=10745,-170383
EC00271=13553,-164966
EC00272=16004,-159628
EC00273=18488,-154374
EC00274=21418,-149615
EC00275=24928,-145308
EC00276=28606,-141663
EC00277=32795,-138078
EC00278=37591,-134750
EC00279=43093,-132172
EC00280=48873,-130428
EC00281=54731,-129317
EC00282=60803,-128536
EC00283=67144,-127770
EC00284=73208,-126936
EC00285=79377,-126170
EC00286=85476,-125523
EC00287=91251,-125028
EC00288=95965,-124651
EC00289=100016,-124132
EC00290=103686,-123524
EC00291=107184,-123069
EC00292=110057,-122855
EC00293=112178,-122875
EC00294=113881,-123647
EC00295=114780,-125379
EC00296=115233,-128249
EC00297=115307,-131251
EC00298=116794,-131455
EC00299=116331,-128017
EC00300=115472,-125316
EC00301=114371,-123622
EC00302=112631,-123024
EC00303=110543,-123124
EC00304=107911,-123519
EC00305=104117,-124028
EC00306=100060,-124537
EC00307=95826,-125004
EC00308=90958,-125477
EC00309=85171,-126127
EC00310=79243,-126949
EC00311=73168,-127834
EC00312=66858,-128520
EC00313=60008,-129135
EC00314=54032,-130030
EC00315=48681,-131510
EC00316=43266,-133833
EC00317=37818,-136685
EC00318=32480,-140004
EC00319=27939,-143577
EC00320=24379,-147679
EC00321=21426,-152335
EC00322=18714,-157307
EC00323=15904,-162649
EC00324=13018,-168337
EC00325=9871,-173678
EC00326=5744,-178824
EC00327=296,-184064
EC00328=-6479,-189293
EC00329=-14776,-195742
EC00330=-10899,-193674
EC00331=-3281,-187492
EC00332=3462,-182380
EC00333=8303,-177106
EC00334=12417,-171889
EC00335=15652,-166465
EC00336=18288,-160749
EC00337=20838,-155429
EC00338=23983,-150496
EC00339=27522,-146262
EC00340=31399,-142481
EC00341=35615,-139027
EC00342=40218,-135954
EC00343=45815,-133331
EC00344=51833,-131399
EC00345=57747,-130122
EC00346=63815,-129266
EC00347=69903,-128660
EC00348=76192,-128017
EC00349=82662,-127232
EC00350=88209,-126463
EC00351=93339,-125752
EC00352=97963,-125317
EC00353=102171,-124897
EC00354=105859,-124254
EC00355=108841,-123655
EC00356=111548,-123289
EC00357=113670,-123226
EC00358=115309,-123823
EC00359=115963,-125376
EC00360=116945,-128075
EC00361=117241,-131557
EC00362=117874,-131458
EC00363=117084,-128007
EC00364=116648,-125465
EC00365=115877,-123888
EC00366=114257,-123389
EC00367=112170,-123475
EC00368=109970,-123880
EC00369=106953,-124504
EC00370=103305,-125197
EC00371=99757,-125745
EC00372=95538,-126270
EC00373=90175,-126923
EC00374=84648,-127635
EC00375=78853,-128477
EC00376=73093,-129144
EC00377=66865,-129682
EC00378=60350,-130434
EC00379=54376,-131608
EC00380=48691,-133391
EC00381=43250,-135878
EC00382=38380,-138774
EC00383=33773,-142046
EC00384=29815,-145638
EC00385=26465,-149644
EC00386=23406,-154405
EC00387=20541,-159556
EC00388=17529,-165124
EC00389=14507,-170536
EC00390=10936,-175879
EC00391=5866,-181005
EC00392=-400,-185841
EC00393=-7045,-191793
EC00394=-4626,-189416
EC00395=2421,-183868
EC00396=9107,-178581
EC00397=14087,-173320
EC00398=17552,-167375
EC00399=20376,-161448
EC00400=23452,-155992
EC00401=27021,-150970
EC00402=30702,-146550
EC00403=34631,-142739
EC00404=39337,-139316
EC00405=44399,-136401
EC00406=49718,-134048
EC00407=55447,-132284
EC00408=62069,-130933
EC00409=68595,-130083
EC00410=74371,-129472
EC00411=80408,-128737
EC00412=86296,-128003
EC00413=91901,-127307
EC00414=96682,-126591
EC00415=101055,-125973
EC00416=104968,-125500
EC00417=108339,-124820
EC00418=111078,-124018
EC00419=113803,-123749
EC00420=115474,-123796
EC00421=116191,-123909
EC00422=117301,-125685
EC00423=117234,-127744
EC00424=118202,-130966
EC00425=117675,-130950
EC00426=118610,-127965
EC00427=117545,-125584
EC00428=117282,-124221
EC00429=115917,-123638
EC00430=114256,-123949
EC00431=112081,-124433
EC00432=109206,-125001
EC00433=106066,-125738
EC00434=102631,-126368
EC00435=98366,-126967
EC00436=93773,-127686
EC00437=88639,-128488
EC00438=82985,-129214
EC00439=76810,-129887
EC00440=71133,-130492
EC00441=65131,-131337
EC00442=58782,-132595
EC00443=52711,-134125
EC00444=46942,-136246
EC00445=41794,-138978
EC00446=37181,-142314
EC00447=33151,-145911
EC00448=29306,-150106
EC00449=25858,-154969
EC00450=22836,-160244
EC00451=19579,-166006
EC00452=15733,-171891
EC00453=11212,-177244
EC00454=5589,-182438
EC00455=-1547,-187669
EC00456=776,-185547
EC00457=8527,-181143
EC00458=13745,-175871
EC00459=18267,-170430
EC00460=21937,-164672
EC00461=24994,-158910
EC00462=27945,-153837
EC00463=31406,-149311
EC00464=35339,-145325
EC00465=39611,-141809
EC00466=44521,-138639
EC00467=49691,-136166
EC00468=55075,-134203
EC00469=60654,-132701
EC00470=66967,-131444
EC00471=73665,-130738
EC00472=80203,-130456
EC00473=86730,-130036
EC00474=91772,-129214
EC00475=95817,-128139
EC00476=99841,-127259
EC00477=104190,-126721
EC00478=107556,-126133
EC00479=110264,-125294
EC00480=112938,-124637
EC00481=115095,-124178
EC00482=116672,-123876
EC00483=117837,-124207
EC00484=118083,-125799
EC00485=118222,-127580
EC00486=118736,-130800
EC00487=119677,-131120
EC00488=119097,-127789
EC00489=118767,-125485
EC00490=118259,-124239
EC00491=116973,-124011
EC00492=115164,-124387
EC00493=113377,-125028
EC00494=110957,-125844
EC00495=107775,-126557
EC00496=104368,-127225
EC00497=100677,-128014
EC00498=96076,-128764
EC00499=90475,-129540
EC00500=84569,-130281
EC00501=78815,-130875
EC00502=72927,-131470
EC00503=66537,-132356
EC00504=60304,-133633
EC00505=54495,-135408
EC00506=48867,-137635
EC00507=43692,-140467
EC00508=39105,-143853
EC00509=35029,-147521
EC00510=31028,-151838
EC00511=27524,-156695
EC00512=24336,-162292
EC00513=20788,-168420
EC00514=16769,-174124
EC00515=11675,-179300
EC00516=4834,-184274
EC00517=7366,-182283
EC00518=13806,-177899
EC00519=19337,-172491
EC00520=23061,-166898
EC00521=26826,-160974
EC00522=30359,-155657
EC00523=33466,-150894
EC00524=37060,-146718
EC00525=41390,-143212
EC00526=46348,-140140
EC00527=51438,-137459
EC00528=56869,-135353
EC00529=62877,-133785
EC00530=69565,-132726
EC00531=76161,-131957
EC00532=81966,-131375
EC00533=87541,-130814
EC00534=92957,-130060
EC00535=97764,-129146
EC00536=101959,-128298
EC00537=105835,-127532
EC00538=109059,-126880
EC00539=111704,-126075
EC00540=114288,-125207
EC00541=116302,-124634
EC00542=117745,-124281
EC00543=118866,-124278
EC00544=118896,-125610
EC00545=119363,-127575
EC00546=119071,-130383
EC00547=119649,-130216
EC00548=119563,-127567
EC00549=120203,-125677
EC00550=119061,-124316
EC00551=118308,-124425
EC00552=117036,-124779
EC00553=115037,-125479
EC00554=112736,-126347
EC00555=110048,-127072
EC00556=107080,-127897
EC00557=103748,-128802
EC00558=99762,-129593
EC00559=95234,-130461
EC00560=90157,-131314
EC00561=84743,-131875
EC00562=78489,-132325
EC00563=71888,-132989
EC00564=65769,-134072
EC00565=60344,-135472
EC00566=54630,-137427
EC00567=49130,-139897
EC00568=44296,-142819
EC00569=39915,-146175
EC00570=35610,-150109
EC00571=31903,-154438
EC00572=28659,-159650
EC00573=25256,-165436
EC00574=21314,-170883
EC00575=16660,-176533
EC00576=12230,-181162
EC00577=14946,-179874
EC00578=19052,-174671
EC00579=23986,-169142
EC00580=27437,-163664
EC00581=31167,-158022
EC00582=34926,-152928
EC00583=38586,-148705
EC00584=42964,-144883
EC00585=48015,-141619
EC00586=53419,-138859
EC00587=59080,-136639
EC00588=65456,-134940
EC00589=71498,-133895
EC00590=77938,-133104
EC00591=84192,-132490
EC00592=90125,-131953
EC00593=95739,-131313
EC00594=100327,-130390
EC00595=104305,-129303
EC00596=107631,-128469
EC00597=110941,-127654
EC00598=113481,-126732
EC00599=115704,-125781
EC00600=117534,-125055
EC00601=119196,-124565
EC00602=120243,-124636
EC00603=119680,-125616
EC00604=120284,-127493
EC00605=120296,-129958
//INST
///DATE 2023/04/28 12:26
///ATTR SC,RW
///GROUP1 RB1
///GROUP2 ST1
NOP
MOVL C00000 V=10.0 +MOVJ EC00000
ARCON ASF#(140)
MOVL C00001 V=48.8 +MOVJ EC00001
MOVL C00002 V=54.2 +MOVJ EC00002
MOVL C00003 V=46.1 +MOVJ EC00003
MOVL C00004 V=32.3 +MOVJ EC00004
MOVL C00005 V=25.7 +MOVJ EC00005
MOVL C00006 V=25.5 +MOVJ EC00006
MOVL C00007 V=25.5 +MOVJ EC00007
MOVL C00008 V=24.7 +MOVJ EC00008
MOVL C00009 V=24.2 +MOVJ EC00009
MOVL C00010 V=25.3 +MOVJ EC00010
MOVL C00011 V=27.6 +MOVJ EC00011
MOVL C00012 V=30.2 +MOVJ EC00012
MOVL C00013 V=32.8 +MOVJ EC00013
MOVL C00014 V=35.4 +MOVJ EC00014
MOVL C00015 V=37.5 +MOVJ EC00015
MOVL C00016 V=39.0 +MOVJ EC00016
MOVL C00017 V=40.4 +MOVJ EC00017
MOVL C00018 V=41.9 +MOVJ EC00018
MOVL C00019 V=42.6 +MOVJ EC00019
MOVL C00020 V=39.6 +MOVJ EC00020
MOVL C00021 V=37.5 +MOVJ EC00021
MOVL C00022 V=36.4 +MOVJ EC00022
MOVL C00023 V=33.8 +MOVJ EC00023
MOVL C00024 V=29.2 +MOVJ EC00024
MOVL C00025 V=26.7 +MOVJ EC00025
MOVL C00026 V=26.2 +MOVJ EC00026
MOVL C00027 V=23.7 +MOVJ EC00027
MOVL C00028 V=21.8 +MOVJ EC00028
MOVL C00029 V=21.2 +MOVJ EC00029
MOVL C00030 V=20.4 +MOVJ EC00030
MOVL C00031 V=19.1 +MOVJ EC00031
MOVL C00032 V=20.8 +MOVJ EC00032
ARCOF
MOVL C00033 V=10.0 +MOVJ EC00033
ARCON ASF#(140)
MOVL C00034 V=20.1 +MOVJ EC00034
MOVL C00035 V=19.7 +MOVJ EC00035
MOVL C00036 V=19.4 +MOVJ EC00036
MOVL C00037 V=20.4 +MOVJ EC00037
MOVL C00038 V=22.6 +MOVJ EC00038
MOVL C00039 V=21.9 +MOVJ EC00039
MOVL C00040 V=25.3 +MOVJ EC00040
MOVL C00041 V=30.6 +MOVJ EC00041
MOVL C00042 V=31.9 +MOVJ EC00042
MOVL C00043 V=32.0 +MOVJ EC00043
MOVL C00044 V=34.8 +MOVJ EC00044
MOVL C00045 V=38.4 +MOVJ EC00045
MOVL C00046 V=41.2 +MOVJ EC00046
MOVL C00047 V=41.1 +MOVJ EC00047
MOVL C00048 V=40.6 +MOVJ EC00048
MOVL C00049 V=39.2 +MOVJ EC00049
MOVL C00050 V=39.2 +MOVJ EC00050
MOVL C00051 V=38.2 +MOVJ EC00051
MOVL C00052 V=36.7 +MOVJ EC00052
MOVL C00053 V=33.7 +MOVJ EC00053
MOVL C00054 V=30.3 +MOVJ EC00054
MOVL C00055 V=28.1 +MOVJ EC00055
MOVL C00056 V=27.0 +MOVJ EC00056
MOVL C00057 V=26.0 +MOVJ EC00057
MOVL C00058 V=24.2 +MOVJ EC00058
MOVL C00059 V=22.5 +MOVJ EC00059
MOVL C00060 V=22.9 +MOVJ EC00060
MOVL C00061 V=26.8 +MOVJ EC00061
MOVL C00062 V=33.3 +MOVJ EC00062
MOVL C00063 V=44.1 +MOVJ EC00063
MOVL C00064 V=64.4 +MOVJ EC00064
MOVL C00065 V=56.4 +MOVJ EC00065
ARCOF
MOVL C00066 V=10.0 +MOVJ EC00066
ARCON ASF#(140)
MOVL C00067 V=53.8 +MOVJ EC00067
MOVL C00068 V=60.0 +MOVJ EC00068
MOVL C00069 V=46.7 +MOVJ EC00069
MOVL C00070 V=35.7 +MOVJ EC00070
MOVL C00071 V=28.0 +MOVJ EC00071
MOVL C00072 V=24.9 +MOVJ EC00072
MOVL C00073 V=24.4 +MOVJ EC00073
MOVL C00074 V=24.3 +MOVJ EC00074
MOVL C00075 V=24.2 +MOVJ EC00075
MOVL C00076 V=25.7 +MOVJ EC00076
MOVL C00077 V=28.7 +MOVJ EC00077
MOVL C00078 V=31.7 +MOVJ EC00078
MOVL C00079 V=34.3 +MOVJ EC00079
MOVL C00080 V=36.7 +MOVJ EC00080
MOVL C00081 V=38.4 +MOVJ EC00081
MOVL C00082 V=39.9 +MOVJ EC00082
MOVL C00083 V=39.7 +MOVJ EC00083
MOVL C00084 V=40.2 +MOVJ EC00084
MOVL C00085 V=40.4 +MOVJ EC00085
MOVL C00086 V=40.1 +MOVJ EC00086
MOVL C00087 V=37.6 +MOVJ EC00087
MOVL C00088 V=36.0 +MOVJ EC00088
MOVL C00089 V=34.3 +MOVJ EC00089
MOVL C00090 V=30.8 +MOVJ EC00090
MOVL C00091 V=25.2 +MOVJ EC00091
MOVL C00092 V=23.0 +MOVJ EC00092
MOVL C00093 V=23.3 +MOVJ EC00093
MOVL C00094 V=22.1 +MOVJ EC00094
MOVL C00095 V=22.1 +MOVJ EC00095
MOVL C00096 V=19.9 +MOVJ EC00096
MOVL C00097 V=20.7 +MOVJ EC00097
MOVL C00098 V=20.8 +MOVJ EC00098
ARCOF
MOVL C00099 V=10.0 +MOVJ EC00099
ARCON ASF#(140)
MOVL C00100 V=25.2 +MOVJ EC00100
MOVL C00101 V=21.0 +MOVJ EC00101
MOVL C00102 V=20.1 +MOVJ EC00102
MOVL C00103 V=20.6 +MOVJ EC00103
MOVL C00104 V=21.1 +MOVJ EC00104
MOVL C00105 V=21.3 +MOVJ EC00105
MOVL C00106 V=23.5 +MOVJ EC00106
MOVL C00107 V=26.5 +MOVJ EC00107
MOVL C00108 V=28.9 +MOVJ EC00108
MOVL C00109 V=30.9 +MOVJ EC00109
MOVL C00110 V=34.0 +MOVJ EC00110
MOVL C00111 V=37.1 +MOVJ EC00111
MOVL C00112 V=38.8 +MOVJ EC00112
MOVL C00113 V=39.5 +MOVJ EC00113
MOVL C00114 V=39.9 +MOVJ EC00114
MOVL C00115 V=40.1 +MOVJ EC00115
MOVL C00116 V=39.5 +MOVJ EC00116
MOVL C00117 V=38.6 +MOVJ EC00117
MOVL C00118 V=36.5 +MOVJ EC00118
MOVL C00119 V=33.3 +MOVJ EC00119
MOVL C00120 V=30.8 +MOVJ EC00120
MOVL C00121 V=29.3 +MOVJ EC00121
MOVL C00122 V=28.5 +MOVJ EC00122
MOVL C00123 V=26.1 +MOVJ EC00123
MOVL C00124 V=23.4 +MOVJ EC00124
MOVL C00125 V=22.9 +MOVJ EC00125
MOVL C00126 V=26.4 +MOVJ EC00126
MOVL C00127 V=30.4 +MOVJ EC00127
MOVL C00128 V=37.0 +MOVJ EC00128
MOVL C00129 V=51.1 +MOVJ EC00129
MOVL C00130 V=66.4 +MOVJ EC00130
MOVL C00131 V=52.7 +MOVJ EC00131
ARCOF
MOVL C00132 V=10.0 +MOVJ EC00132
ARCON ASF#(140)
MOVL C00133 V=59.5 +MOVJ EC00133
MOVL C00134 V=64.5 +MOVJ EC00134
MOVL C00135 V=54.1 +MOVJ EC00135
MOVL C00136 V=39.7 +MOVJ EC00136
MOVL C00137 V=28.8 +MOVJ EC00137
MOVL C00138 V=25.8 +MOVJ EC00138
MOVL C00139 V=25.8 +MOVJ EC00139
MOVL C00140 V=25.3 +MOVJ EC00140
MOVL C00141 V=24.1 +MOVJ EC00141
MOVL C00142 V=25.2 +MOVJ EC00142
MOVL C00143 V=28.6 +MOVJ EC00143
MOVL C00144 V=32.5 +MOVJ EC00144
MOVL C00145 V=35.2 +MOVJ EC00145
MOVL C00146 V=36.6 +MOVJ EC00146
MOVL C00147 V=37.4 +MOVJ EC00147
MOVL C00148 V=38.4 +MOVJ EC00148
MOVL C00149 V=38.5 +MOVJ EC00149
MOVL C00150 V=39.2 +MOVJ EC00150
MOVL C00151 V=40.7 +MOVJ EC00151
MOVL C00152 V=40.0 +MOVJ EC00152
MOVL C00153 V=38.2 +MOVJ EC00153
MOVL C00154 V=34.8 +MOVJ EC00154
MOVL C00155 V=32.5 +MOVJ EC00155
MOVL C00156 V=30.6 +MOVJ EC00156
MOVL C00157 V=28.3 +MOVJ EC00157
MOVL C00158 V=25.7 +MOVJ EC00158
MOVL C00159 V=24.0 +MOVJ EC00159
MOVL C00160 V=21.6 +MOVJ EC00160
MOVL C00161 V=19.3 +MOVJ EC00161
MOVL C00162 V=20.8 +MOVJ EC00162
MOVL C00163 V=21.4 +MOVJ EC00163
MOVL C00164 V=20.6 +MOVJ EC00164
MOVL C00165 V=20.1 +MOVJ EC00165
ARCOF
MOVL C00166 V=10.0 +MOVJ EC00166
ARCON ASF#(140)
MOVL C00167 V=21.4 +MOVJ EC00167
MOVL C00168 V=20.6 +MOVJ EC00168
MOVL C00169 V=20.7 +MOVJ EC00169
MOVL C00170 V=18.9 +MOVJ EC00170
MOVL C00171 V=20.3 +MOVJ EC00171
MOVL C00172 V=21.8 +MOVJ EC00172
MOVL C00173 V=22.4 +MOVJ EC00173
MOVL C00174 V=24.6 +MOVJ EC00174
MOVL C00175 V=28.2 +MOVJ EC00175
MOVL C00176 V=31.2 +MOVJ EC00176
MOVL C00177 V=33.5 +MOVJ EC00177
MOVL C00178 V=36.2 +MOVJ EC00178
MOVL C00179 V=38.7 +MOVJ EC00179
MOVL C00180 V=40.6 +MOVJ EC00180
MOVL C00181 V=39.6 +MOVJ EC00181
MOVL C00182 V=38.8 +MOVJ EC00182
MOVL C00183 V=38.1 +MOVJ EC00183
MOVL C00184 V=37.6 +MOVJ EC00184
MOVL C00185 V=35.9 +MOVJ EC00185
MOVL C00186 V=33.0 +MOVJ EC00186
MOVL C00187 V=30.7 +MOVJ EC00187
MOVL C00188 V=29.2 +MOVJ EC00188
MOVL C00189 V=28.1 +MOVJ EC00189
MOVL C00190 V=26.1 +MOVJ EC00190
MOVL C00191 V=23.9 +MOVJ EC00191
MOVL C00192 V=23.6 +MOVJ EC00192
MOVL C00193 V=27.3 +MOVJ EC00193
MOVL C00194 V=34.4 +MOVJ EC00194
MOVL C00195 V=42.0 +MOVJ EC00195
MOVL C00196 V=52.3 +MOVJ EC00196
MOVL C00197 V=69.4 +MOVJ EC00197
MOVL C00198 V=65.5 +MOVJ EC00198
ARCOF
MOVL C00199 V=10.0 +MOVJ EC00199
ARCON ASF#(140)
MOVL C00200 V=61.9 +MOVJ EC00200
MOVL C00201 V=62.5 +MOVJ EC00201
MOVL C00202 V=56.3 +MOVJ EC00202
MOVL C00203 V=39.4 +MOVJ EC00203
MOVL C00204 V=29.8 +MOVJ EC00204
MOVL C00205 V=28.2 +MOVJ EC00205
MOVL C00206 V=26.8 +MOVJ EC00206
MOVL C00207 V=25.3 +MOVJ EC00207
MOVL C00208 V=24.9 +MOVJ EC00208
MOVL C00209 V=27.0 +MOVJ EC00209
MOVL C00210 V=30.6 +MOVJ EC00210
MOVL C00211 V=33.3 +MOVJ EC00211
MOVL C00212 V=34.1 +MOVJ EC00212
MOVL C00213 V=34.7 +MOVJ EC00213
MOVL C00214 V=36.6 +MOVJ EC00214
MOVL C00215 V=39.1 +MOVJ EC00215
MOVL C00216 V=40.9 +MOVJ EC00216
MOVL C00217 V=39.9 +MOVJ EC00217
MOVL C00218 V=38.4 +MOVJ EC00218
MOVL C00219 V=36.8 +MOVJ EC00219
MOVL C00220 V=35.8 +MOVJ EC00220
MOVL C00221 V=33.0 +MOVJ EC00221
MOVL C00222 V=29.1 +MOVJ EC00222
MOVL C00223 V=26.3 +MOVJ EC00223
MOVL C00224 V=25.3 +MOVJ EC00224
MOVL C00225 V=23.0 +MOVJ EC00225
MOVL C00226 V=19.6 +MOVJ EC00226
MOVL C00227 V=19.4 +MOVJ EC00227
MOVL C00228 V=21.4 +MOVJ EC00228
MOVL C00229 V=20.8 +MOVJ EC00229
MOVL C00230 V=20.8 +MOVJ EC00230
MOVL C00231 V=21.2 +MOVJ EC00231
ARCOF
MOVL C00232 V=10.0 +MOVJ EC00232
ARCON ASF#(140)
MOVL C00233 V=21.0 +MOVJ EC00233
MOVL C00234 V=22.6 +MOVJ EC00234
MOVL C00235 V=20.9 +MOVJ EC00235
MOVL C00236 V=18.5 +MOVJ EC00236
MOVL C00237 V=19.7 +MOVJ EC00237
MOVL C00238 V=20.8 +MOVJ EC00238
MOVL C00239 V=21.7 +MOVJ EC00239
MOVL C00240 V=26.0 +MOVJ EC00240
MOVL C00241 V=30.1 +MOVJ EC00241
MOVL C00242 V=30.0 +MOVJ EC00242
MOVL C00243 V=30.7 +MOVJ EC00243
MOVL C00244 V=35.0 +MOVJ EC00244
MOVL C00245 V=39.5 +MOVJ EC00245
MOVL C00246 V=40.3 +MOVJ EC00246
MOVL C00247 V=38.0 +MOVJ EC00247
MOVL C00248 V=37.4 +MOVJ EC00248
MOVL C00249 V=37.7 +MOVJ EC00249
MOVL C00250 V=38.0 +MOVJ EC00250
MOVL C00251 V=37.4 +MOVJ EC00251
MOVL C00252 V=35.1 +MOVJ EC00252
MOVL C00253 V=31.7 +MOVJ EC00253
MOVL C00254 V=29.0 +MOVJ EC00254
MOVL C00255 V=27.1 +MOVJ EC00255
MOVL C00256 V=27.7 +MOVJ EC00256
MOVL C00257 V=28.1 +MOVJ EC00257
MOVL C00258 V=27.4 +MOVJ EC00258
MOVL C00259 V=25.7 +MOVJ EC00259
MOVL C00260 V=29.2 +MOVJ EC00260
MOVL C00261 V=39.9 +MOVJ EC00261
MOVL C00262 V=51.5 +MOVJ EC00262
MOVL C00263 V=60.4 +MOVJ EC00263
MOVL C00264 V=63.6 +MOVJ EC00264
ARCOF
MOVL C00265 V=10.0 +MOVJ EC00265
ARCON ASF#(140)
MOVL C00266 V=66.5 +MOVJ EC00266
MOVL C00267 V=58.3 +MOVJ EC00267
MOVL C00268 V=47.7 +MOVJ EC00268
MOVL C00269 V=38.2 +MOVJ EC00269
MOVL C00270 V=31.7 +MOVJ EC00270
MOVL C00271 V=28.1 +MOVJ EC00271
MOVL C00272 V=26.2 +MOVJ EC00272
MOVL C00273 V=26.2 +MOVJ EC00273
MOVL C00274 V=27.9 +MOVJ EC00274
MOVL C00275 V=29.0 +MOVJ EC00275
MOVL C00276 V=29.9 +MOVJ EC00276
MOVL C00277 V=30.9 +MOVJ EC00277
MOVL C00278 V=33.2 +MOVJ EC00278
MOVL C00279 V=36.0 +MOVJ EC00279
MOVL C00280 V=37.9 +MOVJ EC00280
MOVL C00281 V=39.0 +MOVJ EC00281
MOVL C00282 V=39.4 +MOVJ EC00282
MOVL C00283 V=38.9 +MOVJ EC00283
MOVL C00284 V=38.4 +MOVJ EC00284
MOVL C00285 V=37.0 +MOVJ EC00285
MOVL C00286 V=36.1 +MOVJ EC00286
MOVL C00287 V=34.2 +MOVJ EC00287
MOVL C00288 V=29.8 +MOVJ EC00288
MOVL C00289 V=25.4 +MOVJ EC00289
MOVL C00290 V=23.4 +MOVJ EC00290
MOVL C00291 V=22.7 +MOVJ EC00291
MOVL C00292 V=20.6 +MOVJ EC00292
MOVL C00293 V=18.6 +MOVJ EC00293
MOVL C00294 V=19.2 +MOVJ EC00294
MOVL C00295 V=19.7 +MOVJ EC00295
MOVL C00296 V=21.4 +MOVJ EC00296
MOVL C00297 V=21.5 +MOVJ EC00297
ARCOF
MOVL C00298 V=10.0 +MOVJ EC00298
ARCON ASF#(140)
MOVL C00299 V=22.8 +MOVJ EC00299
MOVL C00300 V=21.6 +MOVJ EC00300
MOVL C00301 V=19.8 +MOVJ EC00301
MOVL C00302 V=18.8 +MOVJ EC00302
MOVL C00303 V=18.1 +MOVJ EC00303
MOVL C00304 V=19.2 +MOVJ EC00304
MOVL C00305 V=23.5 +MOVJ EC00305
MOVL C00306 V=25.5 +MOVJ EC00306
MOVL C00307 V=26.2 +MOVJ EC00307
MOVL C00308 V=29.6 +MOVJ EC00308
MOVL C00309 V=33.5 +MOVJ EC00309
MOVL C00310 V=34.6 +MOVJ EC00310
MOVL C00311 V=35.9 +MOVJ EC00311
MOVL C00312 V=39.2 +MOVJ EC00312
MOVL C00313 V=41.1 +MOVJ EC00313
MOVL C00314 V=39.6 +MOVJ EC00314
MOVL C00315 V=36.0 +MOVJ EC00315
MOVL C00316 V=33.8 +MOVJ EC00316
MOVL C00317 V=35.4 +MOVJ EC00317
MOVL C00318 V=36.2 +MOVJ EC00318
MOVL C00319 V=33.1 +MOVJ EC00319
MOVL C00320 V=28.7 +MOVJ EC00320
MOVL C00321 V=26.4 +MOVJ EC00321
MOVL C00322 V=27.3 +MOVJ EC00322
MOVL C00323 V=27.9 +MOVJ EC00323
MOVL C00324 V=28.2 +MOVJ EC00324
MOVL C00325 V=30.6 +MOVJ EC00325
MOVL C00326 V=38.0 +MOVJ EC00326
MOVL C00327 V=44.7 +MOVJ EC00327
MOVL C00328 V=54.3 +MOVJ EC00328
MOVL C00329 V=66.7 +MOVJ EC00329
ARCOF
MOVL C00330 V=10.0 +MOVJ EC00330
ARCON ASF#(140)
MOVL C00331 V=60.2 +MOVJ EC00331
MOVL C00332 V=52.9 +MOVJ EC00332
MOVL C00333 V=40.9 +MOVJ EC00333
MOVL C00334 V=37.2 +MOVJ EC00334
MOVL C00335 V=31.3 +MOVJ EC00335
MOVL C00336 V=26.7 +MOVJ EC00336
MOVL C00337 V=25.9 +MOVJ EC00337
MOVL C00338 V=28.1 +MOVJ EC00338
MOVL C00339 V=29.9 +MOVJ EC00339
MOVL C00340 V=30.6 +MOVJ EC00340
MOVL C00341 V=30.8 +MOVJ EC00341
MOVL C00342 V=33.0 +MOVJ EC00342
MOVL C00343 V=36.0 +MOVJ EC00343
MOVL C00344 V=38.7 +MOVJ EC00344
MOVL C00345 V=38.5 +MOVJ EC00345
MOVL C00346 V=37.4 +MOVJ EC00346
MOVL C00347 V=38.4 +MOVJ EC00347
MOVL C00348 V=39.3 +MOVJ EC00348
MOVL C00349 V=38.4 +MOVJ EC00349
MOVL C00350 V=34.1 +MOVJ EC00350
MOVL C00351 V=30.2 +MOVJ EC00351
MOVL C00352 V=28.9 +MOVJ EC00352
MOVL C00353 V=26.8 +MOVJ EC00353
MOVL C00354 V=23.2 +MOVJ EC00354
MOVL C00355 V=20.5 +MOVJ EC00355
MOVL C00356 V=19.6 +MOVJ EC00356
MOVL C00357 V=18.6 +MOVJ EC00357
MOVL C00358 V=18.8 +MOVJ EC00358
MOVL C00359 V=18.8 +MOVJ EC00359
MOVL C00360 V=22.4 +MOVJ EC00360
MOVL C00361 V=22.7 +MOVJ EC00361
ARCOF
MOVL C00362 V=10.0 +MOVJ EC00362
ARCON ASF#(140)
MOVL C00363 V=24.4 +MOVJ EC00363
MOVL C00364 V=21.0 +MOVJ EC00364
MOVL C00365 V=19.1 +MOVJ EC00365
MOVL C00366 V=18.6 +MOVJ EC00366
MOVL C00367 V=18.5 +MOVJ EC00367
MOVL C00368 V=17.9 +MOVJ EC00368
MOVL C00369 V=20.8 +MOVJ EC00369
MOVL C00370 V=23.1 +MOVJ EC00370
MOVL C00371 V=23.6 +MOVJ EC00371
MOVL C00372 V=26.9 +MOVJ EC00372
MOVL C00373 V=31.8 +MOVJ EC00373
MOVL C00374 V=34.4 +MOVJ EC00374
MOVL C00375 V=35.0 +MOVJ EC00375
MOVL C00376 V=36.4 +MOVJ EC00376
MOVL C00377 V=39.6 +MOVJ EC00377
MOVL C00378 V=40.3 +MOVJ EC00378
MOVL C00379 V=39.2 +MOVJ EC00379
MOVL C00380 V=37.0 +MOVJ EC00380
MOVL C00381 V=35.3 +MOVJ EC00381
MOVL C00382 V=34.7 +MOVJ EC00382
MOVL C00383 V=32.9 +MOVJ EC00383
MOVL C00384 V=31.1 +MOVJ EC00384
MOVL C00385 V=28.7 +MOVJ EC00385
MOVL C00386 V=27.5 +MOVJ EC00386
MOVL C00387 V=27.6 +MOVJ EC00387
MOVL C00388 V=28.9 +MOVJ EC00388
MOVL C00389 V=30.1 +MOVJ EC00389
MOVL C00390 V=34.1 +MOVJ EC00390
MOVL C00391 V=42.5 +MOVJ EC00391
MOVL C00392 V=50.1 +MOVJ EC00392
MOVL C00393 V=53.7 +MOVJ EC00393
ARCOF
MOVL C00394 V=10.0 +MOVJ EC00394
ARCON ASF#(140)
MOVL C00395 V=53.9 +MOVJ EC00395
MOVL C00396 V=48.5 +MOVJ EC00396
MOVL C00397 V=39.3 +MOVJ EC00397
MOVL C00398 V=31.5 +MOVJ EC00398
MOVL C00399 V=27.5 +MOVJ EC00399
MOVL C00400 V=28.6 +MOVJ EC00400
MOVL C00401 V=29.3 +MOVJ EC00401
MOVL C00402 V=29.0 +MOVJ EC00402
MOVL C00403 V=30.6 +MOVJ EC00403
MOVL C00404 V=32.9 +MOVJ EC00404
MOVL C00405 V=34.9 +MOVJ EC00405
MOVL C00406 V=36.2 +MOVJ EC00406
MOVL C00407 V=37.4 +MOVJ EC00407
MOVL C00408 V=39.0 +MOVJ EC00408
MOVL C00409 V=38.8 +MOVJ EC00409
MOVL C00410 V=37.3 +MOVJ EC00410
MOVL C00411 V=36.0 +MOVJ EC00411
MOVL C00412 V=36.0 +MOVJ EC00412
MOVL C00413 V=34.0 +MOVJ EC00413
MOVL C00414 V=29.9 +MOVJ EC00414
MOVL C00415 V=26.2 +MOVJ EC00415
MOVL C00416 V=25.0 +MOVJ EC00416
MOVL C00417 V=22.0 +MOVJ EC00417
MOVL C00418 V=19.4 +MOVJ EC00418
MOVL C00419 V=20.0 +MOVJ EC00419
MOVL C00420 V=17.9 +MOVJ EC00420
MOVL C00421 V=16.2 +MOVJ EC00421
MOVL C00422 V=20.6 +MOVJ EC00422
MOVL C00423 V=19.4 +MOVJ EC00423
MOVL C00424 V=25.5 +MOVJ EC00424
ARCOF
MOVL C00425 V=10.0 +MOVJ EC00425
ARCON ASF#(140)
MOVL C00426 V=20.4 +MOVJ EC00426
MOVL C00427 V=22.3 +MOVJ EC00427
MOVL C00428 V=18.3 +MOVJ EC00428
MOVL C00429 V=18.3 +MOVJ EC00429
MOVL C00430 V=16.9 +MOVJ EC00430
MOVL C00431 V=17.8 +MOVJ EC00431
MOVL C00432 V=20.5 +MOVJ EC00432
MOVL C00433 V=21.1 +MOVJ EC00433
MOVL C00434 V=22.7 +MOVJ EC00434
MOVL C00435 V=26.0 +MOVJ EC00435
MOVL C00436 V=29.1 +MOVJ EC00436
MOVL C00437 V=31.6 +MOVJ EC00437
MOVL C00438 V=34.8 +MOVJ EC00438
MOVL C00439 V=37.2 +MOVJ EC00439
MOVL C00440 V=37.1 +MOVJ EC00440
MOVL C00441 V=36.3 +MOVJ EC00441
MOVL C00442 V=37.8 +MOVJ EC00442
MOVL C00443 V=39.9 +MOVJ EC00443
MOVL C00444 V=39.0 +MOVJ EC00444
MOVL C00445 V=35.6 +MOVJ EC00445
MOVL C00446 V=32.3 +MOVJ EC00446
MOVL C00447 V=31.2 +MOVJ EC00447
MOVL C00448 V=29.8 +MOVJ EC00448
MOVL C00449 V=28.6 +MOVJ EC00449
MOVL C00450 V=28.1 +MOVJ EC00450
MOVL C00451 V=30.0 +MOVJ EC00451
MOVL C00452 V=33.7 +MOVJ EC00452
MOVL C00453 V=37.1 +MOVJ EC00453
MOVL C00454 V=42.7 +MOVJ EC00454
MOVL C00455 V=54.3 +MOVJ EC00455
ARCOF
MOVL C00456 V=10.0 +MOVJ EC00456
ARCON ASF#(140)
MOVL C00457 V=57.2 +MOVJ EC00457
MOVL C00458 V=40.9 +MOVJ EC00458
MOVL C00459 V=37.5 +MOVJ EC00459
MOVL C00460 V=32.8 +MOVJ EC00460
MOVL C00461 V=28.9 +MOVJ EC00461
MOVL C00462 V=27.6 +MOVJ EC00462
MOVL C00463 V=28.5 +MOVJ EC00463
MOVL C00464 V=30.2 +MOVJ EC00464
MOVL C00465 V=32.7 +MOVJ EC00465
MOVL C00466 V=34.1 +MOVJ EC00466
MOVL C00467 V=35.7 +MOVJ EC00467
MOVL C00468 V=37.0 +MOVJ EC00468
MOVL C00469 V=37.1 +MOVJ EC00469
MOVL C00470 V=37.9 +MOVJ EC00470
MOVL C00471 V=40.7 +MOVJ EC00471
MOVL C00472 V=42.8 +MOVJ EC00472
MOVL C00473 V=39.7 +MOVJ EC00473
MOVL C00474 V=31.7 +MOVJ EC00474
MOVL C00475 V=25.9 +MOVJ EC00475
MOVL C00476 V=26.1 +MOVJ EC00476
MOVL C00477 V=26.7 +MOVJ EC00477
MOVL C00478 V=22.6 +MOVJ EC00478
MOVL C00479 V=19.3 +MOVJ EC00479
MOVL C00480 V=19.6 +MOVJ EC00480
MOVL C00481 V=17.9 +MOVJ EC00481
MOVL C00482 V=16.8 +MOVJ EC00482
MOVL C00483 V=17.4 +MOVJ EC00483
MOVL C00484 V=18.8 +MOVJ EC00484
MOVL C00485 V=19.2 +MOVJ EC00485
MOVL C00486 V=23.8 +MOVJ EC00486
ARCOF
MOVL C00487 V=10.0 +MOVJ EC00487
ARCON ASF#(140)
MOVL C00488 V=23.9 +MOVJ EC00488
MOVL C00489 V=20.4 +MOVJ EC00489
MOVL C00490 V=18.3 +MOVJ EC00490
MOVL C00491 V=17.3 +MOVJ EC00491
MOVL C00492 V=17.1 +MOVJ EC00492
MOVL C00493 V=16.3 +MOVJ EC00493
MOVL C00494 V=18.2 +MOVJ EC00494
MOVL C00495 V=21.7 +MOVJ EC00495
MOVL C00496 V=22.0 +MOVJ EC00496
MOVL C00497 V=23.4 +MOVJ EC00497
MOVL C00498 V=28.9 +MOVJ EC00498
MOVL C00499 V=33.9 +MOVJ EC00499
MOVL C00500 V=35.3 +MOVJ EC00500
MOVL C00501 V=35.3 +MOVJ EC00501
MOVL C00502 V=36.4 +MOVJ EC00502
MOVL C00503 V=38.0 +MOVJ EC00503
MOVL C00504 V=38.3 +MOVJ EC00504
MOVL C00505 V=38.3 +MOVJ EC00505
MOVL C00506 V=37.3 +MOVJ EC00506
MOVL C00507 V=35.2 +MOVJ EC00507
MOVL C00508 V=32.5 +MOVJ EC00508
MOVL C00509 V=31.2 +MOVJ EC00509
MOVL C00510 V=30.5 +MOVJ EC00510
MOVL C00511 V=29.2 +MOVJ EC00511
MOVL C00512 V=29.1 +MOVJ EC00512
MOVL C00513 V=31.4 +MOVJ EC00513
MOVL C00514 V=34.1 +MOVJ EC00514
MOVL C00515 V=38.8 +MOVJ EC00515
MOVL C00516 V=51.5 +MOVJ EC00516
ARCOF
MOVL C00517 V=10.0 +MOVJ EC00517
ARCON ASF#(140)
MOVL C00518 V=48.5 +MOVJ EC00518
MOVL C00519 V=42.3 +MOVJ EC00519
MOVL C00520 V=32.3 +MOVJ EC00520
MOVL C00521 V=32.6 +MOVJ EC00521
MOVL C00522 V=30.9 +MOVJ EC00522
MOVL C00523 V=26.9 +MOVJ EC00523
MOVL C00524 V=28.2 +MOVJ EC00524
MOVL C00525 V=32.7 +MOVJ EC00525
MOVL C00526 V=34.7 +MOVJ EC00526
MOVL C00527 V=35.0 +MOVJ EC00527
MOVL C00528 V=36.3 +MOVJ EC00528
MOVL C00529 V=39.7 +MOVJ EC00529
MOVL C00530 V=41.4 +MOVJ EC00530
MOVL C00531 V=39.5 +MOVJ EC00531
MOVL C00532 V=36.4 +MOVJ EC00532
MOVL C00533 V=34.8 +MOVJ EC00533
MOVL C00534 V=32.9 +MOVJ EC00534
MOVL C00535 V=29.8 +MOVJ EC00535
MOVL C00536 V=26.9 +MOVJ EC00536
MOVL C00537 V=24.5 +MOVJ EC00537
MOVL C00538 V=21.4 +MOVJ EC00538
MOVL C00539 V=19.3 +MOVJ EC00539
MOVL C00540 V=18.7 +MOVJ EC00540
MOVL C00541 V=17.2 +MOVJ EC00541
MOVL C00542 V=16.3 +MOVJ EC00542
MOVL C00543 V=16.5 +MOVJ EC00543
MOVL C00544 V=18.1 +MOVJ EC00544
MOVL C00545 V=19.9 +MOVJ EC00545
MOVL C00546 V=21.8 +MOVJ EC00546
ARCOF
MOVL C00547 V=10.0 +MOVJ EC00547
ARCON ASF#(140)
MOVL C00548 V=21.2 +MOVJ EC00548
MOVL C00549 V=19.2 +MOVJ EC00549
MOVL C00550 V=19.9 +MOVJ EC00550
MOVL C00551 V=15.9 +MOVJ EC00551
MOVL C00552 V=16.1 +MOVJ EC00552
MOVL C00553 V=17.0 +MOVJ EC00553
MOVL C00554 V=17.7 +MOVJ EC00554
MOVL C00555 V=19.4 +MOVJ EC00555
MOVL C00556 V=20.1 +MOVJ EC00556
MOVL C00557 V=21.9 +MOVJ EC00557
MOVL C00558 V=26.2 +MOVJ EC00558
MOVL C00559 V=29.5 +MOVJ EC00559
MOVL C00560 V=31.4 +MOVJ EC00560
MOVL C00561 V=34.2 +MOVJ EC00561
MOVL C00562 V=38.1 +MOVJ EC00562
MOVL C00563 V=40.1 +MOVJ EC00563
MOVL C00564 V=38.4 +MOVJ EC00564
MOVL C00565 V=37.9 +MOVJ EC00565
MOVL C00566 V=38.4 +MOVJ EC00566
MOVL C00567 V=37.4 +MOVJ EC00567
MOVL C00568 V=34.1 +MOVJ EC00568
MOVL C00569 V=32.1 +MOVJ EC00569
MOVL C00570 V=32.1 +MOVJ EC00570
MOVL C00571 V=31.1 +MOVJ EC00571
MOVL C00572 V=29.2 +MOVJ EC00572
MOVL C00573 V=30.5 +MOVJ EC00573
MOVL C00574 V=33.6 +MOVJ EC00574
MOVL C00575 V=37.9 +MOVJ EC00575
MOVL C00576 V=37.3 +MOVJ EC00576
ARCOF
MOVL C00577 V=10.0 +MOVJ EC00577
ARCON ASF#(140)
MOVL C00578 V=36.4 +MOVJ EC00578
MOVL C00579 V=39.8 +MOVJ EC00579
MOVL C00580 V=31.0 +MOVJ EC00580
MOVL C00581 V=31.4 +MOVJ EC00581
MOVL C00582 V=30.6 +MOVJ EC00582
MOVL C00583 V=29.5 +MOVJ EC00583
MOVL C00584 V=31.6 +MOVJ EC00584
MOVL C00585 V=34.3 +MOVJ EC00585
MOVL C00586 V=36.3 +MOVJ EC00586
MOVL C00587 V=37.5 +MOVJ EC00587
MOVL C00588 V=39.4 +MOVJ EC00588
MOVL C00589 V=41.1 +MOVJ EC00589
MOVL C00590 V=39.3 +MOVJ EC00590
MOVL C00591 V=37.0 +MOVJ EC00591
MOVL C00592 V=35.8 +MOVJ EC00592
MOVL C00593 V=33.5 +MOVJ EC00593
MOVL C00594 V=28.6 +MOVJ EC00594
MOVL C00595 V=24.0 +MOVJ EC00595
MOVL C00596 V=23.2 +MOVJ EC00596
MOVL C00597 V=21.0 +MOVJ EC00597
MOVL C00598 V=18.0 +MOVJ EC00598
MOVL C00599 V=17.1 +MOVJ EC00599
MOVL C00600 V=16.5 +MOVJ EC00600
MOVL C00601 V=16.4 +MOVJ EC00601
MOVL C00602 V=16.8 +MOVJ EC00602
MOVL C00603 V=17.9 +MOVJ EC00603
MOVL C00604 V=20.3 +MOVJ EC00604
MOVL C00605 V=20.4 +MOVJ EC00605
ARCOF
END
