/JOB
//NAME AAA
//POS
///NPOS 100,0,100,0,0,0
///TOOL 9
///POSTYPE PULSE
///PULSE
C00000=-33949,60851,5843,11240,-40650,-12113
C00001=-34002,61349,6419,11197,-40740,-12076
C00002=-34049,61857,7007,11157,-40834,-12042
C00003=-34089,62374,7607,11118,-40931,-12011
C00004=-34121,62878,8192,11084,-41026,-11983
C00005=-34146,63390,8789,11052,-41126,-11959
C00006=-34161,63894,9378,11024,-41225,-11939
C00007=-34170,64405,9974,10998,-41327,-11921
C00008=-34168,64926,10585,10975,-41433,-11908
C00009=-34159,65433,11180,10956,-41538,-11899
C00010=-34140,65934,11768,10941,-41644,-11893
C00011=-34114,66413,12333,10929,-41746,-11892
C00012=-34082,66879,12883,10921,-41847,-11893
C00013=-34036,67395,13493,10915,-41961,-11900
C00014=-33981,67909,14100,10913,-42076,-11910
C00015=-33917,68415,14700,10914,-42191,-11924
C00016=-33848,68897,15274,10919,-42302,-11941
C00017=-33770,69373,15840,10926,-42413,-11962
C00018=-33690,69826,16380,10936,-42521,-11984
C00019=-33603,70277,16918,10948,-42629,-12009
C00020=-33510,70727,17455,10962,-42738,-12037
C00021=-33416,71154,17967,10977,-42843,-12066
C00022=-33319,71570,18465,10994,-42947,-12096
C00023=-33224,71965,18939,11011,-43045,-12126
C00024=-33126,72359,19413,11030,-43145,-12158
C00025=-33023,72753,19886,11049,-43245,-12191
C00026=-32924,73134,20345,11068,-43343,-12223
C00027=-32822,73511,20801,11088,-43440,-12256
C00028=-32722,73875,21240,11108,-43534,-12289
C00029=-32620,74251,21694,11127,-43632,-12321
C00030=-32520,74617,22137,11147,-43728,-12354
C00031=-32419,74984,22582,11166,-43824,-12387
C00032=-32314,75374,23056,11186,-43926,-12420
C00033=-32214,75744,23505,11204,-44024,-12452
C00034=-32116,76120,23963,11222,-44123,-12483
C00035=-32017,76502,24427,11240,-44223,-12514
C00036=-31918,76892,24903,11257,-44326,-12545
C00037=-31820,77293,25392,11273,-44432,-12575
C00038=-31718,77717,25911,11289,-44544,-12605
C00039=-31626,78127,26413,11303,-44652,-12632
C00040=-31537,78533,26910,11315,-44759,-12658
C00041=-31451,78949,27420,11326,-44869,-12682
C00042=-31365,79388,27959,11335,-44984,-12705
C00043=-31283,79830,28502,11343,-45100,-12726
C00044=-31203,80303,29085,11349,-45223,-12746
C00045=-31128,80764,29654,11353,-45344,-12763
C00046=-31057,81246,30249,11355,-45469,-12779
C00047=-30988,81755,30878,11355,-45602,-12792
C00048=-30924,82269,31515,11353,-45735,-12803
C00049=-30862,82807,32183,11349,-45875,-12813
C00050=-24716,78913,19160,14917,-40902,-16312
C00051=-24901,78274,18862,14810,-41013,-16207
C00052=-25182,77680,18882,14621,-41276,-16032
C00053=-25503,77096,18943,14414,-41553,-15837
C00054=-25810,76566,18952,14231,-41774,-15660
C00055=-26117,76089,18963,14056,-41972,-15487
C00056=-26476,75628,19036,13856,-42191,-15288
C00057=-26882,75231,19207,13635,-42430,-15066
C00058=-27237,74860,19254,13455,-42592,-14880
C00059=-27623,74550,19373,13263,-42761,-14680
C00060=-28019,74276,19495,13071,-42914,-14479
C00061=-28344,73976,19455,12926,-42993,-14321
C00062=-28764,73744,19560,12735,-43113,-14115
C00063=-29163,73546,19643,12559,-43206,-13922
C00064=-29490,73314,19587,12424,-43244,-13771
C00065=-29845,73139,19598,12276,-43290,-13606
C00066=-30103,72891,19433,12179,-43280,-13492
C00067=-30339,72631,19228,12093,-43256,-13389
C00068=-30623,72390,19060,11987,-43238,-13265
C00069=-30832,72111,18799,11915,-43193,-13178
C00070=-31161,71996,18777,11787,-43194,-13030
C00071=-31330,71674,18430,11737,-43125,-12964
C00072=-31591,71484,18270,11642,-43090,-12852
C00073=-31817,71255,18042,11565,-43039,-12758
C00074=-31990,70950,17705,11513,-42967,-12690
C00075=-32217,70717,17460,11436,-42908,-12596
C00076=-32427,70470,17190,11368,-42842,-12510
C00077=-32596,70199,16881,11317,-42771,-12444
C00078=-32777,69913,16551,11261,-42694,-12372
C00079=-32955,69621,16212,11208,-42613,-12303
C00080=-33134,69337,15880,11154,-42534,-12233
C00081=-33329,69094,15594,11092,-42460,-12155
C00082=-33472,68795,15240,11053,-42380,-12101
C00083=-33673,68577,14980,10987,-42307,-12019
C00084=-33814,68267,14612,10949,-42224,-11966
C00085=-34006,68096,14408,10884,-42163,-11887
C00086=-34178,67892,14163,10829,-42098,-11818
C00087=-34341,67694,13927,10776,-42036,-11752
C00088=-34493,67559,13766,10725,-41988,-11689
C00089=-34645,67436,13619,10673,-41944,-11626
C00090=-34804,67312,13470,10618,-41898,-11560
C00091=-34964,67212,13348,10562,-41856,-11492
C00092=-35128,67114,13230,10505,-41814,-11423
C00093=-35289,67036,13133,10447,-41776,-11355
C00094=-35442,66958,13037,10392,-41740,-11290
C00095=-35583,66842,12900,10343,-41700,-11231
C00096=-35711,66688,12722,10300,-41655,-11178
C00097=-35829,66462,12459,10263,-41597,-11132
C00098=-35931,66136,12077,10238,-41519,-11095
C00099=-36006,65673,11533,10228,-41415,-11073
EC00000=-29915,-132269
EC00001=-29915,-132269
EC00002=-29915,-132269
EC00003=-29915,-132269
EC00004=-29915,-132269
EC00005=-29915,-132269
EC00006=-29915,-132269
EC00007=-29915,-132269
EC00008=-29915,-132269
EC00009=-29915,-132269
EC00010=-29915,-132269
EC00011=-29915,-132269
EC00012=-29915,-132269
EC00013=-29915,-132269
EC00014=-29915,-132269
EC00015=-29915,-132269
EC00016=-29915,-132269
EC00017=-29915,-132269
EC00018=-29915,-132269
EC00019=-29915,-132269
EC00020=-29915,-132269
EC00021=-29915,-132269
EC00022=-29915,-132269
EC00023=-29915,-132269
EC00024=-29915,-132269
EC00025=-29915,-132269
EC00026=-29915,-132269
EC00027=-29915,-132269
EC00028=-29915,-132269
EC00029=-29915,-132269
EC00030=-29915,-132269
EC00031=-29915,-132269
EC00032=-29915,-132269
EC00033=-29915,-132269
EC00034=-29915,-132269
EC00035=-29915,-132269
EC00036=-29915,-132269
EC00037=-29915,-132269
EC00038=-29915,-132269
EC00039=-29915,-132269
EC00040=-29915,-132269
EC00041=-29915,-132269
EC00042=-29915,-132269
EC00043=-29915,-132269
EC00044=-29915,-132269
EC00045=-29915,-132269
EC00046=-29915,-132269
EC00047=-29915,-132269
EC00048=-29915,-132269
EC00049=-29915,-132269
EC00050=86127,-132269
EC00051=82077,-132214
EC00052=77624,-128947
EC00053=72337,-126096
EC00054=67127,-124482
EC00055=62455,-122425
EC00056=57274,-119855
EC00057=51577,-116947
EC00058=46406,-115585
EC00059=40821,-114321
EC00060=35475,-112465
EC00061=31349,-111040
EC00062=25579,-110125
EC00063=20358,-108875
EC00064=16271,-107933
EC00065=11678,-107361
EC00066=8496,-107361
EC00067=5681,-107440
EC00068=2395,-106596
EC00069=52,-106596
EC00070=-4212,-107361
EC00071=-5936,-107981
EC00072=-9027,-108253
EC00073=-11608,-109368
EC00074=-13319,-109862
EC00075=-15820,-110977
EC00076=-18015,-112465
EC00077=-19526,-115187
EC00078=-21150,-116898
EC00079=-22670,-118632
EC00080=-23969,-121757
EC00081=-25441,-124904
EC00082=-26016,-128344
EC00083=-27336,-131876
EC00084=-27834,-134711
EC00085=-28438,-140194
EC00086=-28843,-144712
EC00087=-29117,-149037
EC00088=-29311,-153264
EC00089=-29467,-157435
EC00090=-29634,-161575
EC00091=-29804,-165666
EC00092=-29986,-169671
EC00093=-30174,-173527
EC00094=-30284,-177172
EC00095=-30249,-180549
EC00096=-30115,-183529
EC00097=-29991,-185858
EC00098=-29926,-187247
EC00099=-29919,-187452
//INST
///DATE 2023/02/20 15:26
///ATTR SC,RW
///GROUP1 RB1
///GROUP2 ST1
NOP
MOVL C00000 V=10.0 +MOVJ EC00000 VJ=10.0
MOVL C00001 V=10.0 +MOVJ EC00001 VJ=10.0
MOVL C00002 V=10.0 +MOVJ EC00002 VJ=10.0
MOVL C00003 V=10.0 +MOVJ EC00003 VJ=10.0
MOVL C00004 V=10.0 +MOVJ EC00004 VJ=10.0
MOVL C00005 V=10.0 +MOVJ EC00005 VJ=10.0
MOVL C00006 V=10.0 +MOVJ EC00006 VJ=10.0
MOVL C00007 V=10.0 +MOVJ EC00007 VJ=10.0
MOVL C00008 V=10.0 +MOVJ EC00008 VJ=10.0
MOVL C00009 V=10.0 +MOVJ EC00009 VJ=10.0
MOVL C00010 V=10.0 +MOVJ EC00010 VJ=10.0
MOVL C00011 V=10.0 +MOVJ EC00011 VJ=10.0
MOVL C00012 V=10.0 +MOVJ EC00012 VJ=10.0
MOVL C00013 V=10.0 +MOVJ EC00013 VJ=10.0
MOVL C00014 V=10.0 +MOVJ EC00014 VJ=10.0
MOVL C00015 V=10.0 +MOVJ EC00015 VJ=10.0
MOVL C00016 V=10.0 +MOVJ EC00016 VJ=10.0
MOVL C00017 V=10.0 +MOVJ EC00017 VJ=10.0
MOVL C00018 V=10.0 +MOVJ EC00018 VJ=10.0
MOVL C00019 V=10.0 +MOVJ EC00019 VJ=10.0
MOVL C00020 V=10.0 +MOVJ EC00020 VJ=10.0
MOVL C00021 V=10.0 +MOVJ EC00021 VJ=10.0
MOVL C00022 V=10.0 +MOVJ EC00022 VJ=10.0
MOVL C00023 V=10.0 +MOVJ EC00023 VJ=10.0
MOVL C00024 V=10.0 +MOVJ EC00024 VJ=10.0
MOVL C00025 V=10.0 +MOVJ EC00025 VJ=10.0
MOVL C00026 V=10.0 +MOVJ EC00026 VJ=10.0
MOVL C00027 V=10.0 +MOVJ EC00027 VJ=10.0
MOVL C00028 V=10.0 +MOVJ EC00028 VJ=10.0
MOVL C00029 V=10.0 +MOVJ EC00029 VJ=10.0
MOVL C00030 V=10.0 +MOVJ EC00030 VJ=10.0
MOVL C00031 V=10.0 +MOVJ EC00031 VJ=10.0
MOVL C00032 V=10.0 +MOVJ EC00032 VJ=10.0
MOVL C00033 V=10.0 +MOVJ EC00033 VJ=10.0
MOVL C00034 V=10.0 +MOVJ EC00034 VJ=10.0
MOVL C00035 V=10.0 +MOVJ EC00035 VJ=10.0
MOVL C00036 V=10.0 +MOVJ EC00036 VJ=10.0
MOVL C00037 V=10.0 +MOVJ EC00037 VJ=10.0
MOVL C00038 V=10.0 +MOVJ EC00038 VJ=10.0
MOVL C00039 V=10.0 +MOVJ EC00039 VJ=10.0
MOVL C00040 V=10.0 +MOVJ EC00040 VJ=10.0
MOVL C00041 V=10.0 +MOVJ EC00041 VJ=10.0
MOVL C00042 V=10.0 +MOVJ EC00042 VJ=10.0
MOVL C00043 V=10.0 +MOVJ EC00043 VJ=10.0
MOVL C00044 V=10.0 +MOVJ EC00044 VJ=10.0
MOVL C00045 V=10.0 +MOVJ EC00045 VJ=10.0
MOVL C00046 V=10.0 +MOVJ EC00046 VJ=10.0
MOVL C00047 V=10.0 +MOVJ EC00047 VJ=10.0
MOVL C00048 V=10.0 +MOVJ EC00048 VJ=10.0
MOVL C00049 V=10.0 +MOVJ EC00049 VJ=10.0
MOVL C00050 V=10.0 +MOVJ EC00050 VJ=10.0
MOVL C00051 V=10.0 +MOVJ EC00051 VJ=10.0
MOVL C00052 V=10.0 +MOVJ EC00052 VJ=10.0
MOVL C00053 V=10.0 +MOVJ EC00053 VJ=10.0
MOVL C00054 V=10.0 +MOVJ EC00054 VJ=10.0
MOVL C00055 V=10.0 +MOVJ EC00055 VJ=10.0
MOVL C00056 V=10.0 +MOVJ EC00056 VJ=10.0
MOVL C00057 V=10.0 +MOVJ EC00057 VJ=10.0
MOVL C00058 V=10.0 +MOVJ EC00058 VJ=10.0
MOVL C00059 V=10.0 +MOVJ EC00059 VJ=10.0
MOVL C00060 V=10.0 +MOVJ EC00060 VJ=10.0
MOVL C00061 V=10.0 +MOVJ EC00061 VJ=10.0
MOVL C00062 V=10.0 +MOVJ EC00062 VJ=10.0
MOVL C00063 V=10.0 +MOVJ EC00063 VJ=10.0
MOVL C00064 V=10.0 +MOVJ EC00064 VJ=10.0
MOVL C00065 V=10.0 +MOVJ EC00065 VJ=10.0
MOVL C00066 V=10.0 +MOVJ EC00066 VJ=10.0
MOVL C00067 V=10.0 +MOVJ EC00067 VJ=10.0
MOVL C00068 V=10.0 +MOVJ EC00068 VJ=10.0
MOVL C00069 V=10.0 +MOVJ EC00069 VJ=10.0
MOVL C00070 V=10.0 +MOVJ EC00070 VJ=10.0
MOVL C00071 V=10.0 +MOVJ EC00071 VJ=10.0
MOVL C00072 V=10.0 +MOVJ EC00072 VJ=10.0
MOVL C00073 V=10.0 +MOVJ EC00073 VJ=10.0
MOVL C00074 V=10.0 +MOVJ EC00074 VJ=10.0
MOVL C00075 V=10.0 +MOVJ EC00075 VJ=10.0
MOVL C00076 V=10.0 +MOVJ EC00076 VJ=10.0
MOVL C00077 V=10.0 +MOVJ EC00077 VJ=10.0
MOVL C00078 V=10.0 +MOVJ EC00078 VJ=10.0
MOVL C00079 V=10.0 +MOVJ EC00079 VJ=10.0
MOVL C00080 V=10.0 +MOVJ EC00080 VJ=10.0
MOVL C00081 V=10.0 +MOVJ EC00081 VJ=10.0
MOVL C00082 V=10.0 +MOVJ EC00082 VJ=10.0
MOVL C00083 V=10.0 +MOVJ EC00083 VJ=10.0
MOVL C00084 V=10.0 +MOVJ EC00084 VJ=10.0
MOVL C00085 V=10.0 +MOVJ EC00085 VJ=10.0
MOVL C00086 V=10.0 +MOVJ EC00086 VJ=10.0
MOVL C00087 V=10.0 +MOVJ EC00087 VJ=10.0
MOVL C00088 V=10.0 +MOVJ EC00088 VJ=10.0
MOVL C00089 V=10.0 +MOVJ EC00089 VJ=10.0
MOVL C00090 V=10.0 +MOVJ EC00090 VJ=10.0
MOVL C00091 V=10.0 +MOVJ EC00091 VJ=10.0
MOVL C00092 V=10.0 +MOVJ EC00092 VJ=10.0
MOVL C00093 V=10.0 +MOVJ EC00093 VJ=10.0
MOVL C00094 V=10.0 +MOVJ EC00094 VJ=10.0
MOVL C00095 V=10.0 +MOVJ EC00095 VJ=10.0
MOVL C00096 V=10.0 +MOVJ EC00096 VJ=10.0
MOVL C00097 V=10.0 +MOVJ EC00097 VJ=10.0
MOVL C00098 V=10.0 +MOVJ EC00098 VJ=10.0
MOVL C00099 V=10.0 +MOVJ EC00099 VJ=10.0
END
