/JOB
//NAME AAA
//POS
///NPOS 100,0,100,0,0,0
///TOOL 9
///POSTYPE PULSE
///PULSE
C00000=-55567,89136,51243,1704,-52439,-1959
C00001=-55570,89859,52153,1699,-52627,-1954
C00002=-55567,90594,53079,1695,-52819,-1952
C00003=-55559,91340,54020,1694,-53015,-1952
C00004=-55545,92064,54935,1695,-53207,-1955
C00005=-55524,92795,55863,1698,-53402,-1960
C00006=-55496,93512,56773,1704,-53594,-1969
C00007=-55462,94235,57693,1711,-53790,-1979
C00008=-55418,94967,58626,1722,-53988,-1993
C00009=-55370,95676,59532,1735,-54182,-2009
C00010=-55314,96370,60419,1750,-54373,-2029
C00011=-55254,97030,61265,1767,-54556,-2050
C00012=-55190,97668,62083,1785,-54733,-2072
C00013=-55110,98365,62981,1808,-54928,-2101
C00014=-55023,99055,63869,1834,-55122,-2132
C00015=-54929,99726,64734,1862,-55312,-2167
C00016=-54833,100361,65555,1891,-55493,-2202
C00017=-54730,100979,66355,1922,-55670,-2240
C00018=-54626,101564,67114,1953,-55838,-2277
C00019=-54518,102142,67863,1987,-56005,-2317
C00020=-54404,102711,68603,2021,-56171,-2359
C00021=-54291,103249,69303,2056,-56328,-2401
C00022=-54177,103768,69979,2091,-56480,-2443
C00023=-54065,104259,70620,2125,-56625,-2485
C00024=-53951,104748,71259,2160,-56770,-2527
C00025=-53834,105233,71893,2196,-56914,-2570
C00026=-53720,105705,72511,2231,-57055,-2612
C00027=-53605,106172,73122,2266,-57194,-2654
C00028=-53492,106620,73710,2300,-57329,-2696
C00029=-53376,107089,74326,2335,-57470,-2738
C00030=-53263,107546,74927,2369,-57608,-2779
C00031=-53149,108008,75536,2404,-57748,-2821
C00032=-53031,108507,76192,2439,-57900,-2864
C00033=-52918,108982,76819,2473,-58044,-2904
C00034=-52805,109473,77468,2506,-58194,-2945
C00035=-52693,109978,78135,2539,-58349,-2985
C00036=-52580,110504,78831,2572,-58510,-3025
C00037=-52466,111051,79556,2605,-58679,-3065
C00038=-52348,111643,80341,2639,-58861,-3107
C00039=-52240,112232,81122,2669,-59043,-3144
C00040=-52135,112825,81912,2699,-59227,-3181
C00041=-52031,113450,82744,2727,-59422,-3216
C00042=-51926,114127,83646,2756,-59633,-3251
C00043=-51825,114828,84583,2783,-59852,-3285
C00044=-51723,115605,85622,2809,-60095,-3318
C00045=-51627,116387,86669,2833,-60341,-3348
C00046=-51533,117232,87803,2856,-60607,-3377
C00047=-51439,118159,89048,2879,-60901,-3406
C00048=-51350,119134,90361,2899,-61211,-3432
C00049=-51261,120196,91796,2918,-61550,-3457
C00050=-47279,100507,58928,4682,-51645,-5382
C00051=-47479,100175,59024,4597,-51863,-5290
C00052=-47648,99804,58905,4531,-51970,-5215
C00053=-48044,100361,60754,4343,-52798,-5017
C00054=-48357,100538,61672,4208,-53255,-4871
C00055=-48480,100077,61193,4169,-53191,-4823
C00056=-48875,100534,62553,4001,-53773,-4640
C00057=-49164,100697,63211,3887,-54079,-4512
C00058=-49554,101167,64401,3730,-54550,-4338
C00059=-49814,101292,64865,3632,-54760,-4226
C00060=-50102,101543,65506,3522,-55012,-4102
C00061=-50300,101413,65499,3452,-55066,-4021
C00062=-50655,101893,66459,3318,-55395,-3869
C00063=-50732,101383,65791,3298,-55243,-3843
C00064=-51073,101838,66661,3171,-55531,-3698
C00065=-51427,102327,67545,3040,-55810,-3549
C00066=-51599,102117,67346,2983,-55789,-3481
C00067=-51872,102372,67818,2885,-55938,-3369
C00068=-51974,101796,67080,2856,-55777,-3332
C00069=-52192,101802,67172,2781,-55823,-3245
C00070=-52555,102317,67985,2651,-56046,-3095
C00071=-52667,101810,67337,2617,-55904,-3054
C00072=-52903,102110,67788,2534,-56020,-2957
C00073=-53097,102006,67687,2468,-56006,-2881
C00074=-53185,101391,66890,2443,-55829,-2850
C00075=-53440,101685,67314,2354,-55931,-2746
C00076=-53628,101400,66958,2292,-55853,-2674
C00077=-53770,101052,66513,2247,-55754,-2619
C00078=-53901,100974,66426,2203,-55737,-2568
C00079=-54078,100745,66135,2144,-55671,-2499
C00080=-54262,100520,65844,2083,-55603,-2427
C00081=-54365,99796,64903,2053,-55394,-2390
C00082=-54451,99268,64227,2027,-55246,-2358
C00083=-54745,99917,65063,1923,-55421,-2238
C00084=-54831,99354,64342,1896,-55265,-2206
C00085=-55103,100038,65213,1800,-55443,-2095
C00086=-55165,99207,64151,1783,-55215,-2074
C00087=-55446,100144,65336,1682,-55456,-1958
C00088=-55454,99183,64127,1684,-55206,-1959
C00089=-55554,98661,63451,1653,-55056,-1921
C00090=-55772,99695,64785,1573,-55341,-1830
C00091=-55841,98819,63662,1554,-55099,-1806
C00092=-56119,100175,65367,1452,-55447,-1690
C00093=-56048,97661,62162,1489,-54768,-1728
C00094=-56375,99612,64618,1368,-55271,-1591
C00095=-56518,100126,65288,1316,-55417,-1532
C00096=-56543,99131,64057,1312,-55170,-1525
C00097=-56681,99250,64211,1264,-55202,-1469
C00098=-56794,98673,63459,1228,-55033,-1426
C00099=-56939,98270,62903,1180,-54897,-1370
EC00000=-29915,-132412
EC00001=-29915,-132412
EC00002=-29915,-132412
EC00003=-29915,-132412
EC00004=-29915,-132412
EC00005=-29915,-132412
EC00006=-29915,-132412
EC00007=-29915,-132412
EC00008=-29915,-132412
EC00009=-29915,-132412
EC00010=-29915,-132412
EC00011=-29915,-132412
EC00012=-29915,-132412
EC00013=-29915,-132412
EC00014=-29915,-132412
EC00015=-29915,-132412
EC00016=-29915,-132412
EC00017=-29915,-132412
EC00018=-29915,-132412
EC00019=-29915,-132412
EC00020=-29915,-132412
EC00021=-29915,-132412
EC00022=-29915,-132412
EC00023=-29915,-132412
EC00024=-29915,-132412
EC00025=-29915,-132412
EC00026=-29915,-132412
EC00027=-29915,-132412
EC00028=-29915,-132412
EC00029=-29915,-132412
EC00030=-29915,-132412
EC00031=-29915,-132412
EC00032=-29915,-132412
EC00033=-29915,-132412
EC00034=-29915,-132412
EC00035=-29915,-132412
EC00036=-29915,-132412
EC00037=-29915,-132412
EC00038=-29915,-132412
EC00039=-29915,-132412
EC00040=-29915,-132412
EC00041=-29915,-132412
EC00042=-29915,-132412
EC00043=-29915,-132412
EC00044=-29915,-132412
EC00045=-29915,-132412
EC00046=-29915,-132412
EC00047=-29915,-132412
EC00048=-29915,-132412
EC00049=-29915,-132412
EC00050=87028,-132412
EC00051=81577,-132412
EC00052=77848,-132412
EC00053=72101,-122427
EC00054=66838,-117792
EC00055=62352,-122427
EC00056=57793,-113414
EC00057=51394,-113414
EC00058=45494,-107983
EC00059=40309,-107983
EC00060=34563,-107983
EC00061=31380,-107983
EC00062=24397,-107983
EC00063=20709,-117792
EC00064=16020,-113414
EC00065=11289,-107983
EC00066=9118,-107983
EC00067=4528,-107983
EC00068=4216,-107983
EC00069=1019,-107983
EC00070=-4395,-101141
EC00071=-5187,-101141
EC00072=-9897,-107983
EC00073=-12489,-107983
EC00074=-12541,-107983
EC00075=-16745,-113414
EC00076=-19062,-107983
EC00077=-20526,-107983
EC00078=-20796,-122427
EC00079=-22642,-122427
EC00080=-24669,-122427
EC00081=-25580,-117792
EC00082=-24778,-122427
EC00083=-27744,-132412
EC00084=-26965,-135041
EC00085=-29149,-144555
EC00086=-28086,-144555
EC00087=-30296,-154365
EC00088=-28193,-154365
EC00089=-28403,-154365
EC00090=-28766,-165557
EC00091=-28323,-164174
EC00092=-30530,-173688
EC00093=-28844,-164174
EC00094=-31310,-176317
EC00095=-30971,-182664
EC00096=-29083,-182664
EC00097=-29128,-186302
EC00098=-29421,-186302
EC00099=-30617,-186302
//INST
///DATE 2023/02/15 16:46
///ATTR SC,RW
///GROUP1 RB1
///GROUP2 ST1
NOP
MOVL C00000 V=10.0 +MOVJ EC00000 VJ=10.0
MOVL C00001 V=10.0 +MOVJ EC00001 VJ=10.0
MOVL C00002 V=10.0 +MOVJ EC00002 VJ=10.0
MOVL C00003 V=10.0 +MOVJ EC00003 VJ=10.0
MOVL C00004 V=10.0 +MOVJ EC00004 VJ=10.0
MOVL C00005 V=10.0 +MOVJ EC00005 VJ=10.0
MOVL C00006 V=10.0 +MOVJ EC00006 VJ=10.0
MOVL C00007 V=10.0 +MOVJ EC00007 VJ=10.0
MOVL C00008 V=10.0 +MOVJ EC00008 VJ=10.0
MOVL C00009 V=10.0 +MOVJ EC00009 VJ=10.0
MOVL C00010 V=10.0 +MOVJ EC00010 VJ=10.0
MOVL C00011 V=10.0 +MOVJ EC00011 VJ=10.0
MOVL C00012 V=10.0 +MOVJ EC00012 VJ=10.0
MOVL C00013 V=10.0 +MOVJ EC00013 VJ=10.0
MOVL C00014 V=10.0 +MOVJ EC00014 VJ=10.0
MOVL C00015 V=10.0 +MOVJ EC00015 VJ=10.0
MOVL C00016 V=10.0 +MOVJ EC00016 VJ=10.0
MOVL C00017 V=10.0 +MOVJ EC00017 VJ=10.0
MOVL C00018 V=10.0 +MOVJ EC00018 VJ=10.0
MOVL C00019 V=10.0 +MOVJ EC00019 VJ=10.0
MOVL C00020 V=10.0 +MOVJ EC00020 VJ=10.0
MOVL C00021 V=10.0 +MOVJ EC00021 VJ=10.0
MOVL C00022 V=10.0 +MOVJ EC00022 VJ=10.0
MOVL C00023 V=10.0 +MOVJ EC00023 VJ=10.0
MOVL C00024 V=10.0 +MOVJ EC00024 VJ=10.0
MOVL C00025 V=10.0 +MOVJ EC00025 VJ=10.0
MOVL C00026 V=10.0 +MOVJ EC00026 VJ=10.0
MOVL C00027 V=10.0 +MOVJ EC00027 VJ=10.0
MOVL C00028 V=10.0 +MOVJ EC00028 VJ=10.0
MOVL C00029 V=10.0 +MOVJ EC00029 VJ=10.0
MOVL C00030 V=10.0 +MOVJ EC00030 VJ=10.0
MOVL C00031 V=10.0 +MOVJ EC00031 VJ=10.0
MOVL C00032 V=10.0 +MOVJ EC00032 VJ=10.0
MOVL C00033 V=10.0 +MOVJ EC00033 VJ=10.0
MOVL C00034 V=10.0 +MOVJ EC00034 VJ=10.0
MOVL C00035 V=10.0 +MOVJ EC00035 VJ=10.0
MOVL C00036 V=10.0 +MOVJ EC00036 VJ=10.0
MOVL C00037 V=10.0 +MOVJ EC00037 VJ=10.0
MOVL C00038 V=10.0 +MOVJ EC00038 VJ=10.0
MOVL C00039 V=10.0 +MOVJ EC00039 VJ=10.0
MOVL C00040 V=10.0 +MOVJ EC00040 VJ=10.0
MOVL C00041 V=10.0 +MOVJ EC00041 VJ=10.0
MOVL C00042 V=10.0 +MOVJ EC00042 VJ=10.0
MOVL C00043 V=10.0 +MOVJ EC00043 VJ=10.0
MOVL C00044 V=10.0 +MOVJ EC00044 VJ=10.0
MOVL C00045 V=10.0 +MOVJ EC00045 VJ=10.0
MOVL C00046 V=10.0 +MOVJ EC00046 VJ=10.0
MOVL C00047 V=10.0 +MOVJ EC00047 VJ=10.0
MOVL C00048 V=10.0 +MOVJ EC00048 VJ=10.0
MOVL C00049 V=10.0 +MOVJ EC00049 VJ=10.0
MOVL C00050 V=10.0 +MOVJ EC00050 VJ=10.0
MOVL C00051 V=10.0 +MOVJ EC00051 VJ=10.0
MOVL C00052 V=10.0 +MOVJ EC00052 VJ=10.0
MOVL C00053 V=10.0 +MOVJ EC00053 VJ=10.0
MOVL C00054 V=10.0 +MOVJ EC00054 VJ=10.0
MOVL C00055 V=10.0 +MOVJ EC00055 VJ=10.0
MOVL C00056 V=10.0 +MOVJ EC00056 VJ=10.0
MOVL C00057 V=10.0 +MOVJ EC00057 VJ=10.0
MOVL C00058 V=10.0 +MOVJ EC00058 VJ=10.0
MOVL C00059 V=10.0 +MOVJ EC00059 VJ=10.0
MOVL C00060 V=10.0 +MOVJ EC00060 VJ=10.0
MOVL C00061 V=10.0 +MOVJ EC00061 VJ=10.0
MOVL C00062 V=10.0 +MOVJ EC00062 VJ=10.0
MOVL C00063 V=10.0 +MOVJ EC00063 VJ=10.0
MOVL C00064 V=10.0 +MOVJ EC00064 VJ=10.0
MOVL C00065 V=10.0 +MOVJ EC00065 VJ=10.0
MOVL C00066 V=10.0 +MOVJ EC00066 VJ=10.0
MOVL C00067 V=10.0 +MOVJ EC00067 VJ=10.0
MOVL C00068 V=10.0 +MOVJ EC00068 VJ=10.0
MOVL C00069 V=10.0 +MOVJ EC00069 VJ=10.0
MOVL C00070 V=10.0 +MOVJ EC00070 VJ=10.0
MOVL C00071 V=10.0 +MOVJ EC00071 VJ=10.0
MOVL C00072 V=10.0 +MOVJ EC00072 VJ=10.0
MOVL C00073 V=10.0 +MOVJ EC00073 VJ=10.0
MOVL C00074 V=10.0 +MOVJ EC00074 VJ=10.0
MOVL C00075 V=10.0 +MOVJ EC00075 VJ=10.0
MOVL C00076 V=10.0 +MOVJ EC00076 VJ=10.0
MOVL C00077 V=10.0 +MOVJ EC00077 VJ=10.0
MOVL C00078 V=10.0 +MOVJ EC00078 VJ=10.0
MOVL C00079 V=10.0 +MOVJ EC00079 VJ=10.0
MOVL C00080 V=10.0 +MOVJ EC00080 VJ=10.0
MOVL C00081 V=10.0 +MOVJ EC00081 VJ=10.0
MOVL C00082 V=10.0 +MOVJ EC00082 VJ=10.0
MOVL C00083 V=10.0 +MOVJ EC00083 VJ=10.0
MOVL C00084 V=10.0 +MOVJ EC00084 VJ=10.0
MOVL C00085 V=10.0 +MOVJ EC00085 VJ=10.0
MOVL C00086 V=10.0 +MOVJ EC00086 VJ=10.0
MOVL C00087 V=10.0 +MOVJ EC00087 VJ=10.0
MOVL C00088 V=10.0 +MOVJ EC00088 VJ=10.0
MOVL C00089 V=10.0 +MOVJ EC00089 VJ=10.0
MOVL C00090 V=10.0 +MOVJ EC00090 VJ=10.0
MOVL C00091 V=10.0 +MOVJ EC00091 VJ=10.0
MOVL C00092 V=10.0 +MOVJ EC00092 VJ=10.0
MOVL C00093 V=10.0 +MOVJ EC00093 VJ=10.0
MOVL C00094 V=10.0 +MOVJ EC00094 VJ=10.0
MOVL C00095 V=10.0 +MOVJ EC00095 VJ=10.0
MOVL C00096 V=10.0 +MOVJ EC00096 VJ=10.0
MOVL C00097 V=10.0 +MOVJ EC00097 VJ=10.0
MOVL C00098 V=10.0 +MOVJ EC00098 VJ=10.0
MOVL C00099 V=10.0 +MOVJ EC00099 VJ=10.0
END
