/JOB
//NAME AAA
//POS
///NPOS 64,0,32,0,0,0
///TOOL 12
///POSTYPE PULSE
///PULSE
C00000=-32464,71829,20913,11033,-44401,-12294
C00001=-21602,68909,-20138,-67840,-80129,71703
C00002=-32464,71829,20913,11033,-44401,-12294
C00003=-21602,68909,-20138,-67840,-80129,71703
C00004=-32464,71829,20913,11033,-44401,-12294
C00005=-21602,68909,-20138,-67840,-80129,71703
C00006=-32464,71829,20913,11033,-44401,-12294
C00007=-21602,68909,-20138,-67840,-80129,71703
C00008=-32464,71829,20913,11033,-44401,-12294
C00009=-21602,68909,-20138,-67840,-80129,71703
C00010=-32464,71829,20913,11033,-44401,-12294
C00011=-21602,68909,-20138,-67840,-80129,71703
C00012=-32464,71829,20913,11033,-44401,-12294
C00013=-21602,68909,-20138,-67840,-80129,71703
C00014=-32464,71829,20913,11033,-44401,-12294
C00015=-21602,68909,-20138,-67840,-80129,71703
C00016=-32464,71829,20913,11033,-44401,-12294
C00017=-21602,68909,-20138,-67840,-80129,71703
C00018=-32464,71829,20913,11033,-44401,-12294
C00019=-21602,68909,-20138,-67840,-80129,71703
C00020=-32464,71829,20913,11033,-44401,-12294
C00021=-21602,68909,-20138,-67840,-80129,71703
C00022=-32464,71829,20913,11033,-44401,-12294
C00023=-21602,68909,-20138,-67840,-80129,71703
C00024=-32464,71829,20913,11033,-44401,-12294
C00025=-21602,68909,-20138,-67840,-80129,71703
C00026=-32464,71829,20913,11033,-44401,-12294
C00027=-21602,68909,-20138,-67840,-80129,71703
C00028=-32464,71829,20913,11033,-44401,-12294
C00029=-21602,68909,-20138,-67840,-80129,71703
C00030=-32464,71829,20913,11033,-44401,-12294
C00031=-21602,68909,-20138,-67840,-80129,71703
C00032=-32464,71829,20913,11033,-44401,-12294
C00033=-21602,68909,-20138,-67840,-80129,71703
C00034=-32464,71829,20913,11033,-44401,-12294
C00035=-21602,68909,-20138,-67840,-80129,71703
C00036=-32464,71829,20913,11033,-44401,-12294
C00037=-21602,68909,-20138,-67840,-80129,71703
C00038=-32464,71829,20913,11033,-44401,-12294
C00039=-21602,68909,-20138,-67840,-80129,71703
C00040=-32464,71829,20913,11033,-44401,-12294
C00041=-21602,68909,-20138,-67840,-80129,71703
C00042=-32464,71829,20913,11033,-44401,-12294
C00043=-21602,68909,-20138,-67840,-80129,71703
C00044=-32464,71829,20913,11033,-44401,-12294
C00045=-21602,68909,-20138,-67840,-80129,71703
C00046=-32464,71829,20913,11033,-44401,-12294
C00047=-21602,68909,-20138,-67840,-80129,71703
C00048=-32464,71829,20913,11033,-44401,-12294
C00049=-21602,68909,-20138,-67840,-80129,71703
C00050=-32464,71829,20913,11033,-44401,-12294
C00051=-21602,68909,-20138,-67840,-80129,71703
C00052=-32464,71829,20913,11033,-44401,-12294
C00053=-21602,68909,-20138,-67840,-80129,71703
C00054=-32464,71829,20913,11033,-44401,-12294
C00055=-21602,68909,-20138,-67840,-80129,71703
C00056=-32464,71829,20913,11033,-44401,-12294
C00057=-21602,68909,-20138,-67840,-80129,71703
C00058=-32464,71829,20913,11033,-44401,-12294
C00059=-21602,68909,-20138,-67840,-80129,71703
C00060=-32464,71829,20913,11033,-44401,-12294
C00061=-21602,68909,-20138,-67840,-80129,71703
C00062=-32464,71829,20913,11033,-44401,-12294
C00063=-21602,68909,-20138,-67840,-80129,71703
EC00000=-13693,225529
EC00001=-13693,208755
EC00002=-13693,193505
EC00003=-13693,176730
EC00004=-13693,161480
EC00005=-13693,144706
EC00006=-13693,129456
EC00007=-13693,112681
EC00008=-13693,97432
EC00009=-13693,80657
EC00010=-13693,65407
EC00011=-13693,48632
EC00012=-13693,33383
EC00013=-13693,16608
EC00014=-13693,1358
EC00015=-13693,-15416
EC00016=-13693,-30666
EC00017=-13693,-47441
EC00018=-13693,-62691
EC00019=-13693,-79465
EC00020=-13693,-94715
EC00021=-13693,-111490
EC00022=-13693,-126739
EC00023=-13693,-143514
EC00024=-13693,-158764
EC00025=-13693,-175538
EC00026=-13693,-190788
EC00027=-13693,-207563
EC00028=-13693,-222813
EC00029=-13693,-239587
EC00030=-13693,-254837
EC00031=-13693,-270087
//INST
///DATE 2023/07/24 12:48
///ATTR SC,RW
///GROUP1 RB1,ST1
///GROUP2 RB2
NOP
MOVJ C00000 EC00000 VJ=1.0 +MOVJ C00001 VJ=1.0
MOVL C00002 EC00001 V=0.1 +MOVL C00003 V=0.1
MOVL C00004 EC00002 V=0.1 +MOVL C00005 V=0.1
MOVL C00006 EC00003 V=0.1 +MOVL C00007 V=0.1
MOVL C00008 EC00004 V=0.1 +MOVL C00009 V=0.1
MOVL C00010 EC00005 V=0.1 +MOVL C00011 V=0.1
MOVL C00012 EC00006 V=0.1 +MOVL C00013 V=0.1
MOVL C00014 EC00007 V=0.1 +MOVL C00015 V=0.1
MOVL C00016 EC00008 V=0.1 +MOVL C00017 V=0.1
MOVL C00018 EC00009 V=0.1 +MOVL C00019 V=0.1
MOVL C00020 EC00010 V=0.1 +MOVL C00021 V=0.1
MOVL C00022 EC00011 V=0.1 +MOVL C00023 V=0.1
MOVL C00024 EC00012 V=0.1 +MOVL C00025 V=0.1
MOVL C00026 EC00013 V=0.1 +MOVL C00027 V=0.1
MOVL C00028 EC00014 V=0.1 +MOVL C00029 V=0.1
MOVL C00030 EC00015 V=0.1 +MOVL C00031 V=0.1
MOVL C00032 EC00016 V=0.1 +MOVL C00033 V=0.1
MOVL C00034 EC00017 V=0.1 +MOVL C00035 V=0.1
MOVL C00036 EC00018 V=0.1 +MOVL C00037 V=0.1
MOVL C00038 EC00019 V=0.1 +MOVL C00039 V=0.1
MOVL C00040 EC00020 V=0.1 +MOVL C00041 V=0.1
MOVL C00042 EC00021 V=0.1 +MOVL C00043 V=0.1
MOVL C00044 EC00022 V=0.1 +MOVL C00045 V=0.1
MOVL C00046 EC00023 V=0.1 +MOVL C00047 V=0.1
MOVL C00048 EC00024 V=0.1 +MOVL C00049 V=0.1
MOVL C00050 EC00025 V=0.1 +MOVL C00051 V=0.1
MOVL C00052 EC00026 V=0.1 +MOVL C00053 V=0.1
MOVL C00054 EC00027 V=0.1 +MOVL C00055 V=0.1
MOVL C00056 EC00028 V=0.1 +MOVL C00057 V=0.1
MOVL C00058 EC00029 V=0.1 +MOVL C00059 V=0.1
MOVL C00060 EC00030 V=0.1 +MOVL C00061 V=0.1
MOVL C00062 EC00031 V=0.1 +MOVL C00063 V=0.1
END
