/JOB
//NAME AAA
//POS
///NPOS 39,0,39,0,0,0
///TOOL 12
///POSTYPE PULSE
///PULSE
C00000=-23565,68565,3922,16679,-37178,-17596
C00001=-23565,68565,3922,16679,-37178,-17596
C00002=-23565,68565,3922,16679,-37178,-17596
C00003=-23565,68565,3922,16679,-37178,-17596
C00004=-23565,68565,3922,16679,-37178,-17596
C00005=-23565,68565,3922,16679,-37178,-17596
C00006=-23565,68565,3922,16679,-37178,-17596
C00007=-23565,68565,3922,16679,-37178,-17596
C00008=-23565,68565,3922,16679,-37178,-17596
C00009=-23565,68565,3922,16679,-37178,-17596
C00010=-23565,68565,3922,16679,-37178,-17596
C00011=-23565,68565,3922,16679,-37178,-17596
C00012=-23565,68565,3922,16679,-37178,-17596
C00013=-23565,68565,3922,16679,-37178,-17596
C00014=-23565,68565,3922,16679,-37178,-17596
C00015=-23565,68565,3922,16679,-37178,-17596
C00016=-23565,68565,3922,16679,-37178,-17596
C00017=-23565,68565,3922,16679,-37178,-17596
C00018=-23565,68565,3922,16679,-37178,-17596
C00019=-23565,68565,3922,16679,-37178,-17596
C00020=-23565,68565,3922,16679,-37178,-17596
C00021=-23565,68565,3922,16679,-37178,-17596
C00022=-23565,68565,3922,16679,-37178,-17596
C00023=-23565,68565,3922,16679,-37178,-17596
C00024=-23565,68565,3922,16679,-37178,-17596
C00025=-23565,68565,3922,16679,-37178,-17596
C00026=-23565,68565,3922,16679,-37178,-17596
C00027=-23565,68565,3922,16679,-37178,-17596
C00028=-23565,68565,3922,16679,-37178,-17596
C00029=-23565,68565,3922,16679,-37178,-17596
C00030=-23565,68565,3922,16679,-37178,-17596
C00031=-23565,68565,3922,16679,-37178,-17596
C00032=-23565,68565,3922,16679,-37178,-17596
C00033=-23565,68565,3922,16679,-37178,-17596
C00034=-23565,68565,3922,16679,-37178,-17596
C00035=-23565,68565,3922,16679,-37178,-17596
C00036=-23565,68565,3922,16679,-37178,-17596
C00037=-23565,68565,3922,16679,-37178,-17596
C00038=-23565,68565,3922,16679,-37178,-17596
EC00000=126564,272857
EC00001=126564,258914
EC00002=126564,246238
EC00003=126564,233563
EC00004=126564,219620
EC00005=126564,206944
EC00006=126564,194268
EC00007=126564,180325
EC00008=126564,167650
EC00009=126564,154974
EC00010=126564,142298
EC00011=126564,128355
EC00012=126564,115680
EC00013=126564,103004
EC00014=126564,89061
EC00015=126564,76385
EC00016=126564,63710
EC00017=126564,51034
EC00018=126564,37091
EC00019=126564,24415
EC00020=126564,11740
EC00021=126564,-2203
EC00022=126564,-14879
EC00023=126564,-27555
EC00024=126564,-40230
EC00025=126564,-54173
EC00026=126564,-66849
EC00027=126564,-79525
EC00028=126564,-93468
EC00029=126564,-106143
EC00030=126564,-118819
EC00031=126564,-131495
EC00032=126564,-145438
EC00033=126564,-158113
EC00034=126564,-170789
EC00035=126564,-184732
EC00036=126564,-197408
EC00037=126564,-210083
EC00038=126564,-222759
//INST
///DATE 2023/09/14 13:59
///ATTR SC,RW
///GROUP1 RB1
///GROUP2 ST1
NOP
MOVJ C00000 VJ=2.0 +MOVJ EC00000 VJ=2.0
ARCON ASF#(250)
MOVL C00001 V=0.1 +MOVJ EC00001 VJ=5.7
MOVL C00002 V=0.1 +MOVJ EC00002 VJ=5.7
MOVL C00003 V=0.1 +MOVJ EC00003 VJ=5.7
MOVL C00004 V=0.1 +MOVJ EC00004 VJ=5.7
MOVL C00005 V=0.1 +MOVJ EC00005 VJ=5.7
MOVL C00006 V=0.1 +MOVJ EC00006 VJ=5.7
MOVL C00007 V=0.1 +MOVJ EC00007 VJ=5.7
MOVL C00008 V=0.1 +MOVJ EC00008 VJ=5.7
MOVL C00009 V=0.1 +MOVJ EC00009 VJ=5.7
MOVL C00010 V=0.1 +MOVJ EC00010 VJ=5.7
MOVL C00011 V=0.1 +MOVJ EC00011 VJ=5.7
MOVL C00012 V=0.1 +MOVJ EC00012 VJ=5.7
MOVL C00013 V=0.1 +MOVJ EC00013 VJ=5.7
MOVL C00014 V=0.1 +MOVJ EC00014 VJ=5.7
MOVL C00015 V=0.1 +MOVJ EC00015 VJ=5.7
MOVL C00016 V=0.1 +MOVJ EC00016 VJ=5.7
MOVL C00017 V=0.1 +MOVJ EC00017 VJ=5.7
MOVL C00018 V=0.1 +MOVJ EC00018 VJ=5.7
MOVL C00019 V=0.1 +MOVJ EC00019 VJ=5.7
MOVL C00020 V=0.1 +MOVJ EC00020 VJ=5.7
MOVL C00021 V=0.1 +MOVJ EC00021 VJ=5.7
MOVL C00022 V=0.1 +MOVJ EC00022 VJ=5.7
MOVL C00023 V=0.1 +MOVJ EC00023 VJ=5.7
MOVL C00024 V=0.1 +MOVJ EC00024 VJ=5.7
MOVL C00025 V=0.1 +MOVJ EC00025 VJ=5.7
MOVL C00026 V=0.1 +MOVJ EC00026 VJ=5.7
MOVL C00027 V=0.1 +MOVJ EC00027 VJ=5.7
MOVL C00028 V=0.1 +MOVJ EC00028 VJ=5.7
MOVL C00029 V=0.1 +MOVJ EC00029 VJ=5.7
MOVL C00030 V=0.1 +MOVJ EC00030 VJ=5.7
MOVL C00031 V=0.1 +MOVJ EC00031 VJ=5.7
MOVL C00032 V=0.1 +MOVJ EC00032 VJ=5.7
MOVL C00033 V=0.1 +MOVJ EC00033 VJ=5.7
MOVL C00034 V=0.1 +MOVJ EC00034 VJ=5.7
MOVL C00035 V=0.1 +MOVJ EC00035 VJ=5.7
MOVL C00036 V=0.1 +MOVJ EC00036 VJ=5.7
MOVL C00037 V=0.1 +MOVJ EC00037 VJ=5.7
MOVL C00038 V=0.1 +MOVJ EC00038 VJ=5.7
ARCOF
END
