/JOB
//NAME AAA
//POS
///NPOS 274,0,274,0,0,0
///TOOL 12
///POSTYPE PULSE
///PULSE
C00000=-32722,73991,19744,11309,-42571,-12413
C00001=-32722,73991,19744,11309,-42571,-12413
C00002=-32884,74235,20040,11237,-42607,-12335
C00003=-32629,74578,20456,11314,-42717,-12435
C00004=-32518,73690,19380,11399,-42529,-12510
C00005=-32774,73347,18966,11321,-42419,-12410
C00006=-32884,74235,20040,11237,-42607,-12335
C00007=-33045,74479,20336,11166,-42642,-12258
C00008=-32873,75074,21057,11201,-42800,-12315
C00009=-32627,75187,21195,11285,-42856,-12418
C00010=-32399,74710,20615,11393,-42776,-12531
C00011=-32323,73928,19667,11459,-42607,-12588
C00012=-32426,73107,18675,11462,-42409,-12568
C00013=-32649,72734,18226,11398,-42297,-12482
C00014=-32914,72935,18468,11290,-42309,-12361
C00015=-33063,73590,19259,11202,-42438,-12277
C00016=-33045,74479,20336,11166,-42642,-12258
C00017=-33206,74725,20634,11094,-42678,-12181
C00018=-33071,75332,21371,11115,-42834,-12222
C00019=-32852,75732,21858,11176,-42954,-12304
C00020=-32603,75773,21908,11266,-42994,-12411
C00021=-32374,75446,21510,11366,-42948,-12520
C00022=-32210,74819,20748,11456,-42825,-12609
C00023=-32145,74020,19779,11520,-42651,-12662
C00024=-32193,73213,18803,11542,-42462,-12666
C00025=-32328,72609,18075,11523,-42310,-12625
C00026=-32548,72213,17597,11461,-42193,-12542
C00027=-32800,72172,17549,11369,-42153,-12433
C00028=-33032,72496,17939,11267,-42196,-12323
C00029=-33195,73119,18690,11176,-42315,-12233
C00030=-33257,73916,19653,11114,-42488,-12183
C00031=-33206,74725,20634,11094,-42678,-12181
C00032=-32722,73863,19847,11282,-42698,-12396
C00033=-32722,73863,19847,11282,-42698,-12396
C00034=-32884,74107,20144,11210,-42734,-12319
C00035=-32629,74451,20560,11287,-42844,-12419
C00036=-32518,73561,19483,11371,-42656,-12493
C00037=-32774,73219,19069,11294,-42547,-12393
C00038=-32884,74107,20144,11210,-42734,-12319
C00039=-33045,74352,20440,11139,-42769,-12242
C00040=-32873,74947,21162,11174,-42927,-12299
C00041=-32627,75060,21299,11259,-42983,-12401
C00042=-32399,74583,20720,11365,-42903,-12514
C00043=-32323,73800,19771,11432,-42735,-12571
C00044=-32426,72978,18778,11434,-42536,-12551
C00045=-32649,72605,18329,11370,-42425,-12465
C00046=-32914,72806,18571,11262,-42436,-12344
C00047=-33063,73462,19363,11175,-42565,-12260
C00048=-33045,74352,20440,11139,-42769,-12242
C00049=-33206,74598,20738,11068,-42806,-12165
C00050=-33071,75206,21476,11089,-42961,-12205
C00051=-32852,75606,21963,11150,-43081,-12288
C00052=-32603,75647,22012,11239,-43121,-12394
C00053=-32374,75320,21614,11339,-43075,-12503
C00054=-32210,74692,20852,11429,-42952,-12592
C00055=-32145,73892,19883,11492,-42778,-12645
C00056=-32193,73084,18906,11514,-42590,-12648
C00057=-32328,72480,18178,11495,-42437,-12608
C00058=-32548,72083,17700,11432,-42321,-12524
C00059=-32800,72042,17652,11341,-42280,-12416
C00060=-33032,72367,18042,11239,-42324,-12306
C00061=-33195,72990,18794,11149,-42443,-12216
C00062=-33257,73788,19757,11087,-42615,-12166
C00063=-33206,74598,20738,11068,-42806,-12165
C00064=-32722,73736,19952,11254,-42826,-12379
C00065=-32722,73736,19952,11254,-42826,-12379
C00066=-32884,73981,20249,11183,-42861,-12302
C00067=-32629,74325,20665,11260,-42971,-12402
C00068=-32518,73434,19588,11344,-42783,-12476
C00069=-32774,73091,19174,11267,-42674,-12376
C00070=-32884,73981,20249,11183,-42861,-12302
C00071=-33045,74225,20545,11112,-42897,-12225
C00072=-32873,74821,21267,11147,-43054,-12282
C00073=-32627,74935,21405,11232,-43110,-12385
C00074=-32399,74456,20825,11338,-43030,-12498
C00075=-32323,73673,19876,11404,-42862,-12554
C00076=-32426,72850,18883,11406,-42664,-12534
C00077=-32649,72476,18433,11342,-42552,-12448
C00078=-32914,72677,18675,11235,-42564,-12327
C00079=-33063,73334,19467,11148,-42693,-12244
C00080=-33045,74225,20545,11112,-42897,-12225
C00081=-33206,74472,20844,11041,-42933,-12148
C00082=-33071,75080,21582,11062,-43089,-12189
C00083=-32852,75481,22069,11123,-43208,-12272
C00084=-32603,75522,22118,11212,-43248,-12378
C00085=-32374,75194,21720,11312,-43202,-12486
C00086=-32210,74566,20957,11402,-43079,-12576
C00087=-32145,73765,19988,11465,-42905,-12628
C00088=-32193,72956,19011,11486,-42717,-12631
C00089=-32328,72351,18282,11467,-42565,-12591
C00090=-32548,71954,17804,11404,-42449,-12507
C00091=-32800,71913,17755,11313,-42408,-12399
C00092=-33032,72238,18146,11212,-42451,-12289
C00093=-33195,72862,18898,11121,-42571,-12200
C00094=-33257,73661,19862,11061,-42743,-12150
C00095=-33206,74472,20844,11041,-42933,-12148
C00096=-27221,66236,10979,13629,-41949,-14990
C00097=-27221,68617,9431,14229,-39835,-15347
C00098=-27192,68894,9773,14220,-39905,-15348
C00099=-27191,68903,9784,14219,-39908,-15348
C00100=-27191,68906,9789,14219,-39909,-15347
C00101=-27192,68907,9793,14218,-39911,-15347
C00102=-27193,68906,9794,14217,-39912,-15346
C00103=-27194,68904,9794,14217,-39912,-15346
C00104=-27195,68901,9791,14216,-39912,-15345
C00105=-27196,68897,9787,14216,-39911,-15345
C00106=-27196,68893,9782,14216,-39911,-15345
C00107=-27196,68889,9777,14217,-39909,-15345
C00108=-27196,68887,9772,14217,-39908,-15345
C00109=-27195,68886,9769,14218,-39906,-15346
C00110=-27194,68886,9767,14219,-39905,-15347
C00111=-27193,68888,9768,14219,-39905,-15347
C00112=-27192,68893,9772,14220,-39905,-15348
C00113=-27152,69176,10099,14218,-39966,-15355
C00114=-27620,69189,11025,13887,-40442,-15057
C00115=-27660,68908,10699,13889,-40381,-15049
C00116=-27662,68904,10695,13888,-40381,-15048
C00117=-27663,68903,10695,13888,-40381,-15048
C00118=-27664,68903,10697,13887,-40382,-15047
C00119=-27664,68904,10700,13886,-40383,-15046
C00120=-27665,68907,10704,13886,-40384,-15046
C00121=-27665,68910,10710,13885,-40386,-15046
C00122=-27664,68914,10715,13885,-40387,-15046
C00123=-27664,68918,10718,13885,-40387,-15046
C00124=-27663,68921,10721,13886,-40388,-15046
C00125=-27662,68923,10722,13886,-40387,-15047
C00126=-27661,68924,10721,13887,-40387,-15048
C00127=-27660,68923,10719,13888,-40385,-15048
C00128=-27659,68921,10714,13888,-40384,-15049
C00129=-27659,68918,10710,13889,-40383,-15049
C00130=-27660,68909,10698,13889,-40381,-15049
C00131=-27689,68631,10357,13897,-40311,-15047
C00132=-28131,68722,11219,13603,-40715,-14776
C00133=-28100,69007,11566,13596,-40786,-14778
C00134=-28100,69012,11573,13596,-40787,-14778
C00135=-28100,69016,11578,13596,-40788,-14778
C00136=-28100,69018,11583,13595,-40790,-14778
C00137=-28101,69020,11586,13594,-40791,-14777
C00138=-28102,69020,11587,13594,-40791,-14777
C00139=-28103,69018,11587,13593,-40792,-14776
C00140=-28104,69016,11585,13593,-40792,-14776
C00141=-28105,69012,11581,13593,-40791,-14775
C00142=-28105,69008,11576,13593,-40790,-14775
C00143=-28106,69004,11571,13593,-40789,-14775
C00144=-28105,69001,11567,13593,-40788,-14776
C00145=-28105,68999,11563,13594,-40787,-14776
C00146=-28104,68998,11560,13595,-40786,-14777
C00147=-28103,68999,11560,13595,-40785,-14777
C00148=-28102,69001,11561,13596,-40785,-14778
C00149=-28061,69285,11891,13595,-40847,-14787
C00150=-28463,69428,12678,13340,-41188,-14547
C00151=-28504,69147,12350,13340,-41126,-14538
C00152=-28506,69143,12347,13340,-41126,-14537
C00153=-28507,69143,12348,13339,-41127,-14536
C00154=-28508,69144,12351,13339,-41128,-14536
C00155=-28508,69146,12355,13338,-41129,-14535
C00156=-28509,69149,12359,13338,-41130,-14535
C00157=-28509,69153,12364,13337,-41131,-14535
C00158=-28508,69157,12368,13337,-41132,-14535
C00159=-28507,69160,12372,13337,-41132,-14535
C00160=-28506,69163,12374,13338,-41133,-14536
C00161=-28505,69164,12375,13338,-41132,-14536
C00162=-28504,69165,12374,13339,-41132,-14537
C00163=-28503,69164,12372,13339,-41131,-14537
C00164=-28503,69162,12368,13340,-41130,-14538
C00165=-28502,69159,12363,13340,-41129,-14538
C00166=-28503,69155,12358,13341,-41127,-14538
C00167=-28504,69146,12347,13341,-41125,-14538
C00168=-28534,68864,12004,13347,-41056,-14535
C00169=-28897,69031,12710,13125,-41343,-14324
C00170=-28866,69314,13053,13120,-41412,-14327
C00171=-28865,69323,13064,13120,-41414,-14327
C00172=-28865,69326,13068,13119,-41415,-14327
C00173=-28865,69329,13073,13119,-41416,-14327
C00174=-28865,69332,13077,13119,-41417,-14327
C00175=-28866,69334,13080,13118,-41418,-14326
C00176=-28867,69335,13082,13117,-41419,-14326
C00177=-28868,69334,13083,13117,-41420,-14325
C00178=-28869,69332,13082,13116,-41420,-14325
C00179=-28870,69330,13079,13116,-41419,-14324
C00180=-28871,69327,13076,13116,-41419,-14324
C00181=-28871,69323,13072,13116,-41418,-14324
C00182=-28871,69319,13067,13116,-41417,-14324
C00183=-28871,69316,13063,13117,-41416,-14324
C00184=-28870,69314,13059,13117,-41415,-14325
C00185=-28869,69313,13056,13118,-41414,-14325
C00186=-28868,69313,13055,13118,-41413,-14326
C00187=-28867,69316,13057,13119,-41413,-14326
C00188=-28826,69597,13385,13119,-41476,-14336
C00189=-29148,69776,14018,12928,-41720,-14151
C00190=-29189,69495,13689,12927,-41657,-14142
C00191=-29191,69492,13686,12927,-41657,-14141
C00192=-29192,69491,13687,12926,-41657,-14141
C00193=-29193,69492,13689,12926,-41658,-14140
C00194=-29193,69494,13692,12925,-41659,-14140
C00195=-29194,69497,13697,12925,-41660,-14139
C00196=-29194,69501,13701,12925,-41661,-14139
C00197=-29194,69504,13706,12924,-41662,-14139
C00198=-29193,69508,13710,12924,-41663,-14139
C00199=-29192,69510,13712,12925,-41663,-14140
C00200=-29191,69512,13714,12925,-41663,-14140
C00201=-29190,69513,13714,12926,-41663,-14141
C00202=-29189,69513,13712,12926,-41662,-14141
C00203=-29188,69511,13709,12927,-41661,-14142
C00204=-29188,69509,13705,12927,-41660,-14142
C00205=-29187,69506,13701,12928,-41659,-14142
C00206=-29187,69502,13696,12928,-41658,-14142
C00207=-29189,69493,13686,12928,-41656,-14142
C00208=-29220,69210,13341,12933,-41587,-14139
C00209=-29506,69386,13903,12766,-41796,-13977
C00210=-29475,69672,14249,12761,-41865,-13980
C00211=-29474,69681,14260,12761,-41867,-13981
C00212=-29474,69684,14264,12761,-41868,-13980
C00213=-29474,69687,14269,12761,-41869,-13980
C00214=-29475,69689,14272,12760,-41870,-13980
C00215=-29475,69691,14275,12760,-41871,-13979
C00216=-29476,69691,14276,12759,-41871,-13979
C00217=-29477,69690,14276,12759,-41871,-13978
C00218=-29478,69689,14275,12758,-41871,-13978
C00219=-29479,69686,14272,12758,-41871,-13977
C00220=-29480,69683,14269,12758,-41870,-13977
C00221=-29480,69680,14265,12758,-41870,-13977
C00222=-29480,69676,14260,12758,-41869,-13977
C00223=-29480,69673,14256,12759,-41867,-13978
C00224=-29479,69671,14253,12759,-41867,-13978
C00225=-29479,69669,14250,12760,-41866,-13978
C00226=-29478,69669,14248,12760,-41865,-13979
C00227=-29477,69670,14248,12761,-41865,-13980
C00228=-29475,69673,14252,12761,-41865,-13980
C00229=-29433,69956,14584,12762,-41929,-13989
C00230=-29687,70127,15086,12617,-42110,-13847
C00231=-29729,69845,14754,12616,-42046,-13838
C00232=-29730,69841,14750,12615,-42045,-13837
C00233=-29731,69840,14750,12615,-42046,-13837
C00234=-29732,69840,14750,12615,-42046,-13837
C00235=-29733,69841,14752,12614,-42047,-13836
C00236=-29734,69842,14755,12614,-42047,-13836
C00237=-29734,69845,14759,12613,-42048,-13835
C00238=-29734,69848,14763,12613,-42049,-13835
C00239=-29734,69851,14767,12613,-42050,-13835
C00240=-29734,69854,14771,12613,-42051,-13835
C00241=-29733,69857,14774,12613,-42051,-13835
C00242=-29732,69860,14777,12613,-42052,-13835
C00243=-29731,69861,14778,12613,-42052,-13836
C00244=-29731,69862,14778,12614,-42052,-13836
C00245=-29730,69862,14777,12614,-42051,-13837
C00246=-29729,69860,14774,12615,-42050,-13837
C00247=-29728,69858,14771,12615,-42050,-13838
C00248=-29728,69855,14767,12616,-42049,-13838
C00249=-29728,69852,14763,12616,-42048,-13838
C00250=-29729,69844,14752,12616,-42046,-13838
C00251=-29760,69558,14406,12620,-41977,-13834
C00252=-29986,69719,14856,12492,-42135,-13708
C00253=-29954,70005,15203,12488,-42204,-13713
C00254=-29953,70014,15213,12488,-42206,-13713
C00255=-29954,70017,15218,12488,-42207,-13712
C00256=-29954,70020,15221,12487,-42208,-13712
C00257=-29955,70022,15224,12487,-42209,-13712
C00258=-29956,70023,15227,12486,-42210,-13711
C00259=-29957,70022,15227,12486,-42210,-13711
C00260=-29958,70021,15227,12485,-42210,-13710
C00261=-29959,70019,15225,12485,-42210,-13710
C00262=-29959,70017,15222,12485,-42209,-13709
C00263=-29960,70014,15219,12485,-42209,-13709
C00264=-29960,70010,15214,12485,-42208,-13709
C00265=-29960,70007,15210,12485,-42207,-13709
C00266=-29960,70004,15206,12485,-42206,-13710
C00267=-29959,70002,15203,12486,-42205,-13710
C00268=-29958,70001,15200,12486,-42204,-13711
C00269=-29957,70000,15199,12487,-42204,-13711
C00270=-29956,70001,15199,12487,-42204,-13712
C00271=-29955,70002,15200,12488,-42204,-13712
C00272=-29954,70006,15204,12488,-42204,-13712
C00273=-29912,70289,15537,12489,-42269,-13722
EC00000=-29914,-220105
EC00001=-29914,-220105
EC00002=-29914,-222812
EC00003=-29914,-222812
EC00004=-29914,-222812
EC00005=-29914,-222812
EC00006=-29914,-222812
EC00007=-29914,-222812
EC00008=-29914,-222812
EC00009=-29914,-222812
EC00010=-29914,-222812
EC00011=-29914,-222812
EC00012=-29914,-222812
EC00013=-29914,-222812
EC00014=-29914,-222812
EC00015=-29914,-222812
EC00016=-29914,-222812
EC00017=-29914,-222812
EC00018=-29914,-222812
EC00019=-29914,-222812
EC00020=-29914,-222812
EC00021=-29914,-222812
EC00022=-29914,-222812
EC00023=-29914,-222812
EC00024=-29914,-222812
EC00025=-29914,-222812
EC00026=-29914,-222812
EC00027=-29914,-222812
EC00028=-29914,-222812
EC00029=-29914,-222812
EC00030=-29914,-222812
EC00031=-29914,-222812
EC00032=-29914,-220105
EC00033=-29914,-220105
EC00034=-29914,-222812
EC00035=-29914,-222812
EC00036=-29914,-222812
EC00037=-29914,-222812
EC00038=-29914,-222812
EC00039=-29914,-222812
EC00040=-29914,-222812
EC00041=-29914,-222812
EC00042=-29914,-222812
EC00043=-29914,-222812
EC00044=-29914,-222812
EC00045=-29914,-222812
EC00046=-29914,-222812
EC00047=-29914,-222812
EC00048=-29914,-222812
EC00049=-29914,-222812
EC00050=-29914,-222812
EC00051=-29914,-222812
EC00052=-29914,-222812
EC00053=-29914,-222812
EC00054=-29914,-222812
EC00055=-29914,-222812
EC00056=-29914,-222812
EC00057=-29914,-222812
EC00058=-29914,-222812
EC00059=-29914,-222812
EC00060=-29914,-222812
EC00061=-29914,-222812
EC00062=-29914,-222812
EC00063=-29914,-222812
EC00064=-29914,-220105
EC00065=-29914,-220105
EC00066=-29914,-222812
EC00067=-29914,-222812
EC00068=-29914,-222812
EC00069=-29914,-222812
EC00070=-29914,-222812
EC00071=-29914,-222812
EC00072=-29914,-222812
EC00073=-29914,-222812
EC00074=-29914,-222812
EC00075=-29914,-222812
EC00076=-29914,-222812
EC00077=-29914,-222812
EC00078=-29914,-222812
EC00079=-29914,-222812
EC00080=-29914,-222812
EC00081=-29914,-222812
EC00082=-29914,-222812
EC00083=-29914,-222812
EC00084=-29914,-222812
EC00085=-29914,-222812
EC00086=-29914,-222812
EC00087=-29914,-222812
EC00088=-29914,-222812
EC00089=-29914,-222812
EC00090=-29914,-222812
EC00091=-29914,-222812
EC00092=-29914,-222812
EC00093=-29914,-222812
EC00094=-29914,-222812
EC00095=-29914,-222812
EC00096=65097,-220105
EC00097=65097,-220105
EC00098=65097,-203183
EC00099=65097,-171713
EC00100=65097,-140017
EC00101=65097,-108320
EC00102=65097,-79506
EC00103=65097,-47809
EC00104=65097,-16113
EC00105=65097,15584
EC00106=65097,44398
EC00107=65097,76095
EC00108=65097,107791
EC00109=65097,139488
EC00110=65097,168302
EC00111=65097,199999
EC00112=65097,231625
EC00113=65097,251272
EC00114=56425,242409
EC00115=56425,223739
EC00116=56425,193685
EC00117=56425,166303
EC00118=56425,136183
EC00119=56425,106063
EC00120=56425,78681
EC00121=56425,48560
EC00122=56425,18440
EC00123=56425,-8942
EC00124=56425,-39063
EC00125=56425,-69183
EC00126=56425,-96565
EC00127=56425,-126685
EC00128=56425,-156806
EC00129=56425,-184188
EC00130=56425,-214092
EC00131=56425,-230173
EC00132=48747,-240067
EC00133=48747,-222093
EC00134=48747,-193158
EC00135=48747,-164159
EC00136=48747,-135160
EC00137=48747,-106162
EC00138=48747,-77163
EC00139=48747,-48164
EC00140=48747,-19165
EC00141=48747,9834
EC00142=48747,38832
EC00143=48747,67831
EC00144=48747,96830
EC00145=48747,125829
EC00146=48747,154828
EC00147=48747,183827
EC00148=48747,212825
EC00149=48747,233372
EC00150=42045,224305
EC00151=42045,206975
EC00152=42045,179079
EC00153=42045,151121
EC00154=42045,123164
EC00155=42045,95206
EC00156=42045,69789
EC00157=42045,41832
EC00158=42045,13874
EC00159=42045,-14084
EC00160=42045,-42042
EC00161=42045,-70000
EC00162=42045,-95416
EC00163=42045,-123374
EC00164=42045,-151332
EC00165=42045,-179289
EC00166=42045,-207247
EC00167=42045,-235005
EC00168=42045,-249931
EC00169=36233,-259767
EC00170=36233,-245358
EC00171=36233,-218562
EC00172=36233,-194027
EC00173=36233,-167038
EC00174=36233,-140049
EC00175=36233,-115513
EC00176=36233,-88524
EC00177=36233,-61535
EC00178=36233,-37000
EC00179=36233,-10011
EC00180=36233,14524
EC00181=36233,41513
EC00182=36233,68502
EC00183=36233,93038
EC00184=36233,120027
EC00185=36233,147016
EC00186=36233,171551
EC00187=36233,198481
EC00188=36233,215210
EC00189=31199,224973
EC00190=31199,208727
EC00191=31199,182574
EC00192=31199,156363
EC00193=31199,130153
EC00194=31199,103943
EC00195=31199,77732
EC00196=31199,51522
EC00197=31199,25311
EC00198=31199,-899
EC00199=31199,-27110
EC00200=31199,-53320
EC00201=31199,-79531
EC00202=31199,-105741
EC00203=31199,-131952
EC00204=31199,-158162
EC00205=31199,-184373
EC00206=31199,-210583
EC00207=31199,-236606
EC00208=31199,-250599
EC00209=26832,-241369
EC00210=26832,-227704
EC00211=26832,-202292
EC00212=26832,-179024
EC00213=26832,-153429
EC00214=26832,-127833
EC00215=26832,-104565
EC00216=26832,-78970
EC00217=26832,-53375
EC00218=26832,-30106
EC00219=26832,-4511
EC00220=26832,21084
EC00221=26832,44353
EC00222=26832,69948
EC00223=26832,95543
EC00224=26832,118811
EC00225=26832,144406
EC00226=26832,170002
EC00227=26832,193270
EC00228=26832,218809
EC00229=26832,234674
EC00230=23029,244407
EC00231=23029,228977
EC00232=23029,206401
EC00233=23029,181507
EC00234=23029,158876
EC00235=23029,133982
EC00236=23029,111351
EC00237=23029,88721
EC00238=23029,63827
EC00239=23029,41196
EC00240=23029,16302
EC00241=23029,-6329
EC00242=23029,-31223
EC00243=23029,-53854
EC00244=23029,-76485
EC00245=23029,-101379
EC00246=23029,-124010
EC00247=23029,-148904
EC00248=23029,-171534
EC00249=23029,-196428
EC00250=23029,-218881
EC00251=23029,-232171
EC00252=19700,-222918
EC00253=19700,-209924
EC00254=19700,-185760
EC00255=19700,-161422
EC00256=19700,-139296
EC00257=19700,-114958
EC00258=19700,-90620
EC00259=19700,-68494
EC00260=19700,-44156
EC00261=19700,-19818
EC00262=19700,2308
EC00263=19700,26646
EC00264=19700,50985
EC00265=19700,73110
EC00266=19700,97449
EC00267=19700,121787
EC00268=19700,143913
EC00269=19700,168251
EC00270=19700,192589
EC00271=19700,214715
EC00272=19700,239000
EC00273=19700,254085
//INST
///DATE 2023/05/31 15:22
///ATTR SC,RW
///GROUP1 RB1
///GROUP2 ST1
NOP
MOVL C00000 V=10.0 +MOVJ EC00000 VJ=10.0
MOVL C00001 V=5.0 +MOVJ EC00001 VJ=10.0
MOVL C00002 V=10.0 +MOVJ EC00002 VJ=10.0
MOVL C00003 V=5.0 +MOVJ EC00003 VJ=10.0
MOVL C00004 V=5.0 +MOVJ EC00004 VJ=10.0
MOVL C00005 V=5.0 +MOVJ EC00005 VJ=10.0
MOVL C00006 V=5.0 +MOVJ EC00006 VJ=10.0
MOVL C00007 V=10.0 +MOVJ EC00007 VJ=10.0
MOVL C00008 V=5.0 +MOVJ EC00008 VJ=10.0
MOVL C00009 V=5.0 +MOVJ EC00009 VJ=10.0
MOVL C00010 V=5.0 +MOVJ EC00010 VJ=10.0
MOVL C00011 V=5.0 +MOVJ EC00011 VJ=10.0
MOVL C00012 V=5.0 +MOVJ EC00012 VJ=10.0
MOVL C00013 V=5.0 +MOVJ EC00013 VJ=10.0
MOVL C00014 V=5.0 +MOVJ EC00014 VJ=10.0
MOVL C00015 V=5.0 +MOVJ EC00015 VJ=10.0
MOVL C00016 V=5.0 +MOVJ EC00016 VJ=10.0
MOVL C00017 V=10.0 +MOVJ EC00017 VJ=10.0
MOVL C00018 V=5.0 +MOVJ EC00018 VJ=10.0
MOVL C00019 V=5.0 +MOVJ EC00019 VJ=10.0
MOVL C00020 V=5.0 +MOVJ EC00020 VJ=10.0
MOVL C00021 V=5.0 +MOVJ EC00021 VJ=10.0
MOVL C00022 V=5.0 +MOVJ EC00022 VJ=10.0
MOVL C00023 V=5.0 +MOVJ EC00023 VJ=10.0
MOVL C00024 V=5.0 +MOVJ EC00024 VJ=10.0
MOVL C00025 V=5.0 +MOVJ EC00025 VJ=10.0
MOVL C00026 V=5.0 +MOVJ EC00026 VJ=10.0
MOVL C00027 V=5.0 +MOVJ EC00027 VJ=10.0
MOVL C00028 V=5.0 +MOVJ EC00028 VJ=10.0
MOVL C00029 V=5.0 +MOVJ EC00029 VJ=10.0
MOVL C00030 V=5.0 +MOVJ EC00030 VJ=10.0
MOVL C00031 V=5.0 +MOVJ EC00031 VJ=10.0
MOVL C00032 V=10.0 +MOVJ EC00032 VJ=10.0
MOVL C00033 V=5.0 +MOVJ EC00033 VJ=10.0
MOVL C00034 V=10.0 +MOVJ EC00034 VJ=10.0
MOVL C00035 V=5.0 +MOVJ EC00035 VJ=10.0
MOVL C00036 V=5.0 +MOVJ EC00036 VJ=10.0
MOVL C00037 V=5.0 +MOVJ EC00037 VJ=10.0
MOVL C00038 V=5.0 +MOVJ EC00038 VJ=10.0
MOVL C00039 V=10.0 +MOVJ EC00039 VJ=10.0
MOVL C00040 V=5.0 +MOVJ EC00040 VJ=10.0
MOVL C00041 V=5.0 +MOVJ EC00041 VJ=10.0
MOVL C00042 V=5.0 +MOVJ EC00042 VJ=10.0
MOVL C00043 V=5.0 +MOVJ EC00043 VJ=10.0
MOVL C00044 V=5.0 +MOVJ EC00044 VJ=10.0
MOVL C00045 V=5.0 +MOVJ EC00045 VJ=10.0
MOVL C00046 V=5.0 +MOVJ EC00046 VJ=10.0
MOVL C00047 V=5.0 +MOVJ EC00047 VJ=10.0
MOVL C00048 V=5.0 +MOVJ EC00048 VJ=10.0
MOVL C00049 V=10.0 +MOVJ EC00049 VJ=10.0
MOVL C00050 V=5.0 +MOVJ EC00050 VJ=10.0
MOVL C00051 V=5.0 +MOVJ EC00051 VJ=10.0
MOVL C00052 V=5.0 +MOVJ EC00052 VJ=10.0
MOVL C00053 V=5.0 +MOVJ EC00053 VJ=10.0
MOVL C00054 V=5.0 +MOVJ EC00054 VJ=10.0
MOVL C00055 V=5.0 +MOVJ EC00055 VJ=10.0
MOVL C00056 V=5.0 +MOVJ EC00056 VJ=10.0
MOVL C00057 V=5.0 +MOVJ EC00057 VJ=10.0
MOVL C00058 V=5.0 +MOVJ EC00058 VJ=10.0
MOVL C00059 V=5.0 +MOVJ EC00059 VJ=10.0
MOVL C00060 V=5.0 +MOVJ EC00060 VJ=10.0
MOVL C00061 V=5.0 +MOVJ EC00061 VJ=10.0
MOVL C00062 V=5.0 +MOVJ EC00062 VJ=10.0
MOVL C00063 V=5.0 +MOVJ EC00063 VJ=10.0
MOVL C00064 V=10.0 +MOVJ EC00064 VJ=15.0
ARCON ASF#(300)
MOVL C00065 V=10.0 +MOVJ EC00065 VJ=100.0
ARCOF
MOVL C00066 V=10.0 +MOVJ EC00066 VJ=15.0
ARCON ASF#(300)
MOVL C00067 V=10.0 +MOVJ EC00067 VJ=81.3
MOVL C00068 V=10.0 +MOVJ EC00068 VJ=79.8
MOVL C00069 V=10.0 +MOVJ EC00069 VJ=81.2
MOVL C00070 V=10.0 +MOVJ EC00070 VJ=82.8
ARCOF
MOVL C00071 V=10.0 +MOVJ EC00071 VJ=15.0
ARCON ASF#(300)
MOVL C00072 V=10.0 +MOVJ EC00072 VJ=43.4
MOVL C00073 V=10.0 +MOVJ EC00073 VJ=43.2
MOVL C00074 V=10.0 +MOVJ EC00074 VJ=42.9
MOVL C00075 V=10.0 +MOVJ EC00075 VJ=42.7
MOVL C00076 V=10.0 +MOVJ EC00076 VJ=42.7
MOVL C00077 V=10.0 +MOVJ EC00077 VJ=42.9
MOVL C00078 V=10.0 +MOVJ EC00078 VJ=43.1
MOVL C00079 V=10.0 +MOVJ EC00079 VJ=43.4
MOVL C00080 V=10.0 +MOVJ EC00080 VJ=43.5
ARCOF
MOVL C00081 V=10.0 +MOVJ EC00081 VJ=15.0
ARCON ASF#(300)
MOVL C00082 V=10.0 +MOVJ EC00082 VJ=29.5
MOVL C00083 V=10.0 +MOVJ EC00083 VJ=29.4
MOVL C00084 V=10.0 +MOVJ EC00084 VJ=29.4
MOVL C00085 V=10.0 +MOVJ EC00085 VJ=29.3
MOVL C00086 V=10.0 +MOVJ EC00086 VJ=29.2
MOVL C00087 V=10.0 +MOVJ EC00087 VJ=29.1
MOVL C00088 V=10.0 +MOVJ EC00088 VJ=29.1
MOVL C00089 V=10.0 +MOVJ EC00089 VJ=29.1
MOVL C00090 V=10.0 +MOVJ EC00090 VJ=29.2
MOVL C00091 V=10.0 +MOVJ EC00091 VJ=29.3
MOVL C00092 V=10.0 +MOVJ EC00092 VJ=29.3
MOVL C00093 V=10.0 +MOVJ EC00093 VJ=29.4
MOVL C00094 V=10.0 +MOVJ EC00094 VJ=29.5
MOVL C00095 V=10.0 +MOVJ EC00095 VJ=29.5
ARCOF
MOVL C00096 V=10.0 +MOVJ EC00096 VJ=10.0
MOVL C00097 V=10.0 +MOVJ EC00097 VJ=15.0
ARCON ASF#(300)
MOVL C00098 V=4.2 +MOVJ EC00098 VJ=25.9
MOVL C00099 V=0.1 +MOVJ EC00099 VJ=25.9
MOVL C00100 V=0.1 +MOVJ EC00100 VJ=25.9
MOVL C00101 V=0.1 +MOVJ EC00101 VJ=25.8
MOVL C00102 V=0.1 +MOVJ EC00102 VJ=25.8
MOVL C00103 V=0.1 +MOVJ EC00103 VJ=25.7
MOVL C00104 V=0.1 +MOVJ EC00104 VJ=25.7
MOVL C00105 V=0.1 +MOVJ EC00105 VJ=25.6
MOVL C00106 V=0.1 +MOVJ EC00106 VJ=25.7
MOVL C00107 V=0.1 +MOVJ EC00107 VJ=25.7
MOVL C00108 V=0.1 +MOVJ EC00108 VJ=25.7
MOVL C00109 V=0.1 +MOVJ EC00109 VJ=25.8
MOVL C00110 V=0.1 +MOVJ EC00110 VJ=25.8
MOVL C00111 V=0.1 +MOVJ EC00111 VJ=25.9
MOVL C00112 V=0.1 +MOVJ EC00112 VJ=25.9
MOVL C00113 V=3.8 +MOVJ EC00113 VJ=25.9
ARCOF
MOVL C00114 V=10.0 +MOVJ EC00114 VJ=15.0
ARCON ASF#(300)
MOVL C00115 V=3.8 +MOVJ EC00115 VJ=24.8
MOVL C00116 V=0.1 +MOVJ EC00116 VJ=24.7
MOVL C00117 V=0.1 +MOVJ EC00117 VJ=24.7
MOVL C00118 V=0.1 +MOVJ EC00118 VJ=24.6
MOVL C00119 V=0.1 +MOVJ EC00119 VJ=24.6
MOVL C00120 V=0.1 +MOVJ EC00120 VJ=24.6
MOVL C00121 V=0.1 +MOVJ EC00121 VJ=24.5
MOVL C00122 V=0.1 +MOVJ EC00122 VJ=24.5
MOVL C00123 V=0.1 +MOVJ EC00123 VJ=24.5
MOVL C00124 V=0.1 +MOVJ EC00124 VJ=24.6
MOVL C00125 V=0.1 +MOVJ EC00125 VJ=24.6
MOVL C00126 V=0.1 +MOVJ EC00126 VJ=24.7
MOVL C00127 V=0.1 +MOVJ EC00127 VJ=24.7
MOVL C00128 V=0.1 +MOVJ EC00128 VJ=24.7
MOVL C00129 V=0.1 +MOVJ EC00129 VJ=24.8
MOVL C00130 V=0.1 +MOVJ EC00130 VJ=24.8
MOVL C00131 V=4.2 +MOVJ EC00131 VJ=24.8
ARCOF
MOVL C00132 V=10.0 +MOVJ EC00132 VJ=15.0
ARCON ASF#(300)
MOVL C00133 V=3.8 +MOVJ EC00133 VJ=23.8
MOVL C00134 V=0.1 +MOVJ EC00134 VJ=23.8
MOVL C00135 V=0.1 +MOVJ EC00135 VJ=23.8
MOVL C00136 V=0.1 +MOVJ EC00136 VJ=23.7
MOVL C00137 V=0.1 +MOVJ EC00137 VJ=23.7
MOVL C00138 V=0.1 +MOVJ EC00138 VJ=23.6
MOVL C00139 V=0.1 +MOVJ EC00139 VJ=23.6
MOVL C00140 V=0.1 +MOVJ EC00140 VJ=23.6
MOVL C00141 V=0.1 +MOVJ EC00141 VJ=23.6
MOVL C00142 V=0.1 +MOVJ EC00142 VJ=23.6
MOVL C00143 V=0.1 +MOVJ EC00143 VJ=23.6
MOVL C00144 V=0.1 +MOVJ EC00144 VJ=23.6
MOVL C00145 V=0.1 +MOVJ EC00145 VJ=23.6
MOVL C00146 V=0.1 +MOVJ EC00146 VJ=23.7
MOVL C00147 V=0.1 +MOVJ EC00147 VJ=23.7
MOVL C00148 V=0.1 +MOVJ EC00148 VJ=23.8
MOVL C00149 V=3.5 +MOVJ EC00149 VJ=23.8
ARCOF
MOVL C00150 V=10.0 +MOVJ EC00150 VJ=15.0
ARCON ASF#(300)
MOVL C00151 V=3.8 +MOVJ EC00151 VJ=22.9
MOVL C00152 V=0.1 +MOVJ EC00152 VJ=22.9
MOVL C00153 V=0.1 +MOVJ EC00153 VJ=22.8
MOVL C00154 V=0.1 +MOVJ EC00154 VJ=22.8
MOVL C00155 V=0.1 +MOVJ EC00155 VJ=22.8
MOVL C00156 V=0.1 +MOVJ EC00156 VJ=22.7
MOVL C00157 V=0.1 +MOVJ EC00157 VJ=22.7
MOVL C00158 V=0.1 +MOVJ EC00158 VJ=22.7
MOVL C00159 V=0.1 +MOVJ EC00159 VJ=22.7
MOVL C00160 V=0.1 +MOVJ EC00160 VJ=22.8
MOVL C00161 V=0.1 +MOVJ EC00161 VJ=22.8
MOVL C00162 V=0.1 +MOVJ EC00162 VJ=22.8
MOVL C00163 V=0.1 +MOVJ EC00163 VJ=22.9
MOVL C00164 V=0.1 +MOVJ EC00164 VJ=22.9
MOVL C00165 V=0.1 +MOVJ EC00165 VJ=22.9
MOVL C00166 V=0.1 +MOVJ EC00166 VJ=23.0
MOVL C00167 V=0.1 +MOVJ EC00167 VJ=23.0
MOVL C00168 V=4.2 +MOVJ EC00168 VJ=22.9
ARCOF
MOVL C00169 V=10.0 +MOVJ EC00169 VJ=15.0
ARCON ASF#(300)
MOVL C00170 V=4.2 +MOVJ EC00170 VJ=22.2
MOVL C00171 V=0.1 +MOVJ EC00171 VJ=22.2
MOVL C00172 V=0.1 +MOVJ EC00172 VJ=22.2
MOVL C00173 V=0.1 +MOVJ EC00173 VJ=22.2
MOVL C00174 V=0.1 +MOVJ EC00174 VJ=22.2
MOVL C00175 V=0.1 +MOVJ EC00175 VJ=22.1
MOVL C00176 V=0.1 +MOVJ EC00176 VJ=22.1
MOVL C00177 V=0.1 +MOVJ EC00177 VJ=22.1
MOVL C00178 V=0.1 +MOVJ EC00178 VJ=22.0
MOVL C00179 V=0.1 +MOVJ EC00179 VJ=22.0
MOVL C00180 V=0.1 +MOVJ EC00180 VJ=22.0
MOVL C00181 V=0.1 +MOVJ EC00181 VJ=22.0
MOVL C00182 V=0.1 +MOVJ EC00182 VJ=22.0
MOVL C00183 V=0.1 +MOVJ EC00183 VJ=22.0
MOVL C00184 V=0.1 +MOVJ EC00184 VJ=22.1
MOVL C00185 V=0.1 +MOVJ EC00185 VJ=22.1
MOVL C00186 V=0.1 +MOVJ EC00186 VJ=22.1
MOVL C00187 V=0.1 +MOVJ EC00187 VJ=22.2
MOVL C00188 V=3.8 +MOVJ EC00188 VJ=22.2
ARCOF
MOVL C00189 V=10.0 +MOVJ EC00189 VJ=15.0
ARCON ASF#(300)
MOVL C00190 V=3.8 +MOVJ EC00190 VJ=21.5
MOVL C00191 V=0.1 +MOVJ EC00191 VJ=21.5
MOVL C00192 V=0.1 +MOVJ EC00192 VJ=21.5
MOVL C00193 V=0.1 +MOVJ EC00193 VJ=21.4
MOVL C00194 V=0.1 +MOVJ EC00194 VJ=21.4
MOVL C00195 V=0.1 +MOVJ EC00195 VJ=21.4
MOVL C00196 V=0.1 +MOVJ EC00196 VJ=21.4
MOVL C00197 V=0.1 +MOVJ EC00197 VJ=21.4
MOVL C00198 V=0.1 +MOVJ EC00198 VJ=21.4
MOVL C00199 V=0.1 +MOVJ EC00199 VJ=21.4
MOVL C00200 V=0.1 +MOVJ EC00200 VJ=21.4
MOVL C00201 V=0.1 +MOVJ EC00201 VJ=21.4
MOVL C00202 V=0.1 +MOVJ EC00202 VJ=21.5
MOVL C00203 V=0.1 +MOVJ EC00203 VJ=21.5
MOVL C00204 V=0.1 +MOVJ EC00204 VJ=21.5
MOVL C00205 V=0.1 +MOVJ EC00205 VJ=21.5
MOVL C00206 V=0.1 +MOVJ EC00206 VJ=21.6
MOVL C00207 V=0.1 +MOVJ EC00207 VJ=21.6
MOVL C00208 V=4.2 +MOVJ EC00208 VJ=21.5
ARCOF
MOVL C00209 V=10.0 +MOVJ EC00209 VJ=15.0
ARCON ASF#(300)
MOVL C00210 V=4.2 +MOVJ EC00210 VJ=21.0
MOVL C00211 V=0.1 +MOVJ EC00211 VJ=21.0
MOVL C00212 V=0.1 +MOVJ EC00212 VJ=21.0
MOVL C00213 V=0.1 +MOVJ EC00213 VJ=20.9
MOVL C00214 V=0.1 +MOVJ EC00214 VJ=20.9
MOVL C00215 V=0.1 +MOVJ EC00215 VJ=20.9
MOVL C00216 V=0.1 +MOVJ EC00216 VJ=20.9
MOVL C00217 V=0.1 +MOVJ EC00217 VJ=20.8
MOVL C00218 V=0.1 +MOVJ EC00218 VJ=20.8
MOVL C00219 V=0.1 +MOVJ EC00219 VJ=20.8
MOVL C00220 V=0.1 +MOVJ EC00220 VJ=20.8
MOVL C00221 V=0.1 +MOVJ EC00221 VJ=20.8
MOVL C00222 V=0.1 +MOVJ EC00222 VJ=20.8
MOVL C00223 V=0.1 +MOVJ EC00223 VJ=20.8
MOVL C00224 V=0.1 +MOVJ EC00224 VJ=20.8
MOVL C00225 V=0.1 +MOVJ EC00225 VJ=20.9
MOVL C00226 V=0.1 +MOVJ EC00226 VJ=20.9
MOVL C00227 V=0.1 +MOVJ EC00227 VJ=20.9
MOVL C00228 V=0.1 +MOVJ EC00228 VJ=21.0
MOVL C00229 V=3.8 +MOVJ EC00229 VJ=21.0
ARCOF
MOVL C00230 V=10.0 +MOVJ EC00230 VJ=15.0
ARCON ASF#(300)
MOVL C00231 V=3.8 +MOVJ EC00231 VJ=20.4
MOVL C00232 V=0.1 +MOVJ EC00232 VJ=20.4
MOVL C00233 V=0.1 +MOVJ EC00233 VJ=20.4
MOVL C00234 V=0.1 +MOVJ EC00234 VJ=20.4
MOVL C00235 V=0.1 +MOVJ EC00235 VJ=20.4
MOVL C00236 V=0.1 +MOVJ EC00236 VJ=20.3
MOVL C00237 V=0.1 +MOVJ EC00237 VJ=20.3
MOVL C00238 V=0.1 +MOVJ EC00238 VJ=20.3
MOVL C00239 V=0.1 +MOVJ EC00239 VJ=20.3
MOVL C00240 V=0.1 +MOVJ EC00240 VJ=20.3
MOVL C00241 V=0.1 +MOVJ EC00241 VJ=20.3
MOVL C00242 V=0.1 +MOVJ EC00242 VJ=20.3
MOVL C00243 V=0.1 +MOVJ EC00243 VJ=20.3
MOVL C00244 V=0.1 +MOVJ EC00244 VJ=20.3
MOVL C00245 V=0.1 +MOVJ EC00245 VJ=20.4
MOVL C00246 V=0.1 +MOVJ EC00246 VJ=20.4
MOVL C00247 V=0.1 +MOVJ EC00247 VJ=20.4
MOVL C00248 V=0.1 +MOVJ EC00248 VJ=20.4
MOVL C00249 V=0.1 +MOVJ EC00249 VJ=20.5
MOVL C00250 V=0.1 +MOVJ EC00250 VJ=20.5
MOVL C00251 V=4.2 +MOVJ EC00251 VJ=20.5
ARCOF
MOVL C00252 V=10.0 +MOVJ EC00252 VJ=15.0
ARCON ASF#(300)
MOVL C00253 V=4.2 +MOVJ EC00253 VJ=20.0
MOVL C00254 V=0.1 +MOVJ EC00254 VJ=20.0
MOVL C00255 V=0.1 +MOVJ EC00255 VJ=20.0
MOVL C00256 V=0.1 +MOVJ EC00256 VJ=20.0
MOVL C00257 V=0.1 +MOVJ EC00257 VJ=19.9
MOVL C00258 V=0.1 +MOVJ EC00258 VJ=19.9
MOVL C00259 V=0.1 +MOVJ EC00259 VJ=19.9
MOVL C00260 V=0.1 +MOVJ EC00260 VJ=19.8
MOVL C00261 V=0.1 +MOVJ EC00261 VJ=19.8
MOVL C00262 V=0.1 +MOVJ EC00262 VJ=19.8
MOVL C00263 V=0.1 +MOVJ EC00263 VJ=19.8
MOVL C00264 V=0.1 +MOVJ EC00264 VJ=19.8
MOVL C00265 V=0.1 +MOVJ EC00265 VJ=19.8
MOVL C00266 V=0.1 +MOVJ EC00266 VJ=19.9
MOVL C00267 V=0.1 +MOVJ EC00267 VJ=19.9
MOVL C00268 V=0.1 +MOVJ EC00268 VJ=19.9
MOVL C00269 V=0.1 +MOVJ EC00269 VJ=19.9
MOVL C00270 V=0.1 +MOVJ EC00270 VJ=20.0
MOVL C00271 V=0.1 +MOVJ EC00271 VJ=20.0
MOVL C00272 V=0.1 +MOVJ EC00272 VJ=20.0
MOVL C00273 V=3.8 +MOVJ EC00273 VJ=20.0
ARCOF
END
