/JOB
//NAME AAA
//POS
///NPOS 66,0,66,0,0,0
///TOOL 12
///POSTYPE PULSE
///PULSE
C00000=-32458,72061,21433,10996,-44599,-12272
C00001=-32501,71773,21089,10993,-44531,-12261
C00002=-32502,71770,21085,10993,-44530,-12261
C00003=-32503,71769,21084,10993,-44530,-12261
C00004=-32503,71768,21084,10992,-44530,-12260
C00005=-32504,71768,21084,10992,-44530,-12260
C00006=-32505,71769,21084,10992,-44530,-12260
C00007=-32505,71769,21086,10992,-44530,-12259
C00008=-32506,71771,21087,10991,-44530,-12259
C00009=-32507,71772,21089,10991,-44531,-12259
C00010=-32507,71774,21092,10991,-44531,-12259
C00011=-32507,71776,21094,10991,-44532,-12258
C00012=-32507,71778,21097,10990,-44532,-12258
C00013=-32507,71781,21100,10990,-44533,-12258
C00014=-32507,71783,21103,10990,-44533,-12258
C00015=-32507,71785,21106,10990,-44534,-12258
C00016=-32507,71787,21108,10990,-44534,-12258
C00017=-32506,71789,21110,10990,-44535,-12258
C00018=-32506,71791,21112,10991,-44535,-12259
C00019=-32505,71792,21113,10991,-44535,-12259
C00020=-32504,71792,21113,10991,-44535,-12259
C00021=-32503,71792,21113,10991,-44535,-12260
C00022=-32503,71792,21113,10992,-44535,-12260
C00023=-32502,71791,21111,10992,-44535,-12260
C00024=-32502,71790,21110,10992,-44535,-12260
C00025=-32501,71788,21108,10992,-44534,-12261
C00026=-32501,71786,21105,10993,-44534,-12261
C00027=-32500,71784,21103,10993,-44533,-12261
C00028=-32500,71782,21100,10993,-44533,-12261
C00029=-32500,71780,21097,10993,-44532,-12261
C00030=-32500,71777,21094,10993,-44532,-12261
C00031=-32501,71770,21085,10993,-44530,-12261
C00032=-32537,71476,20733,10993,-44461,-12254
C00033=-32557,71468,20810,10976,-44509,-12239
C00034=-32521,71763,21163,10976,-44578,-12247
C00035=-32520,71770,21172,10976,-44580,-12247
C00036=-32520,71773,21175,10976,-44581,-12247
C00037=-32520,71775,21178,10976,-44581,-12247
C00038=-32520,71777,21181,10976,-44582,-12246
C00039=-32521,71779,21183,10976,-44582,-12246
C00040=-32521,71781,21185,10975,-44582,-12246
C00041=-32522,71782,21187,10975,-44583,-12246
C00042=-32522,71783,21189,10975,-44583,-12245
C00043=-32523,71784,21189,10975,-44583,-12245
C00044=-32524,71784,21190,10974,-44583,-12245
C00045=-32524,71784,21189,10974,-44583,-12244
C00046=-32525,71783,21188,10974,-44583,-12244
C00047=-32526,71781,21187,10974,-44583,-12244
C00048=-32526,71780,21185,10974,-44582,-12244
C00049=-32527,71778,21183,10973,-44582,-12244
C00050=-32527,71776,21180,10973,-44581,-12244
C00051=-32527,71773,21177,10973,-44581,-12243
C00052=-32527,71771,21175,10974,-44580,-12244
C00053=-32527,71769,21172,10974,-44580,-12244
C00054=-32527,71766,21169,10974,-44579,-12244
C00055=-32527,71765,21166,10974,-44579,-12244
C00056=-32526,71763,21164,10974,-44578,-12244
C00057=-32525,71761,21162,10975,-44578,-12245
C00058=-32525,71761,21161,10975,-44578,-12245
C00059=-32524,71760,21160,10975,-44578,-12245
C00060=-32523,71760,21160,10976,-44577,-12246
C00061=-32523,71760,21160,10976,-44578,-12246
C00062=-32522,71761,21161,10976,-44578,-12246
C00063=-32521,71762,21163,10976,-44578,-12246
C00064=-32521,71766,21166,10976,-44579,-12247
C00065=-32478,72055,21512,10979,-44647,-12257
EC00000=-14179,247609
EC00001=-14179,237369
EC00002=-14179,222387
EC00003=-14179,207368
EC00004=-14179,190848
EC00005=-14179,175829
EC00006=-14179,160810
EC00007=-14179,144290
EC00008=-14179,129271
EC00009=-14179,114252
EC00010=-14179,97732
EC00011=-14179,82713
EC00012=-14179,67694
EC00013=-14179,51174
EC00014=-14179,36155
EC00015=-14179,21137
EC00016=-14179,6118
EC00017=-14179,-10403
EC00018=-14179,-25421
EC00019=-14179,-40440
EC00020=-14179,-56960
EC00021=-14179,-71979
EC00022=-14179,-86998
EC00023=-14179,-103518
EC00024=-14179,-118537
EC00025=-14179,-133556
EC00026=-14179,-150076
EC00027=-14179,-165095
EC00028=-14179,-180114
EC00029=-14179,-196634
EC00030=-14179,-211653
EC00031=-14179,-226553
EC00032=-14179,-235373
EC00033=-14418,-225927
EC00034=-14418,-217133
EC00035=-14418,-202278
EC00036=-14418,-185807
EC00037=-14418,-170834
EC00038=-14418,-155861
EC00039=-14418,-139390
EC00040=-14418,-124417
EC00041=-14418,-109443
EC00042=-14418,-92973
EC00043=-14418,-78000
EC00044=-14418,-63026
EC00045=-14418,-46556
EC00046=-14418,-31582
EC00047=-14418,-16609
EC00048=-14418,-138
EC00049=-14418,14835
EC00050=-14418,29808
EC00051=-14418,46279
EC00052=-14418,61252
EC00053=-14418,76225
EC00054=-14418,92696
EC00055=-14418,107669
EC00056=-14418,122643
EC00057=-14418,139113
EC00058=-14418,154086
EC00059=-14418,169060
EC00060=-14418,185530
EC00061=-14418,200504
EC00062=-14418,215477
EC00063=-14418,231948
EC00064=-14418,246885
EC00065=-14418,257094
//INST
///DATE 2023/06/07 11:03
///ATTR SC,RW
///GROUP1 RB1
///GROUP2 ST1
NOP
MOVL C00000 V=10.0 +MOVJ EC00000 VJ=15.0
ARCON ASF#(200)
MOVL C00001 V=2.3 +MOVJ EC00001 VJ=8.2
MOVL C00002 V=0.1 +MOVJ EC00002 VJ=8.1
MOVL C00003 V=0.1 +MOVJ EC00003 VJ=8.1
MOVL C00004 V=0.1 +MOVJ EC00004 VJ=8.1
MOVL C00005 V=0.1 +MOVJ EC00005 VJ=8.1
MOVL C00006 V=0.1 +MOVJ EC00006 VJ=8.1
MOVL C00007 V=0.1 +MOVJ EC00007 VJ=8.1
MOVL C00008 V=0.1 +MOVJ EC00008 VJ=8.1
MOVL C00009 V=0.1 +MOVJ EC00009 VJ=8.1
MOVL C00010 V=0.1 +MOVJ EC00010 VJ=8.1
MOVL C00011 V=0.1 +MOVJ EC00011 VJ=8.1
MOVL C00012 V=0.1 +MOVJ EC00012 VJ=8.1
MOVL C00013 V=0.1 +MOVJ EC00013 VJ=8.1
MOVL C00014 V=0.1 +MOVJ EC00014 VJ=8.1
MOVL C00015 V=0.1 +MOVJ EC00015 VJ=8.1
MOVL C00016 V=0.1 +MOVJ EC00016 VJ=8.1
MOVL C00017 V=0.1 +MOVJ EC00017 VJ=8.1
MOVL C00018 V=0.1 +MOVJ EC00018 VJ=8.1
MOVL C00019 V=0.1 +MOVJ EC00019 VJ=8.1
MOVL C00020 V=0.1 +MOVJ EC00020 VJ=8.1
MOVL C00021 V=0.1 +MOVJ EC00021 VJ=8.1
MOVL C00022 V=0.1 +MOVJ EC00022 VJ=8.1
MOVL C00023 V=0.1 +MOVJ EC00023 VJ=8.1
MOVL C00024 V=0.1 +MOVJ EC00024 VJ=8.1
MOVL C00025 V=0.1 +MOVJ EC00025 VJ=8.1
MOVL C00026 V=0.1 +MOVJ EC00026 VJ=8.1
MOVL C00027 V=0.1 +MOVJ EC00027 VJ=8.1
MOVL C00028 V=0.1 +MOVJ EC00028 VJ=8.1
MOVL C00029 V=0.1 +MOVJ EC00029 VJ=8.2
MOVL C00030 V=0.1 +MOVJ EC00030 VJ=8.2
MOVL C00031 V=0.1 +MOVJ EC00031 VJ=8.2
MOVL C00032 V=2.5 +MOVJ EC00032 VJ=8.2
ARCOF
MOVL C00033 V=10.0 +MOVJ EC00033 VJ=15.0
ARCON ASF#(200)
MOVL C00034 V=2.5 +MOVJ EC00034 VJ=8.1
MOVL C00035 V=0.1 +MOVJ EC00035 VJ=8.1
MOVL C00036 V=0.1 +MOVJ EC00036 VJ=8.1
MOVL C00037 V=0.1 +MOVJ EC00037 VJ=8.1
MOVL C00038 V=0.1 +MOVJ EC00038 VJ=8.1
MOVL C00039 V=0.1 +MOVJ EC00039 VJ=8.1
MOVL C00040 V=0.1 +MOVJ EC00040 VJ=8.1
MOVL C00041 V=0.1 +MOVJ EC00041 VJ=8.1
MOVL C00042 V=0.1 +MOVJ EC00042 VJ=8.1
MOVL C00043 V=0.1 +MOVJ EC00043 VJ=8.1
MOVL C00044 V=0.1 +MOVJ EC00044 VJ=8.1
MOVL C00045 V=0.1 +MOVJ EC00045 VJ=8.1
MOVL C00046 V=0.1 +MOVJ EC00046 VJ=8.1
MOVL C00047 V=0.1 +MOVJ EC00047 VJ=8.1
MOVL C00048 V=0.1 +MOVJ EC00048 VJ=8.1
MOVL C00049 V=0.1 +MOVJ EC00049 VJ=8.1
MOVL C00050 V=0.1 +MOVJ EC00050 VJ=8.1
MOVL C00051 V=0.1 +MOVJ EC00051 VJ=8.1
MOVL C00052 V=0.1 +MOVJ EC00052 VJ=8.1
MOVL C00053 V=0.1 +MOVJ EC00053 VJ=8.1
MOVL C00054 V=0.1 +MOVJ EC00054 VJ=8.1
MOVL C00055 V=0.1 +MOVJ EC00055 VJ=8.1
MOVL C00056 V=0.1 +MOVJ EC00056 VJ=8.1
MOVL C00057 V=0.1 +MOVJ EC00057 VJ=8.1
MOVL C00058 V=0.1 +MOVJ EC00058 VJ=8.1
MOVL C00059 V=0.1 +MOVJ EC00059 VJ=8.1
MOVL C00060 V=0.1 +MOVJ EC00060 VJ=8.1
MOVL C00061 V=0.1 +MOVJ EC00061 VJ=8.1
MOVL C00062 V=0.1 +MOVJ EC00062 VJ=8.1
MOVL C00063 V=0.1 +MOVJ EC00063 VJ=8.1
MOVL C00064 V=0.1 +MOVJ EC00064 VJ=8.1
MOVL C00065 V=2.3 +MOVJ EC00065 VJ=8.1
ARCOF
END
