/JOB
//NAME AAA
//POS
///NPOS 31,0,31,0,0,0
///TOOL 12
///POSTYPE PULSE
///PULSE
C00000=-8583,75035,-26912,-84956,-68024,-67434
C00001=-8389,75083,-25779,-84173,-67822,-66405
C00002=-7790,74290,-24806,-82607,-67731,-63952
C00003=-7024,73280,-23814,-80668,-67570,-61257
C00004=-6249,72394,-22733,-78710,-67325,-58910
C00005=-5290,71292,-21684,-76369,-66981,-56328
C00006=-4332,70332,-20576,-74081,-66589,-54084
C00007=-3417,69396,-19758,-71955,-66180,-52099
C00008=-2186,68199,-18779,-69165,-65582,-49664
C00009=-977,67157,-17790,-66510,-64980,-47538
C00010=428,65913,-16973,-63493,-64204,-45192
C00011=1790,64822,-16186,-60672,-63450,-43135
C00012=3348,63538,-15614,-57485,-62485,-40860
C00013=4842,62398,-15105,-54542,-61558,-38857
C00014=6526,61081,-14839,-51225,-60388,-36647
C00015=8127,59898,-14659,-48190,-59272,-34697
C00016=9909,58565,-14723,-44767,-57894,-32553
C00017=11589,57357,-14880,-41649,-56589,-30661
C00018=13431,56037,-15262,-38126,-55023,-28587
C00019=15153,54836,-15734,-34924,-53552,-26757
C00020=17013,53568,-16392,-31299,-51839,-24753
C00021=18733,52412,-17126,-28005,-50247,-22983
C00022=20560,51233,-17995,-24277,-48443,-21042
C00023=22226,50160,-18924,-20902,-46790,-19328
C00024=23972,49106,-19922,-17069,-44962,-17428
C00025=25542,48148,-20955,-13600,-43310,-15745
C00026=27167,47251,-21981,-9686,-41534,-13865
C00027=28611,46443,-23010,-6139,-39955,-12182
C00028=30095,45737,-23939,-2191,-38320,-10291
C00029=31216,44517,-26074,885,-35863,-9213
C00030=31516,43606,-27682,950,-35477,-9374
EC00000=89018,93350
EC00001=87193,96293
EC00002=84051,102933
EC00003=80609,110188
EC00004=77436,116561
EC00005=73977,123560
EC00006=70834,129730
EC00007=68093,135186
EC00008=64690,141935
EC00009=61647,147937
EC00010=58316,154576
EC00011=55362,160498
EC00012=52099,167083
EC00013=49212,172976
EC00014=45986,179547
EC00015=43126,185443
EC00016=39900,192028
EC00017=37024,197949
EC00018=33767,204562
EC00019=30846,210518
EC00020=27539,217161
EC00021=24560,223149
EC00022=21195,229813
EC00023=18152,235805
EC00024=14719,242483
EC00025=11597,248486
EC00026=8074,255153
EC00027=4842,261159
EC00028=1178,267790
EC00029=-1171,272734
EC00030=-1250,272857
//INST
///DATE 2023/07/10 18:40
///ATTR SC,RW
///GROUP1 RB2
///GROUP2 ST1
NOP
MOVL C00000 V=5.0 PL=0 +MOVJ EC00000 VJ=1.0
MOVL C00001 V=6.2 +MOVJ EC00001 VJ=4.0
MOVL C00002 V=8.7 +MOVJ EC00002 VJ=4.0
MOVL C00003 V=9.2 +MOVJ EC00003 VJ=4.0
MOVL C00004 V=8.8 +MOVJ EC00004 VJ=4.0
MOVL C00005 V=9.3 +MOVJ EC00005 VJ=4.0
MOVL C00006 V=8.9 +MOVJ EC00006 VJ=4.0
MOVL C00007 V=7.4 +MOVJ EC00007 VJ=4.0
MOVL C00008 V=9.1 +MOVJ EC00008 VJ=4.0
MOVL C00009 V=8.6 +MOVJ EC00009 VJ=4.0
MOVL C00010 V=8.7 +MOVJ EC00010 VJ=4.0
MOVL C00011 V=8.2 +MOVJ EC00011 VJ=4.0
MOVL C00012 V=8.3 +MOVJ EC00012 VJ=4.0
MOVL C00013 V=7.7 +MOVJ EC00013 VJ=4.0
MOVL C00014 V=7.8 +MOVJ EC00014 VJ=4.0
MOVL C00015 V=7.3 +MOVJ EC00015 VJ=4.0
MOVL C00016 V=7.4 +MOVJ EC00016 VJ=4.0
MOVL C00017 V=7.0 +MOVJ EC00017 VJ=4.0
MOVL C00018 V=7.2 +MOVJ EC00018 VJ=4.0
MOVL C00019 V=7.0 +MOVJ EC00019 VJ=4.0
MOVL C00020 V=7.4 +MOVJ EC00020 VJ=4.0
MOVL C00021 V=7.2 +MOVJ EC00021 VJ=4.0
MOVL C00022 V=7.7 +MOVJ EC00022 VJ=4.0
MOVL C00023 V=7.7 +MOVJ EC00023 VJ=4.0
MOVL C00024 V=8.2 +MOVJ EC00024 VJ=4.0
MOVL C00025 V=8.1 +MOVJ EC00025 VJ=4.0
MOVL C00026 V=8.7 +MOVJ EC00026 VJ=4.0
MOVL C00027 V=8.6 +MOVJ EC00027 VJ=4.0
MOVL C00028 V=9.2 +MOVJ EC00028 VJ=4.0
MOVL C00029 V=8.5 +MOVJ EC00029 VJ=4.0
MOVL C00030 V=5.0 PL=0 +MOVJ EC00030 VJ=3.8
END
