/JOB
//NAME AAA
//POS
///NPOS 1054,0,1054,0,0,0
///TOOL 12
///POSTYPE PULSE
///PULSE
C00000=-27739,69386,10597,13948,-40070,-15066
C00001=-27777,69389,10671,13922,-40107,-15043
C00002=-27814,69393,10745,13896,-40144,-15019
C00003=-27852,69396,10820,13870,-40181,-14995
C00004=-27889,69399,10894,13843,-40218,-14971
C00005=-27927,69403,10968,13817,-40256,-14947
C00006=-27964,69406,11042,13791,-40293,-14924
C00007=-28002,69409,11116,13765,-40330,-14900
C00008=-28040,69413,11191,13738,-40367,-14876
C00009=-28070,69422,11251,13719,-40394,-14858
C00010=-28104,69432,11317,13697,-40423,-14837
C00011=-28137,69442,11382,13675,-40452,-14817
C00012=-28171,69453,11448,13653,-40482,-14797
C00013=-28205,69463,11514,13631,-40511,-14776
C00014=-28238,69473,11580,13609,-40541,-14756
C00015=-28272,69483,11646,13587,-40570,-14735
C00016=-28309,69495,11718,13564,-40602,-14713
C00017=-28341,69504,11780,13543,-40630,-14694
C00018=-28373,69514,11843,13522,-40658,-14675
C00019=-28404,69524,11905,13502,-40686,-14655
C00020=-28436,69534,11968,13481,-40714,-14636
C00021=-28468,69543,12030,13460,-40741,-14617
C00022=-28500,69553,12092,13440,-40769,-14598
C00023=-28532,69563,12155,13419,-40797,-14578
C00024=-28564,69572,12217,13398,-40825,-14559
C00025=-28591,69583,12270,13381,-40848,-14543
C00026=-28618,69595,12324,13364,-40870,-14527
C00027=-28646,69608,12378,13347,-40892,-14511
C00028=-28674,69620,12432,13330,-40914,-14495
C00029=-28701,69633,12486,13313,-40936,-14478
C00030=-28729,69646,12540,13296,-40958,-14462
C00031=-28756,69658,12594,13279,-40980,-14446
C00032=-28784,69671,12647,13262,-41002,-14430
C00033=-28812,69684,12701,13245,-41024,-14414
C00034=-28836,69695,12748,13230,-41043,-14400
C00035=-28862,69707,12800,13214,-41064,-14384
C00036=-28889,69719,12852,13197,-41085,-14369
C00037=-28915,69731,12904,13181,-41107,-14353
C00038=-28941,69743,12955,13165,-41128,-14338
C00039=-28968,69755,13007,13148,-41149,-14322
C00040=-28994,69767,13059,13132,-41170,-14307
C00041=-29021,69780,13110,13116,-41191,-14291
C00042=-29045,69791,13157,13101,-41210,-14277
C00043=-29065,69802,13197,13089,-41226,-14265
C00044=-29088,69815,13241,13075,-41242,-14253
C00045=-29110,69828,13285,13062,-41259,-14240
C00046=-29132,69840,13329,13049,-41276,-14227
C00047=-29155,69853,13373,13036,-41293,-14214
C00048=-29177,69866,13416,13022,-41309,-14201
C00049=-29200,69878,13460,13009,-41326,-14189
C00050=-29222,69891,13504,12996,-41343,-14176
C00051=-29244,69904,13548,12982,-41360,-14163
C00052=-29264,69915,13586,12971,-41374,-14152
C00053=-29285,69927,13628,12958,-41391,-14139
C00054=-29307,69939,13670,12945,-41407,-14127
C00055=-29328,69951,13712,12932,-41423,-14115
C00056=-29348,69963,13751,12921,-41437,-14104
C00057=-29369,69975,13793,12908,-41454,-14091
C00058=-29391,69987,13835,12895,-41470,-14079
C00059=-29412,69999,13877,12882,-41486,-14067
C00060=-29434,70011,13919,12869,-41502,-14054
C00061=-29450,70021,13951,12860,-41514,-14045
C00062=-29469,70033,13988,12849,-41527,-14035
C00063=-29487,70045,14024,12838,-41540,-14024
C00064=-29505,70057,14060,12828,-41554,-14014
C00065=-29524,70068,14096,12817,-41567,-14004
C00066=-29540,70079,14129,12808,-41579,-13994
C00067=-29559,70091,14165,12797,-41592,-13984
C00068=-29577,70103,14201,12786,-41605,-13973
C00069=-29595,70115,14237,12776,-41618,-13963
C00070=-29614,70126,14273,12765,-41632,-13953
C00071=-29630,70137,14305,12756,-41643,-13944
C00072=-29648,70148,14340,12745,-41656,-13934
C00073=-29664,70159,14372,12736,-41668,-13924
C00074=-29681,70170,14407,12725,-41681,-13914
C00075=-29699,70182,14442,12715,-41693,-13904
C00076=-29715,70192,14474,12706,-41705,-13895
C00077=-29733,70204,14509,12695,-41718,-13885
C00078=-29749,70214,14541,12686,-41730,-13876
C00079=-29767,70226,14576,12676,-41742,-13866
C00080=-29783,70236,14608,12666,-41754,-13857
C00081=-29783,70236,14608,12666,-41754,-13857
C00082=-29783,70236,14608,12666,-41754,-13857
C00083=-29783,70236,14608,12666,-41754,-13857
C00084=-29783,70236,14608,12666,-41754,-13857
C00085=-29783,70236,14608,12666,-41754,-13857
C00086=-29783,70236,14608,12666,-41754,-13857
C00087=-29783,70236,14608,12666,-41754,-13857
C00088=-29783,70236,14608,12666,-41754,-13857
C00089=-29783,70236,14608,12666,-41754,-13857
C00090=-29783,70236,14608,12666,-41754,-13857
C00091=-29942,70347,14923,12576,-41866,-13768
C00092=-29955,70356,14949,12568,-41875,-13761
C00093=-29970,70367,14978,12560,-41886,-13753
C00094=-29983,70376,15005,12552,-41895,-13745
C00095=-29998,70386,15034,12544,-41905,-13737
C00096=-30011,70395,15060,12536,-41915,-13730
C00097=-30026,70406,15089,12528,-41925,-13721
C00098=-30039,70415,15116,12520,-41934,-13714
C00099=-30054,70425,15145,12512,-41945,-13706
C00100=-30067,70435,15171,12504,-41954,-13698
C00101=-30074,70439,15185,12500,-41959,-13695
C00102=-30074,70439,15185,12500,-41959,-13695
C00103=-30074,70439,15185,12500,-41959,-13695
C00104=-30074,70439,15185,12500,-41959,-13695
C00105=-30074,70439,15185,12500,-41959,-13695
C00106=-30074,70439,15185,12500,-41959,-13695
C00107=-30074,70439,15185,12500,-41959,-13695
C00108=-30074,70439,15185,12500,-41959,-13695
C00109=-30074,70439,15185,12500,-41959,-13695
C00110=-30074,70439,15185,12500,-41959,-13695
C00111=-30074,70439,15185,12500,-41959,-13695
C00112=-30210,70539,15458,12423,-42054,-13619
C00113=-30222,70548,15482,12416,-42063,-13612
C00114=-30234,70557,15507,12409,-42071,-13605
C00115=-30246,70566,15532,12403,-42080,-13599
C00116=-30257,70575,15554,12396,-42088,-13592
C00117=-30270,70584,15579,12389,-42096,-13586
C00118=-30282,70593,15603,12382,-42105,-13579
C00119=-30294,70602,15628,12375,-42114,-13572
C00120=-30305,70610,15650,12369,-42122,-13566
C00121=-30318,70619,15675,12362,-42130,-13559
C00122=-30323,70623,15686,12359,-42134,-13556
C00123=-30323,70623,15686,12359,-42134,-13556
C00124=-30323,70623,15686,12359,-42134,-13556
C00125=-30323,70623,15686,12359,-42134,-13556
C00126=-30323,70623,15686,12359,-42134,-13556
C00127=-30323,70623,15686,12359,-42134,-13556
C00128=-30323,70623,15686,12359,-42134,-13556
C00129=-30323,70623,15686,12359,-42134,-13556
C00130=-30323,70623,15686,12359,-42134,-13556
C00131=-30323,70623,15686,12359,-42134,-13556
C00132=-30323,70623,15686,12359,-42134,-13556
C00133=-30441,70712,15925,12293,-42217,-13491
C00134=-30451,70720,15946,12287,-42224,-13485
C00135=-30460,70727,15965,12282,-42231,-13480
C00136=-30471,70735,15986,12276,-42238,-13474
C00137=-30480,70742,16006,12270,-42245,-13469
C00138=-30490,70750,16027,12265,-42252,-13463
C00139=-30500,70757,16046,12259,-42259,-13458
C00140=-30510,70765,16067,12254,-42266,-13452
C00141=-30520,70772,16086,12248,-42273,-13447
C00142=-30530,70780,16107,12242,-42280,-13441
C00143=-30539,70787,16126,12237,-42287,-13436
C00144=-30539,70787,16126,12237,-42287,-13436
C00145=-30539,70787,16126,12237,-42287,-13436
C00146=-30539,70787,16126,12237,-42287,-13436
C00147=-30539,70787,16126,12237,-42287,-13436
C00148=-30539,70787,16126,12237,-42287,-13436
C00149=-30539,70787,16126,12237,-42287,-13436
C00150=-30539,70787,16126,12237,-42287,-13436
C00151=-30539,70787,16126,12237,-42287,-13436
C00152=-30539,70787,16126,12237,-42287,-13436
C00153=-30539,70787,16126,12237,-42287,-13436
C00154=-30539,70787,16126,12237,-42287,-13436
C00155=-30642,70866,16337,12179,-42361,-13379
C00156=-30651,70873,16356,12174,-42367,-13374
C00157=-30659,70880,16374,12169,-42373,-13370
C00158=-30668,70887,16392,12164,-42380,-13365
C00159=-30677,70894,16410,12160,-42386,-13360
C00160=-30685,70900,16427,12155,-42392,-13355
C00161=-30694,70907,16445,12150,-42398,-13351
C00162=-30702,70913,16463,12145,-42405,-13346
C00163=-30711,70920,16481,12140,-42411,-13341
C00164=-30720,70927,16499,12135,-42417,-13336
C00165=-30728,70933,16516,12131,-42423,-13331
C00166=-30728,70933,16516,12131,-42423,-13331
C00167=-30728,70933,16516,12131,-42423,-13331
C00168=-30728,70933,16516,12131,-42423,-13331
C00169=-30728,70933,16516,12131,-42423,-13331
C00170=-30728,70933,16516,12131,-42423,-13331
C00171=-30728,70933,16516,12131,-42423,-13331
C00172=-30728,70933,16516,12131,-42423,-13331
C00173=-30728,70933,16516,12131,-42423,-13331
C00174=-30728,70933,16516,12131,-42423,-13331
C00175=-30728,70933,16516,12131,-42423,-13331
C00176=-30728,70933,16516,12131,-42423,-13331
C00177=-30818,71003,16704,12080,-42489,-13282
C00178=-30826,71009,16720,12076,-42495,-13277
C00179=-30832,71014,16734,12072,-42500,-13274
C00180=-30840,71020,16750,12067,-42506,-13269
C00181=-30847,71025,16765,12064,-42511,-13266
C00182=-30854,71031,16780,12059,-42516,-13261
C00183=-30861,71036,16795,12055,-42521,-13258
C00184=-30869,71042,16811,12051,-42527,-13253
C00185=-30876,71048,16827,12047,-42533,-13249
C00186=-30883,71053,16841,12043,-42538,-13245
C00187=-30891,71059,16857,12039,-42543,-13241
C00188=-30894,71062,16864,12037,-42546,-13239
C00189=-30894,71062,16864,12037,-42546,-13239
C00190=-30894,71062,16864,12037,-42546,-13239
C00191=-30894,71062,16864,12037,-42546,-13239
C00192=-30894,71062,16864,12037,-42546,-13239
C00193=-30894,71062,16864,12037,-42546,-13239
C00194=-30894,71062,16864,12037,-42546,-13239
C00195=-30894,71062,16864,12037,-42546,-13239
C00196=-30894,71062,16864,12037,-42546,-13239
C00197=-30894,71062,16864,12037,-42546,-13239
C00198=-30894,71062,16864,12037,-42546,-13239
C00199=-30894,71062,16864,12037,-42546,-13239
C00200=-30974,71123,17034,11992,-42607,-13195
C00201=-30980,71128,17048,11988,-42612,-13191
C00202=-30987,71133,17062,11984,-42617,-13188
C00203=-30993,71138,17076,11980,-42622,-13184
C00204=-30999,71143,17088,11977,-42626,-13181
C00205=-31006,71148,17103,11973,-42631,-13177
C00206=-31013,71153,17117,11969,-42636,-13173
C00207=-31019,71158,17131,11966,-42641,-13170
C00208=-31026,71163,17145,11962,-42646,-13166
C00209=-31032,71168,17157,11959,-42651,-13163
C00210=-31038,71173,17171,11955,-42656,-13159
C00211=-31041,71175,17178,11953,-42658,-13157
C00212=-31041,71175,17178,11953,-42658,-13157
C00213=-31041,71175,17178,11953,-42658,-13157
C00214=-31041,71175,17178,11953,-42658,-13157
C00215=-31041,71175,17178,11953,-42658,-13157
C00216=-31041,71175,17178,11953,-42658,-13157
C00217=-31041,71175,17178,11953,-42658,-13157
C00218=-31041,71175,17178,11953,-42658,-13157
C00219=-31041,71175,17178,11953,-42658,-13157
C00220=-31041,71175,17178,11953,-42658,-13157
C00221=-31041,71175,17178,11953,-42658,-13157
C00222=-31041,71175,17178,11953,-42658,-13157
C00223=-31112,71229,17332,11913,-42715,-13118
C00224=-31118,71233,17344,11909,-42719,-13114
C00225=-31123,71237,17355,11906,-42723,-13111
C00226=-31129,71241,17368,11903,-42728,-13108
C00227=-31134,71245,17379,11900,-42732,-13105
C00228=-31140,71250,17392,11897,-42737,-13102
C00229=-31145,71254,17403,11894,-42741,-13099
C00230=-31151,71258,17415,11891,-42745,-13096
C00231=-31156,71262,17427,11888,-42750,-13093
C00232=-31162,71266,17439,11884,-42754,-13090
C00233=-31167,71270,17451,11881,-42758,-13087
C00234=-31173,71275,17463,11878,-42763,-13084
C00235=-31173,71275,17463,11878,-42763,-13084
C00236=-31173,71275,17463,11878,-42763,-13084
C00237=-31173,71275,17463,11878,-42763,-13084
C00238=-31173,71275,17463,11878,-42763,-13084
C00239=-31173,71275,17463,11878,-42763,-13084
C00240=-31173,71275,17463,11878,-42763,-13084
C00241=-31173,71275,17463,11878,-42763,-13084
C00242=-31173,71275,17463,11878,-42763,-13084
C00243=-31173,71275,17463,11878,-42763,-13084
C00244=-31173,71275,17463,11878,-42763,-13084
C00245=-31173,71275,17463,11878,-42763,-13084
C00246=-31173,71275,17463,11878,-42763,-13084
C00247=-31236,71322,17604,11841,-42815,-13048
C00248=-31241,71326,17615,11838,-42820,-13045
C00249=-31246,71329,17626,11835,-42824,-13042
C00250=-31251,71333,17637,11832,-42828,-13039
C00251=-31256,71337,17647,11830,-42832,-13037
C00252=-31261,71340,17659,11827,-42836,-13034
C00253=-31266,71344,17670,11824,-42840,-13031
C00254=-31271,71348,17681,11821,-42845,-13028
C00255=-31276,71351,17691,11818,-42848,-13026
C00256=-31281,71355,17703,11815,-42853,-13023
C00257=-31286,71359,17714,11812,-42857,-13020
C00258=-31291,71362,17724,11810,-42861,-13017
C00259=-31291,71362,17724,11810,-42861,-13017
C00260=-31291,71362,17724,11810,-42861,-13017
C00261=-31291,71362,17724,11810,-42861,-13017
C00262=-31291,71362,17724,11810,-42861,-13017
C00263=-31291,71362,17724,11810,-42861,-13017
C00264=-31291,71362,17724,11810,-42861,-13017
C00265=-31291,71362,17724,11810,-42861,-13017
C00266=-31291,71362,17724,11810,-42861,-13017
C00267=-31291,71362,17724,11810,-42861,-13017
C00268=-31291,71362,17724,11810,-42861,-13017
C00269=-31291,71362,17724,11810,-42861,-13017
C00270=-31291,71362,17724,11810,-42861,-13017
C00271=-31348,71403,17853,11776,-42910,-12985
C00272=-31352,71406,17863,11774,-42914,-12982
C00273=-31357,71410,17873,11771,-42918,-12980
C00274=-31361,71413,17882,11769,-42921,-12978
C00275=-31365,71416,17892,11766,-42925,-12975
C00276=-31369,71419,17901,11764,-42929,-12973
C00277=-31374,71422,17912,11761,-42933,-12970
C00278=-31378,71425,17921,11759,-42936,-12968
C00279=-31382,71428,17931,11756,-42940,-12965
C00280=-31386,71431,17940,11754,-42944,-12963
C00281=-31391,71434,17950,11751,-42948,-12960
C00282=-31395,71437,17960,11749,-42951,-12958
C00283=-31397,71439,17964,11748,-42953,-12957
C00284=-31397,71439,17964,11748,-42953,-12957
C00285=-31397,71439,17964,11748,-42953,-12957
C00286=-31397,71439,17964,11748,-42953,-12957
C00287=-31397,71439,17964,11748,-42953,-12957
C00288=-31397,71439,17964,11748,-42953,-12957
C00289=-31397,71439,17964,11748,-42953,-12957
C00290=-31397,71439,17964,11748,-42953,-12957
C00291=-31397,71439,17964,11748,-42953,-12957
C00292=-31397,71439,17964,11748,-42953,-12957
C00293=-31397,71439,17964,11748,-42953,-12957
C00294=-31397,71439,17964,11748,-42953,-12957
C00295=-31397,71439,17964,11748,-42953,-12957
C00296=-31449,71475,18084,11717,-43000,-12927
C00297=-31453,71478,18093,11714,-43004,-12925
C00298=-31457,71480,18102,11712,-43007,-12923
C00299=-31461,71483,18111,11710,-43011,-12920
C00300=-31465,71486,18121,11707,-43015,-12918
C00301=-31469,71488,18129,11705,-43018,-12916
C00302=-31473,71491,18138,11703,-43022,-12914
C00303=-31477,71494,18148,11701,-43025,-12911
C00304=-31480,71497,18156,11698,-43029,-12909
C00305=-31484,71499,18165,11696,-43032,-12907
C00306=-31488,71502,18175,11694,-43036,-12905
C00307=-31492,71505,18183,11691,-43039,-12903
C00308=-31494,71506,18187,11690,-43041,-12902
C00309=-31494,71506,18187,11690,-43041,-12902
C00310=-31494,71506,18187,11690,-43041,-12902
C00311=-31494,71506,18187,11690,-43041,-12902
C00312=-31494,71506,18187,11690,-43041,-12902
C00313=-31494,71506,18187,11690,-43041,-12902
C00314=-31494,71506,18187,11690,-43041,-12902
C00315=-31494,71506,18187,11690,-43041,-12902
C00316=-31494,71506,18187,11690,-43041,-12902
C00317=-31494,71506,18187,11690,-43041,-12902
C00318=-31494,71506,18187,11690,-43041,-12902
C00319=-31494,71506,18187,11690,-43041,-12902
C00320=-31494,71506,18187,11690,-43041,-12902
C00321=-31541,71537,18299,11662,-43086,-12874
C00322=-31545,71540,18307,11660,-43089,-12872
C00323=-31548,71542,18315,11658,-43093,-12870
C00324=-31552,71544,18323,11656,-43096,-12868
C00325=-31555,71546,18331,11654,-43099,-12866
C00326=-31558,71549,18339,11652,-43103,-12864
C00327=-31562,71551,18347,11650,-43106,-12862
C00328=-31565,71553,18355,11648,-43109,-12860
C00329=-31569,71556,18363,11646,-43112,-12858
C00330=-31572,71558,18371,11644,-43116,-12857
C00331=-31576,71560,18379,11641,-43119,-12854
C00332=-31579,71562,18387,11639,-43122,-12853
C00333=-31582,71565,18395,11637,-43125,-12851
C00334=-31582,71565,18395,11637,-43125,-12851
C00335=-31582,71565,18395,11637,-43125,-12851
C00336=-31582,71565,18395,11637,-43125,-12851
C00337=-31582,71565,18395,11637,-43125,-12851
C00338=-31582,71565,18395,11637,-43125,-12851
C00339=-31582,71565,18395,11637,-43125,-12851
C00340=-31582,71565,18395,11637,-43125,-12851
C00341=-31582,71565,18395,11637,-43125,-12851
C00342=-31582,71565,18395,11637,-43125,-12851
C00343=-31582,71565,18395,11637,-43125,-12851
C00344=-31582,71565,18395,11637,-43125,-12851
C00345=-31582,71565,18395,11637,-43125,-12851
C00346=-31582,71565,18395,11637,-43125,-12851
C00347=-31626,71592,18499,11611,-43169,-12825
C00348=-31629,71594,18507,11609,-43172,-12823
C00349=-31632,71596,18514,11607,-43175,-12822
C00350=-31635,71598,18522,11605,-43178,-12820
C00351=-31638,71600,18529,11603,-43181,-12818
C00352=-31641,71602,18537,11601,-43185,-12816
C00353=-31644,71604,18544,11600,-43188,-12814
C00354=-31648,71606,18552,11598,-43191,-12813
C00355=-31651,71608,18559,11596,-43194,-12811
C00356=-31654,71610,18567,11594,-43197,-12809
C00357=-31657,71612,18575,11592,-43200,-12807
C00358=-31660,71614,18582,11590,-43204,-12805
C00359=-31663,71616,18590,11588,-43207,-12804
C00360=-31663,71616,18590,11588,-43207,-12804
C00361=-31663,71616,18590,11588,-43207,-12804
C00362=-31663,71616,18590,11588,-43207,-12804
C00363=-31663,71616,18590,11588,-43207,-12804
C00364=-31663,71616,18590,11588,-43207,-12804
C00365=-31663,71616,18590,11588,-43207,-12804
C00366=-31663,71616,18590,11588,-43207,-12804
C00367=-31663,71616,18590,11588,-43207,-12804
C00368=-31663,71616,18590,11588,-43207,-12804
C00369=-31663,71616,18590,11588,-43207,-12804
C00370=-31663,71616,18590,11588,-43207,-12804
C00371=-31663,71616,18590,11588,-43207,-12804
C00372=-31663,71616,18590,11588,-43207,-12804
C00373=-31703,71639,18688,11564,-43249,-12780
C00374=-31706,71641,18695,11562,-43252,-12778
C00375=-31709,71643,18702,11560,-43255,-12777
C00376=-31712,71644,18709,11558,-43258,-12775
C00377=-31715,71646,18716,11556,-43261,-12773
C00378=-31718,71648,18724,11555,-43264,-12771
C00379=-31720,71650,18730,11553,-43267,-12770
C00380=-31723,71651,18738,11551,-43270,-12768
C00381=-31726,71653,18745,11549,-43273,-12766
C00382=-31729,71655,18751,11548,-43276,-12765
C00383=-31732,71656,18759,11546,-43279,-12763
C00384=-31735,71658,18766,11544,-43282,-12761
C00385=-31738,71660,18773,11542,-43285,-12760
C00386=-31738,71660,18773,11542,-43285,-12760
C00387=-31738,71660,18773,11542,-43285,-12760
C00388=-31738,71660,18773,11542,-43285,-12760
C00389=-31738,71660,18773,11542,-43285,-12760
C00390=-31738,71660,18773,11542,-43285,-12760
C00391=-31738,71660,18773,11542,-43285,-12760
C00392=-31738,71660,18773,11542,-43285,-12760
C00393=-31738,71660,18773,11542,-43285,-12760
C00394=-31738,71660,18773,11542,-43285,-12760
C00395=-31738,71660,18773,11542,-43285,-12760
C00396=-31738,71660,18773,11542,-43285,-12760
C00397=-31738,71660,18773,11542,-43285,-12760
C00398=-31738,71660,18773,11542,-43285,-12760
C00399=-31775,71680,18865,11519,-43326,-12738
C00400=-31777,71682,18872,11518,-43329,-12736
C00401=-31780,71683,18878,11516,-43332,-12735
C00402=-31782,71685,18885,11514,-43335,-12733
C00403=-31785,71686,18891,11513,-43338,-12732
C00404=-31787,71687,18898,11511,-43340,-12730
C00405=-31790,71689,18904,11510,-43343,-12729
C00406=-31793,71690,18911,11508,-43346,-12727
C00407=-31795,71692,18917,11506,-43349,-12726
C00408=-31798,71693,18924,11505,-43352,-12724
C00409=-31800,71694,18930,11503,-43354,-12723
C00410=-31803,71696,18936,11502,-43357,-12721
C00411=-31805,71697,18943,11500,-43360,-12720
C00412=-31807,71698,18946,11499,-43362,-12719
C00413=-31807,71698,18946,11499,-43362,-12719
C00414=-31807,71698,18946,11499,-43362,-12719
C00415=-31807,71698,18946,11499,-43362,-12719
C00416=-31807,71698,18946,11499,-43362,-12719
C00417=-31807,71698,18946,11499,-43362,-12719
C00418=-31807,71698,18946,11499,-43362,-12719
C00419=-31807,71698,18946,11499,-43362,-12719
C00420=-31807,71698,18946,11499,-43362,-12719
C00421=-31807,71698,18946,11499,-43362,-12719
C00422=-31807,71698,18946,11499,-43362,-12719
C00423=-31807,71698,18946,11499,-43362,-12719
C00424=-31807,71698,18946,11499,-43362,-12719
C00425=-31807,71698,18946,11499,-43362,-12719
C00426=-31841,71716,19034,11477,-43401,-12698
C00427=-31843,71717,19040,11476,-43404,-12697
C00428=-31846,71718,19046,11474,-43407,-12695
C00429=-31848,71719,19052,11473,-43410,-12694
C00430=-31850,71720,19058,11471,-43412,-12693
C00431=-31853,71722,19065,11470,-43415,-12691
C00432=-31855,71723,19070,11468,-43418,-12690
C00433=-31858,71724,19077,11467,-43421,-12688
C00434=-31860,71725,19083,11465,-43424,-12687
C00435=-31862,71726,19089,11464,-43426,-12685
C00436=-31865,71728,19095,11462,-43429,-12684
C00437=-31867,71729,19101,11461,-43432,-12683
C00438=-31869,71730,19107,11459,-43435,-12681
C00439=-31871,71731,19110,11458,-43436,-12680
C00440=-31871,71731,19110,11458,-43436,-12680
C00441=-31871,71731,19110,11458,-43436,-12680
C00442=-31871,71731,19110,11458,-43436,-12680
C00443=-31871,71731,19110,11458,-43436,-12680
C00444=-31871,71731,19110,11458,-43436,-12680
C00445=-31871,71731,19110,11458,-43436,-12680
C00446=-31871,71731,19110,11458,-43436,-12680
C00447=-31871,71731,19110,11458,-43436,-12680
C00448=-31871,71731,19110,11458,-43436,-12680
C00449=-31871,71731,19110,11458,-43436,-12680
C00450=-31871,71731,19110,11458,-43436,-12680
C00451=-31871,71731,19110,11458,-43436,-12680
C00452=-31871,71731,19110,11458,-43436,-12680
C00453=-31902,71746,19194,11438,-43475,-12661
C00454=-31905,71747,19200,11436,-43478,-12660
C00455=-31907,71748,19206,11435,-43481,-12658
C00456=-31909,71749,19212,11434,-43483,-12657
C00457=-31911,71750,19218,11432,-43486,-12656
C00458=-31914,71751,19224,11431,-43489,-12654
C00459=-31916,71752,19229,11429,-43491,-12653
C00460=-31918,71753,19235,11428,-43494,-12652
C00461=-31920,71754,19241,11426,-43497,-12650
C00462=-31922,71755,19247,11425,-43500,-12649
C00463=-31925,71756,19253,11423,-43502,-12648
C00464=-31927,71757,19259,11422,-43505,-12646
C00465=-31929,71758,19264,11421,-43508,-12645
C00466=-31930,71759,19267,11420,-43509,-12644
C00467=-31930,71759,19267,11420,-43509,-12644
C00468=-31930,71759,19267,11420,-43509,-12644
C00469=-31930,71759,19267,11420,-43509,-12644
C00470=-31930,71759,19267,11420,-43509,-12644
C00471=-31930,71759,19267,11420,-43509,-12644
C00472=-31930,71759,19267,11420,-43509,-12644
C00473=-31930,71759,19267,11420,-43509,-12644
C00474=-31930,71759,19267,11420,-43509,-12644
C00475=-31930,71759,19267,11420,-43509,-12644
C00476=-31930,71759,19267,11420,-43509,-12644
C00477=-31930,71759,19267,11420,-43509,-12644
C00478=-31930,71759,19267,11420,-43509,-12644
C00479=-31930,71759,19267,11420,-43509,-12644
C00480=-31960,71771,19347,11400,-43547,-12626
C00481=-31962,71772,19352,11399,-43550,-12625
C00482=-31964,71773,19358,11398,-43552,-12624
C00483=-31966,71774,19363,11397,-43555,-12623
C00484=-31968,71774,19368,11395,-43557,-12621
C00485=-31970,71775,19374,11394,-43560,-12620
C00486=-31972,71776,19379,11393,-43562,-12619
C00487=-31974,71777,19384,11391,-43565,-12618
C00488=-31976,71778,19390,11390,-43568,-12616
C00489=-31978,71779,19395,11389,-43570,-12615
C00490=-31980,71780,19400,11387,-43573,-12614
C00491=-31982,71780,19406,11386,-43575,-12613
C00492=-31984,71781,19411,11385,-43578,-12611
C00493=-31986,71782,19416,11383,-43580,-12610
C00494=-31986,71782,19416,11383,-43580,-12610
C00495=-31986,71782,19416,11383,-43580,-12610
C00496=-31986,71782,19416,11383,-43580,-12610
C00497=-31986,71782,19416,11383,-43580,-12610
C00498=-31986,71782,19416,11383,-43580,-12610
C00499=-31986,71782,19416,11383,-43580,-12610
C00500=-31986,71782,19416,11383,-43580,-12610
C00501=-31986,71782,19416,11383,-43580,-12610
C00502=-31986,71782,19416,11383,-43580,-12610
C00503=-31986,71782,19416,11383,-43580,-12610
C00504=-31986,71782,19416,11383,-43580,-12610
C00505=-31986,71782,19416,11383,-43580,-12610
C00506=-31986,71782,19416,11383,-43580,-12610
C00507=-31986,71782,19416,11383,-43580,-12610
C00508=-32013,71792,19493,11365,-43618,-12593
C00509=-32015,71793,19498,11364,-43621,-12592
C00510=-32017,71794,19503,11362,-43623,-12591
C00511=-32019,71794,19509,11361,-43626,-12590
C00512=-32021,71795,19513,11360,-43628,-12588
C00513=-32023,71796,19519,11359,-43631,-12587
C00514=-32024,71797,19524,11357,-43633,-12586
C00515=-32026,71797,19529,11356,-43636,-12585
C00516=-32028,71798,19534,11355,-43638,-12584
C00517=-32030,71799,19539,11354,-43641,-12583
C00518=-32032,71799,19544,11352,-43643,-12582
C00519=-32034,71800,19550,11351,-43646,-12580
C00520=-32036,71801,19554,11350,-43648,-12579
C00521=-32038,71801,19560,11349,-43651,-12578
C00522=-32038,71801,19560,11349,-43651,-12578
C00523=-32038,71801,19560,11349,-43651,-12578
C00524=-32038,71801,19560,11349,-43651,-12578
C00525=-32038,71801,19560,11349,-43651,-12578
C00526=-32038,71801,19560,11349,-43651,-12578
C00527=-32038,71801,19560,11349,-43651,-12578
C00528=-32038,71801,19560,11349,-43651,-12578
C00529=-32038,71801,19560,11349,-43651,-12578
C00530=-32038,71801,19560,11349,-43651,-12578
C00531=-32038,71801,19560,11349,-43651,-12578
C00532=-32038,71801,19560,11349,-43651,-12578
C00533=-32038,71801,19560,11349,-43651,-12578
C00534=-32038,71801,19560,11349,-43651,-12578
C00535=-32038,71801,19560,11349,-43651,-12578
C00536=-32064,71810,19633,11331,-43687,-12562
C00537=-32065,71810,19638,11330,-43690,-12561
C00538=-32067,71811,19643,11329,-43692,-12559
C00539=-32069,71812,19648,11327,-43695,-12558
C00540=-32071,71812,19653,11326,-43698,-12557
C00541=-32072,71813,19658,11325,-43700,-12556
C00542=-32074,71813,19663,11324,-43702,-12555
C00543=-32076,71814,19668,11323,-43705,-12554
C00544=-32078,71814,19673,11321,-43707,-12553
C00545=-32079,71815,19678,11320,-43710,-12552
C00546=-32081,71816,19683,11319,-43712,-12551
C00547=-32083,71816,19688,11318,-43715,-12550
C00548=-32085,71817,19693,11317,-43717,-12548
C00549=-32086,71817,19698,11315,-43720,-12547
C00550=-32086,71817,19698,11315,-43720,-12547
C00551=-32086,71817,19698,11315,-43720,-12547
C00552=-32086,71817,19698,11315,-43720,-12547
C00553=-32086,71817,19698,11315,-43720,-12547
C00554=-32086,71817,19698,11315,-43720,-12547
C00555=-32086,71817,19698,11315,-43720,-12547
C00556=-32086,71817,19698,11315,-43720,-12547
C00557=-32086,71817,19698,11315,-43720,-12547
C00558=-32086,71817,19698,11315,-43720,-12547
C00559=-32086,71817,19698,11315,-43720,-12547
C00560=-32086,71817,19698,11315,-43720,-12547
C00561=-32086,71817,19698,11315,-43720,-12547
C00562=-32086,71817,19698,11315,-43720,-12547
C00563=-32086,71817,19698,11315,-43720,-12547
C00564=-32111,71824,19768,11298,-43756,-12532
C00565=-32112,71824,19773,11297,-43758,-12531
C00566=-32114,71825,19778,11296,-43761,-12530
C00567=-32116,71825,19782,11295,-43763,-12529
C00568=-32117,71826,19787,11294,-43765,-12528
C00569=-32119,71826,19792,11293,-43768,-12527
C00570=-32120,71826,19796,11292,-43770,-12526
C00571=-32122,71827,19801,11291,-43773,-12525
C00572=-32124,71827,19805,11290,-43775,-12524
C00573=-32125,71828,19810,11289,-43777,-12523
C00574=-32127,71828,19815,11287,-43780,-12522
C00575=-32128,71829,19819,11286,-43782,-12521
C00576=-32130,71829,19823,11285,-43784,-12520
C00577=-32131,71829,19828,11284,-43787,-12519
C00578=-32132,71830,19831,11284,-43788,-12518
C00579=-32132,71830,19831,11284,-43788,-12518
C00580=-32132,71830,19831,11284,-43788,-12518
C00581=-32132,71830,19831,11284,-43788,-12518
C00582=-32132,71830,19831,11284,-43788,-12518
C00583=-32132,71830,19831,11284,-43788,-12518
C00584=-32132,71830,19831,11284,-43788,-12518
C00585=-32132,71830,19831,11284,-43788,-12518
C00586=-32132,71830,19831,11284,-43788,-12518
C00587=-32132,71830,19831,11284,-43788,-12518
C00588=-32132,71830,19831,11284,-43788,-12518
C00589=-32132,71830,19831,11284,-43788,-12518
C00590=-32132,71830,19831,11284,-43788,-12518
C00591=-32132,71830,19831,11284,-43788,-12518
C00592=-32132,71830,19831,11284,-43788,-12518
C00593=-32155,71835,19899,11267,-43824,-12503
C00594=-32157,71835,19903,11266,-43826,-12502
C00595=-32158,71835,19908,11265,-43828,-12501
C00596=-32160,71836,19912,11264,-43831,-12500
C00597=-32161,71836,19917,11263,-43833,-12499
C00598=-32163,71836,19921,11262,-43835,-12499
C00599=-32164,71837,19926,11261,-43838,-12498
C00600=-32166,71837,19930,11260,-43840,-12497
C00601=-32167,71837,19935,11259,-43842,-12496
C00602=-32169,71838,19939,11258,-43845,-12495
C00603=-32170,71838,19943,11257,-43847,-12494
C00604=-32172,71838,19948,11256,-43849,-12493
C00605=-32173,71839,19952,11255,-43852,-12492
C00606=-32175,71839,19957,11254,-43854,-12491
C00607=-32176,71839,19959,11253,-43855,-12490
C00608=-32176,71839,19959,11253,-43855,-12490
C00609=-32176,71839,19959,11253,-43855,-12490
C00610=-32176,71839,19959,11253,-43855,-12490
C00611=-32176,71839,19959,11253,-43855,-12490
C00612=-32176,71839,19959,11253,-43855,-12490
C00613=-32176,71839,19959,11253,-43855,-12490
C00614=-32176,71839,19959,11253,-43855,-12490
C00615=-32176,71839,19959,11253,-43855,-12490
C00616=-32176,71839,19959,11253,-43855,-12490
C00617=-32176,71839,19959,11253,-43855,-12490
C00618=-32176,71839,19959,11253,-43855,-12490
C00619=-32176,71839,19959,11253,-43855,-12490
C00620=-32176,71839,19959,11253,-43855,-12490
C00621=-32176,71839,19959,11253,-43855,-12490
C00622=-32197,71843,20025,11237,-43891,-12476
C00623=-32199,71843,20030,11236,-43893,-12475
C00624=-32200,71843,20034,11235,-43895,-12474
C00625=-32202,71843,20038,11234,-43898,-12473
C00626=-32203,71844,20042,11233,-43900,-12472
C00627=-32204,71844,20047,11232,-43902,-12471
C00628=-32206,71844,20051,11231,-43904,-12471
C00629=-32207,71844,20055,11230,-43907,-12470
C00630=-32209,71845,20059,11229,-43909,-12469
C00631=-32210,71845,20064,11228,-43911,-12468
C00632=-32212,71845,20068,11227,-43914,-12467
C00633=-32213,71845,20073,11226,-43916,-12466
C00634=-32214,71845,20077,11225,-43918,-12465
C00635=-32216,71846,20081,11224,-43921,-12464
C00636=-32216,71846,20083,11224,-43922,-12464
C00637=-32216,71846,20083,11224,-43922,-12464
C00638=-32216,71846,20083,11224,-43922,-12464
C00639=-32216,71846,20083,11224,-43922,-12464
C00640=-32216,71846,20083,11224,-43922,-12464
C00641=-32216,71846,20083,11224,-43922,-12464
C00642=-32216,71846,20083,11224,-43922,-12464
C00643=-32216,71846,20083,11224,-43922,-12464
C00644=-32216,71846,20083,11224,-43922,-12464
C00645=-32216,71846,20083,11224,-43922,-12464
C00646=-32216,71846,20083,11224,-43922,-12464
C00647=-32216,71846,20083,11224,-43922,-12464
C00648=-32216,71846,20083,11224,-43922,-12464
C00649=-32216,71846,20083,11224,-43922,-12464
C00650=-32216,71846,20083,11224,-43922,-12464
C00651=-32237,71848,20147,11209,-43957,-12450
C00652=-32238,71848,20151,11208,-43959,-12449
C00653=-32240,71848,20155,11207,-43961,-12448
C00654=-32241,71848,20159,11206,-43963,-12447
C00655=-32242,71849,20163,11205,-43966,-12447
C00656=-32244,71849,20167,11204,-43968,-12446
C00657=-32245,71849,20172,11203,-43970,-12445
C00658=-32246,71849,20176,11202,-43972,-12444
C00659=-32247,71849,20179,11201,-43974,-12443
C00660=-32249,71849,20184,11200,-43977,-12442
C00661=-32250,71849,20188,11199,-43979,-12441
C00662=-32251,71850,20192,11198,-43981,-12441
C00663=-32253,71850,20195,11197,-43983,-12440
C00664=-32254,71850,20200,11196,-43985,-12439
C00665=-32255,71850,20204,11195,-43988,-12438
C00666=-32255,71850,20204,11195,-43988,-12438
C00667=-32255,71850,20204,11195,-43988,-12438
C00668=-32255,71850,20204,11195,-43988,-12438
C00669=-32255,71850,20204,11195,-43988,-12438
C00670=-32255,71850,20204,11195,-43988,-12438
C00671=-32255,71850,20204,11195,-43988,-12438
C00672=-32255,71850,20204,11195,-43988,-12438
C00673=-32255,71850,20204,11195,-43988,-12438
C00674=-32255,71850,20204,11195,-43988,-12438
C00675=-32255,71850,20204,11195,-43988,-12438
C00676=-32255,71850,20204,11195,-43988,-12438
C00677=-32255,71850,20204,11195,-43988,-12438
C00678=-32255,71850,20204,11195,-43988,-12438
C00679=-32255,71850,20204,11195,-43988,-12438
C00680=-32255,71850,20204,11195,-43988,-12438
C00681=-32275,71851,20266,11181,-44022,-12425
C00682=-32276,71851,20270,11180,-44024,-12424
C00683=-32277,71851,20274,11179,-44027,-12423
C00684=-32278,71851,20278,11178,-44029,-12422
C00685=-32280,71851,20282,11177,-44031,-12422
C00686=-32281,71851,20286,11176,-44033,-12421
C00687=-32282,71851,20290,11175,-44035,-12420
C00688=-32283,71851,20293,11175,-44037,-12419
C00689=-32285,71851,20297,11174,-44040,-12418
C00690=-32286,71852,20301,11173,-44042,-12418
C00691=-32287,71852,20305,11172,-44044,-12417
C00692=-32288,71852,20309,11171,-44046,-12416
C00693=-32289,71852,20313,11170,-44048,-12415
C00694=-32291,71852,20317,11169,-44051,-12414
C00695=-32292,71852,20321,11168,-44053,-12413
C00696=-32292,71852,20321,11168,-44053,-12413
C00697=-32292,71852,20321,11168,-44053,-12413
C00698=-32292,71852,20321,11168,-44053,-12413
C00699=-32292,71852,20321,11168,-44053,-12413
C00700=-32292,71852,20321,11168,-44053,-12413
C00701=-32292,71852,20321,11168,-44053,-12413
C00702=-32292,71852,20321,11168,-44053,-12413
C00703=-32292,71852,20321,11168,-44053,-12413
C00704=-32292,71852,20321,11168,-44053,-12413
C00705=-32292,71852,20321,11168,-44053,-12413
C00706=-32292,71852,20321,11168,-44053,-12413
C00707=-32292,71852,20321,11168,-44053,-12413
C00708=-32292,71852,20321,11168,-44053,-12413
C00709=-32292,71852,20321,11168,-44053,-12413
C00710=-32292,71852,20321,11168,-44053,-12413
C00711=-32311,71852,20382,11154,-44087,-12401
C00712=-32312,71852,20385,11153,-44089,-12400
C00713=-32313,71852,20389,11152,-44092,-12399
C00714=-32314,71852,20393,11151,-44094,-12399
C00715=-32315,71852,20397,11150,-44096,-12398
C00716=-32316,71852,20401,11150,-44098,-12397
C00717=-32318,71852,20405,11149,-44100,-12396
C00718=-32319,71852,20408,11148,-44102,-12395
C00719=-32320,71852,20412,11147,-44105,-12394
C00720=-32321,71852,20416,11146,-44107,-12394
C00721=-32322,71852,20420,11145,-44109,-12393
C00722=-32323,71852,20424,11144,-44111,-12392
C00723=-32325,71852,20428,11143,-44113,-12391
C00724=-32326,71852,20431,11142,-44115,-12391
C00725=-32327,71852,20435,11142,-44118,-12390
C00726=-32327,71852,20435,11142,-44118,-12390
C00727=-32327,71852,20435,11142,-44118,-12390
C00728=-32327,71852,20435,11142,-44118,-12390
C00729=-32327,71852,20435,11142,-44118,-12390
C00730=-32327,71852,20435,11142,-44118,-12390
C00731=-32327,71852,20435,11142,-44118,-12390
C00732=-32327,71852,20435,11142,-44118,-12390
C00733=-32327,71852,20435,11142,-44118,-12390
C00734=-32327,71852,20435,11142,-44118,-12390
C00735=-32327,71852,20435,11142,-44118,-12390
C00736=-32327,71852,20435,11142,-44118,-12390
C00737=-32327,71852,20435,11142,-44118,-12390
C00738=-32327,71852,20435,11142,-44118,-12390
C00739=-32327,71852,20435,11142,-44118,-12390
C00740=-32327,71852,20435,11142,-44118,-12390
C00741=-32345,71850,20494,11128,-44152,-12378
C00742=-32346,71850,20498,11127,-44154,-12377
C00743=-32347,71850,20502,11126,-44156,-12376
C00744=-32348,71850,20506,11125,-44158,-12375
C00745=-32349,71850,20509,11125,-44160,-12375
C00746=-32350,71850,20513,11124,-44162,-12374
C00747=-32351,71850,20516,11123,-44165,-12373
C00748=-32352,71850,20520,11122,-44167,-12372
C00749=-32354,71850,20524,11121,-44169,-12372
C00750=-32355,71850,20528,11120,-44171,-12371
C00751=-32356,71850,20532,11119,-44173,-12370
C00752=-32357,71850,20535,11119,-44175,-12369
C00753=-32358,71849,20539,11118,-44178,-12368
C00754=-32359,71849,20543,11117,-44180,-12368
C00755=-32360,71849,20546,11116,-44182,-12367
C00756=-32360,71849,20546,11116,-44182,-12367
C00757=-32360,71849,20546,11116,-44182,-12367
C00758=-32360,71849,20546,11116,-44182,-12367
C00759=-32360,71849,20546,11116,-44182,-12367
C00760=-32360,71849,20546,11116,-44182,-12367
C00761=-32360,71849,20546,11116,-44182,-12367
C00762=-32360,71849,20546,11116,-44182,-12367
C00763=-32360,71849,20546,11116,-44182,-12367
C00764=-32360,71849,20546,11116,-44182,-12367
C00765=-32360,71849,20546,11116,-44182,-12367
C00766=-32360,71849,20546,11116,-44182,-12367
C00767=-32360,71849,20546,11116,-44182,-12367
C00768=-32360,71849,20546,11116,-44182,-12367
C00769=-32360,71849,20546,11116,-44182,-12367
C00770=-32360,71849,20546,11116,-44182,-12367
C00771=-32377,71847,20604,11103,-44216,-12355
C00772=-32378,71847,20608,11102,-44218,-12355
C00773=-32379,71847,20611,11101,-44220,-12354
C00774=-32380,71847,20615,11100,-44222,-12353
C00775=-32381,71847,20618,11100,-44224,-12352
C00776=-32382,71847,20622,11099,-44226,-12352
C00777=-32383,71846,20625,11098,-44228,-12351
C00778=-32384,71846,20629,11097,-44230,-12350
C00779=-32385,71846,20632,11096,-44232,-12350
C00780=-32386,71846,20636,11096,-44234,-12349
C00781=-32387,71846,20639,11095,-44236,-12348
C00782=-32388,71846,20643,11094,-44238,-12347
C00783=-32389,71846,20646,11093,-44240,-12347
C00784=-32390,71845,20650,11092,-44243,-12346
C00785=-32391,71845,20654,11091,-44245,-12345
C00786=-32392,71845,20655,11091,-44246,-12345
C00787=-32392,71845,20655,11091,-44246,-12345
C00788=-32392,71845,20655,11091,-44246,-12345
C00789=-32392,71845,20655,11091,-44246,-12345
C00790=-32392,71845,20655,11091,-44246,-12345
C00791=-32392,71845,20655,11091,-44246,-12345
C00792=-32392,71845,20655,11091,-44246,-12345
C00793=-32392,71845,20655,11091,-44246,-12345
C00794=-32392,71845,20655,11091,-44246,-12345
C00795=-32392,71845,20655,11091,-44246,-12345
C00796=-32392,71845,20655,11091,-44246,-12345
C00797=-32392,71845,20655,11091,-44246,-12345
C00798=-32392,71845,20655,11091,-44246,-12345
C00799=-32392,71845,20655,11091,-44246,-12345
C00800=-32392,71845,20655,11091,-44246,-12345
C00801=-32392,71845,20655,11091,-44246,-12345
C00802=-32408,71842,20712,11078,-44279,-12334
C00803=-32409,71842,20715,11077,-44281,-12333
C00804=-32410,71842,20719,11077,-44283,-12332
C00805=-32411,71842,20722,11076,-44285,-12332
C00806=-32412,71842,20725,11075,-44287,-12331
C00807=-32413,71841,20729,11074,-44290,-12330
C00808=-32414,71841,20732,11074,-44292,-12329
C00809=-32415,71841,20736,11073,-44294,-12329
C00810=-32416,71841,20739,11072,-44296,-12328
C00811=-32417,71841,20743,11071,-44298,-12327
C00812=-32418,71840,20746,11070,-44300,-12327
C00813=-32419,71840,20750,11070,-44302,-12326
C00814=-32420,71840,20753,11069,-44304,-12325
C00815=-32421,71840,20756,11068,-44306,-12325
C00816=-32422,71840,20760,11067,-44308,-12324
C00817=-32422,71840,20762,11067,-44309,-12324
C00818=-32422,71840,20762,11067,-44309,-12324
C00819=-32422,71840,20762,11067,-44309,-12324
C00820=-32422,71840,20762,11067,-44309,-12324
C00821=-32422,71840,20762,11067,-44309,-12324
C00822=-32422,71840,20762,11067,-44309,-12324
C00823=-32422,71840,20762,11067,-44309,-12324
C00824=-32422,71840,20762,11067,-44309,-12324
C00825=-32422,71840,20762,11067,-44309,-12324
C00826=-32422,71840,20762,11067,-44309,-12324
C00827=-32422,71840,20762,11067,-44309,-12324
C00828=-32422,71840,20762,11067,-44309,-12324
C00829=-32422,71840,20762,11067,-44309,-12324
C00830=-32422,71840,20762,11067,-44309,-12324
C00831=-32422,71840,20762,11067,-44309,-12324
C00832=-32422,71840,20762,11067,-44309,-12324
C00833=-32438,71836,20817,11054,-44343,-12313
C00834=-32438,71836,20820,11054,-44344,-12312
C00835=-32439,71835,20824,11053,-44347,-12311
C00836=-32440,71835,20827,11052,-44349,-12311
C00837=-32441,71835,20831,11051,-44351,-12310
C00838=-32442,71835,20834,11051,-44353,-12309
C00839=-32443,71834,20837,11050,-44355,-12309
C00840=-32444,71834,20841,11049,-44357,-12308
C00841=-32445,71834,20844,11048,-44359,-12307
C00842=-32446,71834,20847,11048,-44361,-12307
C00843=-32447,71833,20851,11047,-44363,-12306
C00844=-32448,71833,20854,11046,-44365,-12305
C00845=-32449,71833,20857,11045,-44367,-12305
C00846=-32450,71833,20861,11044,-44369,-12304
C00847=-32451,71832,20864,11044,-44371,-12303
C00848=-32451,71832,20866,11043,-44372,-12303
C00849=-32451,71832,20866,11043,-44372,-12303
C00850=-32451,71832,20866,11043,-44372,-12303
C00851=-32451,71832,20866,11043,-44372,-12303
C00852=-32451,71832,20866,11043,-44372,-12303
C00853=-32451,71832,20866,11043,-44372,-12303
C00854=-32451,71832,20866,11043,-44372,-12303
C00855=-32451,71832,20866,11043,-44372,-12303
C00856=-32451,71832,20866,11043,-44372,-12303
C00857=-32451,71832,20866,11043,-44372,-12303
C00858=-32451,71832,20866,11043,-44372,-12303
C00859=-32451,71832,20866,11043,-44372,-12303
C00860=-32451,71832,20866,11043,-44372,-12303
C00861=-32451,71832,20866,11043,-44372,-12303
C00862=-32451,71832,20866,11043,-44372,-12303
C00863=-32451,71832,20866,11043,-44372,-12303
C00864=-32466,71828,20920,11031,-44405,-12292
C00865=-32467,71827,20924,11030,-44408,-12292
C00866=-32468,71827,20927,11030,-44409,-12291
C00867=-32469,71827,20930,11029,-44412,-12290
C00868=-32469,71827,20933,11028,-44414,-12290
C00869=-32470,71826,20937,11027,-44416,-12289
C00870=-32471,71826,20940,11027,-44418,-12288
C00871=-32472,71826,20944,11026,-44420,-12288
C00872=-32473,71826,20947,11025,-44422,-12287
C00873=-32474,71825,20950,11024,-44424,-12286
C00874=-32475,71825,20953,11024,-44426,-12286
C00875=-32476,71825,20957,11023,-44428,-12285
C00876=-32477,71824,20960,11022,-44430,-12284
C00877=-32478,71824,20963,11021,-44432,-12284
C00878=-32478,71824,20967,11021,-44434,-12283
C00879=-32479,71824,20968,11020,-44435,-12283
C00880=-32479,71824,20968,11020,-44435,-12283
C00881=-32479,71824,20968,11020,-44435,-12283
C00882=-32479,71824,20968,11020,-44435,-12283
C00883=-32479,71824,20968,11020,-44435,-12283
C00884=-32479,71824,20968,11020,-44435,-12283
C00885=-32479,71824,20968,11020,-44435,-12283
C00886=-32479,71824,20968,11020,-44435,-12283
C00887=-32479,71824,20968,11020,-44435,-12283
C00888=-32479,71824,20968,11020,-44435,-12283
C00889=-32479,71824,20968,11020,-44435,-12283
C00890=-32479,71824,20968,11020,-44435,-12283
C00891=-32479,71824,20968,11020,-44435,-12283
C00892=-32479,71824,20968,11020,-44435,-12283
C00893=-32479,71824,20968,11020,-44435,-12283
C00894=-32479,71824,20968,11020,-44435,-12283
C00895=-32493,71818,21021,11009,-44468,-12273
C00896=-32494,71818,21025,11008,-44470,-12272
C00897=-32495,71818,21028,11007,-44472,-12271
C00898=-32496,71817,21031,11006,-44474,-12271
C00899=-32496,71817,21034,11006,-44476,-12270
C00900=-32497,71817,21038,11005,-44478,-12269
C00901=-32498,71816,21041,11004,-44480,-12269
C00902=-32499,71816,21044,11003,-44482,-12268
C00903=-32500,71816,21048,11003,-44484,-12267
C00904=-32501,71816,21051,11002,-44486,-12267
C00905=-32502,71815,21054,11001,-44488,-12266
C00906=-32502,71815,21057,11001,-44490,-12266
C00907=-32503,71815,21061,11000,-44492,-12265
C00908=-32504,71814,21064,10999,-44494,-12264
C00909=-32505,71814,21067,10998,-44496,-12264
C00910=-32505,71814,21069,10998,-44497,-12263
C00911=-32505,71814,21069,10998,-44497,-12263
C00912=-32505,71814,21069,10998,-44497,-12263
C00913=-32505,71814,21069,10998,-44497,-12263
C00914=-32505,71814,21069,10998,-44497,-12263
C00915=-32505,71814,21069,10998,-44497,-12263
C00916=-32505,71814,21069,10998,-44497,-12263
C00917=-32505,71814,21069,10998,-44497,-12263
C00918=-32505,71814,21069,10998,-44497,-12263
C00919=-32505,71814,21069,10998,-44497,-12263
C00920=-32505,71814,21069,10998,-44497,-12263
C00921=-32505,71814,21069,10998,-44497,-12263
C00922=-32505,71814,21069,10998,-44497,-12263
C00923=-32505,71814,21069,10998,-44497,-12263
C00924=-32505,71814,21069,10998,-44497,-12263
C00925=-32505,71814,21069,10998,-44497,-12263
C00926=-32519,71808,21121,10986,-44530,-12253
C00927=-32520,71807,21124,10986,-44532,-12253
C00928=-32521,71807,21127,10985,-44534,-12252
C00929=-32521,71807,21130,10984,-44536,-12252
C00930=-32522,71806,21133,10984,-44538,-12251
C00931=-32523,71806,21136,10983,-44540,-12250
C00932=-32524,71806,21139,10982,-44542,-12250
C00933=-32525,71805,21142,10982,-44544,-12249
C00934=-32525,71805,21146,10981,-44546,-12249
C00935=-32526,71805,21149,10980,-44548,-12248
C00936=-32527,71804,21152,10980,-44550,-12247
C00937=-32528,71804,21155,10979,-44552,-12247
C00938=-32529,71804,21158,10978,-44554,-12246
C00939=-32529,71803,21161,10978,-44555,-12246
C00940=-32530,71803,21164,10977,-44558,-12245
C00941=-32531,71803,21167,10976,-44559,-12244
C00942=-32531,71803,21167,10976,-44559,-12244
C00943=-32531,71803,21167,10976,-44559,-12244
C00944=-32531,71803,21167,10976,-44559,-12244
C00945=-32531,71803,21167,10976,-44559,-12244
C00946=-32531,71803,21167,10976,-44559,-12244
C00947=-32531,71803,21167,10976,-44559,-12244
C00948=-32531,71803,21167,10976,-44559,-12244
C00949=-32531,71803,21167,10976,-44559,-12244
C00950=-32531,71803,21167,10976,-44559,-12244
C00951=-32531,71803,21167,10976,-44559,-12244
C00952=-32531,71803,21167,10976,-44559,-12244
C00953=-32531,71803,21167,10976,-44559,-12244
C00954=-32531,71803,21167,10976,-44559,-12244
C00955=-32531,71803,21167,10976,-44559,-12244
C00956=-32531,71803,21167,10976,-44559,-12244
C00957=-32531,71803,21167,10976,-44559,-12244
C00958=-32544,71796,21219,10965,-44592,-12235
C00959=-32545,71796,21222,10964,-44594,-12234
C00960=-32546,71795,21225,10963,-44596,-12233
C00961=-32546,71795,21228,10963,-44598,-12233
C00962=-32547,71794,21231,10962,-44600,-12232
C00963=-32548,71794,21234,10961,-44602,-12232
C00964=-32549,71794,21237,10961,-44604,-12231
C00965=-32549,71793,21240,10960,-44606,-12231
C00966=-32550,71793,21243,10959,-44608,-12230
C00967=-32551,71792,21246,10959,-44610,-12229
C00968=-32552,71792,21249,10958,-44612,-12229
C00969=-32552,71792,21252,10957,-44614,-12228
C00970=-32553,71791,21255,10957,-44616,-12228
C00971=-32554,71791,21258,10956,-44617,-12227
C00972=-32555,71791,21261,10955,-44619,-12227
C00973=-32555,71790,21264,10955,-44621,-12226
C00974=-32555,71790,21264,10955,-44621,-12226
C00975=-32555,71790,21264,10955,-44621,-12226
C00976=-32555,71790,21264,10955,-44621,-12226
C00977=-32555,71790,21264,10955,-44621,-12226
C00978=-32555,71790,21264,10955,-44621,-12226
C00979=-32555,71790,21264,10955,-44621,-12226
C00980=-32555,71790,21264,10955,-44621,-12226
C00981=-32555,71790,21264,10955,-44621,-12226
C00982=-32555,71790,21264,10955,-44621,-12226
C00983=-32555,71790,21264,10955,-44621,-12226
C00984=-32555,71790,21264,10955,-44621,-12226
C00985=-32555,71790,21264,10955,-44621,-12226
C00986=-32555,71790,21264,10955,-44621,-12226
C00987=-32555,71790,21264,10955,-44621,-12226
C00988=-32555,71790,21264,10955,-44621,-12226
C00989=-32555,71790,21264,10955,-44621,-12226
C00990=-32568,71783,21315,10944,-44654,-12216
C00991=-32569,71783,21318,10943,-44656,-12216
C00992=-32569,71782,21321,10942,-44658,-12215
C00993=-32570,71782,21324,10942,-44660,-12215
C00994=-32571,71781,21327,10941,-44662,-12214
C00995=-32572,71781,21330,10940,-44664,-12214
C00996=-32572,71781,21333,10940,-44666,-12213
C00997=-32573,71780,21336,10939,-44668,-12213
C00998=-32574,71780,21339,10938,-44670,-12212
C00999=-32575,71779,21342,10938,-44671,-12211
C01000=-32575,71779,21345,10937,-44673,-12211
C01001=-32576,71778,21348,10936,-44675,-12210
C01002=-32577,71778,21351,10936,-44677,-12210
C01003=-32578,71778,21354,10935,-44679,-12209
C01004=-32578,71777,21357,10934,-44681,-12209
C01005=-32579,71777,21360,10934,-44683,-12208
C01006=-32579,71777,21360,10934,-44683,-12208
C01007=-32579,71777,21360,10934,-44683,-12208
C01008=-32579,71777,21360,10934,-44683,-12208
C01009=-32579,71777,21360,10934,-44683,-12208
C01010=-32579,71777,21360,10934,-44683,-12208
C01011=-32579,71777,21360,10934,-44683,-12208
C01012=-32579,71777,21360,10934,-44683,-12208
C01013=-32579,71777,21360,10934,-44683,-12208
C01014=-32579,71777,21360,10934,-44683,-12208
C01015=-32579,71777,21360,10934,-44683,-12208
C01016=-32579,71777,21360,10934,-44683,-12208
C01017=-32579,71777,21360,10934,-44683,-12208
C01018=-32579,71777,21360,10934,-44683,-12208
C01019=-32579,71777,21360,10934,-44683,-12208
C01020=-32579,71777,21360,10934,-44683,-12208
C01021=-32579,71777,21360,10934,-44683,-12208
C01022=-32591,71769,21410,10923,-44716,-12199
C01023=-32592,71769,21413,10922,-44718,-12198
C01024=-32593,71768,21416,10922,-44719,-12198
C01025=-32593,71768,21419,10921,-44722,-12197
C01026=-32594,71767,21422,10920,-44723,-12197
C01027=-32595,71767,21425,10920,-44725,-12196
C01028=-32595,71766,21428,10919,-44727,-12195
C01029=-32596,71766,21431,10918,-44729,-12195
C01030=-32597,71766,21434,10918,-44731,-12194
C01031=-32598,71765,21437,10917,-44733,-12194
C01032=-32598,71765,21440,10917,-44735,-12193
C01033=-32599,71764,21443,10916,-44737,-12193
C01034=-32600,71764,21445,10915,-44739,-12192
C01035=-32600,71763,21449,10915,-44741,-12192
C01036=-32601,71763,21451,10914,-44743,-12191
C01037=-32602,71762,21454,10913,-44745,-12190
C01038=-32602,71762,21454,10913,-44745,-12190
C01039=-32602,71762,21454,10913,-44745,-12190
C01040=-32602,71762,21454,10913,-44745,-12190
C01041=-32602,71762,21454,10913,-44745,-12190
C01042=-32602,71762,21454,10913,-44745,-12190
C01043=-32602,71762,21454,10913,-44745,-12190
C01044=-32602,71762,21454,10913,-44745,-12190
C01045=-32602,71762,21454,10913,-44745,-12190
C01046=-32602,71762,21454,10913,-44745,-12190
C01047=-32602,71762,21454,10913,-44745,-12190
C01048=-32602,71762,21454,10913,-44745,-12190
C01049=-32602,71762,21454,10913,-44745,-12190
C01050=-32602,71762,21454,10913,-44745,-12190
C01051=-32602,71762,21454,10913,-44745,-12190
C01052=-32602,71762,21454,10913,-44745,-12190
C01053=-32602,71762,21454,10913,-44745,-12190
EC00000=58500,30009819
EC00001=57794,30040534
EC00002=57088,30071273
EC00003=56382,30102037
EC00004=55676,30132825
EC00005=54970,30163638
EC00006=54264,30194477
EC00007=53558,30225340
EC00008=52852,30256227
EC00009=52317,30287025
EC00010=51728,30317822
EC00011=51139,30348622
EC00012=50551,30379422
EC00013=49962,30410223
EC00014=49374,30441026
EC00015=48785,30471830
EC00016=48143,30505435
EC00017=47587,30534585
EC00018=47030,30563736
EC00019=46473,30592888
EC00020=45916,30622042
EC00021=45359,30651196
EC00022=44802,30680351
EC00023=44245,30709507
EC00024=43689,30738665
EC00025=43227,30767787
EC00026=42768,30796880
EC00027=42310,30825992
EC00028=41851,30855122
EC00029=41393,30884271
EC00030=40934,30913438
EC00031=40476,30942624
EC00032=40017,30971828
EC00033=39558,31001051
EC00034=39159,31026394
EC00035=38719,31054255
EC00036=38279,31082101
EC00037=37840,31109932
EC00038=37400,31137747
EC00039=36960,31165547
EC00040=36521,31193331
EC00041=36081,31221100
EC00042=35681,31248859
EC00043=35356,31274201
EC00044=34997,31302063
EC00045=34639,31329909
EC00046=34280,31357740
EC00047=33922,31385556
EC00048=33564,31413357
EC00049=33205,31441142
EC00050=32847,31468912
EC00051=32489,31496667
EC00052=32176,31520785
EC00053=31831,31547330
EC00054=31487,31573890
EC00055=31143,31600465
EC00056=30830,31624638
EC00057=30485,31651242
EC00058=30141,31677862
EC00059=29797,31704497
EC00060=29453,31731148
EC00061=29192,31755332
EC00062=28907,31781873
EC00063=28622,31808428
EC00064=28336,31834997
EC00065=28051,31861580
EC00066=27792,31885759
EC00067=27506,31912369
EC00068=27221,31938993
EC00069=26936,31965631
EC00070=26650,31992283
EC00071=26398,32015710
EC00072=26121,32041468
EC00073=25869,32064873
EC00074=25592,32090607
EC00075=25315,32116329
EC00076=25063,32139701
EC00077=24786,32165399
EC00078=24534,32188750
EC00079=24256,32214424
EC00080=24004,32240091
EC00081=24004,32263470
EC00082=24004,32289186
EC00083=24004,32312564
EC00084=24004,32338280
EC00085=24004,32363996
EC00086=24004,32387374
EC00087=24004,32413090
EC00088=24004,32436468
EC00089=24004,32462184
EC00090=24004,32487900
EC00091=21588,32510424
EC00092=21385,32532949
EC00093=21162,32557728
EC00094=20959,32580254
EC00095=20736,32605035
EC00096=20532,32627563
EC00097=20309,32652345
EC00098=20106,32674874
EC00099=19883,32699658
EC00100=19680,32722189
EC00101=19578,32746972
EC00102=19578,32769500
EC00103=19578,32794280
EC00104=19578,32816808
EC00105=19578,32841589
EC00106=19578,32864117
EC00107=19578,32888898
EC00108=19578,32911426
EC00109=19578,32936207
EC00110=19578,32958735
EC00111=19578,32983516
EC00112=17541,33005443
EC00113=17357,33029564
EC00114=17173,33053685
EC00115=16990,33077807
EC00116=16823,33099737
EC00117=16639,33123860
EC00118=16455,33147983
EC00119=16271,33172107
EC00120=16104,33194039
EC00121=15921,33218164
EC00122=15837,33242289
EC00123=15837,33266411
EC00124=15837,33288341
EC00125=15837,33312464
EC00126=15837,33336587
EC00127=15837,33360710
EC00128=15837,33382640
EC00129=15837,33406763
EC00130=15837,33430886
EC00131=15837,33455009
EC00132=15837,33479132
EC00133=14101,33500492
EC00134=13948,33523989
EC00135=13809,33545351
EC00136=13656,33568849
EC00137=13518,33590211
EC00138=13365,33613710
EC00139=13226,33635073
EC00140=13073,33658573
EC00141=12934,33679937
EC00142=12781,33703438
EC00143=12642,33726940
EC00144=12642,33748302
EC00145=12642,33771801
EC00146=12642,33793164
EC00147=12642,33816663
EC00148=12642,33838026
EC00149=12642,33861525
EC00150=12642,33882888
EC00151=12642,33906387
EC00152=12642,33927750
EC00153=12642,33951249
EC00154=12642,33974748
EC00155=11148,33995570
EC00156=11020,34018475
EC00157=10891,34041380
EC00158=10763,34064285
EC00159=10635,34087192
EC00160=10518,34108016
EC00161=10389,34130923
EC00162=10261,34153830
EC00163=10133,34176738
EC00164=10004,34199647
EC00165=9887,34222556
EC00166=9887,34243380
EC00167=9887,34266286
EC00168=9887,34289193
EC00169=9887,34312100
EC00170=9887,34335006
EC00171=9887,34355831
EC00172=9887,34378737
EC00173=9887,34401644
EC00174=9887,34424550
EC00175=9887,34447457
EC00176=9887,34470364
EC00177=8589,34490719
EC00178=8480,34513118
EC00179=8381,34533489
EC00180=8272,34555905
EC00181=8173,34576291
EC00182=8064,34598724
EC00183=7965,34619125
EC00184=7856,34641575
EC00185=7747,34664033
EC00186=7648,34684458
EC00187=7539,34706933
EC00188=7490,34727350
EC00189=7490,34749785
EC00190=7490,34770181
EC00191=7490,34792616
EC00192=7490,34815051
EC00193=7490,34835447
EC00194=7490,34857882
EC00195=7490,34878278
EC00196=7490,34900713
EC00197=7490,34921109
EC00198=7490,34943544
EC00199=7490,34965980
EC00200=6352,34986001
EC00201=6258,35008016
EC00202=6163,35030024
EC00203=6069,35052024
EC00204=5984,35072018
EC00205=5890,35094003
EC00206=5796,35115980
EC00207=5702,35137949
EC00208=5607,35159911
EC00209=5522,35179869
EC00210=5428,35201816
EC00211=5385,35223780
EC00212=5385,35245763
EC00213=5385,35265747
EC00214=5385,35287730
EC00215=5385,35309713
EC00216=5385,35331696
EC00217=5385,35353679
EC00218=5385,35373664
EC00219=5385,35395647
EC00220=5385,35417630
EC00221=5385,35439613
EC00222=5385,35461596
EC00223=4380,35481148
EC00224=4299,35502663
EC00225=4225,35522229
EC00226=4144,35543759
EC00227=4070,35563338
EC00228=3989,35584883
EC00229=3915,35604475
EC00230=3834,35626035
EC00231=3760,35645641
EC00232=3679,35667215
EC00233=3605,35686835
EC00234=3524,35708424
EC00235=3524,35729973
EC00236=3524,35749562
EC00237=3524,35771111
EC00238=3524,35790700
EC00239=3524,35812249
EC00240=3524,35831839
EC00241=3524,35853387
EC00242=3524,35872977
EC00243=3524,35894525
EC00244=3524,35914115
EC00245=3524,35935663
EC00246=3524,35957212
EC00247=2630,35976456
EC00248=2559,35997617
EC00249=2488,36018772
EC00250=2416,36039919
EC00251=2352,36059139
EC00252=2280,36080273
EC00253=2209,36101400
EC00254=2138,36122521
EC00255=2073,36141715
EC00256=2002,36162823
EC00257=1931,36183923
EC00258=1866,36205020
EC00259=1866,36224230
EC00260=1866,36245361
EC00261=1866,36266492
EC00262=1866,36287622
EC00263=1866,36306832
EC00264=1866,36327963
EC00265=1866,36349094
EC00266=1866,36370225
EC00267=1866,36389435
EC00268=1866,36410566
EC00269=1866,36431697
EC00270=1866,36452828
EC00271=1066,36471743
EC00272=1009,36490659
EC00273=946,36511467
EC00274=889,36530383
EC00275=826,36551191
EC00276=769,36570107
EC00277=706,36590916
EC00278=649,36609833
EC00279=586,36630641
EC00280=529,36649559
EC00281=466,36670368
EC00282=409,36689285
EC00283=380,36710094
EC00284=380,36729011
EC00285=380,36749819
EC00286=380,36768736
EC00287=380,36789544
EC00288=380,36808461
EC00289=380,36829269
EC00290=380,36848186
EC00291=380,36868994
EC00292=380,36887911
EC00293=380,36908719
EC00294=380,36927636
EC00295=380,36948444
EC00296=-340,36967075
EC00297=-396,36987570
EC00298=-447,37006201
EC00299=-502,37026696
EC00300=-558,37047191
EC00301=-609,37065823
EC00302=-665,37086318
EC00303=-721,37106814
EC00304=-771,37125447
EC00305=-827,37145943
EC00306=-883,37166439
EC00307=-934,37185072
EC00308=-959,37205568
EC00309=-959,37224200
EC00310=-959,37244696
EC00311=-959,37265191
EC00312=-959,37283823
EC00313=-959,37304319
EC00314=-959,37324814
EC00315=-959,37343446
EC00316=-959,37363941
EC00317=-959,37384437
EC00318=-959,37403069
EC00319=-959,37423564
EC00320=-959,37444060
EC00321=-1611,37462415
EC00322=-1656,37480770
EC00323=-1706,37500961
EC00324=-1751,37519317
EC00325=-1797,37537673
EC00326=-1847,37557865
EC00327=-1892,37576221
EC00328=-1942,37596413
EC00329=-1987,37614769
EC00330=-2032,37633126
EC00331=-2082,37653318
EC00332=-2127,37671675
EC00333=-2173,37691868
EC00334=-2173,37710224
EC00335=-2173,37728580
EC00336=-2173,37748772
EC00337=-2173,37767128
EC00338=-2173,37785484
EC00339=-2173,37805676
EC00340=-2173,37824032
EC00341=-2173,37844224
EC00342=-2173,37862580
EC00343=-2173,37880936
EC00344=-2173,37901128
EC00345=-2173,37919484
EC00346=-2173,37939676
EC00347=-2766,37957763
EC00348=-2810,37977659
EC00349=-2851,37995747
EC00350=-2896,38015643
EC00351=-2936,38033731
EC00352=-2981,38053628
EC00353=-3022,38071716
EC00354=-3066,38091613
EC00355=-3107,38109702
EC00356=-3152,38129599
EC00357=-3192,38147688
EC00358=-3237,38167586
EC00359=-3278,38187484
EC00360=-3278,38205572
EC00361=-3278,38225469
EC00362=-3278,38243557
EC00363=-3278,38263454
EC00364=-3278,38281542
EC00365=-3278,38301439
EC00366=-3278,38319528
EC00367=-3278,38339425
EC00368=-3278,38357513
EC00369=-3278,38377410
EC00370=-3278,38395498
EC00371=-3278,38415395
EC00372=-3278,38435292
EC00373=-3819,38453119
EC00374=-3860,38472729
EC00375=-3900,38492339
EC00376=-3937,38510166
EC00377=-3977,38529777
EC00378=-4017,38549387
EC00379=-4054,38567215
EC00380=-4094,38586826
EC00381=-4134,38606437
EC00382=-4171,38624266
EC00383=-4211,38643877
EC00384=-4251,38663488
EC00385=-4288,38683100
EC00386=-4288,38700928
EC00387=-4288,38720539
EC00388=-4288,38740149
EC00389=-4288,38757977
EC00390=-4288,38777588
EC00391=-4288,38797199
EC00392=-4288,38815027
EC00393=-4288,38834637
EC00394=-4288,38854248
EC00395=-4288,38872076
EC00396=-4288,38891687
EC00397=-4288,38911297
EC00398=-4288,38930908
EC00399=-4785,38948516
EC00400=-4818,38966128
EC00401=-4855,38985507
EC00402=-4888,39003129
EC00403=-4924,39022518
EC00404=-4957,39040150
EC00405=-4991,39057786
EC00406=-5027,39077191
EC00407=-5060,39094837
EC00408=-5097,39114253
EC00409=-5130,39131908
EC00410=-5163,39149568
EC00411=-5199,39169000
EC00412=-5216,39186653
EC00413=-5216,39206054
EC00414=-5216,39223692
EC00415=-5216,39241329
EC00416=-5216,39260731
EC00417=-5216,39278368
EC00418=-5216,39297770
EC00419=-5216,39315407
EC00420=-5216,39333045
EC00421=-5216,39352446
EC00422=-5216,39370084
EC00423=-5216,39389485
EC00424=-5216,39407123
EC00425=-5216,39426524
EC00426=-5673,39443914
EC00427=-5707,39463042
EC00428=-5737,39480432
EC00429=-5770,39499561
EC00430=-5800,39516951
EC00431=-5833,39536080
EC00432=-5863,39553470
EC00433=-5896,39572599
EC00434=-5929,39591728
EC00435=-5959,39609118
EC00436=-5993,39628248
EC00437=-6023,39645638
EC00438=-6056,39664767
EC00439=-6071,39682158
EC00440=-6071,39701287
EC00441=-6071,39718677
EC00442=-6071,39737806
EC00443=-6071,39756935
EC00444=-6071,39774325
EC00445=-6071,39793454
EC00446=-6071,39810844
EC00447=-6071,39829973
EC00448=-6071,39847363
EC00449=-6071,39866492
EC00450=-6071,39883882
EC00451=-6071,39903011
EC00452=-6071,39922140
EC00453=-6494,39939377
EC00454=-6524,39958332
EC00455=-6555,39977282
EC00456=-6582,39994506
EC00457=-6613,40013446
EC00458=-6643,40032382
EC00459=-6671,40049592
EC00460=-6701,40068518
EC00461=-6732,40087439
EC00462=-6759,40104636
EC00463=-6790,40123547
EC00464=-6820,40142454
EC00465=-6848,40159637
EC00466=-6862,40178553
EC00467=-6862,40197482
EC00468=-6862,40214691
EC00469=-6862,40233621
EC00470=-6862,40252551
EC00471=-6862,40269760
EC00472=-6862,40288689
EC00473=-6862,40307619
EC00474=-6862,40324828
EC00475=-6862,40343758
EC00476=-6862,40362688
EC00477=-6862,40379897
EC00478=-6862,40398826
EC00479=-6862,40417756
EC00480=-7254,40434760
EC00481=-7279,40451767
EC00482=-7307,40470481
EC00483=-7332,40487497
EC00484=-7357,40504518
EC00485=-7385,40523245
EC00486=-7410,40540274
EC00487=-7438,40559011
EC00488=-7464,40576049
EC00489=-7489,40593091
EC00490=-7517,40611842
EC00491=-7542,40628893
EC00492=-7570,40647653
EC00493=-7595,40664713
EC00494=-7595,40681744
EC00495=-7595,40700479
EC00496=-7595,40717510
EC00497=-7595,40736245
EC00498=-7595,40753276
EC00499=-7595,40770308
EC00500=-7595,40789042
EC00501=-7595,40806074
EC00502=-7595,40824808
EC00503=-7595,40841840
EC00504=-7595,40858871
EC00505=-7595,40877606
EC00506=-7595,40894638
EC00507=-7595,40913372
EC00508=-7960,40930172
EC00509=-7985,40948653
EC00510=-8008,40965453
EC00511=-8034,40983933
EC00512=-8057,41000734
EC00513=-8083,41019214
EC00514=-8106,41036015
EC00515=-8131,41054495
EC00516=-8154,41071296
EC00517=-8180,41089777
EC00518=-8203,41106577
EC00519=-8229,41125058
EC00520=-8252,41141859
EC00521=-8278,41160340
EC00522=-8278,41178821
EC00523=-8278,41195621
EC00524=-8278,41214102
EC00525=-8278,41230902
EC00526=-8278,41249383
EC00527=-8278,41266184
EC00528=-8278,41284664
EC00529=-8278,41301465
EC00530=-8278,41319945
EC00531=-8278,41336746
EC00532=-8278,41355226
EC00533=-8278,41372027
EC00534=-8278,41390508
EC00535=-8278,41408988
EC00536=-8617,41425646
EC00537=-8641,41443964
EC00538=-8663,41460614
EC00539=-8686,41478924
EC00540=-8710,41497229
EC00541=-8731,41513867
EC00542=-8755,41532164
EC00543=-8779,41550456
EC00544=-8800,41567081
EC00545=-8824,41585365
EC00546=-8847,41603644
EC00547=-8869,41620257
EC00548=-8893,41638528
EC00549=-8914,41656796
EC00550=-8914,41673428
EC00551=-8914,41691722
EC00552=-8914,41708354
EC00553=-8914,41726648
EC00554=-8914,41744943
EC00555=-8914,41761574
EC00556=-8914,41779869
EC00557=-8914,41798163
EC00558=-8914,41814795
EC00559=-8914,41833089
EC00560=-8914,41851384
EC00561=-8914,41868015
EC00562=-8914,41886310
EC00563=-8914,41904604
EC00564=-9232,41921044
EC00565=-9252,41937487
EC00566=-9273,41955579
EC00567=-9293,41972030
EC00568=-9313,41988485
EC00569=-9335,42006589
EC00570=-9355,42023052
EC00571=-9377,42041165
EC00572=-9396,42057636
EC00573=-9416,42074110
EC00574=-9438,42092236
EC00575=-9458,42108718
EC00576=-9478,42125204
EC00577=-9500,42143343
EC00578=-9510,42159822
EC00579=-9510,42177934
EC00580=-9510,42194400
EC00581=-9510,42210865
EC00582=-9510,42228978
EC00583=-9510,42245443
EC00584=-9510,42261909
EC00585=-9510,42280021
EC00586=-9510,42296487
EC00587=-9510,42314599
EC00588=-9510,42331065
EC00589=-9510,42347530
EC00590=-9510,42365642
EC00591=-9510,42382108
EC00592=-9510,42400220
EC00593=-9807,42416577
EC00594=-9826,42432934
EC00595=-9846,42450926
EC00596=-9864,42467283
EC00597=-9885,42485276
EC00598=-9903,42501633
EC00599=-9924,42519625
EC00600=-9942,42535982
EC00601=-9962,42553975
EC00602=-9981,42570332
EC00603=-9999,42586689
EC00604=-10020,42604682
EC00605=-10038,42621039
EC00606=-10058,42639032
EC00607=-10068,42655389
EC00608=-10068,42673382
EC00609=-10068,42689739
EC00610=-10068,42707731
EC00611=-10068,42724088
EC00612=-10068,42740445
EC00613=-10068,42758438
EC00614=-10068,42774795
EC00615=-10068,42792787
EC00616=-10068,42809144
EC00617=-10068,42827137
EC00618=-10068,42843494
EC00619=-10068,42861487
EC00620=-10068,42877844
EC00621=-10068,42895836
EC00622=-10347,42912058
EC00623=-10366,42929897
EC00624=-10383,42946111
EC00625=-10402,42963942
EC00626=-10420,42980149
EC00627=-10439,42997972
EC00628=-10456,43014172
EC00629=-10475,43031987
EC00630=-10492,43048179
EC00631=-10511,43065986
EC00632=-10530,43083789
EC00633=-10547,43099970
EC00634=-10566,43117765
EC00635=-10583,43133939
EC00636=-10592,43151743
EC00637=-10592,43167939
EC00638=-10592,43185755
EC00639=-10592,43201952
EC00640=-10592,43219768
EC00641=-10592,43237585
EC00642=-10592,43253781
EC00643=-10592,43271597
EC00644=-10592,43287794
EC00645=-10592,43305610
EC00646=-10592,43321807
EC00647=-10592,43339623
EC00648=-10592,43355820
EC00649=-10592,43373636
EC00650=-10592,43391452
EC00651=-10855,43407467
EC00652=-10871,43423485
EC00653=-10887,43439506
EC00654=-10905,43457134
EC00655=-10921,43473162
EC00656=-10937,43489195
EC00657=-10954,43506834
EC00658=-10970,43522873
EC00659=-10986,43538916
EC00660=-11004,43556567
EC00661=-11020,43572617
EC00662=-11036,43588671
EC00663=-11052,43604728
EC00664=-11070,43622394
EC00665=-11086,43638458
EC00666=-11086,43654498
EC00667=-11086,43672141
EC00668=-11086,43688180
EC00669=-11086,43704220
EC00670=-11086,43721863
EC00671=-11086,43737902
EC00672=-11086,43753942
EC00673=-11086,43769981
EC00674=-11086,43787624
EC00675=-11086,43803664
EC00676=-11086,43819703
EC00677=-11086,43837346
EC00678=-11086,43853386
EC00679=-11086,43869425
EC00680=-11086,43887068
EC00681=-11334,43903004
EC00682=-11349,43918940
EC00683=-11365,43936470
EC00684=-11380,43952406
EC00685=-11395,43968342
EC00686=-11412,43985872
EC00687=-11427,44001808
EC00688=-11442,44017745
EC00689=-11458,44035274
EC00690=-11473,44051211
EC00691=-11490,44068741
EC00692=-11505,44084677
EC00693=-11520,44100613
EC00694=-11536,44118143
EC00695=-11551,44134080
EC00696=-11551,44150016
EC00697=-11551,44167546
EC00698=-11551,44183482
EC00699=-11551,44199418
EC00700=-11551,44216948
EC00701=-11551,44232884
EC00702=-11551,44250414
EC00703=-11551,44266350
EC00704=-11551,44282286
EC00705=-11551,44299816
EC00706=-11551,44315752
EC00707=-11551,44331689
EC00708=-11551,44349218
EC00709=-11551,44365155
EC00710=-11551,44382684
EC00711=-11786,44398492
EC00712=-11800,44414296
EC00713=-11815,44431677
EC00714=-11829,44447474
EC00715=-11845,44464848
EC00716=-11859,44480638
EC00717=-11874,44498005
EC00718=-11889,44513788
EC00719=-11904,44531147
EC00720=-11918,44546924
EC00721=-11934,44564276
EC00722=-11948,44580046
EC00723=-11963,44597390
EC00724=-11977,44613154
EC00725=-11991,44630492
EC00726=-11991,44646276
EC00727=-11991,44662060
EC00728=-11991,44679423
EC00729=-11991,44695207
EC00730=-11991,44712569
EC00731=-11991,44728353
EC00732=-11991,44745715
EC00733=-11991,44761499
EC00734=-11991,44778862
EC00735=-11991,44794646
EC00736=-11991,44812008
EC00737=-11991,44827792
EC00738=-11991,44845154
EC00739=-11991,44860938
EC00740=-11991,44878300
EC00741=-12213,44893911
EC00742=-12227,44911087
EC00743=-12241,44926705
EC00744=-12255,44943888
EC00745=-12268,44959512
EC00746=-12283,44976703
EC00747=-12296,44992334
EC00748=-12310,45009532
EC00749=-12325,45026733
EC00750=-12338,45042375
EC00751=-12353,45059584
EC00752=-12366,45075232
EC00753=-12380,45092448
EC00754=-12394,45108103
EC00755=-12408,45125327
EC00756=-12408,45142525
EC00757=-12408,45158159
EC00758=-12408,45175357
EC00759=-12408,45190992
EC00760=-12408,45208190
EC00761=-12408,45223825
EC00762=-12408,45241023
EC00763=-12408,45258221
EC00764=-12408,45273855
EC00765=-12408,45291053
EC00766=-12408,45306688
EC00767=-12408,45323886
EC00768=-12408,45339520
EC00769=-12408,45356718
EC00770=-12408,45373916
EC00771=-12618,45389453
EC00772=-12630,45404989
EC00773=-12643,45420526
EC00774=-12656,45437616
EC00775=-12669,45453152
EC00776=-12681,45468689
EC00777=-12695,45485779
EC00778=-12707,45501316
EC00779=-12720,45516852
EC00780=-12732,45532389
EC00781=-12746,45549479
EC00782=-12758,45565016
EC00783=-12771,45580552
EC00784=-12784,45597643
EC00785=-12797,45613179
EC00786=-12803,45628716
EC00787=-12803,45644252
EC00788=-12803,45661343
EC00789=-12803,45676879
EC00790=-12803,45692416
EC00791=-12803,45709506
EC00792=-12803,45725043
EC00793=-12803,45740579
EC00794=-12803,45756116
EC00795=-12803,45773206
EC00796=-12803,45788742
EC00797=-12803,45804279
EC00798=-12803,45821369
EC00799=-12803,45836906
EC00800=-12803,45852442
EC00801=-12803,45869533
EC00802=-13002,45884972
EC00803=-13014,45900412
EC00804=-13027,45917395
EC00805=-13039,45932835
EC00806=-13050,45948275
EC00807=-13063,45965258
EC00808=-13075,45980698
EC00809=-13087,45996138
EC00810=-13099,46013122
EC00811=-13111,46028561
EC00812=-13123,46044001
EC00813=-13136,46060985
EC00814=-13148,46076425
EC00815=-13159,46091865
EC00816=-13172,46108849
EC00817=-13178,46124288
EC00818=-13178,46141272
EC00819=-13178,46156712
EC00820=-13178,46172152
EC00821=-13178,46189135
EC00822=-13178,46204575
EC00823=-13178,46220015
EC00824=-13178,46236999
EC00825=-13178,46252438
EC00826=-13178,46267878
EC00827=-13178,46284862
EC00828=-13178,46300302
EC00829=-13178,46315741
EC00830=-13178,46332725
EC00831=-13178,46348165
EC00832=-13178,46365149
EC00833=-13367,46380467
EC00834=-13378,46395783
EC00835=-13391,46412628
EC00836=-13402,46427937
EC00837=-13414,46444775
EC00838=-13425,46460078
EC00839=-13437,46476909
EC00840=-13448,46492207
EC00841=-13460,46509030
EC00842=-13472,46524322
EC00843=-13483,46539610
EC00844=-13495,46556424
EC00845=-13506,46571707
EC00846=-13518,46588514
EC00847=-13529,46603790
EC00848=-13535,46620605
EC00849=-13535,46635902
EC00850=-13535,46652728
EC00851=-13535,46668025
EC00852=-13535,46684851
EC00853=-13535,46700148
EC00854=-13535,46715445
EC00855=-13535,46732272
EC00856=-13535,46747568
EC00857=-13535,46764395
EC00858=-13535,46779692
EC00859=-13535,46796518
EC00860=-13535,46811815
EC00861=-13535,46828641
EC00862=-13535,46843938
EC00863=-13535,46860765
EC00864=-13715,46875967
EC00865=-13726,46892690
EC00866=-13737,46907893
EC00867=-13748,46924616
EC00868=-13759,46939819
EC00869=-13770,46956542
EC00870=-13781,46971745
EC00871=-13792,46988468
EC00872=-13803,47003671
EC00873=-13814,47020394
EC00874=-13825,47035597
EC00875=-13837,47052321
EC00876=-13847,47067524
EC00877=-13859,47084247
EC00878=-13869,47099451
EC00879=-13874,47116174
EC00880=-13874,47131377
EC00881=-13874,47148100
EC00882=-13874,47163303
EC00883=-13874,47180026
EC00884=-13874,47195229
EC00885=-13874,47211953
EC00886=-13874,47227156
EC00887=-13874,47243879
EC00888=-13874,47259082
EC00889=-13874,47275805
EC00890=-13874,47291008
EC00891=-13874,47307731
EC00892=-13874,47322934
EC00893=-13874,47339657
EC00894=-13874,47356381
EC00895=-14046,47371491
EC00896=-14057,47388112
EC00897=-14067,47403222
EC00898=-14078,47419843
EC00899=-14088,47434953
EC00900=-14099,47451574
EC00901=-14110,47468195
EC00902=-14120,47483306
EC00903=-14130,47499927
EC00904=-14140,47515037
EC00905=-14151,47531659
EC00906=-14161,47546769
EC00907=-14172,47563390
EC00908=-14183,47580012
EC00909=-14193,47595122
EC00910=-14198,47611744
EC00911=-14198,47626854
EC00912=-14198,47643475
EC00913=-14198,47660097
EC00914=-14198,47675207
EC00915=-14198,47691828
EC00916=-14198,47706938
EC00917=-14198,47723560
EC00918=-14198,47738670
EC00919=-14198,47755291
EC00920=-14198,47771912
EC00921=-14198,47787023
EC00922=-14198,47803644
EC00923=-14198,47818754
EC00924=-14198,47835375
EC00925=-14198,47851997
EC00926=-14362,47866948
EC00927=-14371,47881903
EC00928=-14382,47898356
EC00929=-14391,47913316
EC00930=-14400,47928279
EC00931=-14411,47944742
EC00932=-14420,47959711
EC00933=-14429,47974682
EC00934=-14440,47991155
EC00935=-14449,48006132
EC00936=-14458,48021113
EC00937=-14469,48037594
EC00938=-14478,48052581
EC00939=-14487,48067570
EC00940=-14498,48084061
EC00941=-14507,48099056
EC00942=-14507,48114029
EC00943=-14507,48130500
EC00944=-14507,48145473
EC00945=-14507,48160447
EC00946=-14507,48176917
EC00947=-14507,48191890
EC00948=-14507,48206864
EC00949=-14507,48223334
EC00950=-14507,48238308
EC00951=-14507,48253281
EC00952=-14507,48269752
EC00953=-14507,48284725
EC00954=-14507,48299698
EC00955=-14507,48316169
EC00956=-14507,48331142
EC00957=-14507,48347613
EC00958=-14664,48362496
EC00959=-14673,48377379
EC00960=-14682,48393751
EC00961=-14691,48408634
EC00962=-14701,48425006
EC00963=-14710,48439889
EC00964=-14719,48454772
EC00965=-14729,48471144
EC00966=-14738,48486027
EC00967=-14747,48502399
EC00968=-14756,48517283
EC00969=-14765,48532166
EC00970=-14775,48548538
EC00971=-14784,48563421
EC00972=-14794,48579793
EC00973=-14803,48594677
EC00974=-14803,48609560
EC00975=-14803,48625932
EC00976=-14803,48640815
EC00977=-14803,48657187
EC00978=-14803,48672070
EC00979=-14803,48686953
EC00980=-14803,48703325
EC00981=-14803,48718208
EC00982=-14803,48734580
EC00983=-14803,48749464
EC00984=-14803,48764347
EC00985=-14803,48780719
EC00986=-14803,48795602
EC00987=-14803,48811974
EC00988=-14803,48826857
EC00989=-14803,48843229
EC00990=-14952,48858023
EC00991=-14961,48872818
EC00992=-14970,48889091
EC00993=-14979,48903886
EC00994=-14988,48920160
EC00995=-14996,48934954
EC00996=-15006,48951228
EC00997=-15014,48966023
EC00998=-15023,48982297
EC00999=-15032,48997091
EC01000=-15041,49013365
EC01001=-15050,49028160
EC01002=-15059,49044434
EC01003=-15068,49059228
EC01004=-15077,49075502
EC01005=-15085,49090297
EC01006=-15085,49105092
EC01007=-15085,49121365
EC01008=-15085,49136160
EC01009=-15085,49152434
EC01010=-15085,49167228
EC01011=-15085,49183502
EC01012=-15085,49198297
EC01013=-15085,49214571
EC01014=-15085,49229365
EC01015=-15085,49245639
EC01016=-15085,49260434
EC01017=-15085,49276708
EC01018=-15085,49291502
EC01019=-15085,49307776
EC01020=-15085,49322571
EC01021=-15085,49338845
EC01022=-15229,49353551
EC01023=-15238,49369729
EC01024=-15246,49384435
EC01025=-15255,49400613
EC01026=-15263,49415319
EC01027=-15271,49431497
EC01028=-15279,49446203
EC01029=-15288,49462381
EC01030=-15296,49477087
EC01031=-15305,49493265
EC01032=-15313,49507971
EC01033=-15322,49524149
EC01034=-15330,49538856
EC01035=-15339,49555033
EC01036=-15347,49569740
EC01037=-15356,49585917
EC01038=-15356,49602095
EC01039=-15356,49616802
EC01040=-15356,49632979
EC01041=-15356,49647686
EC01042=-15356,49663863
EC01043=-15356,49678570
EC01044=-15356,49694747
EC01045=-15356,49709454
EC01046=-15356,49725631
EC01047=-15356,49740338
EC01048=-15356,49756515
EC01049=-15356,49771222
EC01050=-15356,49787399
EC01051=-15356,49802106
EC01052=-15356,49818283
EC01053=-15356,49834461
//INST
///DATE 2023/10/04 11:45
///ATTR SC,RW
///GROUP1 RB1
///GROUP2 ST1
NOP
MOVJ C00000 VJ=20.0 +MOVJ EC00000 VJ=5.0
MOVL C00001 V=2.5 +MOVJ EC00001
MOVL C00002 V=2.5 +MOVJ EC00002
MOVL C00003 V=2.5 +MOVJ EC00003
MOVL C00004 V=2.5 +MOVJ EC00004
MOVL C00005 V=2.5 +MOVJ EC00005
MOVL C00006 V=2.5 +MOVJ EC00006
MOVL C00007 V=2.5 +MOVJ EC00007
MOVL C00008 V=2.5 +MOVJ EC00008
MOVL C00009 V=1.9 +MOVJ EC00009
MOVL C00010 V=2.1 +MOVJ EC00010
MOVL C00011 V=2.1 +MOVJ EC00011
MOVL C00012 V=2.1 +MOVJ EC00012
MOVL C00013 V=2.1 +MOVJ EC00013
MOVL C00014 V=2.1 +MOVJ EC00014
MOVL C00015 V=2.1 +MOVJ EC00015
MOVL C00016 V=2.1 +MOVJ EC00016
MOVL C00017 V=2.0 +MOVJ EC00017
MOVL C00018 V=2.0 +MOVJ EC00018
MOVL C00019 V=2.0 +MOVJ EC00019
MOVL C00020 V=2.0 +MOVJ EC00020
MOVL C00021 V=2.0 +MOVJ EC00021
MOVL C00022 V=2.0 +MOVJ EC00022
MOVL C00023 V=2.0 +MOVJ EC00023
MOVL C00024 V=2.0 +MOVJ EC00024
MOVL C00025 V=1.7 +MOVJ EC00025
MOVL C00026 V=1.7 +MOVJ EC00026
MOVL C00027 V=1.7 +MOVJ EC00027
MOVL C00028 V=1.7 +MOVJ EC00028
MOVL C00029 V=1.7 +MOVJ EC00029
MOVL C00030 V=1.7 +MOVJ EC00030
MOVL C00031 V=1.7 +MOVJ EC00031
MOVL C00032 V=1.7 +MOVJ EC00032
MOVL C00033 V=1.7 +MOVJ EC00033
MOVL C00034 V=1.6 +MOVJ EC00034 VJ=27.2
MOVL C00035 V=1.6 +MOVJ EC00035 VJ=27.2
MOVL C00036 V=1.6 +MOVJ EC00036 VJ=27.2
MOVL C00037 V=1.6 +MOVJ EC00037 VJ=27.2
MOVL C00038 V=1.6 +MOVJ EC00038 VJ=27.2
MOVL C00039 V=1.6 +MOVJ EC00039 VJ=27.2
MOVL C00040 V=1.6 +MOVJ EC00040 VJ=27.2
MOVL C00041 V=1.6 +MOVJ EC00041 VJ=27.2
MOVL C00042 V=1.5 +MOVJ EC00042 VJ=27.2
MOVL C00043 V=1.3 +MOVJ EC00043 VJ=27.2
MOVL C00044 V=1.3 +MOVJ EC00044 VJ=27.2
MOVL C00045 V=1.3 +MOVJ EC00045 VJ=27.2
MOVL C00046 V=1.3 +MOVJ EC00046 VJ=27.2
MOVL C00047 V=1.3 +MOVJ EC00047 VJ=27.2
MOVL C00048 V=1.3 +MOVJ EC00048 VJ=27.2
MOVL C00049 V=1.3 +MOVJ EC00049 VJ=27.2
MOVL C00050 V=1.3 +MOVJ EC00050 VJ=27.2
MOVL C00051 V=1.3 +MOVJ EC00051 VJ=27.2
MOVL C00052 V=1.3 +MOVJ EC00052 VJ=26.1
MOVL C00053 V=1.3 +MOVJ EC00053 VJ=26.1
MOVL C00054 V=1.3 +MOVJ EC00054 VJ=26.1
MOVL C00055 V=1.3 +MOVJ EC00055 VJ=26.1
MOVL C00056 V=1.3 +MOVJ EC00056 VJ=26.1
MOVL C00057 V=1.3 +MOVJ EC00057 VJ=26.1
MOVL C00058 V=1.3 +MOVJ EC00058 VJ=26.1
MOVL C00059 V=1.3 +MOVJ EC00059 VJ=26.1
MOVL C00060 V=1.3 +MOVJ EC00060 VJ=26.1
MOVL C00061 V=1.1 +MOVJ EC00061 VJ=26.1
MOVL C00062 V=1.1 +MOVJ EC00062 VJ=26.1
MOVL C00063 V=1.1 +MOVJ EC00063 VJ=26.1
MOVL C00064 V=1.1 +MOVJ EC00064 VJ=26.1
MOVL C00065 V=1.1 +MOVJ EC00065 VJ=26.1
MOVL C00066 V=1.1 +MOVJ EC00066 VJ=26.1
MOVL C00067 V=1.1 +MOVJ EC00067 VJ=26.1
MOVL C00068 V=1.1 +MOVJ EC00068 VJ=26.1
MOVL C00069 V=1.1 +MOVJ EC00069 VJ=26.1
MOVL C00070 V=1.1 +MOVJ EC00070 VJ=26.1
MOVL C00071 V=1.0 +MOVJ EC00071 VJ=25.2
MOVL C00072 V=1.0 +MOVJ EC00072 VJ=25.2
MOVL C00073 V=1.0 +MOVJ EC00073 VJ=25.2
MOVL C00074 V=1.0 +MOVJ EC00074 VJ=25.2
MOVL C00075 V=1.0 +MOVJ EC00075 VJ=25.2
MOVL C00076 V=1.0 +MOVJ EC00076 VJ=25.2
MOVL C00077 V=1.0 +MOVJ EC00077 VJ=25.2
MOVL C00078 V=1.0 +MOVJ EC00078 VJ=25.2
MOVL C00079 V=1.0 +MOVJ EC00079 VJ=25.2
MOVL C00080 V=0.9 +MOVJ EC00080 VJ=25.2
MOVL C00081 V=0.1 +MOVJ EC00081 VJ=25.2
MOVL C00082 V=0.1 +MOVJ EC00082 VJ=25.2
MOVL C00083 V=0.1 +MOVJ EC00083 VJ=25.2
MOVL C00084 V=0.1 +MOVJ EC00084 VJ=25.2
MOVL C00085 V=0.1 +MOVJ EC00085 VJ=25.2
MOVL C00086 V=0.1 +MOVJ EC00086 VJ=25.2
MOVL C00087 V=0.1 +MOVJ EC00087 VJ=25.2
MOVL C00088 V=0.1 +MOVJ EC00088 VJ=25.2
MOVL C00089 V=0.1 +MOVJ EC00089 VJ=25.2
MOVL C00090 V=0.1 +MOVJ EC00090 VJ=25.2
MOVL C00091 V=0.9 +MOVJ EC00091 VJ=24.4
MOVL C00092 V=0.9 +MOVJ EC00092 VJ=24.4
MOVL C00093 V=0.9 +MOVJ EC00093 VJ=24.4
MOVL C00094 V=0.9 +MOVJ EC00094 VJ=24.4
MOVL C00095 V=0.9 +MOVJ EC00095 VJ=24.4
MOVL C00096 V=0.9 +MOVJ EC00096 VJ=24.4
MOVL C00097 V=0.9 +MOVJ EC00097 VJ=24.4
MOVL C00098 V=0.9 +MOVJ EC00098 VJ=24.4
MOVL C00099 V=0.9 +MOVJ EC00099 VJ=24.4
MOVL C00100 V=0.9 +MOVJ EC00100 VJ=24.4
MOVL C00101 V=0.4 +MOVJ EC00101 VJ=24.4
MOVL C00102 V=0.1 +MOVJ EC00102 VJ=24.4
MOVL C00103 V=0.1 +MOVJ EC00103 VJ=24.4
MOVL C00104 V=0.1 +MOVJ EC00104 VJ=24.4
MOVL C00105 V=0.1 +MOVJ EC00105 VJ=24.4
MOVL C00106 V=0.1 +MOVJ EC00106 VJ=24.4
MOVL C00107 V=0.1 +MOVJ EC00107 VJ=24.4
MOVL C00108 V=0.1 +MOVJ EC00108 VJ=24.4
MOVL C00109 V=0.1 +MOVJ EC00109 VJ=24.4
MOVL C00110 V=0.1 +MOVJ EC00110 VJ=24.4
MOVL C00111 V=0.1 +MOVJ EC00111 VJ=24.4
MOVL C00112 V=0.7 +MOVJ EC00112 VJ=23.7
MOVL C00113 V=0.7 +MOVJ EC00113 VJ=23.7
MOVL C00114 V=0.7 +MOVJ EC00114 VJ=23.7
MOVL C00115 V=0.7 +MOVJ EC00115 VJ=23.7
MOVL C00116 V=0.7 +MOVJ EC00116 VJ=23.7
MOVL C00117 V=0.7 +MOVJ EC00117 VJ=23.7
MOVL C00118 V=0.7 +MOVJ EC00118 VJ=23.7
MOVL C00119 V=0.7 +MOVJ EC00119 VJ=23.7
MOVL C00120 V=0.7 +MOVJ EC00120 VJ=23.7
MOVL C00121 V=0.7 +MOVJ EC00121 VJ=23.7
MOVL C00122 V=0.3 +MOVJ EC00122 VJ=23.7
MOVL C00123 V=0.1 +MOVJ EC00123 VJ=23.7
MOVL C00124 V=0.1 +MOVJ EC00124 VJ=23.7
MOVL C00125 V=0.1 +MOVJ EC00125 VJ=23.7
MOVL C00126 V=0.1 +MOVJ EC00126 VJ=23.7
MOVL C00127 V=0.1 +MOVJ EC00127 VJ=23.7
MOVL C00128 V=0.1 +MOVJ EC00128 VJ=23.7
MOVL C00129 V=0.1 +MOVJ EC00129 VJ=23.7
MOVL C00130 V=0.1 +MOVJ EC00130 VJ=23.7
MOVL C00131 V=0.1 +MOVJ EC00131 VJ=23.7
MOVL C00132 V=0.1 +MOVJ EC00132 VJ=23.7
MOVL C00133 V=0.6 +MOVJ EC00133 VJ=23.0
MOVL C00134 V=0.6 +MOVJ EC00134 VJ=23.0
MOVL C00135 V=0.6 +MOVJ EC00135 VJ=23.0
MOVL C00136 V=0.6 +MOVJ EC00136 VJ=23.0
MOVL C00137 V=0.6 +MOVJ EC00137 VJ=23.0
MOVL C00138 V=0.6 +MOVJ EC00138 VJ=23.0
MOVL C00139 V=0.6 +MOVJ EC00139 VJ=23.0
MOVL C00140 V=0.6 +MOVJ EC00140 VJ=23.0
MOVL C00141 V=0.6 +MOVJ EC00141 VJ=23.0
MOVL C00142 V=0.6 +MOVJ EC00142 VJ=23.0
MOVL C00143 V=0.5 +MOVJ EC00143 VJ=23.0
MOVL C00144 V=0.1 +MOVJ EC00144 VJ=23.0
MOVL C00145 V=0.1 +MOVJ EC00145 VJ=23.0
MOVL C00146 V=0.1 +MOVJ EC00146 VJ=23.0
MOVL C00147 V=0.1 +MOVJ EC00147 VJ=23.0
MOVL C00148 V=0.1 +MOVJ EC00148 VJ=23.0
MOVL C00149 V=0.1 +MOVJ EC00149 VJ=23.0
MOVL C00150 V=0.1 +MOVJ EC00150 VJ=23.0
MOVL C00151 V=0.1 +MOVJ EC00151 VJ=23.0
MOVL C00152 V=0.1 +MOVJ EC00152 VJ=23.0
MOVL C00153 V=0.1 +MOVJ EC00153 VJ=23.0
MOVL C00154 V=0.1 +MOVJ EC00154 VJ=23.0
MOVL C00155 V=0.5 +MOVJ EC00155 VJ=22.5
MOVL C00156 V=0.5 +MOVJ EC00156 VJ=22.5
MOVL C00157 V=0.5 +MOVJ EC00157 VJ=22.5
MOVL C00158 V=0.5 +MOVJ EC00158 VJ=22.5
MOVL C00159 V=0.5 +MOVJ EC00159 VJ=22.5
MOVL C00160 V=0.5 +MOVJ EC00160 VJ=22.5
MOVL C00161 V=0.5 +MOVJ EC00161 VJ=22.5
MOVL C00162 V=0.5 +MOVJ EC00162 VJ=22.5
MOVL C00163 V=0.5 +MOVJ EC00163 VJ=22.5
MOVL C00164 V=0.5 +MOVJ EC00164 VJ=22.5
MOVL C00165 V=0.5 +MOVJ EC00165 VJ=22.5
MOVL C00166 V=0.1 +MOVJ EC00166 VJ=22.5
MOVL C00167 V=0.1 +MOVJ EC00167 VJ=22.5
MOVL C00168 V=0.1 +MOVJ EC00168 VJ=22.5
MOVL C00169 V=0.1 +MOVJ EC00169 VJ=22.5
MOVL C00170 V=0.1 +MOVJ EC00170 VJ=22.5
MOVL C00171 V=0.1 +MOVJ EC00171 VJ=22.5
MOVL C00172 V=0.1 +MOVJ EC00172 VJ=22.5
MOVL C00173 V=0.1 +MOVJ EC00173 VJ=22.5
MOVL C00174 V=0.1 +MOVJ EC00174 VJ=22.5
MOVL C00175 V=0.1 +MOVJ EC00175 VJ=22.5
MOVL C00176 V=0.1 +MOVJ EC00176 VJ=22.5
MOVL C00177 V=0.4 +MOVJ EC00177 VJ=22.0
MOVL C00178 V=0.4 +MOVJ EC00178 VJ=22.0
MOVL C00179 V=0.4 +MOVJ EC00179 VJ=22.0
MOVL C00180 V=0.4 +MOVJ EC00180 VJ=22.0
MOVL C00181 V=0.4 +MOVJ EC00181 VJ=22.0
MOVL C00182 V=0.4 +MOVJ EC00182 VJ=22.0
MOVL C00183 V=0.4 +MOVJ EC00183 VJ=22.0
MOVL C00184 V=0.4 +MOVJ EC00184 VJ=22.0
MOVL C00185 V=0.4 +MOVJ EC00185 VJ=22.0
MOVL C00186 V=0.4 +MOVJ EC00186 VJ=22.0
MOVL C00187 V=0.4 +MOVJ EC00187 VJ=22.0
MOVL C00188 V=0.2 +MOVJ EC00188 VJ=22.0
MOVL C00189 V=0.1 +MOVJ EC00189 VJ=22.0
MOVL C00190 V=0.1 +MOVJ EC00190 VJ=22.0
MOVL C00191 V=0.1 +MOVJ EC00191 VJ=22.0
MOVL C00192 V=0.1 +MOVJ EC00192 VJ=22.0
MOVL C00193 V=0.1 +MOVJ EC00193 VJ=22.0
MOVL C00194 V=0.1 +MOVJ EC00194 VJ=22.0
MOVL C00195 V=0.1 +MOVJ EC00195 VJ=22.0
MOVL C00196 V=0.1 +MOVJ EC00196 VJ=22.0
MOVL C00197 V=0.1 +MOVJ EC00197 VJ=22.0
MOVL C00198 V=0.1 +MOVJ EC00198 VJ=22.0
MOVL C00199 V=0.1 +MOVJ EC00199 VJ=22.0
MOVL C00200 V=0.4 +MOVJ EC00200 VJ=21.5
MOVL C00201 V=0.4 +MOVJ EC00201 VJ=21.5
MOVL C00202 V=0.4 +MOVJ EC00202 VJ=21.5
MOVL C00203 V=0.4 +MOVJ EC00203 VJ=21.5
MOVL C00204 V=0.4 +MOVJ EC00204 VJ=21.5
MOVL C00205 V=0.4 +MOVJ EC00205 VJ=21.5
MOVL C00206 V=0.4 +MOVJ EC00206 VJ=21.5
MOVL C00207 V=0.4 +MOVJ EC00207 VJ=21.5
MOVL C00208 V=0.4 +MOVJ EC00208 VJ=21.5
MOVL C00209 V=0.4 +MOVJ EC00209 VJ=21.5
MOVL C00210 V=0.4 +MOVJ EC00210 VJ=21.5
MOVL C00211 V=0.2 +MOVJ EC00211 VJ=21.5
MOVL C00212 V=0.1 +MOVJ EC00212 VJ=21.5
MOVL C00213 V=0.1 +MOVJ EC00213 VJ=21.5
MOVL C00214 V=0.1 +MOVJ EC00214 VJ=21.5
MOVL C00215 V=0.1 +MOVJ EC00215 VJ=21.5
MOVL C00216 V=0.1 +MOVJ EC00216 VJ=21.5
MOVL C00217 V=0.1 +MOVJ EC00217 VJ=21.5
MOVL C00218 V=0.1 +MOVJ EC00218 VJ=21.5
MOVL C00219 V=0.1 +MOVJ EC00219 VJ=21.5
MOVL C00220 V=0.1 +MOVJ EC00220 VJ=21.5
MOVL C00221 V=0.1 +MOVJ EC00221 VJ=21.5
MOVL C00222 V=0.1 +MOVJ EC00222 VJ=21.5
MOVL C00223 V=0.3 +MOVJ EC00223 VJ=21.1
MOVL C00224 V=0.3 +MOVJ EC00224 VJ=21.1
MOVL C00225 V=0.3 +MOVJ EC00225 VJ=21.1
MOVL C00226 V=0.3 +MOVJ EC00226 VJ=21.1
MOVL C00227 V=0.3 +MOVJ EC00227 VJ=21.1
MOVL C00228 V=0.3 +MOVJ EC00228 VJ=21.1
MOVL C00229 V=0.3 +MOVJ EC00229 VJ=21.1
MOVL C00230 V=0.3 +MOVJ EC00230 VJ=21.1
MOVL C00231 V=0.3 +MOVJ EC00231 VJ=21.1
MOVL C00232 V=0.3 +MOVJ EC00232 VJ=21.1
MOVL C00233 V=0.3 +MOVJ EC00233 VJ=21.1
MOVL C00234 V=0.3 +MOVJ EC00234 VJ=21.1
MOVL C00235 V=0.1 +MOVJ EC00235 VJ=21.1
MOVL C00236 V=0.1 +MOVJ EC00236 VJ=21.1
MOVL C00237 V=0.1 +MOVJ EC00237 VJ=21.1
MOVL C00238 V=0.1 +MOVJ EC00238 VJ=21.1
MOVL C00239 V=0.1 +MOVJ EC00239 VJ=21.1
MOVL C00240 V=0.1 +MOVJ EC00240 VJ=21.1
MOVL C00241 V=0.1 +MOVJ EC00241 VJ=21.1
MOVL C00242 V=0.1 +MOVJ EC00242 VJ=21.1
MOVL C00243 V=0.1 +MOVJ EC00243 VJ=21.1
MOVL C00244 V=0.1 +MOVJ EC00244 VJ=21.1
MOVL C00245 V=0.1 +MOVJ EC00245 VJ=21.1
MOVL C00246 V=0.1 +MOVJ EC00246 VJ=21.1
MOVL C00247 V=0.3 +MOVJ EC00247 VJ=20.8
MOVL C00248 V=0.3 +MOVJ EC00248 VJ=20.8
MOVL C00249 V=0.3 +MOVJ EC00249 VJ=20.8
MOVL C00250 V=0.3 +MOVJ EC00250 VJ=20.8
MOVL C00251 V=0.3 +MOVJ EC00251 VJ=20.8
MOVL C00252 V=0.3 +MOVJ EC00252 VJ=20.8
MOVL C00253 V=0.3 +MOVJ EC00253 VJ=20.8
MOVL C00254 V=0.3 +MOVJ EC00254 VJ=20.8
MOVL C00255 V=0.3 +MOVJ EC00255 VJ=20.8
MOVL C00256 V=0.3 +MOVJ EC00256 VJ=20.8
MOVL C00257 V=0.3 +MOVJ EC00257 VJ=20.8
MOVL C00258 V=0.3 +MOVJ EC00258 VJ=20.8
MOVL C00259 V=0.1 +MOVJ EC00259 VJ=20.8
MOVL C00260 V=0.1 +MOVJ EC00260 VJ=20.8
MOVL C00261 V=0.1 +MOVJ EC00261 VJ=20.8
MOVL C00262 V=0.1 +MOVJ EC00262 VJ=20.8
MOVL C00263 V=0.1 +MOVJ EC00263 VJ=20.8
MOVL C00264 V=0.1 +MOVJ EC00264 VJ=20.8
MOVL C00265 V=0.1 +MOVJ EC00265 VJ=20.8
MOVL C00266 V=0.1 +MOVJ EC00266 VJ=20.8
MOVL C00267 V=0.1 +MOVJ EC00267 VJ=20.8
MOVL C00268 V=0.1 +MOVJ EC00268 VJ=20.8
MOVL C00269 V=0.1 +MOVJ EC00269 VJ=20.8
MOVL C00270 V=0.1 +MOVJ EC00270 VJ=20.8
MOVL C00271 V=0.3 +MOVJ EC00271 VJ=20.4
MOVL C00272 V=0.3 +MOVJ EC00272 VJ=20.4
MOVL C00273 V=0.3 +MOVJ EC00273 VJ=20.4
MOVL C00274 V=0.3 +MOVJ EC00274 VJ=20.4
MOVL C00275 V=0.3 +MOVJ EC00275 VJ=20.4
MOVL C00276 V=0.3 +MOVJ EC00276 VJ=20.4
MOVL C00277 V=0.3 +MOVJ EC00277 VJ=20.4
MOVL C00278 V=0.3 +MOVJ EC00278 VJ=20.4
MOVL C00279 V=0.3 +MOVJ EC00279 VJ=20.4
MOVL C00280 V=0.3 +MOVJ EC00280 VJ=20.4
MOVL C00281 V=0.3 +MOVJ EC00281 VJ=20.4
MOVL C00282 V=0.3 +MOVJ EC00282 VJ=20.4
MOVL C00283 V=0.1 +MOVJ EC00283 VJ=20.4
MOVL C00284 V=0.1 +MOVJ EC00284 VJ=20.4
MOVL C00285 V=0.1 +MOVJ EC00285 VJ=20.4
MOVL C00286 V=0.1 +MOVJ EC00286 VJ=20.4
MOVL C00287 V=0.1 +MOVJ EC00287 VJ=20.4
MOVL C00288 V=0.1 +MOVJ EC00288 VJ=20.4
MOVL C00289 V=0.1 +MOVJ EC00289 VJ=20.4
MOVL C00290 V=0.1 +MOVJ EC00290 VJ=20.4
MOVL C00291 V=0.1 +MOVJ EC00291 VJ=20.4
MOVL C00292 V=0.1 +MOVJ EC00292 VJ=20.4
MOVL C00293 V=0.1 +MOVJ EC00293 VJ=20.4
MOVL C00294 V=0.1 +MOVJ EC00294 VJ=20.4
MOVL C00295 V=0.1 +MOVJ EC00295 VJ=20.4
MOVL C00296 V=0.3 +MOVJ EC00296 VJ=20.1
MOVL C00297 V=0.3 +MOVJ EC00297 VJ=20.1
MOVL C00298 V=0.3 +MOVJ EC00298 VJ=20.1
MOVL C00299 V=0.3 +MOVJ EC00299 VJ=20.1
MOVL C00300 V=0.3 +MOVJ EC00300 VJ=20.1
MOVL C00301 V=0.3 +MOVJ EC00301 VJ=20.1
MOVL C00302 V=0.3 +MOVJ EC00302 VJ=20.1
MOVL C00303 V=0.3 +MOVJ EC00303 VJ=20.1
MOVL C00304 V=0.3 +MOVJ EC00304 VJ=20.1
MOVL C00305 V=0.3 +MOVJ EC00305 VJ=20.1
MOVL C00306 V=0.3 +MOVJ EC00306 VJ=20.1
MOVL C00307 V=0.3 +MOVJ EC00307 VJ=20.1
MOVL C00308 V=0.1 +MOVJ EC00308 VJ=20.1
MOVL C00309 V=0.1 +MOVJ EC00309 VJ=20.1
MOVL C00310 V=0.1 +MOVJ EC00310 VJ=20.1
MOVL C00311 V=0.1 +MOVJ EC00311 VJ=20.1
MOVL C00312 V=0.1 +MOVJ EC00312 VJ=20.1
MOVL C00313 V=0.1 +MOVJ EC00313 VJ=20.1
MOVL C00314 V=0.1 +MOVJ EC00314 VJ=20.1
MOVL C00315 V=0.1 +MOVJ EC00315 VJ=20.1
MOVL C00316 V=0.1 +MOVJ EC00316 VJ=20.1
MOVL C00317 V=0.1 +MOVJ EC00317 VJ=20.1
MOVL C00318 V=0.1 +MOVJ EC00318 VJ=20.1
MOVL C00319 V=0.1 +MOVJ EC00319 VJ=20.1
MOVL C00320 V=0.1 +MOVJ EC00320 VJ=20.1
MOVL C00321 V=0.2 +MOVJ EC00321 VJ=19.8
MOVL C00322 V=0.2 +MOVJ EC00322 VJ=19.8
MOVL C00323 V=0.2 +MOVJ EC00323 VJ=19.8
MOVL C00324 V=0.2 +MOVJ EC00324 VJ=19.8
MOVL C00325 V=0.2 +MOVJ EC00325 VJ=19.8
MOVL C00326 V=0.2 +MOVJ EC00326 VJ=19.8
MOVL C00327 V=0.2 +MOVJ EC00327 VJ=19.8
MOVL C00328 V=0.2 +MOVJ EC00328 VJ=19.8
MOVL C00329 V=0.2 +MOVJ EC00329 VJ=19.8
MOVL C00330 V=0.2 +MOVJ EC00330 VJ=19.8
MOVL C00331 V=0.2 +MOVJ EC00331 VJ=19.8
MOVL C00332 V=0.2 +MOVJ EC00332 VJ=19.8
MOVL C00333 V=0.2 +MOVJ EC00333 VJ=19.8
MOVL C00334 V=0.1 +MOVJ EC00334 VJ=19.8
MOVL C00335 V=0.1 +MOVJ EC00335 VJ=19.8
MOVL C00336 V=0.1 +MOVJ EC00336 VJ=19.8
MOVL C00337 V=0.1 +MOVJ EC00337 VJ=19.8
MOVL C00338 V=0.1 +MOVJ EC00338 VJ=19.8
MOVL C00339 V=0.1 +MOVJ EC00339 VJ=19.8
MOVL C00340 V=0.1 +MOVJ EC00340 VJ=19.8
MOVL C00341 V=0.1 +MOVJ EC00341 VJ=19.8
MOVL C00342 V=0.1 +MOVJ EC00342 VJ=19.8
MOVL C00343 V=0.1 +MOVJ EC00343 VJ=19.8
MOVL C00344 V=0.1 +MOVJ EC00344 VJ=19.8
MOVL C00345 V=0.1 +MOVJ EC00345 VJ=19.8
MOVL C00346 V=0.1 +MOVJ EC00346 VJ=19.8
MOVL C00347 V=0.2 +MOVJ EC00347 VJ=19.5
MOVL C00348 V=0.2 +MOVJ EC00348 VJ=19.5
MOVL C00349 V=0.2 +MOVJ EC00349 VJ=19.5
MOVL C00350 V=0.2 +MOVJ EC00350 VJ=19.5
MOVL C00351 V=0.2 +MOVJ EC00351 VJ=19.5
MOVL C00352 V=0.2 +MOVJ EC00352 VJ=19.5
MOVL C00353 V=0.2 +MOVJ EC00353 VJ=19.5
MOVL C00354 V=0.2 +MOVJ EC00354 VJ=19.5
MOVL C00355 V=0.2 +MOVJ EC00355 VJ=19.5
MOVL C00356 V=0.2 +MOVJ EC00356 VJ=19.5
MOVL C00357 V=0.2 +MOVJ EC00357 VJ=19.5
MOVL C00358 V=0.2 +MOVJ EC00358 VJ=19.5
MOVL C00359 V=0.2 +MOVJ EC00359 VJ=19.5
MOVL C00360 V=0.1 +MOVJ EC00360 VJ=19.5
MOVL C00361 V=0.1 +MOVJ EC00361 VJ=19.5
MOVL C00362 V=0.1 +MOVJ EC00362 VJ=19.5
MOVL C00363 V=0.1 +MOVJ EC00363 VJ=19.5
MOVL C00364 V=0.1 +MOVJ EC00364 VJ=19.5
MOVL C00365 V=0.1 +MOVJ EC00365 VJ=19.5
MOVL C00366 V=0.1 +MOVJ EC00366 VJ=19.5
MOVL C00367 V=0.1 +MOVJ EC00367 VJ=19.5
MOVL C00368 V=0.1 +MOVJ EC00368 VJ=19.5
MOVL C00369 V=0.1 +MOVJ EC00369 VJ=19.5
MOVL C00370 V=0.1 +MOVJ EC00370 VJ=19.5
MOVL C00371 V=0.1 +MOVJ EC00371 VJ=19.5
MOVL C00372 V=0.1 +MOVJ EC00372 VJ=19.5
MOVL C00373 V=0.2 +MOVJ EC00373 VJ=19.3
MOVL C00374 V=0.2 +MOVJ EC00374 VJ=19.3
MOVL C00375 V=0.2 +MOVJ EC00375 VJ=19.3
MOVL C00376 V=0.2 +MOVJ EC00376 VJ=19.3
MOVL C00377 V=0.2 +MOVJ EC00377 VJ=19.3
MOVL C00378 V=0.2 +MOVJ EC00378 VJ=19.3
MOVL C00379 V=0.2 +MOVJ EC00379 VJ=19.3
MOVL C00380 V=0.2 +MOVJ EC00380 VJ=19.3
MOVL C00381 V=0.2 +MOVJ EC00381 VJ=19.3
MOVL C00382 V=0.2 +MOVJ EC00382 VJ=19.3
MOVL C00383 V=0.2 +MOVJ EC00383 VJ=19.3
MOVL C00384 V=0.2 +MOVJ EC00384 VJ=19.3
MOVL C00385 V=0.2 +MOVJ EC00385 VJ=19.3
MOVL C00386 V=0.1 +MOVJ EC00386 VJ=19.3
MOVL C00387 V=0.1 +MOVJ EC00387 VJ=19.3
MOVL C00388 V=0.1 +MOVJ EC00388 VJ=19.3
MOVL C00389 V=0.1 +MOVJ EC00389 VJ=19.3
MOVL C00390 V=0.1 +MOVJ EC00390 VJ=19.3
MOVL C00391 V=0.1 +MOVJ EC00391 VJ=19.3
MOVL C00392 V=0.1 +MOVJ EC00392 VJ=19.3
MOVL C00393 V=0.1 +MOVJ EC00393 VJ=19.3
MOVL C00394 V=0.1 +MOVJ EC00394 VJ=19.3
MOVL C00395 V=0.1 +MOVJ EC00395 VJ=19.3
MOVL C00396 V=0.1 +MOVJ EC00396 VJ=19.3
MOVL C00397 V=0.1 +MOVJ EC00397 VJ=19.3
MOVL C00398 V=0.1 +MOVJ EC00398 VJ=19.3
MOVL C00399 V=0.2 +MOVJ EC00399 VJ=19.0
MOVL C00400 V=0.2 +MOVJ EC00400 VJ=19.0
MOVL C00401 V=0.2 +MOVJ EC00401 VJ=19.0
MOVL C00402 V=0.2 +MOVJ EC00402 VJ=19.0
MOVL C00403 V=0.2 +MOVJ EC00403 VJ=19.0
MOVL C00404 V=0.2 +MOVJ EC00404 VJ=19.0
MOVL C00405 V=0.2 +MOVJ EC00405 VJ=19.0
MOVL C00406 V=0.2 +MOVJ EC00406 VJ=19.0
MOVL C00407 V=0.2 +MOVJ EC00407 VJ=19.0
MOVL C00408 V=0.2 +MOVJ EC00408 VJ=19.0
MOVL C00409 V=0.2 +MOVJ EC00409 VJ=19.0
MOVL C00410 V=0.2 +MOVJ EC00410 VJ=19.0
MOVL C00411 V=0.2 +MOVJ EC00411 VJ=19.0
MOVL C00412 V=0.1 +MOVJ EC00412 VJ=19.0
MOVL C00413 V=0.1 +MOVJ EC00413 VJ=19.0
MOVL C00414 V=0.1 +MOVJ EC00414 VJ=19.0
MOVL C00415 V=0.1 +MOVJ EC00415 VJ=19.0
MOVL C00416 V=0.1 +MOVJ EC00416 VJ=19.0
MOVL C00417 V=0.1 +MOVJ EC00417 VJ=19.0
MOVL C00418 V=0.1 +MOVJ EC00418 VJ=19.0
MOVL C00419 V=0.1 +MOVJ EC00419 VJ=19.0
MOVL C00420 V=0.1 +MOVJ EC00420 VJ=19.0
MOVL C00421 V=0.1 +MOVJ EC00421 VJ=19.0
MOVL C00422 V=0.1 +MOVJ EC00422 VJ=19.0
MOVL C00423 V=0.1 +MOVJ EC00423 VJ=19.0
MOVL C00424 V=0.1 +MOVJ EC00424 VJ=19.0
MOVL C00425 V=0.1 +MOVJ EC00425 VJ=19.0
MOVL C00426 V=0.2 +MOVJ EC00426 VJ=18.8
MOVL C00427 V=0.2 +MOVJ EC00427 VJ=18.8
MOVL C00428 V=0.2 +MOVJ EC00428 VJ=18.8
MOVL C00429 V=0.2 +MOVJ EC00429 VJ=18.8
MOVL C00430 V=0.2 +MOVJ EC00430 VJ=18.8
MOVL C00431 V=0.2 +MOVJ EC00431 VJ=18.8
MOVL C00432 V=0.2 +MOVJ EC00432 VJ=18.8
MOVL C00433 V=0.2 +MOVJ EC00433 VJ=18.8
MOVL C00434 V=0.2 +MOVJ EC00434 VJ=18.8
MOVL C00435 V=0.2 +MOVJ EC00435 VJ=18.8
MOVL C00436 V=0.2 +MOVJ EC00436 VJ=18.8
MOVL C00437 V=0.2 +MOVJ EC00437 VJ=18.8
MOVL C00438 V=0.2 +MOVJ EC00438 VJ=18.8
MOVL C00439 V=0.1 +MOVJ EC00439 VJ=18.8
MOVL C00440 V=0.1 +MOVJ EC00440 VJ=18.8
MOVL C00441 V=0.1 +MOVJ EC00441 VJ=18.8
MOVL C00442 V=0.1 +MOVJ EC00442 VJ=18.8
MOVL C00443 V=0.1 +MOVJ EC00443 VJ=18.8
MOVL C00444 V=0.1 +MOVJ EC00444 VJ=18.8
MOVL C00445 V=0.1 +MOVJ EC00445 VJ=18.8
MOVL C00446 V=0.1 +MOVJ EC00446 VJ=18.8
MOVL C00447 V=0.1 +MOVJ EC00447 VJ=18.8
MOVL C00448 V=0.1 +MOVJ EC00448 VJ=18.8
MOVL C00449 V=0.1 +MOVJ EC00449 VJ=18.8
MOVL C00450 V=0.1 +MOVJ EC00450 VJ=18.8
MOVL C00451 V=0.1 +MOVJ EC00451 VJ=18.8
MOVL C00452 V=0.1 +MOVJ EC00452 VJ=18.8
MOVL C00453 V=0.2 +MOVJ EC00453 VJ=18.6
MOVL C00454 V=0.2 +MOVJ EC00454 VJ=18.6
MOVL C00455 V=0.2 +MOVJ EC00455 VJ=18.6
MOVL C00456 V=0.2 +MOVJ EC00456 VJ=18.6
MOVL C00457 V=0.2 +MOVJ EC00457 VJ=18.6
MOVL C00458 V=0.2 +MOVJ EC00458 VJ=18.6
MOVL C00459 V=0.2 +MOVJ EC00459 VJ=18.6
MOVL C00460 V=0.2 +MOVJ EC00460 VJ=18.6
MOVL C00461 V=0.2 +MOVJ EC00461 VJ=18.6
MOVL C00462 V=0.2 +MOVJ EC00462 VJ=18.6
MOVL C00463 V=0.2 +MOVJ EC00463 VJ=18.6
MOVL C00464 V=0.2 +MOVJ EC00464 VJ=18.6
MOVL C00465 V=0.2 +MOVJ EC00465 VJ=18.6
MOVL C00466 V=0.1 +MOVJ EC00466 VJ=18.6
MOVL C00467 V=0.1 +MOVJ EC00467 VJ=18.6
MOVL C00468 V=0.1 +MOVJ EC00468 VJ=18.6
MOVL C00469 V=0.1 +MOVJ EC00469 VJ=18.6
MOVL C00470 V=0.1 +MOVJ EC00470 VJ=18.6
MOVL C00471 V=0.1 +MOVJ EC00471 VJ=18.6
MOVL C00472 V=0.1 +MOVJ EC00472 VJ=18.6
MOVL C00473 V=0.1 +MOVJ EC00473 VJ=18.6
MOVL C00474 V=0.1 +MOVJ EC00474 VJ=18.6
MOVL C00475 V=0.1 +MOVJ EC00475 VJ=18.6
MOVL C00476 V=0.1 +MOVJ EC00476 VJ=18.6
MOVL C00477 V=0.1 +MOVJ EC00477 VJ=18.6
MOVL C00478 V=0.1 +MOVJ EC00478 VJ=18.6
MOVL C00479 V=0.1 +MOVJ EC00479 VJ=18.6
MOVL C00480 V=0.2 +MOVJ EC00480 VJ=18.4
MOVL C00481 V=0.2 +MOVJ EC00481 VJ=18.4
MOVL C00482 V=0.2 +MOVJ EC00482 VJ=18.4
MOVL C00483 V=0.2 +MOVJ EC00483 VJ=18.4
MOVL C00484 V=0.2 +MOVJ EC00484 VJ=18.4
MOVL C00485 V=0.2 +MOVJ EC00485 VJ=18.4
MOVL C00486 V=0.2 +MOVJ EC00486 VJ=18.4
MOVL C00487 V=0.2 +MOVJ EC00487 VJ=18.4
MOVL C00488 V=0.2 +MOVJ EC00488 VJ=18.4
MOVL C00489 V=0.2 +MOVJ EC00489 VJ=18.4
MOVL C00490 V=0.2 +MOVJ EC00490 VJ=18.4
MOVL C00491 V=0.2 +MOVJ EC00491 VJ=18.4
MOVL C00492 V=0.2 +MOVJ EC00492 VJ=18.4
MOVL C00493 V=0.2 +MOVJ EC00493 VJ=18.4
MOVL C00494 V=0.1 +MOVJ EC00494 VJ=18.4
MOVL C00495 V=0.1 +MOVJ EC00495 VJ=18.4
MOVL C00496 V=0.1 +MOVJ EC00496 VJ=18.4
MOVL C00497 V=0.1 +MOVJ EC00497 VJ=18.4
MOVL C00498 V=0.1 +MOVJ EC00498 VJ=18.4
MOVL C00499 V=0.1 +MOVJ EC00499 VJ=18.4
MOVL C00500 V=0.1 +MOVJ EC00500 VJ=18.4
MOVL C00501 V=0.1 +MOVJ EC00501 VJ=18.4
MOVL C00502 V=0.1 +MOVJ EC00502 VJ=18.4
MOVL C00503 V=0.1 +MOVJ EC00503 VJ=18.4
MOVL C00504 V=0.1 +MOVJ EC00504 VJ=18.4
MOVL C00505 V=0.1 +MOVJ EC00505 VJ=18.4
MOVL C00506 V=0.1 +MOVJ EC00506 VJ=18.4
MOVL C00507 V=0.1 +MOVJ EC00507 VJ=18.4
MOVL C00508 V=0.2 +MOVJ EC00508 VJ=18.2
MOVL C00509 V=0.2 +MOVJ EC00509 VJ=18.2
MOVL C00510 V=0.2 +MOVJ EC00510 VJ=18.2
MOVL C00511 V=0.2 +MOVJ EC00511 VJ=18.2
MOVL C00512 V=0.2 +MOVJ EC00512 VJ=18.2
MOVL C00513 V=0.2 +MOVJ EC00513 VJ=18.2
MOVL C00514 V=0.2 +MOVJ EC00514 VJ=18.2
MOVL C00515 V=0.2 +MOVJ EC00515 VJ=18.2
MOVL C00516 V=0.2 +MOVJ EC00516 VJ=18.2
MOVL C00517 V=0.2 +MOVJ EC00517 VJ=18.2
MOVL C00518 V=0.2 +MOVJ EC00518 VJ=18.2
MOVL C00519 V=0.2 +MOVJ EC00519 VJ=18.2
MOVL C00520 V=0.2 +MOVJ EC00520 VJ=18.2
MOVL C00521 V=0.2 +MOVJ EC00521 VJ=18.2
MOVL C00522 V=0.1 +MOVJ EC00522 VJ=18.2
MOVL C00523 V=0.1 +MOVJ EC00523 VJ=18.2
MOVL C00524 V=0.1 +MOVJ EC00524 VJ=18.2
MOVL C00525 V=0.1 +MOVJ EC00525 VJ=18.2
MOVL C00526 V=0.1 +MOVJ EC00526 VJ=18.2
MOVL C00527 V=0.1 +MOVJ EC00527 VJ=18.2
MOVL C00528 V=0.1 +MOVJ EC00528 VJ=18.2
MOVL C00529 V=0.1 +MOVJ EC00529 VJ=18.2
MOVL C00530 V=0.1 +MOVJ EC00530 VJ=18.2
MOVL C00531 V=0.1 +MOVJ EC00531 VJ=18.2
MOVL C00532 V=0.1 +MOVJ EC00532 VJ=18.2
MOVL C00533 V=0.1 +MOVJ EC00533 VJ=18.2
MOVL C00534 V=0.1 +MOVJ EC00534 VJ=18.2
MOVL C00535 V=0.1 +MOVJ EC00535 VJ=18.2
MOVL C00536 V=0.1 +MOVJ EC00536 VJ=18.0
MOVL C00537 V=0.1 +MOVJ EC00537 VJ=18.0
MOVL C00538 V=0.1 +MOVJ EC00538 VJ=18.0
MOVL C00539 V=0.1 +MOVJ EC00539 VJ=18.0
MOVL C00540 V=0.1 +MOVJ EC00540 VJ=18.0
MOVL C00541 V=0.1 +MOVJ EC00541 VJ=18.0
MOVL C00542 V=0.1 +MOVJ EC00542 VJ=18.0
MOVL C00543 V=0.1 +MOVJ EC00543 VJ=18.0
MOVL C00544 V=0.1 +MOVJ EC00544 VJ=18.0
MOVL C00545 V=0.1 +MOVJ EC00545 VJ=18.0
MOVL C00546 V=0.1 +MOVJ EC00546 VJ=18.0
MOVL C00547 V=0.1 +MOVJ EC00547 VJ=18.0
MOVL C00548 V=0.1 +MOVJ EC00548 VJ=18.0
MOVL C00549 V=0.1 +MOVJ EC00549 VJ=18.0
MOVL C00550 V=0.1 +MOVJ EC00550 VJ=18.0
MOVL C00551 V=0.1 +MOVJ EC00551 VJ=18.0
MOVL C00552 V=0.1 +MOVJ EC00552 VJ=18.0
MOVL C00553 V=0.1 +MOVJ EC00553 VJ=18.0
MOVL C00554 V=0.1 +MOVJ EC00554 VJ=18.0
MOVL C00555 V=0.1 +MOVJ EC00555 VJ=18.0
MOVL C00556 V=0.1 +MOVJ EC00556 VJ=18.0
MOVL C00557 V=0.1 +MOVJ EC00557 VJ=18.0
MOVL C00558 V=0.1 +MOVJ EC00558 VJ=18.0
MOVL C00559 V=0.1 +MOVJ EC00559 VJ=18.0
MOVL C00560 V=0.1 +MOVJ EC00560 VJ=18.0
MOVL C00561 V=0.1 +MOVJ EC00561 VJ=18.0
MOVL C00562 V=0.1 +MOVJ EC00562 VJ=18.0
MOVL C00563 V=0.1 +MOVJ EC00563 VJ=18.0
MOVL C00564 V=0.1 +MOVJ EC00564 VJ=17.8
MOVL C00565 V=0.1 +MOVJ EC00565 VJ=17.8
MOVL C00566 V=0.1 +MOVJ EC00566 VJ=17.8
MOVL C00567 V=0.1 +MOVJ EC00567 VJ=17.8
MOVL C00568 V=0.1 +MOVJ EC00568 VJ=17.8
MOVL C00569 V=0.1 +MOVJ EC00569 VJ=17.8
MOVL C00570 V=0.1 +MOVJ EC00570 VJ=17.8
MOVL C00571 V=0.1 +MOVJ EC00571 VJ=17.8
MOVL C00572 V=0.1 +MOVJ EC00572 VJ=17.8
MOVL C00573 V=0.1 +MOVJ EC00573 VJ=17.8
MOVL C00574 V=0.1 +MOVJ EC00574 VJ=17.8
MOVL C00575 V=0.1 +MOVJ EC00575 VJ=17.8
MOVL C00576 V=0.1 +MOVJ EC00576 VJ=17.8
MOVL C00577 V=0.1 +MOVJ EC00577 VJ=17.8
MOVL C00578 V=0.1 +MOVJ EC00578 VJ=17.8
MOVL C00579 V=0.1 +MOVJ EC00579 VJ=17.8
MOVL C00580 V=0.1 +MOVJ EC00580 VJ=17.8
MOVL C00581 V=0.1 +MOVJ EC00581 VJ=17.8
MOVL C00582 V=0.1 +MOVJ EC00582 VJ=17.8
MOVL C00583 V=0.1 +MOVJ EC00583 VJ=17.8
MOVL C00584 V=0.1 +MOVJ EC00584 VJ=17.8
MOVL C00585 V=0.1 +MOVJ EC00585 VJ=17.8
MOVL C00586 V=0.1 +MOVJ EC00586 VJ=17.8
MOVL C00587 V=0.1 +MOVJ EC00587 VJ=17.8
MOVL C00588 V=0.1 +MOVJ EC00588 VJ=17.8
MOVL C00589 V=0.1 +MOVJ EC00589 VJ=17.8
MOVL C00590 V=0.1 +MOVJ EC00590 VJ=17.8
MOVL C00591 V=0.1 +MOVJ EC00591 VJ=17.8
MOVL C00592 V=0.1 +MOVJ EC00592 VJ=17.8
MOVL C00593 V=0.1 +MOVJ EC00593 VJ=17.7
MOVL C00594 V=0.1 +MOVJ EC00594 VJ=17.7
MOVL C00595 V=0.1 +MOVJ EC00595 VJ=17.7
MOVL C00596 V=0.1 +MOVJ EC00596 VJ=17.7
MOVL C00597 V=0.1 +MOVJ EC00597 VJ=17.7
MOVL C00598 V=0.1 +MOVJ EC00598 VJ=17.7
MOVL C00599 V=0.1 +MOVJ EC00599 VJ=17.7
MOVL C00600 V=0.1 +MOVJ EC00600 VJ=17.7
MOVL C00601 V=0.1 +MOVJ EC00601 VJ=17.7
MOVL C00602 V=0.1 +MOVJ EC00602 VJ=17.7
MOVL C00603 V=0.1 +MOVJ EC00603 VJ=17.7
MOVL C00604 V=0.1 +MOVJ EC00604 VJ=17.7
MOVL C00605 V=0.1 +MOVJ EC00605 VJ=17.7
MOVL C00606 V=0.1 +MOVJ EC00606 VJ=17.7
MOVL C00607 V=0.1 +MOVJ EC00607 VJ=17.7
MOVL C00608 V=0.1 +MOVJ EC00608 VJ=17.7
MOVL C00609 V=0.1 +MOVJ EC00609 VJ=17.7
MOVL C00610 V=0.1 +MOVJ EC00610 VJ=17.7
MOVL C00611 V=0.1 +MOVJ EC00611 VJ=17.7
MOVL C00612 V=0.1 +MOVJ EC00612 VJ=17.7
MOVL C00613 V=0.1 +MOVJ EC00613 VJ=17.7
MOVL C00614 V=0.1 +MOVJ EC00614 VJ=17.7
MOVL C00615 V=0.1 +MOVJ EC00615 VJ=17.7
MOVL C00616 V=0.1 +MOVJ EC00616 VJ=17.7
MOVL C00617 V=0.1 +MOVJ EC00617 VJ=17.7
MOVL C00618 V=0.1 +MOVJ EC00618 VJ=17.7
MOVL C00619 V=0.1 +MOVJ EC00619 VJ=17.7
MOVL C00620 V=0.1 +MOVJ EC00620 VJ=17.7
MOVL C00621 V=0.1 +MOVJ EC00621 VJ=17.7
MOVL C00622 V=0.1 +MOVJ EC00622 VJ=17.5
MOVL C00623 V=0.1 +MOVJ EC00623 VJ=17.5
MOVL C00624 V=0.1 +MOVJ EC00624 VJ=17.5
MOVL C00625 V=0.1 +MOVJ EC00625 VJ=17.5
MOVL C00626 V=0.1 +MOVJ EC00626 VJ=17.5
MOVL C00627 V=0.1 +MOVJ EC00627 VJ=17.5
MOVL C00628 V=0.1 +MOVJ EC00628 VJ=17.5
MOVL C00629 V=0.1 +MOVJ EC00629 VJ=17.5
MOVL C00630 V=0.1 +MOVJ EC00630 VJ=17.5
MOVL C00631 V=0.1 +MOVJ EC00631 VJ=17.5
MOVL C00632 V=0.1 +MOVJ EC00632 VJ=17.5
MOVL C00633 V=0.1 +MOVJ EC00633 VJ=17.5
MOVL C00634 V=0.1 +MOVJ EC00634 VJ=17.5
MOVL C00635 V=0.1 +MOVJ EC00635 VJ=17.5
MOVL C00636 V=0.1 +MOVJ EC00636 VJ=17.5
MOVL C00637 V=0.1 +MOVJ EC00637 VJ=17.5
MOVL C00638 V=0.1 +MOVJ EC00638 VJ=17.5
MOVL C00639 V=0.1 +MOVJ EC00639 VJ=17.5
MOVL C00640 V=0.1 +MOVJ EC00640 VJ=17.5
MOVL C00641 V=0.1 +MOVJ EC00641 VJ=17.5
MOVL C00642 V=0.1 +MOVJ EC00642 VJ=17.5
MOVL C00643 V=0.1 +MOVJ EC00643 VJ=17.5
MOVL C00644 V=0.1 +MOVJ EC00644 VJ=17.5
MOVL C00645 V=0.1 +MOVJ EC00645 VJ=17.5
MOVL C00646 V=0.1 +MOVJ EC00646 VJ=17.5
MOVL C00647 V=0.1 +MOVJ EC00647 VJ=17.5
MOVL C00648 V=0.1 +MOVJ EC00648 VJ=17.5
MOVL C00649 V=0.1 +MOVJ EC00649 VJ=17.5
MOVL C00650 V=0.1 +MOVJ EC00650 VJ=17.5
MOVL C00651 V=0.1 +MOVJ EC00651 VJ=17.4
MOVL C00652 V=0.1 +MOVJ EC00652 VJ=17.4
MOVL C00653 V=0.1 +MOVJ EC00653 VJ=17.4
MOVL C00654 V=0.1 +MOVJ EC00654 VJ=17.4
MOVL C00655 V=0.1 +MOVJ EC00655 VJ=17.4
MOVL C00656 V=0.1 +MOVJ EC00656 VJ=17.4
MOVL C00657 V=0.1 +MOVJ EC00657 VJ=17.4
MOVL C00658 V=0.1 +MOVJ EC00658 VJ=17.4
MOVL C00659 V=0.1 +MOVJ EC00659 VJ=17.4
MOVL C00660 V=0.1 +MOVJ EC00660 VJ=17.4
MOVL C00661 V=0.1 +MOVJ EC00661 VJ=17.4
MOVL C00662 V=0.1 +MOVJ EC00662 VJ=17.4
MOVL C00663 V=0.1 +MOVJ EC00663 VJ=17.4
MOVL C00664 V=0.1 +MOVJ EC00664 VJ=17.4
MOVL C00665 V=0.1 +MOVJ EC00665 VJ=17.4
MOVL C00666 V=0.1 +MOVJ EC00666 VJ=17.4
MOVL C00667 V=0.1 +MOVJ EC00667 VJ=17.4
MOVL C00668 V=0.1 +MOVJ EC00668 VJ=17.4
MOVL C00669 V=0.1 +MOVJ EC00669 VJ=17.4
MOVL C00670 V=0.1 +MOVJ EC00670 VJ=17.4
MOVL C00671 V=0.1 +MOVJ EC00671 VJ=17.4
MOVL C00672 V=0.1 +MOVJ EC00672 VJ=17.4
MOVL C00673 V=0.1 +MOVJ EC00673 VJ=17.4
MOVL C00674 V=0.1 +MOVJ EC00674 VJ=17.4
MOVL C00675 V=0.1 +MOVJ EC00675 VJ=17.4
MOVL C00676 V=0.1 +MOVJ EC00676 VJ=17.4
