/JOB
//NAME AAA
//POS
///NPOS 34,0,0,0,0,0
///TOOL 12
///POSTYPE PULSE
///PULSE
C00000=-34672,82455,32670,9926,-45885,-11153
C00001=-29357,74125,22475,12172,-44592,-13640
C00002=-29442,73416,21619,12177,-44422,-13626
C00003=-34768,81720,31760,9922,-45694,-11132
C00004=-34865,80990,30859,9917,-45506,-11110
C00005=-34865,80990,30859,9917,-45506,-11110
C00006=-29527,72711,20770,12182,-44253,-13612
C00007=-29613,72009,19927,12186,-44087,-13597
C00008=-34962,80265,29966,9912,-45320,-11088
C00009=-35060,79545,29080,9907,-45137,-11065
C00010=-35060,79545,29080,9907,-45137,-11065
C00011=-29699,71311,19090,12189,-43922,-13581
C00012=-29786,70616,18259,12192,-43759,-13565
C00013=-35158,78830,28203,9900,-44956,-11042
C00014=-35257,78120,27332,9893,-44776,-11019
C00015=-35257,78120,27332,9893,-44776,-11019
C00016=-29873,69925,17434,12195,-43598,-13549
C00017=-29961,69237,16615,12197,-43439,-13532
C00018=-35356,77414,26470,9886,-44600,-10994
C00019=-35456,76712,25614,9878,-44425,-10970
C00020=-35456,76712,25614,9878,-44425,-10970
C00021=-30049,68552,15801,12199,-43282,-13515
C00022=-30138,67870,14994,12200,-43126,-13497
C00023=-35556,76015,24765,9870,-44252,-10945
C00024=-35657,75322,23924,9861,-44081,-10919
C00025=-35657,75322,23924,9861,-44081,-10919
C00026=-30227,67191,14191,12200,-42972,-13479
C00027=-30316,66515,13394,12200,-42820,-13460
C00028=-35758,74632,23088,9851,-43912,-10893
C00029=-35860,73947,22260,9841,-43746,-10866
C00030=-35860,73947,22260,9841,-43746,-10866
C00031=-30407,65842,12602,12200,-42669,-13441
C00032=-30497,65172,11815,12199,-42520,-13422
C00033=-35962,73265,21437,9831,-43581,-10839
//INST
///DATE 2024/01/17 16:47
///ATTR SC,RW
///GROUP1 RB1
NOP
MOVJ C00000 VJ=1.0
ARCON ASF#(501)
MOVL C00001 V=4.0
MOVL C00002 V=4.0
MOVL C00003 V=4.0
MOVL C00004 V=4.0
ARCOF
MOVJ C00005 VJ=1.0
ARCON ASF#(501)
MOVL C00006 V=4.0
MOVL C00007 V=4.0
MOVL C00008 V=4.0
MOVL C00009 V=4.0
ARCOF
MOVJ C00010 VJ=1.0
ARCON ASF#(501)
MOVL C00011 V=4.0
MOVL C00012 V=4.0
MOVL C00013 V=4.0
MOVL C00014 V=4.0
ARCOF
MOVJ C00015 VJ=1.0
ARCON ASF#(501)
MOVL C00016 V=4.0
MOVL C00017 V=4.0
MOVL C00018 V=4.0
MOVL C00019 V=4.0
ARCOF
MOVJ C00020 VJ=1.0
ARCON ASF#(501)
MOVL C00021 V=4.0
MOVL C00022 V=4.0
MOVL C00023 V=4.0
MOVL C00024 V=4.0
ARCOF
MOVJ C00025 VJ=1.0
ARCON ASF#(501)
MOVL C00026 V=4.0
MOVL C00027 V=4.0
MOVL C00028 V=4.0
MOVL C00029 V=4.0
ARCOF
MOVJ C00030 VJ=1.0
ARCON ASF#(501)
MOVL C00031 V=4.0
MOVL C00032 V=4.0
MOVL C00033 V=4.0
ARCOF
END
