/JOB
//NAME AAA
//POS
///NPOS 200,0,200,0,0,0
///TOOL 9
///POSTYPE PULSE
///PULSE
C00000=-74735,25603,-33447,-7292,-33462,7212
C00001=-74687,26084,-32975,-7260,-33501,7184
C00002=-74631,26563,-32502,-7224,-33541,7152
C00003=-74568,27040,-32032,-7185,-33581,7116
C00004=-74500,27493,-31582,-7144,-33619,7078
C00005=-74423,27941,-31137,-7098,-33657,7036
C00006=-74338,28370,-30711,-7049,-33693,6990
C00007=-74247,28793,-30289,-6996,-33728,6941
C00008=-74143,29209,-29872,-6938,-33763,6885
C00009=-74034,29603,-29477,-6878,-33796,6828
C00010=-73918,29978,-29101,-6815,-33826,6767
C00011=-73800,30324,-28752,-6750,-33854,6705
C00012=-73677,30651,-28423,-6685,-33880,6642
C00013=-73531,30996,-28074,-6607,-33907,6566
C00014=-73378,31327,-27739,-6526,-33932,6487
C00015=-73216,31637,-27425,-6442,-33955,6404
C00016=-73054,31922,-27136,-6357,-33976,6322
C00017=-72885,32188,-26866,-6270,-33994,6236
C00018=-72718,32432,-26617,-6184,-34011,6151
C00019=-72545,32665,-26380,-6096,-34026,6064
C00020=-72366,32887,-26154,-6004,-34040,5973
C00021=-72190,33089,-25947,-5915,-34052,5885
C00022=-72013,33278,-25754,-5825,-34063,5796
C00023=-71843,33452,-25576,-5739,-34073,5710
C00024=-71669,33620,-25403,-5651,-34083,5623
C00025=-71491,33782,-25238,-5561,-34091,5534
C00026=-71319,33938,-25078,-5474,-34099,5447
C00027=-71146,34087,-24924,-5387,-34107,5361
C00028=-70976,34227,-24780,-5302,-34114,5276
C00029=-70803,34374,-24629,-5215,-34122,5189
C00030=-70633,34514,-24485,-5129,-34130,5104
C00031=-70463,34655,-24340,-5043,-34138,5019
C00032=-70285,34807,-24184,-4954,-34147,4930
C00033=-70116,34950,-24037,-4868,-34155,4845
C00034=-69947,35098,-23884,-4783,-34165,4761
C00035=-69778,35250,-23727,-4698,-34175,4676
C00036=-69607,35408,-23563,-4611,-34186,4591
C00037=-69435,35572,-23393,-4524,-34198,4504
C00038=-69256,35750,-23209,-4434,-34211,4415
C00039=-69090,35930,-23023,-4350,-34226,4331
C00040=-68929,36110,-22836,-4268,-34241,4250
C00041=-68768,36300,-22638,-4186,-34258,4170
C00042=-68606,36507,-22423,-4103,-34277,4088
C00043=-68447,36721,-22200,-4022,-34297,4008
C00044=-68285,36959,-21953,-3940,-34320,3926
C00045=-68132,37196,-21705,-3861,-34344,3849
C00046=-67980,37451,-21439,-3783,-34371,3773
C00047=-67826,37727,-21151,-3704,-34401,3695
C00048=-67678,38014,-20851,-3628,-34432,3620
C00049=-67529,38318,-20531,-3551,-34467,3544
C00050=-63067,31355,-35156,-1568,-28932,1456
C00051=-63318,30953,-35122,-1700,-29164,1585
C00052=-63635,30624,-34742,-1859,-29572,1743
C00053=-63986,30345,-34295,-2032,-29997,1917
C00054=-64322,30122,-33915,-2197,-30352,2082
C00055=-64658,29959,-33530,-2361,-30680,2247
C00056=-65040,29859,-33043,-2544,-31040,2433
C00057=-65453,29858,-32443,-2738,-31421,2632
C00058=-65823,29855,-31997,-2914,-31707,2811
C00059=-66211,29932,-31476,-3095,-31999,2997
C00060=-66609,30060,-30938,-3280,-32278,3188
C00061=-66953,30121,-30587,-3442,-32473,3354
C00062=-67368,30319,-30047,-3634,-32718,3552
C00063=-67763,30535,-29545,-3817,-32931,3741
C00064=-68104,30669,-29213,-3976,-33080,3905
C00065=-68458,30873,-28815,-4141,-33235,4074
C00066=-68741,30937,-28634,-4275,-33325,4211
C00067=-69008,30974,-28503,-4402,-33398,4341
C00068=-69316,31076,-28295,-4548,-33488,4490
C00069=-69563,31079,-28230,-4667,-33538,4611
C00070=-69888,31317,-27892,-4819,-33640,4766
C00071=-70108,31249,-27926,-4926,-33664,4875
C00072=-70387,31372,-27746,-5059,-33727,5010
C00073=-70642,31432,-27645,-5181,-33771,5134
C00074=-70864,31385,-27670,-5290,-33792,5244
C00075=-71122,31447,-27579,-5414,-33830,5370
C00076=-71368,31483,-27523,-5533,-33860,5490
C00077=-71582,31464,-27530,-5638,-33877,5596
C00078=-71811,31447,-27539,-5750,-33895,5709
C00079=-72038,31423,-27556,-5861,-33910,5821
C00080=-72266,31412,-27563,-5973,-33925,5933
C00081=-72504,31452,-27520,-6088,-33946,6050
C00082=-72704,31400,-27571,-6187,-33954,6149
C00083=-72944,31473,-27500,-6303,-33976,6267
C00084=-73146,31412,-27563,-6402,-33982,6367
C00085=-73397,31580,-27401,-6523,-34011,6490
C00086=-73573,31539,-27434,-6608,-34024,6576
C00087=-73796,31607,-27375,-6716,-34041,6685
C00088=-73972,31697,-27283,-6799,-34064,6771
C00089=-74144,31759,-27219,-6881,-34084,6855
C00090=-74342,31972,-27007,-6973,-34118,6950
C00091=-74528,32108,-26874,-7061,-34144,7040
C00092=-74719,32282,-26703,-7150,-34174,7132
C00093=-74895,32352,-26636,-7234,-34192,7218
C00094=-75080,32595,-26399,-7319,-34226,7306
C00095=-75253,32745,-26251,-7399,-34254,7389
C00096=-75378,32759,-26204,-7454,-34284,7448
C00097=-75553,32964,-26001,-7534,-34318,7532
C00098=-75727,32734,-26238,-7623,-34304,7619
C00099=-75893,32662,-26311,-7703,-34309,7701
C00100=-75774,34842,-23991,-7588,-34605,7611
C00101=-75701,31607,-27308,-7626,-34223,7615
C00102=-75551,32584,-26314,-7533,-34320,7530
C00103=-75353,33736,-25136,-7413,-34437,7420
C00104=-75215,32688,-26208,-7370,-34306,7365
C00105=-75018,31575,-27341,-7299,-34167,7282
C00106=-74852,31588,-27329,-7219,-34155,7200
C00107=-74713,32735,-26162,-7129,-34272,7119
C00108=-74534,33058,-25832,-7036,-34296,7028
C00109=-74355,32174,-26732,-6968,-34184,6950
C00110=-74149,31623,-27290,-6879,-34110,6855
C00111=-73962,31474,-27439,-6791,-34081,6764
C00112=-73789,31493,-27418,-6707,-34072,6679
C00113=-73592,31543,-27365,-6610,-34066,6582
C00114=-73382,31525,-27379,-6508,-34052,6479
C00115=-73159,31450,-27453,-6401,-34030,6369
C00116=-72933,31367,-27535,-6292,-34008,6259
C00117=-72702,31314,-27587,-6180,-33988,6145
C00118=-72478,31298,-27604,-6071,-33971,6035
C00119=-72250,31300,-27605,-5960,-33956,5923
C00120=-72015,31307,-27603,-5845,-33939,5807
C00121=-71783,31304,-27614,-5732,-33920,5693
C00122=-71544,31282,-27649,-5616,-33896,5575
C00123=-71309,31249,-27700,-5502,-33868,5460
C00124=-71067,31211,-27761,-5386,-33836,5342
C00125=-70819,31178,-27822,-5266,-33802,5220
C00126=-70578,31161,-27871,-5150,-33768,5103
C00127=-70335,31150,-27920,-5032,-33731,4984
C00128=-70092,31131,-27983,-4915,-33689,4865
C00129=-69830,31090,-28080,-4790,-33638,4738
C00130=-69561,31012,-28228,-4662,-33573,4607
C00131=-69275,30901,-28430,-4527,-33493,4469
C00132=-68958,30761,-28690,-4378,-33391,4316
C00133=-68643,30617,-28971,-4230,-33278,4165
C00134=-68320,30480,-29267,-4079,-33153,4010
C00135=-67987,30339,-29595,-3924,-33010,3850
C00136=-67640,30201,-29954,-3762,-32846,3683
C00137=-67273,30054,-30369,-3591,-32653,3507
C00138=-66876,29910,-30842,-3407,-32422,3317
C00139=-66497,29797,-31312,-3230,-32179,3135
C00140=-66127,29727,-31766,-3057,-31924,2958
C00141=-65760,29700,-32211,-2884,-31653,2781
C00142=-65384,29710,-32675,-2707,-31352,2599
C00143=-65003,29760,-33166,-2526,-31015,2415
C00144=-64604,29862,-33709,-2335,-30619,2221
C00145=-64250,30036,-34151,-2164,-30250,2048
C00146=-63934,30276,-34475,-2008,-29921,1891
C00147=-63605,30574,-34839,-1844,-29538,1728
C00148=-63299,30928,-35146,-1690,-29162,1575
C00149=-62998,31337,-35466,-1536,-28749,1424
C00150=-63017,31263,-35378,-1543,-28842,1432
C00151=-63291,30874,-35167,-1684,-29176,1570
C00152=-63596,30519,-34863,-1838,-29551,1723
C00153=-63918,30215,-34528,-1999,-29919,1883
C00154=-64247,29973,-34162,-2160,-30275,2045
C00155=-64581,29784,-33788,-2323,-30610,2209
C00156=-64939,29635,-33385,-2496,-30942,2384
C00157=-65307,29558,-32931,-2671,-31270,2563
C00158=-65704,29555,-32404,-2858,-31607,2754
C00159=-66093,29606,-31883,-3040,-31912,2941
C00160=-66472,29683,-31404,-3216,-32180,3122
C00161=-66844,29781,-30955,-3390,-32418,3301
C00162=-67230,29899,-30515,-3570,-32641,3486
C00163=-67591,30026,-30122,-3738,-32831,3659
C00164=-67935,30154,-29770,-3899,-32996,3824
C00165=-68264,30276,-29458,-4052,-33137,3982
C00166=-68578,30394,-29182,-4199,-33260,4133
C00167=-68885,30514,-28925,-4343,-33370,4281
C00168=-69201,30641,-28674,-4492,-33473,4433
C00169=-69495,30764,-28450,-4630,-33561,4575
C00170=-69780,30875,-28254,-4764,-33638,4713
C00171=-70058,30968,-28093,-4897,-33704,4847
C00172=-70317,31032,-27976,-5020,-33756,4973
C00173=-70567,31072,-27895,-5140,-33798,5095
C00174=-70809,31093,-27841,-5256,-33834,5213
C00175=-71052,31111,-27795,-5374,-33866,5332
C00176=-71288,31127,-27756,-5488,-33895,5448
C00177=-71519,31145,-27720,-5600,-33921,5561
C00178=-71759,31163,-27687,-5716,-33946,5679
C00179=-71993,31172,-27668,-5830,-33967,5794
C00180=-72230,31177,-27656,-5945,-33986,5910
C00181=-72458,31178,-27651,-6056,-34003,6022
C00182=-72678,31184,-27643,-6163,-34019,6130
C00183=-72901,31210,-27616,-6272,-34036,6240
C00184=-73120,31250,-27575,-6378,-34055,6348
C00185=-73339,31295,-27531,-6483,-34074,6455
C00186=-73554,31335,-27492,-6587,-34092,6560
C00187=-73761,31385,-27442,-6686,-34111,6662
C00188=-73944,31470,-27357,-6774,-34132,6751
C00189=-74130,31611,-27216,-6861,-34159,6841
C00190=-74324,31806,-27021,-6951,-34193,6934
C00191=-74508,31983,-26844,-7036,-34225,7022
C00192=-74689,32056,-26770,-7122,-34246,7110
C00193=-74857,32092,-26731,-7202,-34264,7192
C00194=-75021,32222,-26594,-7277,-34293,7270
C00195=-75190,32438,-26371,-7353,-34332,7350
C00196=-75362,32628,-26181,-7431,-34364,7432
C00197=-75542,32594,-26223,-7519,-34370,7521
C00198=-75712,32806,-26010,-7596,-34405,7602
C00199=-75873,33474,-25335,-7658,-34489,7672
EC00000=-29915,-132269
EC00001=-29915,-132269
EC00002=-29915,-132269
EC00003=-29915,-132269
EC00004=-29915,-132269
EC00005=-29915,-132269
EC00006=-29915,-132269
EC00007=-29915,-132269
EC00008=-29915,-132269
EC00009=-29915,-132269
EC00010=-29915,-132269
EC00011=-29915,-132269
EC00012=-29915,-132269
EC00013=-29915,-132269
EC00014=-29915,-132269
EC00015=-29915,-132269
EC00016=-29915,-132269
EC00017=-29915,-132269
EC00018=-29915,-132269
EC00019=-29915,-132269
EC00020=-29915,-132269
EC00021=-29915,-132269
EC00022=-29915,-132269
EC00023=-29915,-132269
EC00024=-29915,-132269
EC00025=-29915,-132269
EC00026=-29915,-132269
EC00027=-29915,-132269
EC00028=-29915,-132269
EC00029=-29915,-132269
EC00030=-29915,-132269
EC00031=-29915,-132269
EC00032=-29915,-132269
EC00033=-29915,-132269
EC00034=-29915,-132269
EC00035=-29915,-132269
EC00036=-29915,-132269
EC00037=-29915,-132269
EC00038=-29915,-132269
EC00039=-29915,-132269
EC00040=-29915,-132269
EC00041=-29915,-132269
EC00042=-29915,-132269
EC00043=-29915,-132269
EC00044=-29915,-132269
EC00045=-29915,-132269
EC00046=-29915,-132269
EC00047=-29915,-132269
EC00048=-29915,-132269
EC00049=-29915,-132269
EC00050=86127,-132269
EC00051=82077,-132214
EC00052=77624,-128947
EC00053=72337,-126096
EC00054=67127,-124482
EC00055=62455,-122425
EC00056=57274,-119855
EC00057=51577,-116947
EC00058=46406,-115585
EC00059=40821,-114321
EC00060=35475,-112465
EC00061=31349,-111040
EC00062=25579,-110125
EC00063=20358,-108875
EC00064=16271,-107933
EC00065=11678,-107361
EC00066=8496,-107361
EC00067=5681,-107440
EC00068=2395,-106596
EC00069=52,-106596
EC00070=-4212,-107361
EC00071=-5936,-107981
EC00072=-9027,-108253
EC00073=-11608,-109368
EC00074=-13319,-109862
EC00075=-15820,-110977
EC00076=-18015,-112465
EC00077=-19526,-115187
EC00078=-21150,-116898
EC00079=-22670,-118632
EC00080=-23969,-121757
EC00081=-25441,-124904
EC00082=-26016,-128344
EC00083=-27336,-131876
EC00084=-27834,-134711
EC00085=-29111,-139366
EC00086=-28534,-144555
EC00087=-29372,-147745
EC00088=-29358,-152329
EC00089=-29351,-156274
EC00090=-29689,-161236
EC00091=-29901,-165227
EC00092=-30184,-169364
EC00093=-30308,-172464
EC00094=-30691,-176607
EC00095=-30775,-180209
EC00096=-29734,-184072
EC00097=-29918,-187701
EC00098=-29996,-187964
EC00099=-29973,-189580
EC00100=-29653,-206565
EC00101=-29826,-179862
EC00102=-29810,-185164
EC00103=-29809,-192507
EC00104=-29801,-181522
EC00105=-29802,-169045
EC00106=-29823,-166338
EC00107=-29843,-174933
EC00108=-29821,-175942
EC00109=-29742,-163942
EC00110=-29606,-154742
EC00111=-29440,-149905
EC00112=-29239,-147126
EC00113=-28944,-144412
EC00114=-28508,-140758
EC00115=-27876,-136190
EC00116=-27035,-131624
EC00117=-25988,-127612
EC00118=-24830,-124484
EC00119=-23505,-121921
EC00120=-22016,-119632
EC00121=-20412,-117466
EC00122=-18575,-115195
EC00123=-16611,-113034
EC00124=-14454,-111078
EC00125=-12165,-109516
EC00126=-9952,-108545
EC00127=-7711,-108018
EC00128=-5421,-107748
EC00129=-2829,-107512
EC00130=69,-107209
EC00131=3375,-106889
EC00132=7182,-106736
EC00133=11005,-106932
EC00134=14888,-107493
EC00135=18932,-108307
EC00136=23231,-109198
EC00137=27980,-110091
EC00138=33267,-111138
EC00139=38365,-112411
EC00140=43276,-113955
EC00141=48137,-115659
EC00142=53263,-117457
EC00143=58684,-119405
EC00144=64587,-121754
EC00145=69730,-124077
EC00146=74030,-126346
EC00147=78787,-128940
EC00148=83416,-131280
EC00149=87942,-134272
EC00150=87243,-134129
EC00151=83697,-131428
EC00152=79243,-128883
EC00153=74766,-126226
EC00154=70044,-123928
EC00155=65417,-121725
EC00156=60567,-119500
EC00157=55435,-117486
EC00158=49791,-115559
EC00159=44315,-113849
EC00160=39143,-112392
EC00161=34162,-111171
EC00162=29128,-110082
EC00163=24528,-109129
EC00164=20263,-108268
EC00165=16284,-107562
EC00166=12531,-107098
EC00167=8876,-106893
EC00168=5143,-106909
EC00169=1709,-107061
EC00170=-1524,-107294
EC00171=-4549,-107635
EC00172=-7225,-108151
EC00173=-9667,-108978
EC00174=-11899,-110163
EC00175=-14059,-111766
EC00176=-16057,-113580
EC00177=-17922,-115511
EC00178=-19758,-117594
EC00179=-21415,-119741
EC00180=-22945,-122179
EC00181=-24240,-124948
EC00182=-25296,-128140
EC00183=-26208,-131940
EC00184=-26949,-135993
EC00185=-27550,-140134
EC00186=-28021,-144141
EC00187=-28387,-148143
EC00188=-28662,-152053
EC00189=-28914,-156490
EC00190=-29153,-161415
EC00191=-29328,-165877
EC00192=-29398,-169308
EC00193=-29334,-172395
EC00194=-29210,-176281
EC00195=-29168,-180669
EC00196=-29323,-184322
EC00197=-29582,-185932
EC00198=-29684,-189614
EC00199=-29929,-196316
//INST
///DATE 2023/02/16 17:41
///ATTR SC,RW
///GROUP1 RB1
///GROUP2 ST1
NOP
MOVL C00000 V=10.0 +MOVJ EC00000 VJ=10.0
MOVL C00001 V=10.0 +MOVJ EC00001 VJ=10.0
MOVL C00002 V=10.0 +MOVJ EC00002 VJ=10.0
MOVL C00003 V=10.0 +MOVJ EC00003 VJ=10.0
MOVL C00004 V=10.0 +MOVJ EC00004 VJ=10.0
MOVL C00005 V=10.0 +MOVJ EC00005 VJ=10.0
MOVL C00006 V=10.0 +MOVJ EC00006 VJ=10.0
MOVL C00007 V=10.0 +MOVJ EC00007 VJ=10.0
MOVL C00008 V=10.0 +MOVJ EC00008 VJ=10.0
MOVL C00009 V=10.0 +MOVJ EC00009 VJ=10.0
MOVL C00010 V=10.0 +MOVJ EC00010 VJ=10.0
MOVL C00011 V=10.0 +MOVJ EC00011 VJ=10.0
MOVL C00012 V=10.0 +MOVJ EC00012 VJ=10.0
MOVL C00013 V=10.0 +MOVJ EC00013 VJ=10.0
MOVL C00014 V=10.0 +MOVJ EC00014 VJ=10.0
MOVL C00015 V=10.0 +MOVJ EC00015 VJ=10.0
MOVL C00016 V=10.0 +MOVJ EC00016 VJ=10.0
MOVL C00017 V=10.0 +MOVJ EC00017 VJ=10.0
MOVL C00018 V=10.0 +MOVJ EC00018 VJ=10.0
MOVL C00019 V=10.0 +MOVJ EC00019 VJ=10.0
MOVL C00020 V=10.0 +MOVJ EC00020 VJ=10.0
MOVL C00021 V=10.0 +MOVJ EC00021 VJ=10.0
MOVL C00022 V=10.0 +MOVJ EC00022 VJ=10.0
MOVL C00023 V=10.0 +MOVJ EC00023 VJ=10.0
MOVL C00024 V=10.0 +MOVJ EC00024 VJ=10.0
MOVL C00025 V=10.0 +MOVJ EC00025 VJ=10.0
MOVL C00026 V=10.0 +MOVJ EC00026 VJ=10.0
MOVL C00027 V=10.0 +MOVJ EC00027 VJ=10.0
MOVL C00028 V=10.0 +MOVJ EC00028 VJ=10.0
MOVL C00029 V=10.0 +MOVJ EC00029 VJ=10.0
MOVL C00030 V=10.0 +MOVJ EC00030 VJ=10.0
MOVL C00031 V=10.0 +MOVJ EC00031 VJ=10.0
MOVL C00032 V=10.0 +MOVJ EC00032 VJ=10.0
MOVL C00033 V=10.0 +MOVJ EC00033 VJ=10.0
MOVL C00034 V=10.0 +MOVJ EC00034 VJ=10.0
MOVL C00035 V=10.0 +MOVJ EC00035 VJ=10.0
MOVL C00036 V=10.0 +MOVJ EC00036 VJ=10.0
MOVL C00037 V=10.0 +MOVJ EC00037 VJ=10.0
MOVL C00038 V=10.0 +MOVJ EC00038 VJ=10.0
MOVL C00039 V=10.0 +MOVJ EC00039 VJ=10.0
MOVL C00040 V=10.0 +MOVJ EC00040 VJ=10.0
MOVL C00041 V=10.0 +MOVJ EC00041 VJ=10.0
MOVL C00042 V=10.0 +MOVJ EC00042 VJ=10.0
MOVL C00043 V=10.0 +MOVJ EC00043 VJ=10.0
MOVL C00044 V=10.0 +MOVJ EC00044 VJ=10.0
MOVL C00045 V=10.0 +MOVJ EC00045 VJ=10.0
MOVL C00046 V=10.0 +MOVJ EC00046 VJ=10.0
MOVL C00047 V=10.0 +MOVJ EC00047 VJ=10.0
MOVL C00048 V=10.0 +MOVJ EC00048 VJ=10.0
MOVL C00049 V=10.0 +MOVJ EC00049 VJ=10.0
MOVL C00050 V=10.0 +MOVJ EC00050 VJ=10.0
MOVL C00051 V=10.0 +MOVJ EC00051 VJ=10.0
MOVL C00052 V=10.0 +MOVJ EC00052 VJ=10.0
MOVL C00053 V=10.0 +MOVJ EC00053 VJ=10.0
MOVL C00054 V=10.0 +MOVJ EC00054 VJ=10.0
MOVL C00055 V=10.0 +MOVJ EC00055 VJ=10.0
MOVL C00056 V=10.0 +MOVJ EC00056 VJ=10.0
MOVL C00057 V=10.0 +MOVJ EC00057 VJ=10.0
MOVL C00058 V=10.0 +MOVJ EC00058 VJ=10.0
MOVL C00059 V=10.0 +MOVJ EC00059 VJ=10.0
MOVL C00060 V=10.0 +MOVJ EC00060 VJ=10.0
MOVL C00061 V=10.0 +MOVJ EC00061 VJ=10.0
MOVL C00062 V=10.0 +MOVJ EC00062 VJ=10.0
MOVL C00063 V=10.0 +MOVJ EC00063 VJ=10.0
MOVL C00064 V=10.0 +MOVJ EC00064 VJ=10.0
MOVL C00065 V=10.0 +MOVJ EC00065 VJ=10.0
MOVL C00066 V=10.0 +MOVJ EC00066 VJ=10.0
MOVL C00067 V=10.0 +MOVJ EC00067 VJ=10.0
MOVL C00068 V=10.0 +MOVJ EC00068 VJ=10.0
MOVL C00069 V=10.0 +MOVJ EC00069 VJ=10.0
MOVL C00070 V=10.0 +MOVJ EC00070 VJ=10.0
MOVL C00071 V=10.0 +MOVJ EC00071 VJ=10.0
MOVL C00072 V=10.0 +MOVJ EC00072 VJ=10.0
MOVL C00073 V=10.0 +MOVJ EC00073 VJ=10.0
MOVL C00074 V=10.0 +MOVJ EC00074 VJ=10.0
MOVL C00075 V=10.0 +MOVJ EC00075 VJ=10.0
MOVL C00076 V=10.0 +MOVJ EC00076 VJ=10.0
MOVL C00077 V=10.0 +MOVJ EC00077 VJ=10.0
MOVL C00078 V=10.0 +MOVJ EC00078 VJ=10.0
MOVL C00079 V=10.0 +MOVJ EC00079 VJ=10.0
MOVL C00080 V=10.0 +MOVJ EC00080 VJ=10.0
MOVL C00081 V=10.0 +MOVJ EC00081 VJ=10.0
MOVL C00082 V=10.0 +MOVJ EC00082 VJ=10.0
MOVL C00083 V=10.0 +MOVJ EC00083 VJ=10.0
MOVL C00084 V=10.0 +MOVJ EC00084 VJ=10.0
MOVL C00085 V=10.0 +MOVJ EC00085 VJ=10.0
MOVL C00086 V=10.0 +MOVJ EC00086 VJ=10.0
MOVL C00087 V=10.0 +MOVJ EC00087 VJ=10.0
MOVL C00088 V=10.0 +MOVJ EC00088 VJ=10.0
MOVL C00089 V=10.0 +MOVJ EC00089 VJ=10.0
MOVL C00090 V=10.0 +MOVJ EC00090 VJ=10.0
MOVL C00091 V=10.0 +MOVJ EC00091 VJ=10.0
MOVL C00092 V=10.0 +MOVJ EC00092 VJ=10.0
MOVL C00093 V=10.0 +MOVJ EC00093 VJ=10.0
MOVL C00094 V=10.0 +MOVJ EC00094 VJ=10.0
MOVL C00095 V=10.0 +MOVJ EC00095 VJ=10.0
MOVL C00096 V=10.0 +MOVJ EC00096 VJ=10.0
MOVL C00097 V=10.0 +MOVJ EC00097 VJ=10.0
MOVL C00098 V=10.0 +MOVJ EC00098 VJ=10.0
MOVL C00099 V=10.0 +MOVJ EC00099 VJ=10.0
MOVL C00100 V=10.0 +MOVJ EC00100 VJ=10.0
MOVL C00101 V=10.0 +MOVJ EC00101 VJ=10.0
MOVL C00102 V=10.0 +MOVJ EC00102 VJ=10.0
MOVL C00103 V=10.0 +MOVJ EC00103 VJ=10.0
MOVL C00104 V=10.0 +MOVJ EC00104 VJ=10.0
MOVL C00105 V=10.0 +MOVJ EC00105 VJ=10.0
MOVL C00106 V=10.0 +MOVJ EC00106 VJ=10.0
MOVL C00107 V=10.0 +MOVJ EC00107 VJ=10.0
MOVL C00108 V=10.0 +MOVJ EC00108 VJ=10.0
MOVL C00109 V=10.0 +MOVJ EC00109 VJ=10.0
MOVL C00110 V=10.0 +MOVJ EC00110 VJ=10.0
MOVL C00111 V=10.0 +MOVJ EC00111 VJ=10.0
MOVL C00112 V=10.0 +MOVJ EC00112 VJ=10.0
MOVL C00113 V=10.0 +MOVJ EC00113 VJ=10.0
MOVL C00114 V=10.0 +MOVJ EC00114 VJ=10.0
MOVL C00115 V=10.0 +MOVJ EC00115 VJ=10.0
MOVL C00116 V=10.0 +MOVJ EC00116 VJ=10.0
MOVL C00117 V=10.0 +MOVJ EC00117 VJ=10.0
MOVL C00118 V=10.0 +MOVJ EC00118 VJ=10.0
MOVL C00119 V=10.0 +MOVJ EC00119 VJ=10.0
MOVL C00120 V=10.0 +MOVJ EC00120 VJ=10.0
MOVL C00121 V=10.0 +MOVJ EC00121 VJ=10.0
MOVL C00122 V=10.0 +MOVJ EC00122 VJ=10.0
MOVL C00123 V=10.0 +MOVJ EC00123 VJ=10.0
MOVL C00124 V=10.0 +MOVJ EC00124 VJ=10.0
MOVL C00125 V=10.0 +MOVJ EC00125 VJ=10.0
MOVL C00126 V=10.0 +MOVJ EC00126 VJ=10.0
MOVL C00127 V=10.0 +MOVJ EC00127 VJ=10.0
MOVL C00128 V=10.0 +MOVJ EC00128 VJ=10.0
MOVL C00129 V=10.0 +MOVJ EC00129 VJ=10.0
MOVL C00130 V=10.0 +MOVJ EC00130 VJ=10.0
MOVL C00131 V=10.0 +MOVJ EC00131 VJ=10.0
MOVL C00132 V=10.0 +MOVJ EC00132 VJ=10.0
MOVL C00133 V=10.0 +MOVJ EC00133 VJ=10.0
MOVL C00134 V=10.0 +MOVJ EC00134 VJ=10.0
MOVL C00135 V=10.0 +MOVJ EC00135 VJ=10.0
MOVL C00136 V=10.0 +MOVJ EC00136 VJ=10.0
MOVL C00137 V=10.0 +MOVJ EC00137 VJ=10.0
MOVL C00138 V=10.0 +MOVJ EC00138 VJ=10.0
MOVL C00139 V=10.0 +MOVJ EC00139 VJ=10.0
MOVL C00140 V=10.0 +MOVJ EC00140 VJ=10.0
MOVL C00141 V=10.0 +MOVJ EC00141 VJ=10.0
MOVL C00142 V=10.0 +MOVJ EC00142 VJ=10.0
MOVL C00143 V=10.0 +MOVJ EC00143 VJ=10.0
MOVL C00144 V=10.0 +MOVJ EC00144 VJ=10.0
MOVL C00145 V=10.0 +MOVJ EC00145 VJ=10.0
MOVL C00146 V=10.0 +MOVJ EC00146 VJ=10.0
MOVL C00147 V=10.0 +MOVJ EC00147 VJ=10.0
MOVL C00148 V=10.0 +MOVJ EC00148 VJ=10.0
MOVL C00149 V=10.0 +MOVJ EC00149 VJ=10.0
MOVL C00150 V=10.0 +MOVJ EC00150 VJ=10.0
MOVL C00151 V=10.0 +MOVJ EC00151 VJ=10.0
MOVL C00152 V=10.0 +MOVJ EC00152 VJ=10.0
MOVL C00153 V=10.0 +MOVJ EC00153 VJ=10.0
MOVL C00154 V=10.0 +MOVJ EC00154 VJ=10.0
MOVL C00155 V=10.0 +MOVJ EC00155 VJ=10.0
MOVL C00156 V=10.0 +MOVJ EC00156 VJ=10.0
MOVL C00157 V=10.0 +MOVJ EC00157 VJ=10.0
MOVL C00158 V=10.0 +MOVJ EC00158 VJ=10.0
MOVL C00159 V=10.0 +MOVJ EC00159 VJ=10.0
MOVL C00160 V=10.0 +MOVJ EC00160 VJ=10.0
MOVL C00161 V=10.0 +MOVJ EC00161 VJ=10.0
MOVL C00162 V=10.0 +MOVJ EC00162 VJ=10.0
MOVL C00163 V=10.0 +MOVJ EC00163 VJ=10.0
MOVL C00164 V=10.0 +MOVJ EC00164 VJ=10.0
MOVL C00165 V=10.0 +MOVJ EC00165 VJ=10.0
MOVL C00166 V=10.0 +MOVJ EC00166 VJ=10.0
MOVL C00167 V=10.0 +MOVJ EC00167 VJ=10.0
MOVL C00168 V=10.0 +MOVJ EC00168 VJ=10.0
MOVL C00169 V=10.0 +MOVJ EC00169 VJ=10.0
MOVL C00170 V=10.0 +MOVJ EC00170 VJ=10.0
MOVL C00171 V=10.0 +MOVJ EC00171 VJ=10.0
MOVL C00172 V=10.0 +MOVJ EC00172 VJ=10.0
MOVL C00173 V=10.0 +MOVJ EC00173 VJ=10.0
MOVL C00174 V=10.0 +MOVJ EC00174 VJ=10.0
MOVL C00175 V=10.0 +MOVJ EC00175 VJ=10.0
MOVL C00176 V=10.0 +MOVJ EC00176 VJ=10.0
MOVL C00177 V=10.0 +MOVJ EC00177 VJ=10.0
MOVL C00178 V=10.0 +MOVJ EC00178 VJ=10.0
MOVL C00179 V=10.0 +MOVJ EC00179 VJ=10.0
MOVL C00180 V=10.0 +MOVJ EC00180 VJ=10.0
MOVL C00181 V=10.0 +MOVJ EC00181 VJ=10.0
MOVL C00182 V=10.0 +MOVJ EC00182 VJ=10.0
MOVL C00183 V=10.0 +MOVJ EC00183 VJ=10.0
MOVL C00184 V=10.0 +MOVJ EC00184 VJ=10.0
MOVL C00185 V=10.0 +MOVJ EC00185 VJ=10.0
MOVL C00186 V=10.0 +MOVJ EC00186 VJ=10.0
MOVL C00187 V=10.0 +MOVJ EC00187 VJ=10.0
MOVL C00188 V=10.0 +MOVJ EC00188 VJ=10.0
MOVL C00189 V=10.0 +MOVJ EC00189 VJ=10.0
MOVL C00190 V=10.0 +MOVJ EC00190 VJ=10.0
MOVL C00191 V=10.0 +MOVJ EC00191 VJ=10.0
MOVL C00192 V=10.0 +MOVJ EC00192 VJ=10.0
MOVL C00193 V=10.0 +MOVJ EC00193 VJ=10.0
MOVL C00194 V=10.0 +MOVJ EC00194 VJ=10.0
MOVL C00195 V=10.0 +MOVJ EC00195 VJ=10.0
MOVL C00196 V=10.0 +MOVJ EC00196 VJ=10.0
MOVL C00197 V=10.0 +MOVJ EC00197 VJ=10.0
MOVL C00198 V=10.0 +MOVJ EC00198 VJ=10.0
MOVL C00199 V=10.0 +MOVJ EC00199 VJ=10.0
END
