/JOB
//NAME AAA
//POS
///NPOS 50,0,50,0,0,0
///TOOL 9
///POSTYPE PULSE
///PULSE
C00000=-29260,75337,23412,12216,-44562,-13688
C00001=-29405,75090,23113,12178,-44485,-13634
C00002=-29548,74863,22838,12139,-44414,-13581
C00003=-29695,74652,22582,12098,-44347,-13525
C00004=-29839,74463,22354,12057,-44284,-13470
C00005=-29982,74295,22150,12016,-44227,-13414
C00006=-30132,74132,21953,11971,-44170,-13356
C00007=-30278,73994,21786,11926,-44120,-13298
C00008=-30427,73865,21631,11880,-44071,-13238
C00009=-30572,73754,21496,11834,-44026,-13180
C00010=-30717,73654,21376,11787,-43985,-13121
C00011=-30867,73559,21261,11739,-43944,-13061
C00012=-31026,73472,21157,11686,-43904,-12995
C00013=-31178,73397,21065,11635,-43867,-12932
C00014=-31329,73327,20981,11585,-43832,-12870
C00015=-31478,73263,20904,11535,-43798,-12808
C00016=-31626,73203,20832,11484,-43766,-12747
C00017=-31774,73149,20767,11434,-43734,-12685
C00018=-31930,73090,20696,11380,-43701,-12620
C00019=-32078,73038,20633,11329,-43671,-12558
C00020=-32227,72987,20572,11278,-43641,-12496
C00021=-32378,72930,20503,11226,-43609,-12432
C00022=-32526,72878,20441,11175,-43579,-12370
C00023=-32677,72817,20367,11123,-43547,-12307
C00024=-32828,72749,20285,11071,-43513,-12244
C00025=-32984,72678,20200,11017,-43478,-12179
C00026=-33137,72596,20102,10965,-43440,-12115
C00027=-33288,72506,19994,10914,-43402,-12053
C00028=-33445,72403,19870,10861,-43360,-11988
C00029=-33602,72285,19728,10809,-43315,-11924
C00030=-33763,72148,19563,10755,-43265,-11858
C00031=-33920,71993,19378,10704,-43212,-11794
C00032=-34072,71823,19173,10655,-43156,-11733
C00033=-34229,71630,18942,10606,-43095,-11671
C00034=-34380,71412,18681,10559,-43029,-11611
C00035=-34534,71167,18387,10513,-42957,-11551
C00036=-34682,70894,18060,10469,-42880,-11494
C00037=-34825,70602,17710,10428,-42799,-11439
C00038=-34948,70316,17369,10394,-42723,-11393
C00039=-35069,70007,17000,10362,-42642,-11349
C00040=-35191,69667,16595,10330,-42554,-11305
C00041=-35307,69302,16160,10302,-42462,-11263
C00042=-35422,68910,15695,10275,-42365,-11223
C00043=-35528,68506,15215,10252,-42267,-11187
C00044=-35628,68093,14726,10231,-42168,-11154
C00045=-35724,67656,14208,10213,-42064,-11123
C00046=-35813,67209,13680,10197,-41960,-11095
C00047=-35900,66737,13122,10183,-41851,-11069
C00048=-35981,66258,12558,10172,-41742,-11045
C00049=-36057,65776,11990,10163,-41634,-11024
EC00000=-29915,-189580
EC00001=-29915,-189580
EC00002=-29915,-189580
EC00003=-29915,-189580
EC00004=-29915,-189580
EC00005=-29915,-189580
EC00006=-29915,-189580
EC00007=-29915,-189580
EC00008=-29915,-189580
EC00009=-29915,-189580
EC00010=-29915,-189580
EC00011=-29915,-189580
EC00012=-29915,-189580
EC00013=-29915,-189580
EC00014=-29915,-189580
EC00015=-29915,-189580
EC00016=-29915,-189580
EC00017=-29915,-189580
EC00018=-29915,-189580
EC00019=-29915,-189580
EC00020=-29915,-189580
EC00021=-29915,-189580
EC00022=-29915,-189580
EC00023=-29915,-189580
EC00024=-29915,-189580
EC00025=-29915,-189580
EC00026=-29915,-189580
EC00027=-29915,-189580
EC00028=-29915,-189580
EC00029=-29915,-189580
EC00030=-29915,-189580
EC00031=-29915,-189580
EC00032=-29915,-189580
EC00033=-29915,-189580
EC00034=-29915,-189580
EC00035=-29915,-189580
EC00036=-29915,-189580
EC00037=-29915,-189580
EC00038=-29915,-189580
EC00039=-29915,-189580
EC00040=-29915,-189580
EC00041=-29915,-189580
EC00042=-29915,-189580
EC00043=-29915,-189580
EC00044=-29915,-189580
EC00045=-29915,-189580
EC00046=-29915,-189580
EC00047=-29915,-189580
EC00048=-29915,-189580
EC00049=-29915,-189580
//INST
///DATE 2023/02/23 22:25
///ATTR SC,RW
///GROUP1 RB1
///GROUP2 ST1
NOP
MOVL C00000 V=10.0 +MOVJ EC00000 VJ=10.0
MOVL C00001 V=10.0 +MOVJ EC00001 VJ=10.0
MOVL C00002 V=10.0 +MOVJ EC00002 VJ=10.0
MOVL C00003 V=10.0 +MOVJ EC00003 VJ=10.0
MOVL C00004 V=10.0 +MOVJ EC00004 VJ=10.0
MOVL C00005 V=10.0 +MOVJ EC00005 VJ=10.0
MOVL C00006 V=10.0 +MOVJ EC00006 VJ=10.0
MOVL C00007 V=10.0 +MOVJ EC00007 VJ=10.0
MOVL C00008 V=10.0 +MOVJ EC00008 VJ=10.0
MOVL C00009 V=10.0 +MOVJ EC00009 VJ=10.0
MOVL C00010 V=10.0 +MOVJ EC00010 VJ=10.0
MOVL C00011 V=10.0 +MOVJ EC00011 VJ=10.0
MOVL C00012 V=10.0 +MOVJ EC00012 VJ=10.0
MOVL C00013 V=10.0 +MOVJ EC00013 VJ=10.0
MOVL C00014 V=10.0 +MOVJ EC00014 VJ=10.0
MOVL C00015 V=10.0 +MOVJ EC00015 VJ=10.0
MOVL C00016 V=10.0 +MOVJ EC00016 VJ=10.0
MOVL C00017 V=10.0 +MOVJ EC00017 VJ=10.0
MOVL C00018 V=10.0 +MOVJ EC00018 VJ=10.0
MOVL C00019 V=10.0 +MOVJ EC00019 VJ=10.0
MOVL C00020 V=10.0 +MOVJ EC00020 VJ=10.0
MOVL C00021 V=10.0 +MOVJ EC00021 VJ=10.0
MOVL C00022 V=10.0 +MOVJ EC00022 VJ=10.0
MOVL C00023 V=10.0 +MOVJ EC00023 VJ=10.0
MOVL C00024 V=10.0 +MOVJ EC00024 VJ=10.0
MOVL C00025 V=10.0 +MOVJ EC00025 VJ=10.0
MOVL C00026 V=10.0 +MOVJ EC00026 VJ=10.0
MOVL C00027 V=10.0 +MOVJ EC00027 VJ=10.0
MOVL C00028 V=10.0 +MOVJ EC00028 VJ=10.0
MOVL C00029 V=10.0 +MOVJ EC00029 VJ=10.0
MOVL C00030 V=10.0 +MOVJ EC00030 VJ=10.0
MOVL C00031 V=10.0 +MOVJ EC00031 VJ=10.0
MOVL C00032 V=10.0 +MOVJ EC00032 VJ=10.0
MOVL C00033 V=10.0 +MOVJ EC00033 VJ=10.0
MOVL C00034 V=10.0 +MOVJ EC00034 VJ=10.0
MOVL C00035 V=10.0 +MOVJ EC00035 VJ=10.0
MOVL C00036 V=10.0 +MOVJ EC00036 VJ=10.0
MOVL C00037 V=10.0 +MOVJ EC00037 VJ=10.0
MOVL C00038 V=10.0 +MOVJ EC00038 VJ=10.0
MOVL C00039 V=10.0 +MOVJ EC00039 VJ=10.0
MOVL C00040 V=10.0 +MOVJ EC00040 VJ=10.0
MOVL C00041 V=10.0 +MOVJ EC00041 VJ=10.0
MOVL C00042 V=10.0 +MOVJ EC00042 VJ=10.0
MOVL C00043 V=10.0 +MOVJ EC00043 VJ=10.0
MOVL C00044 V=10.0 +MOVJ EC00044 VJ=10.0
MOVL C00045 V=10.0 +MOVJ EC00045 VJ=10.0
MOVL C00046 V=10.0 +MOVJ EC00046 VJ=10.0
MOVL C00047 V=10.0 +MOVJ EC00047 VJ=10.0
MOVL C00048 V=10.0 +MOVJ EC00048 VJ=10.0
MOVL C00049 V=10.0 +MOVJ EC00049 VJ=10.0
END
