/JOB
//NAME AAA
//POS
///NPOS 40,0,0,0,0,0
///TOOL 1
///POSTYPE PULSE
///PULSE
C00000=-50504,122519,83908,3364,-55540,-3924
C00001=-47258,106997,63172,4736,-50925,-5425
C00002=-47258,106974,63225,4733,-50970,-5422
C00003=-50504,122513,83983,3362,-55589,-3923
C00004=-50504,122508,84059,3360,-55639,-3921
C00005=-47258,106951,63278,4730,-51014,-5420
C00006=-47258,106928,63331,4727,-51058,-5418
C00007=-50504,122502,84134,3358,-55688,-3919
C00008=-50504,122497,84211,3356,-55737,-3918
C00009=-47258,106906,63385,4724,-51103,-5416
C00010=-47258,106883,63439,4721,-51147,-5414
C00011=-50504,122493,84287,3354,-55787,-3916
C00012=-50504,122488,84364,3352,-55836,-3915
C00013=-47258,106861,63492,4719,-51192,-5412
C00014=-47258,106838,63547,4716,-51236,-5410
C00015=-50504,122484,84441,3350,-55886,-3913
C00016=-50504,122480,84519,3348,-55936,-3912
C00017=-47258,106816,63601,4713,-51281,-5408
C00018=-47258,106794,63655,4710,-51326,-5406
C00019=-50504,122476,84597,3346,-55985,-3910
C00020=-50504,122473,84675,3345,-56035,-3908
C00021=-47258,106773,63710,4707,-51370,-5404
C00022=-47258,106751,63765,4704,-51415,-5401
C00023=-50504,122470,84754,3343,-56085,-3907
C00024=-50504,122467,84833,3341,-56135,-3905
C00025=-47258,106730,63820,4701,-51460,-5399
C00026=-47258,106708,63876,4698,-51505,-5397
C00027=-50504,122465,84913,3339,-56186,-3904
C00028=-50504,122462,84993,3337,-56236,-3902
C00029=-47258,106687,63931,4695,-51550,-5395
C00030=-47258,106666,63987,4693,-51595,-5393
C00031=-50504,122461,85073,3335,-56286,-3901
C00032=-50504,122459,85154,3333,-56337,-3899
C00033=-47258,106646,64043,4690,-51640,-5391
C00034=-47258,106625,64099,4687,-51685,-5389
C00035=-50504,122458,85235,3331,-56387,-3897
C00036=-50504,122456,85316,3329,-56438,-3896
C00037=-47258,106605,64156,4684,-51730,-5387
C00038=-47258,106584,64212,4681,-51775,-5385
C00039=-50504,122456,85398,3327,-56488,-3894
//INST
///DATE 2023/01/09 16:20
///COMM Generated using RoboDK
///ATTR SC,RW
///GROUP1 RB1
NOP
'Using Motoman MA2010 Base (ta
'rgets wrt base):
'0.0,0.0,0.0,0.0,0.0,0.0
MOVJ C00000 VJ=1.0 PL=0
ARCON
MOVL C00001 V=5.0 PL=0
ARCOF
MOVJ C00002 VJ=1.0 PL=0
ARCON
MOVL C00003 V=10.0 PL=0
ARCOF
MOVJ C00004 VJ=1.0 PL=0
ARCON
MOVL C00005 V=15.0 PL=0
ARCOF
MOVJ C00006 VJ=1.0 PL=0
ARCON
MOVL C00007 V=70.0 PL=0
ARCOF
MOVJ C00008 VJ=1.0 PL=0
ARCON
MOVL C00009 V=70.0 PL=0
ARCOF
MOVJ C00010 VJ=1.0 PL=0
ARCON
MOVL C00011 V=70.0 PL=0
ARCOF
MOVJ C00012 VJ=1.0 PL=0
ARCON
MOVL C00013 V=70.0 PL=0
ARCOF
MOVJ C00014 VJ=1.0 PL=0
ARCON
MOVL C00015 V=70.0 PL=0
ARCOF
MOVJ C00016 VJ=1.0 PL=0
ARCON
MOVL C00017 V=70.0 PL=0
ARCOF
MOVJ C00018 VJ=1.0 PL=0
ARCON
MOVL C00019 V=70.0 PL=0
ARCOF
MOVJ C00020 VJ=1.0 PL=0
ARCON
MOVL C00021 V=70.0 PL=0
ARCOF
MOVJ C00022 VJ=1.0 PL=0
ARCON
MOVL C00023 V=70.0 PL=0
ARCOF
MOVJ C00024 VJ=1.0 PL=0
ARCON
MOVL C00025 V=70.0 PL=0
ARCOF
MOVJ C00026 VJ=1.0 PL=0
ARCON
MOVL C00027 V=70.0 PL=0
ARCOF
MOVJ C00028 VJ=1.0 PL=0
ARCON
MOVL C00029 V=70.0 PL=0
ARCOF
MOVJ C00030 VJ=1.0 PL=0
ARCON
MOVL C00031 V=70.0 PL=0
ARCOF
MOVJ C00032 VJ=1.0 PL=0
ARCON
MOVL C00033 V=70.0 PL=0
ARCOF
MOVJ C00034 VJ=1.0 PL=0
ARCON
MOVL C00035 V=70.0 PL=0
ARCOF
MOVJ C00036 VJ=1.0 PL=0
ARCON
MOVL C00037 V=70.0 PL=0
ARCOF
MOVJ C00038 VJ=1.0 PL=0
ARCON
MOVL C00039 V=70.0 PL=0
ARCOF
END
