/JOB
//NAME AAA
//POS
///NPOS 170,0,170,0,0,0
///TOOL 12
///POSTYPE PULSE
///PULSE
C00000=-31024,85288,34167,11303,-45801,-12752
C00001=-31096,84443,33111,11319,-45580,-12748
C00002=-31177,83647,32119,11329,-45372,-12738
C00003=-31264,82899,31188,11335,-45176,-12725
C00004=-31364,82146,30253,11336,-44978,-12706
C00005=-31469,81447,29387,11333,-44794,-12683
C00006=-31582,80757,28535,11327,-44613,-12656
C00007=-31698,80105,27730,11317,-44441,-12627
C00008=-31828,79419,26885,11304,-44260,-12593
C00009=-31957,78777,26096,11289,-44091,-12557
C00010=-32089,78147,25323,11272,-43925,-12520
C00011=-32215,77559,24603,11255,-43770,-12484
C00012=-32353,76934,23838,11236,-43607,-12443
C00013=-32486,76334,23107,11216,-43451,-12404
C00014=-32622,75727,22367,11196,-43293,-12364
C00015=-32754,75130,21642,11176,-43139,-12324
C00016=-32887,74513,20894,11157,-42982,-12285
C00017=-33023,73862,20106,11138,-42817,-12245
C00018=-33147,73239,19353,11122,-42661,-12210
C00019=-33270,72573,18550,11107,-42497,-12176
C00020=-33389,71865,17697,11097,-42324,-12144
C00021=-33496,71158,16848,11090,-42155,-12118
C00022=-33588,70443,15993,11089,-41987,-12099
C00023=-33668,69681,15082,11095,-41812,-12085
C00024=-33731,68890,14139,11108,-41633,-12080
C00025=-33772,68112,13215,11129,-41462,-12084
C00026=-33792,67400,12371,11155,-41309,-12095
C00027=-33792,66650,11484,11190,-41152,-12116
C00028=-33774,65874,10569,11233,-40992,-12146
C00029=-33736,65122,9685,11283,-40842,-12184
C00030=-33679,64370,8803,11340,-40696,-12230
C00031=-33604,63621,7926,11404,-40554,-12284
C00032=-33511,62882,7065,11475,-40417,-12346
C00033=-33412,62203,6274,11545,-40295,-12409
C00034=-33125,61813,5822,11674,-40255,-12546
C00035=-33226,62483,6613,11602,-40382,-12482
C00036=-33319,63213,7476,11530,-40523,-12420
C00037=-33395,63950,8348,11464,-40668,-12364
C00038=-33453,64695,9230,11405,-40818,-12317
C00039=-33492,65440,10115,11354,-40972,-12278
C00040=-33512,66207,11025,11309,-41133,-12247
C00041=-33511,66956,11916,11273,-41293,-12225
C00042=-33493,67660,12755,11246,-41447,-12213
C00043=-33453,68434,13677,11224,-41619,-12208
C00044=-33391,69223,14620,11210,-41797,-12213
C00045=-33312,69983,15529,11203,-41973,-12225
C00046=-33188,70637,16311,11219,-42131,-12261
C00047=-32953,71109,16873,11284,-42262,-12350
C00048=-32688,71550,17392,11363,-42386,-12453
C00049=-32420,71967,17875,11444,-42501,-12558
C00050=-32174,72398,18373,11516,-42616,-12653
C00051=-31798,72711,18693,11646,-42700,-12811
C00052=-31478,73083,19082,11752,-42788,-12943
C00053=-31119,73402,19377,11879,-42853,-13095
C00054=-30774,73771,19720,11999,-42920,-13241
C00055=-30406,74125,20014,12131,-42968,-13399
C00056=-29995,74488,20272,12285,-42996,-13579
C00057=-29623,74851,20521,12425,-43015,-13744
C00058=-29077,75132,20507,12654,-42941,-13999
C00059=-28535,75464,20488,12889,-42840,-14258
C00060=-27927,75842,20376,13167,-42671,-14557
C00061=-27362,76270,20269,13436,-42474,-14842
C00062=-26779,76778,20119,13730,-42218,-15146
C00063=-26201,77373,19946,14041,-41905,-15460
C00064=-25684,78092,19900,14330,-41598,-15747
C00065=-25187,78874,19810,14631,-41233,-16037
C00066=-24741,79770,19822,14918,-40865,-16307
C00067=-24388,80732,20049,15146,-40579,-16522
C00068=-24300,80757,19812,15225,-40440,-16588
C00069=-24682,79773,19696,14962,-40798,-16346
C00070=-25118,78860,19669,14678,-41167,-16080
C00071=-25561,78061,19641,14412,-41478,-15823
C00072=-26132,77314,19804,14081,-41860,-15499
C00073=-26686,76695,19929,13782,-42160,-15198
C00074=-27232,76148,19999,13508,-42394,-14913
C00075=-27788,75694,20094,13240,-42595,-14631
C00076=-28383,75288,20186,12966,-42768,-14337
C00077=-28921,74936,20200,12730,-42877,-14079
C00078=-29422,74599,20136,12521,-42938,-13845
C00079=-29877,74303,20040,12338,-42966,-13637
C00080=-30342,74002,19898,12156,-42969,-13428
C00081=-30745,73692,19679,12006,-42939,-13252
C00082=-31099,73329,19350,11881,-42876,-13101
C00083=-31415,72947,18967,11775,-42796,-12970
C00084=-31728,72557,18560,11672,-42706,-12842
C00085=-32053,72181,18159,11565,-42611,-12709
C00086=-32354,71836,17778,11467,-42517,-12586
C00087=-32648,71456,17344,11373,-42410,-12467
C00088=-32931,71036,16853,11287,-42289,-12356
C00089=-33184,70604,16341,11213,-42166,-12258
C00090=-33343,70025,15650,11180,-42021,-12205
C00091=-33432,69279,14757,11182,-41847,-12188
C00092=-33501,68495,13822,11194,-41669,-12180
C00093=-33548,67728,12908,11212,-41498,-12181
C00094=-33574,67021,12066,11236,-41343,-12190
C00095=-33582,66275,11179,11269,-41182,-12208
C00096=-33570,65506,10266,11311,-41020,-12236
C00097=-33539,64757,9377,11359,-40865,-12271
C00098=-33489,64006,8489,11415,-40713,-12315
C00099=-33422,63265,7611,11477,-40566,-12366
C00100=-33337,62525,6738,11546,-40422,-12425
C00101=-33244,61845,5936,11616,-40292,-12486
C00102=-33395,61911,6094,11543,-40336,-12411
C00103=-33477,62600,6906,11477,-40468,-12354
C00104=-33551,63351,7792,11412,-40615,-12300
C00105=-33609,64105,8683,11353,-40766,-12253
C00106=-33648,64858,9575,11302,-40920,-12214
C00107=-33668,65612,10468,11258,-41077,-12183
C00108=-33670,66383,11384,11220,-41241,-12160
C00109=-33652,67128,12270,11191,-41402,-12147
C00110=-33618,67829,13104,11171,-41557,-12142
C00111=-33560,68594,14015,11156,-41729,-12145
C00112=-33482,69366,14936,11150,-41905,-12157
C00113=-33363,70058,15761,11162,-42070,-12189
C00114=-33162,70545,16343,11214,-42200,-12263
C00115=-32895,70939,16807,11296,-42315,-12369
C00116=-32607,71349,17283,11385,-42432,-12483
C00117=-32313,71736,17722,11478,-42539,-12601
C00118=-32023,72098,18122,11572,-42635,-12719
C00119=-31709,72491,18544,11674,-42732,-12847
C00120=-31390,72866,18930,11780,-42818,-12978
C00121=-31043,73207,19249,11902,-42884,-13125
C00122=-30649,73521,19497,12046,-42928,-13296
C00123=-30225,73818,19680,12207,-42946,-13484
C00124=-29770,74141,19841,12385,-42942,-13688
C00125=-29333,74457,19964,12561,-42917,-13888
C00126=-28842,74810,20043,12766,-42857,-14117
C00127=-28313,75182,20049,12998,-42750,-14371
C00128=-27741,75613,20003,13260,-42588,-14653
C00129=-27178,76068,19891,13533,-42376,-14940
C00130=-26583,76611,19716,13841,-42090,-15256
C00131=-26037,77253,19604,14138,-41786,-15554
C00132=-25544,78013,19608,14417,-41485,-15830
C00133=-25093,78824,19618,14690,-41159,-16093
C00134=-24672,79733,19682,14962,-40812,-16348
C00135=-24329,80686,19903,15187,-40525,-16559
C00136=-24322,80668,19916,15184,-40543,-16559
C00137=-24651,79705,19646,14971,-40807,-16359
C00138=-25054,78793,19540,14713,-41133,-16115
C00139=-25500,77972,19518,14442,-41459,-15854
C00140=-26019,77200,19570,14143,-41794,-15561
C00141=-26558,76547,19661,13850,-42092,-15267
C00142=-27074,75969,19679,13590,-42315,-14997
C00143=-27607,75479,19734,13331,-42514,-14725
C00144=-28199,75039,19818,13054,-42699,-14430
C00145=-28738,74667,19840,12815,-42822,-14169
C00146=-29256,74330,19815,12594,-42903,-13925
C00147=-29732,74045,19766,12398,-42951,-13704
C00148=-30199,73734,19630,12214,-42962,-13493
C00149=-30587,73397,19386,12069,-42931,-13323
C00150=-30943,73036,19071,11942,-42876,-13171
C00151=-31293,72699,18766,11819,-42815,-13022
C00152=-31643,72362,18440,11697,-42743,-12875
C00153=-31977,71981,18040,11586,-42650,-12738
C00154=-32259,71595,17613,11497,-42551,-12624
C00155=-32545,71196,17161,11407,-42443,-12510
C00156=-32853,70829,16740,11308,-42335,-12385
C00157=-33152,70500,16358,11211,-42233,-12264
C00158=-33378,70069,15845,11146,-42113,-12177
C00159=-33512,69407,15056,11127,-41953,-12137
C00160=-33597,68641,14142,11131,-41777,-12122
C00161=-33660,67879,13235,11143,-41605,-12116
C00162=-33699,67181,12404,11161,-41451,-12119
C00163=-33723,66440,11523,11187,-41290,-12129
C00164=-33728,65668,10607,11222,-41125,-12149
C00165=-33713,64912,9711,11264,-40967,-12177
C00166=-33680,64155,8815,11313,-40812,-12214
C00167=-33629,63400,7923,11369,-40660,-12258
C00168=-33562,62643,7030,11432,-40511,-12309
C00169=-33485,61948,6211,11495,-40377,-12364
EC00000=-29914,-124450
EC00001=-29914,-124450
EC00002=-29914,-124450
EC00003=-29914,-124450
EC00004=-29914,-124450
EC00005=-29914,-124450
EC00006=-29914,-124450
EC00007=-29914,-124450
EC00008=-29914,-124450
EC00009=-29914,-124450
EC00010=-29914,-124450
EC00011=-29914,-124450
EC00012=-29914,-124450
EC00013=-29914,-124450
EC00014=-29914,-124450
EC00015=-29914,-124450
EC00016=-29914,-124450
EC00017=-29914,-124450
EC00018=-29914,-124450
EC00019=-29914,-124450
EC00020=-29914,-124450
EC00021=-29914,-124450
EC00022=-29914,-124450
EC00023=-29914,-124450
EC00024=-29914,-124450
EC00025=-29914,-124450
EC00026=-29914,-124450
EC00027=-29914,-124450
EC00028=-29914,-124450
EC00029=-29914,-124450
EC00030=-29914,-124450
EC00031=-29914,-124450
EC00032=-29914,-124450
EC00033=-29914,-124450
EC00034=-25876,-124450
EC00035=-25876,-124450
EC00036=-25876,-124450
EC00037=-25876,-124450
EC00038=-25876,-124450
EC00039=-25876,-124450
EC00040=-25876,-124450
EC00041=-25876,-124450
EC00042=-25876,-124450
EC00043=-25876,-124450
EC00044=-25876,-124450
EC00045=-25876,-124450
EC00046=-25465,-123904
EC00047=-23830,-121208
EC00048=-21817,-117484
EC00049=-19526,-114039
EC00050=-17323,-111933
EC00051=-13191,-109672
EC00052=-9743,-108174
EC00053=-5637,-107137
EC00054=-1710,-106296
EC00055=2523,-106256
EC00056=7309,-106660
EC00057=11660,-107116
EC00058=18435,-108471
EC00059=25323,-109760
EC00060=33237,-111632
EC00061=40700,-113810
EC00062=48741,-116260
EC00063=57061,-119100
EC00064=64469,-122503
EC00065=72076,-126198
EC00066=79472,-129651
EC00067=85723,-132359
EC00068=87527,-133768
EC00069=81099,-129658
EC00070=73916,-125910
EC00071=67168,-122515
EC00072=58527,-118975
EC00073=50555,-116139
EC00074=43143,-113539
EC00075=35718,-111339
EC00076=27840,-109693
EC00077=20963,-108364
EC00078=14785,-107102
EC00079=9197,-106420
EC00080=3474,-106508
EC00081=-1342,-106987
EC00082=-5341,-107366
EC00083=-8766,-107844
EC00084=-12108,-109107
EC00085=-15522,-111617
EC00086=-18513,-114754
EC00087=-21174,-118082
EC00088=-23472,-121458
EC00089=-25198,-125164
EC00090=-25863,-126853
EC00091=-25889,-126933
EC00092=-25889,-126933
EC00093=-25889,-126933
EC00094=-25889,-126933
EC00095=-25889,-126933
EC00096=-25889,-126933
EC00097=-25889,-126933
EC00098=-25889,-126933
EC00099=-25889,-126933
EC00100=-25889,-126933
EC00101=-25889,-126933
EC00102=-25901,-130108
EC00103=-25901,-130108
EC00104=-25901,-130108
EC00105=-25901,-130108
EC00106=-25901,-130108
EC00107=-25901,-130108
EC00108=-25901,-130108
EC00109=-25901,-130108
EC00110=-25901,-130108
EC00111=-25901,-130108
EC00112=-25901,-130108
EC00113=-25700,-129333
EC00114=-24718,-126213
EC00115=-22890,-121715
EC00116=-20538,-118186
EC00117=-17881,-115078
EC00118=-15058,-112248
EC00119=-11828,-109747
EC00120=-8387,-108121
EC00121=-4468,-107250
EC00122=139,-106787
EC00123=5249,-106531
EC00124=10822,-106599
EC00125=16174,-107175
EC00126=22270,-108295
EC00127=29011,-109680
EC00128=36535,-111359
EC00129=44156,-113434
EC00130=52527,-116092
EC00131=60419,-119070
EC00132=67617,-122408
EC00133=74634,-125791
EC00134=81332,-129740
EC00135=86849,-133463
EC00136=87544,-132772
EC00137=81998,-129601
EC00138=75547,-125855
EC00139=68691,-122269
EC00140=60828,-119016
EC00141=53041,-116085
EC00142=46016,-113492
EC00143=38794,-111462
EC00144=30907,-109663
EC00145=23947,-108229
EC00146=17387,-107231
EC00147=11407,-106711
EC00148=5684,-106525
EC00149=1101,-106721
EC00150=-2994,-107401
EC00151=-6972,-108562
EC00152=-10861,-110077
EC00153=-14363,-111862
EC00154=-17117,-113928
EC00155=-19710,-116971
EC00156=-22294,-121468
EC00157=-24425,-127046
EC00158=-25626,-130905
EC00159=-25923,-132015
EC00160=-25923,-132015
EC00161=-25923,-132015
EC00162=-25923,-132015
EC00163=-25923,-132015
EC00164=-25923,-132015
EC00165=-25923,-132015
EC00166=-25923,-132015
EC00167=-25923,-132015
EC00168=-25923,-132015
EC00169=-25923,-132015
//INST
///DATE 2023/05/11 13:51
///ATTR SC,RW
///GROUP1 RB1
///GROUP2 ST1
NOP
MOVL C00000 V=10.0 +MOVJ EC00000
MOVL C00001 V=20.0 +MOVJ EC00001
MOVL C00002 V=20.0 +MOVJ EC00002
MOVL C00003 V=20.0 +MOVJ EC00003
MOVL C00004 V=20.0 +MOVJ EC00004
MOVL C00005 V=20.0 +MOVJ EC00005
MOVL C00006 V=20.0 +MOVJ EC00006
MOVL C00007 V=20.0 +MOVJ EC00007
MOVL C00008 V=20.0 +MOVJ EC00008
MOVL C00009 V=20.0 +MOVJ EC00009
MOVL C00010 V=20.0 +MOVJ EC00010
MOVL C00011 V=20.0 +MOVJ EC00011
MOVL C00012 V=20.0 +MOVJ EC00012
MOVL C00013 V=20.0 +MOVJ EC00013
MOVL C00014 V=20.0 +MOVJ EC00014
MOVL C00015 V=20.0 +MOVJ EC00015
MOVL C00016 V=20.0 +MOVJ EC00016
MOVL C00017 V=20.0 +MOVJ EC00017
MOVL C00018 V=20.0 +MOVJ EC00018
MOVL C00019 V=20.0 +MOVJ EC00019
MOVL C00020 V=20.0 +MOVJ EC00020
MOVL C00021 V=20.0 +MOVJ EC00021
MOVL C00022 V=20.0 +MOVJ EC00022
MOVL C00023 V=20.0 +MOVJ EC00023
MOVL C00024 V=20.0 +MOVJ EC00024
MOVL C00025 V=20.0 +MOVJ EC00025
MOVL C00026 V=20.0 +MOVJ EC00026
MOVL C00027 V=20.0 +MOVJ EC00027
MOVL C00028 V=20.0 +MOVJ EC00028
MOVL C00029 V=20.0 +MOVJ EC00029
MOVL C00030 V=20.0 +MOVJ EC00030
MOVL C00031 V=20.0 +MOVJ EC00031
MOVL C00032 V=20.0 +MOVJ EC00032
MOVL C00033 V=20.0 +MOVJ EC00033
MOVL C00034 V=10.0 +MOVJ EC00034
MOVL C00035 V=20.0 +MOVJ EC00035
MOVL C00036 V=20.0 +MOVJ EC00036
MOVL C00037 V=20.0 +MOVJ EC00037
MOVL C00038 V=20.0 +MOVJ EC00038
MOVL C00039 V=20.0 +MOVJ EC00039
MOVL C00040 V=20.0 +MOVJ EC00040
MOVL C00041 V=20.0 +MOVJ EC00041
MOVL C00042 V=20.0 +MOVJ EC00042
MOVL C00043 V=20.0 +MOVJ EC00043
MOVL C00044 V=20.0 +MOVJ EC00044
MOVL C00045 V=20.0 +MOVJ EC00045
MOVL C00046 V=20.1 +MOVJ EC00046
MOVL C00047 V=23.2 +MOVJ EC00047
MOVL C00048 V=24.2 +MOVJ EC00048
MOVL C00049 V=25.1 +MOVJ EC00049
MOVL C00050 V=24.8 +MOVJ EC00050
MOVL C00051 V=32.7 +MOVJ EC00051
MOVL C00052 V=29.9 +MOVJ EC00052
MOVL C00053 V=33.8 +MOVJ EC00053
MOVL C00054 V=33.9 +MOVJ EC00054
MOVL C00055 V=36.3 +MOVJ EC00055
MOVL C00056 V=37.2 +MOVJ EC00056
MOVL C00057 V=36.9 +MOVJ EC00057
MOVL C00058 V=50.9 +MOVJ EC00058
MOVL C00059 V=51.7 +MOVJ EC00059
MOVL C00060 V=57.3 +MOVJ EC00060
MOVL C00061 V=59.0 +MOVJ EC00061
MOVL C00062 V=62.6 +MOVJ EC00062
MOVL C00063 V=66.1 +MOVJ EC00063
MOVL C00064 V=60.5 +MOVJ EC00064
MOVL C00065 V=65.3 +MOVJ EC00065
MOVL C00066 V=61.5 +MOVJ EC00066
MOVL C00067 V=52.2 +MOVJ EC00067
MOVL C00068 V=10.0 +MOVJ EC00068
MOVL C00069 V=57.4 +MOVJ EC00069
MOVL C00070 V=61.3 +MOVJ EC00070
MOVL C00071 V=59.1 +MOVJ EC00071
MOVL C00072 V=68.4 +MOVJ EC00072
MOVL C00073 V=64.0 +MOVJ EC00073
MOVL C00074 V=59.0 +MOVJ EC00074
MOVL C00075 V=58.7 +MOVJ EC00075
MOVL C00076 V=56.6 +MOVJ EC00076
MOVL C00077 V=51.7 +MOVJ EC00077
MOVL C00078 V=47.2 +MOVJ EC00078
MOVL C00079 V=44.5 +MOVJ EC00079
MOVL C00080 V=41.8 +MOVJ EC00080
MOVL C00081 V=37.4 +MOVJ EC00081
MOVL C00082 V=32.8 +MOVJ EC00082
MOVL C00083 V=30.1 +MOVJ EC00083
MOVL C00084 V=28.9 +MOVJ EC00084
MOVL C00085 V=28.7 +MOVJ EC00085
MOVL C00086 V=28.0 +MOVJ EC00086
MOVL C00087 V=26.5 +MOVJ EC00087
MOVL C00088 V=25.0 +MOVJ EC00088
MOVL C00089 V=23.4 +MOVJ EC00089
MOVL C00090 V=20.2 +MOVJ EC00090
MOVL C00091 V=20.0 +MOVJ EC00091
MOVL C00092 V=20.0 +MOVJ EC00092
MOVL C00093 V=20.0 +MOVJ EC00093
MOVL C00094 V=20.0 +MOVJ EC00094
MOVL C00095 V=20.0 +MOVJ EC00095
MOVL C00096 V=20.0 +MOVJ EC00096
MOVL C00097 V=20.0 +MOVJ EC00097
MOVL C00098 V=20.0 +MOVJ EC00098
MOVL C00099 V=20.0 +MOVJ EC00099
MOVL C00100 V=20.0 +MOVJ EC00100
MOVL C00101 V=20.0 +MOVJ EC00101
MOVL C00102 V=10.0 +MOVJ EC00102
MOVL C00103 V=20.0 +MOVJ EC00103
MOVL C00104 V=20.0 +MOVJ EC00104
MOVL C00105 V=20.0 +MOVJ EC00105
MOVL C00106 V=20.0 +MOVJ EC00106
MOVL C00107 V=20.0 +MOVJ EC00107
MOVL C00108 V=20.0 +MOVJ EC00108
MOVL C00109 V=20.0 +MOVJ EC00109
MOVL C00110 V=20.0 +MOVJ EC00110
MOVL C00111 V=20.0 +MOVJ EC00111
MOVL C00112 V=20.0 +MOVJ EC00112
MOVL C00113 V=19.8 +MOVJ EC00113
MOVL C00114 V=21.1 +MOVJ EC00114
MOVL C00115 V=24.1 +MOVJ EC00115
MOVL C00116 V=25.3 +MOVJ EC00116
MOVL C00117 V=26.5 +MOVJ EC00117
MOVL C00118 V=27.4 +MOVJ EC00118
MOVL C00119 V=27.9 +MOVJ EC00119
MOVL C00120 V=29.4 +MOVJ EC00120
MOVL C00121 V=32.4 +MOVJ EC00121
MOVL C00122 V=36.1 +MOVJ EC00122
MOVL C00123 V=39.3 +MOVJ EC00123
MOVL C00124 V=41.1 +MOVJ EC00124
MOVL C00125 V=43.1 +MOVJ EC00125
MOVL C00126 V=46.5 +MOVJ EC00126
MOVL C00127 V=50.9 +MOVJ EC00127
MOVL C00128 V=54.5 +MOVJ EC00128
MOVL C00129 V=59.9 +MOVJ EC00129
MOVL C00130 V=65.3 +MOVJ EC00130
MOVL C00131 V=64.0 +MOVJ EC00131
MOVL C00132 V=59.2 +MOVJ EC00132
MOVL C00133 V=60.8 +MOVJ EC00133
MOVL C00134 V=59.1 +MOVJ EC00134
MOVL C00135 V=50.9 +MOVJ EC00135
MOVL C00136 V=10.0 +MOVJ EC00136
MOVL C00137 V=49.3 +MOVJ EC00137
MOVL C00138 V=57.2 +MOVJ EC00138
MOVL C00139 V=60.6 +MOVJ EC00139
MOVL C00140 V=63.0 +MOVJ EC00140
MOVL C00141 V=63.1 +MOVJ EC00141
MOVL C00142 V=57.0 +MOVJ EC00142
MOVL C00143 V=57.2 +MOVJ EC00143
MOVL C00144 V=56.8 +MOVJ EC00144
MOVL C00145 V=52.6 +MOVJ EC00145
MOVL C00146 V=49.1 +MOVJ EC00146
MOVL C00147 V=46.9 +MOVJ EC00147
MOVL C00148 V=42.3 +MOVJ EC00148
MOVL C00149 V=36.4 +MOVJ EC00149
MOVL C00150 V=33.0 +MOVJ EC00150
MOVL C00151 V=32.6 +MOVJ EC00151
MOVL C00152 V=31.8 +MOVJ EC00152
MOVL C00153 V=29.3 +MOVJ EC00153
MOVL C00154 V=26.9 +MOVJ EC00154
MOVL C00155 V=26.0 +MOVJ EC00155
MOVL C00156 V=26.4 +MOVJ EC00156
MOVL C00157 V=25.8 +MOVJ EC00157
MOVL C00158 V=22.1 +MOVJ EC00158
MOVL C00159 V=19.8 +MOVJ EC00159
MOVL C00160 V=20.0 +MOVJ EC00160
MOVL C00161 V=20.0 +MOVJ EC00161
MOVL C00162 V=20.0 +MOVJ EC00162
MOVL C00163 V=20.0 +MOVJ EC00163
MOVL C00164 V=20.0 +MOVJ EC00164
MOVL C00165 V=20.0 +MOVJ EC00165
MOVL C00166 V=20.0 +MOVJ EC00166
MOVL C00167 V=20.0 +MOVJ EC00167
MOVL C00168 V=20.0 +MOVJ EC00168
MOVL C00169 V=20.0 +MOVJ EC00169
END
