/JOB
//NAME AAA
//POS
///NPOS 22,0,22,0,0,0
///TOOL 12
///POSTYPE PULSE
///PULSE
C00000=31531,60463,2733,325,-44651,31910
C00001=31531,60463,2733,325,-44651,31910
C00002=31531,60463,2733,325,-44651,31910
C00003=31531,60463,2733,325,-44651,31910
C00004=31531,60463,2733,325,-44651,31910
C00005=31531,60463,2733,325,-44651,31910
C00006=31531,60463,2733,325,-44651,31910
C00007=31531,60463,2733,325,-44651,31910
C00008=31531,60463,2733,325,-44651,31910
C00009=31531,60463,2733,325,-44651,31910
C00010=31531,60463,2733,325,-44651,31910
C00011=31531,60463,2733,325,-44651,31910
C00012=31531,60463,2733,325,-44651,31910
C00013=31531,60463,2733,325,-44651,31910
C00014=31531,60463,2733,325,-44651,31910
C00015=31531,60463,2733,325,-44651,31910
C00016=31531,60463,2733,325,-44651,31910
C00017=31531,60463,2733,325,-44651,31910
C00018=31531,60463,2733,325,-44651,31910
C00019=31531,60463,2733,325,-44651,31910
C00020=31531,60463,2733,325,-44651,31910
C00021=31531,60463,2733,325,-44651,31910
EC00000=-29914,22338
EC00001=-29914,44875
EC00002=-29914,67412
EC00003=-29914,89949
EC00004=-29914,112486
EC00005=-29914,135023
EC00006=-29914,157560
EC00007=-29914,180097
EC00008=-29914,202634
EC00009=-29914,225171
EC00010=-29914,247708
EC00011=-29914,270245
EC00012=-29914,292782
EC00013=-29914,315319
EC00014=-29914,337857
EC00015=-29914,360394
EC00016=-29914,382931
EC00017=-29914,405468
EC00018=-29914,428005
EC00019=-29914,450542
EC00020=-29914,473079
EC00021=-29914,495616
//INST
///DATE 2023/09/12 13:54
///ATTR SC,RW
///GROUP1 RB2
///GROUP2 ST1
NOP
MOVL C00000 V=5.0 +MOVJ EC00000 VJ=5.1
MOVL C00001 V=5.0 +MOVJ EC00001 VJ=5.1
MOVL C00002 V=5.0 +MOVJ EC00002 VJ=5.1
MOVL C00003 V=5.0 +MOVJ EC00003 VJ=5.1
MOVL C00004 V=5.0 +MOVJ EC00004 VJ=5.1
MOVL C00005 V=5.0 +MOVJ EC00005 VJ=5.1
MOVL C00006 V=5.0 +MOVJ EC00006 VJ=5.1
MOVL C00007 V=5.0 +MOVJ EC00007 VJ=5.1
MOVL C00008 V=5.0 +MOVJ EC00008 VJ=5.1
MOVL C00009 V=5.0 +MOVJ EC00009 VJ=5.1
MOVL C00010 V=5.0 +MOVJ EC00010 VJ=5.1
MOVL C00011 V=5.0 +MOVJ EC00011 VJ=5.1
MOVL C00012 V=5.0 +MOVJ EC00012 VJ=5.1
MOVL C00013 V=5.0 +MOVJ EC00013 VJ=5.1
MOVL C00014 V=5.0 +MOVJ EC00014 VJ=5.1
MOVL C00015 V=5.0 +MOVJ EC00015 VJ=5.1
MOVL C00016 V=5.0 +MOVJ EC00016 VJ=5.1
MOVL C00017 V=5.0 +MOVJ EC00017 VJ=5.1
MOVL C00018 V=5.0 +MOVJ EC00018 VJ=5.1
MOVL C00019 V=5.0 +MOVJ EC00019 VJ=5.1
MOVL C00020 V=5.0 +MOVJ EC00020 VJ=5.1
MOVL C00021 V=5.0 PL=0 +MOVJ EC00021 VJ=5.1
END
