/JOB
//NAME AAA
//POS
///NPOS 40,0,20,0,0,0
///TOOL 12
///POSTYPE PULSE
///PULSE
C00000=-31787,80758,28536,11254,-44587,-12569
C00001=-22239,68912,-27734,-68224,-78490,74041
C00002=-31877,80030,27638,11257,-44400,-12553
C00003=-22129,69247,-26896,-68241,-78577,73894
C00004=-31968,79308,26748,11260,-44215,-12536
C00005=-22021,69586,-26053,-68257,-78665,73746
C00006=-32068,78518,25777,11262,-44015,-12518
C00007=-21902,69961,-25121,-68274,-78762,73582
C00008=-32159,77804,24903,11263,-43835,-12500
C00009=-21796,70306,-24268,-68289,-78850,73433
C00010=-32261,77024,23949,11265,-43639,-12480
C00011=-21679,70688,-23324,-68305,-78947,73268
C00012=-32353,76319,23089,11265,-43464,-12462
C00013=-21575,71038,-22461,-68320,-79036,73118
C00014=-32455,75549,22151,11265,-43273,-12441
C00015=-21461,71428,-21505,-68335,-79133,72952
C00016=-32549,74852,21305,11264,-43101,-12421
C00017=-21358,71785,-20630,-68348,-79222,72800
C00018=-32653,74091,20382,11263,-42915,-12399
C00019=-21246,72181,-19662,-68362,-79320,72633
C00020=-32747,73402,19549,11261,-42747,-12378
C00021=-21145,72544,-18776,-68375,-79409,72480
C00022=-32852,72649,18640,11259,-42565,-12355
C00023=-21036,72948,-17795,-68388,-79508,72311
C00024=-32948,71967,17820,11256,-42402,-12334
C00025=-20937,73318,-16897,-68399,-79598,72157
C00026=-33054,71222,16925,11252,-42224,-12309
C00027=-20829,73729,-15902,-68412,-79697,71986
C00028=-33150,70547,16117,11248,-42064,-12287
C00029=-20732,74107,-14991,-68422,-79788,71830
C00030=-33257,69809,15235,11243,-41890,-12261
C00031=-20626,74526,-13983,-68434,-79888,71658
C00032=-33355,69141,14439,11238,-41734,-12237
C00033=-20531,74910,-13059,-68443,-79980,71501
C00034=-33464,68410,13569,11232,-41564,-12211
C00035=-20427,75337,-12035,-68454,-80081,71327
C00036=-33563,67748,12783,11226,-41411,-12186
C00037=-20334,75729,-11097,-68463,-80173,71168
C00038=-33673,67024,11926,11218,-41245,-12158
C00039=-20232,76165,-10058,-68472,-80275,70992
EC00000=-29914,123904
EC00001=-29914,123904
EC00002=-29914,123904
EC00003=-29914,123904
EC00004=-29914,123904
EC00005=-29914,123904
EC00006=-29914,123904
EC00007=-29914,123904
EC00008=-29914,123904
EC00009=-29914,123904
EC00010=-29914,123904
EC00011=-29914,123904
EC00012=-29914,123904
EC00013=-29914,123904
EC00014=-29914,123904
EC00015=-29914,123904
EC00016=-29914,123904
EC00017=-29914,123904
EC00018=-29914,123904
EC00019=-29914,123904
//INST
///DATE 2023/07/26 11:20
///ATTR SC,RW
///GROUP1 RB1,ST1
///GROUP2 RB2
NOP
MOVJ C00000 EC00000 VJ=1.0 +MOVJ C00001 VJ=1.0
ARCON ASF#(200)
MOVL C00002 EC00001 V=5.0 +MOVL C00003 V=5.0
MOVL C00004 EC00002 V=5.0 +MOVL C00005 V=5.0
MOVL C00006 EC00003 V=5.0 +MOVL C00007 V=5.0
MOVL C00008 EC00004 V=5.0 +MOVL C00009 V=5.0
MOVL C00010 EC00005 V=5.0 +MOVL C00011 V=5.0
MOVL C00012 EC00006 V=5.0 +MOVL C00013 V=5.0
MOVL C00014 EC00007 V=5.0 +MOVL C00015 V=5.0
MOVL C00016 EC00008 V=5.0 +MOVL C00017 V=5.0
MOVL C00018 EC00009 V=5.0 +MOVL C00019 V=5.0
MOVL C00020 EC00010 V=5.0 +MOVL C00021 V=5.0
MOVL C00022 EC00011 V=5.0 +MOVL C00023 V=5.0
MOVL C00024 EC00012 V=5.0 +MOVL C00025 V=5.0
MOVL C00026 EC00013 V=5.0 +MOVL C00027 V=5.0
MOVL C00028 EC00014 V=5.0 +MOVL C00029 V=5.0
MOVL C00030 EC00015 V=5.0 +MOVL C00031 V=5.0
MOVL C00032 EC00016 V=5.0 +MOVL C00033 V=5.0
MOVL C00034 EC00017 V=5.0 +MOVL C00035 V=5.0
MOVL C00036 EC00018 V=5.0 +MOVL C00037 V=5.0
MOVL C00038 EC00019 V=5.0 +MOVL C00039 V=5.0
ARCOF
END
