/JOB
//NAME AAA
//POS
///NPOS 72,0,72,0,0,0
///TOOL 12
///POSTYPE PULSE
///PULSE
C00000=-26805,67032,13711,13454,-43250,-14971
C00001=-26837,66758,13387,13457,-43189,-14966
C00002=-26869,66484,13065,13460,-43127,-14961
C00003=-26902,66210,12743,13463,-43067,-14956
C00004=-26934,65937,12422,13466,-43006,-14951
C00005=-26967,65664,12102,13468,-42946,-14946
C00006=-26999,65392,11782,13471,-42886,-14940
C00007=-27032,65120,11464,13474,-42826,-14935
C00008=-27065,64849,11146,13476,-42767,-14930
C00009=-27098,64578,10829,13479,-42707,-14924
C00010=-27130,64307,10513,13481,-42648,-14919
C00011=-27163,64037,10197,13484,-42590,-14913
C00012=-27193,63794,9914,13486,-42537,-14908
C00013=-26788,66917,13536,13471,-43205,-14985
C00014=-26819,66642,13210,13475,-43143,-14981
C00015=-26866,66230,12724,13480,-43051,-14974
C00016=-26897,65956,12400,13484,-42989,-14970
C00017=-26928,65683,12078,13488,-42928,-14966
C00018=-26959,65410,11756,13491,-42867,-14961
C00019=-26990,65137,11435,13495,-42807,-14957
C00020=-27022,64865,11115,13498,-42746,-14952
C00021=-27053,64593,10796,13501,-42686,-14948
C00022=-27085,64322,10477,13505,-42627,-14943
C00023=-27116,64051,10159,13508,-42567,-14938
C00024=-27142,63834,9906,13510,-42520,-14934
C00025=-26815,66908,13554,13458,-43216,-14971
C00026=-26845,66633,13228,13462,-43154,-14967
C00027=-26876,66358,12902,13466,-43092,-14963
C00028=-26906,66083,12577,13470,-43030,-14959
C00029=-26952,65673,12092,13476,-42938,-14953
C00030=-26983,65399,11769,13480,-42877,-14949
C00031=-27014,65126,11447,13483,-42816,-14945
C00032=-27044,64854,11126,13487,-42755,-14941
C00033=-27075,64582,10806,13491,-42695,-14936
C00034=-27106,64310,10486,13494,-42635,-14932
C00035=-27137,64039,10168,13498,-42575,-14927
C00036=-27159,63849,9945,13500,-42533,-14924
C00037=-26797,66809,13403,13474,-43178,-14985
C00038=-26828,66535,13079,13478,-43116,-14981
C00039=-26859,66261,12755,13482,-43055,-14977
C00040=-26891,65987,12432,13485,-42994,-14972
C00041=-26922,65713,12110,13489,-42933,-14968
C00042=-26954,65440,11788,13492,-42872,-14963
C00043=-27001,65032,11308,13497,-42781,-14956
C00044=-27033,64760,10988,13500,-42721,-14951
C00045=-27064,64489,10670,13503,-42662,-14946
C00046=-27096,64217,10352,13507,-42602,-14941
C00047=-27128,63947,10035,13509,-42543,-14937
C00048=-27147,63785,9845,13511,-42507,-14933
C00049=-26813,66798,13408,13467,-43185,-14977
C00050=-26844,66523,13083,13471,-43122,-14973
C00051=-26874,66248,12758,13475,-43061,-14969
C00052=-26905,65974,12434,13478,-42999,-14965
C00053=-26936,65700,12110,13482,-42938,-14961
C00054=-26967,65427,11788,13486,-42877,-14956
C00055=-26998,65154,11466,13490,-42816,-14952
C00056=-27029,64882,11146,13493,-42755,-14948
C00057=-27075,64474,10666,13498,-42665,-14941
C00058=-27107,64203,10347,13502,-42605,-14936
C00059=-27138,63932,10029,13505,-42546,-14932
C00060=-26826,67008,13705,13444,-43255,-14960
C00061=-26858,66734,13382,13447,-43194,-14955
C00062=-26891,66460,13059,13450,-43133,-14950
C00063=-26923,66187,12738,13453,-43072,-14945
C00064=-26956,65914,12417,13456,-43012,-14940
C00065=-26989,65641,12097,13458,-42952,-14935
C00066=-27021,65369,11778,13461,-42892,-14930
C00067=-27054,65097,11460,13464,-42832,-14924
C00068=-27087,64826,11143,13466,-42773,-14919
C00069=-27120,64555,10826,13468,-42714,-14913
C00070=-27153,64285,10510,13471,-42655,-14907
C00071=-27216,63772,9912,13475,-42544,-14897
EC00000=25792,414089
EC00001=25792,414089
EC00002=25792,414089
EC00003=25792,414089
EC00004=25792,414089
EC00005=25792,414089
EC00006=25792,414089
EC00007=25792,414089
EC00008=25792,414089
EC00009=25792,414089
EC00010=25792,414089
EC00011=25792,414089
EC00012=25792,414089
EC00013=26326,498075
EC00014=26326,498075
EC00015=26326,498075
EC00016=26326,498075
EC00017=26326,498075
EC00018=26326,498075
EC00019=26326,498075
EC00020=26326,498075
EC00021=26326,498075
EC00022=26326,498075
EC00023=26326,498075
EC00024=26326,498075
EC00025=26141,581235
EC00026=26141,581235
EC00027=26141,581235
EC00028=26141,581235
EC00029=26141,581235
EC00030=26141,581235
EC00031=26141,581235
EC00032=26141,581235
EC00033=26141,581235
EC00034=26141,581235
EC00035=26141,581235
EC00036=26141,581235
EC00037=26431,663005
EC00038=26431,663005
EC00039=26431,663005
EC00040=26431,663005
EC00041=26431,663005
EC00042=26431,663005
EC00043=26431,663005
EC00044=26431,663005
EC00045=26431,663005
EC00046=26431,663005
EC00047=26431,663005
EC00048=26431,663005
EC00049=26207,746218
EC00050=26207,746218
EC00051=26207,746218
EC00052=26207,746218
EC00053=26207,746218
EC00054=26207,746218
EC00055=26207,746218
EC00056=26207,746218
EC00057=26207,746218
EC00058=26207,746218
EC00059=26207,746218
EC00060=25561,826950
EC00061=25561,826950
EC00062=25561,826950
EC00063=25561,826950
EC00064=25561,826950
EC00065=25561,826950
EC00066=25561,826950
EC00067=25561,826950
EC00068=25561,826950
EC00069=25561,826950
EC00070=25561,826950
EC00071=25561,826950
//INST
///DATE 2023/08/10 15:01
///ATTR SC,RW
///GROUP1 RB1
///GROUP2 ST1
NOP
MOVJ C00000 VJ=1.0 +MOVJ EC00000 VJ=10.0
ARCON ASF#(200)
MOVL C00001 V=4.0 +MOVJ EC00001 VJ=50.0
MOVL C00002 V=4.0 +MOVJ EC00002 VJ=50.0
MOVL C00003 V=4.0 +MOVJ EC00003 VJ=50.0
MOVL C00004 V=4.0 +MOVJ EC00004 VJ=50.0
MOVL C00005 V=4.0 +MOVJ EC00005 VJ=50.0
MOVL C00006 V=4.0 +MOVJ EC00006 VJ=50.0
MOVL C00007 V=4.0 +MOVJ EC00007 VJ=50.0
MOVL C00008 V=4.0 +MOVJ EC00008 VJ=50.0
MOVL C00009 V=4.0 +MOVJ EC00009 VJ=50.0
MOVL C00010 V=4.0 +MOVJ EC00010 VJ=50.0
MOVL C00011 V=4.0 +MOVJ EC00011 VJ=50.0
MOVL C00012 V=4.0 +MOVJ EC00012 VJ=50.0
MOVL C00013 V=66.1 +MOVJ EC00013 VJ=50.0
MOVL C00014 V=4.0 +MOVJ EC00014 VJ=50.0
MOVL C00015 V=4.0 +MOVJ EC00015 VJ=50.0
MOVL C00016 V=4.0 +MOVJ EC00016 VJ=50.0
MOVL C00017 V=4.0 +MOVJ EC00017 VJ=50.0
MOVL C00018 V=4.0 +MOVJ EC00018 VJ=50.0
MOVL C00019 V=4.0 +MOVJ EC00019 VJ=50.0
MOVL C00020 V=4.0 +MOVJ EC00020 VJ=50.0
MOVL C00021 V=4.0 +MOVJ EC00021 VJ=50.0
MOVL C00022 V=4.0 +MOVJ EC00022 VJ=50.0
MOVL C00023 V=4.0 +MOVJ EC00023 VJ=50.0
MOVL C00024 V=4.0 +MOVJ EC00024 VJ=50.0
MOVL C00025 V=60.4 +MOVJ EC00025 VJ=50.0
MOVL C00026 V=4.0 +MOVJ EC00026 VJ=50.0
MOVL C00027 V=4.0 +MOVJ EC00027 VJ=50.0
MOVL C00028 V=4.0 +MOVJ EC00028 VJ=50.0
MOVL C00029 V=4.0 +MOVJ EC00029 VJ=50.0
MOVL C00030 V=4.0 +MOVJ EC00030 VJ=50.0
MOVL C00031 V=4.0 +MOVJ EC00031 VJ=50.0
MOVL C00032 V=4.0 +MOVJ EC00032 VJ=50.0
MOVL C00033 V=4.0 +MOVJ EC00033 VJ=50.0
MOVL C00034 V=4.0 +MOVJ EC00034 VJ=50.0
MOVL C00035 V=4.0 +MOVJ EC00035 VJ=50.0
MOVL C00036 V=4.0 +MOVJ EC00036 VJ=50.0
MOVL C00037 V=54.0 +MOVJ EC00037 VJ=50.0
MOVL C00038 V=4.0 +MOVJ EC00038 VJ=50.0
MOVL C00039 V=4.0 +MOVJ EC00039 VJ=50.0
MOVL C00040 V=4.0 +MOVJ EC00040 VJ=50.0
MOVL C00041 V=4.0 +MOVJ EC00041 VJ=50.0
MOVL C00042 V=4.0 +MOVJ EC00042 VJ=50.0
MOVL C00043 V=4.0 +MOVJ EC00043 VJ=50.0
MOVL C00044 V=4.0 +MOVJ EC00044 VJ=50.0
MOVL C00045 V=4.0 +MOVJ EC00045 VJ=50.0
MOVL C00046 V=4.0 +MOVJ EC00046 VJ=50.0
MOVL C00047 V=4.0 +MOVJ EC00047 VJ=50.0
MOVL C00048 V=4.0 +MOVJ EC00048 VJ=50.0
MOVL C00049 V=49.9 +MOVJ EC00049 VJ=50.0
MOVL C00050 V=4.0 +MOVJ EC00050 VJ=50.0
MOVL C00051 V=4.0 +MOVJ EC00051 VJ=50.0
MOVL C00052 V=4.0 +MOVJ EC00052 VJ=50.0
MOVL C00053 V=4.0 +MOVJ EC00053 VJ=50.0
MOVL C00054 V=4.0 +MOVJ EC00054 VJ=50.0
MOVL C00055 V=4.0 +MOVJ EC00055 VJ=50.0
MOVL C00056 V=4.0 +MOVJ EC00056 VJ=50.0
MOVL C00057 V=4.0 +MOVJ EC00057 VJ=50.0
MOVL C00058 V=4.0 +MOVJ EC00058 VJ=50.0
MOVL C00059 V=4.0 +MOVJ EC00059 VJ=50.0
MOVL C00060 V=67.0 +MOVJ EC00060 VJ=50.0
MOVL C00061 V=4.0 +MOVJ EC00061 VJ=50.0
MOVL C00062 V=4.0 +MOVJ EC00062 VJ=50.0
MOVL C00063 V=4.0 +MOVJ EC00063 VJ=50.0
MOVL C00064 V=4.0 +MOVJ EC00064 VJ=50.0
MOVL C00065 V=4.0 +MOVJ EC00065 VJ=50.0
MOVL C00066 V=4.0 +MOVJ EC00066 VJ=50.0
MOVL C00067 V=4.0 +MOVJ EC00067 VJ=50.0
MOVL C00068 V=4.0 +MOVJ EC00068 VJ=50.0
MOVL C00069 V=4.0 +MOVJ EC00069 VJ=50.0
MOVL C00070 V=4.0 +MOVJ EC00070 VJ=50.0
MOVL C00071 V=4.0 +MOVJ EC00071 VJ=50.0
ARCOF
END
